%
(1001)
(T125  D=2.5 CR=0. TAPER=118DEG - ZMIN=-9. - DRILL)
N10 G90 G94 G17 G91.1
N15 G21
N20 G53 G0 Z0.
(DRILL7 2)
N25 M9
N30 T125 M6
N35 S3200 M3
N40 G54
N45 M9
N55 G0 X-57.5 Y-235.
N60 G43 Z10. H0
N70 G0 Z5.
N75 Z2.
N80 G1 Z-1. F50.
N85 G0 Z1.
N90 G1 Z-2. F50.
N95 G0 Z0.
N100 G1 Z-3. F50.
N105 G0 Z-1.
N110 G1 Z-4. F50.
N115 G0 Z-2.
N120 G1 Z-5. F50.
N125 G0 Z-3.
N130 G1 Z-6. F50.
N135 G0 Z5.
N140 Z-4.
N145 G1 Z-7. F50.
N150 G0 Z-5.
N155 G1 Z-8. F50.
N160 G0 Z-6.
N165 G1 Z-9. F50.
N170 G0 Z5.
N175 X-2.5
N180 Z2.
N185 G1 Z-1. F50.
N190 G0 Z1.
N195 G1 Z-2. F50.
N200 G0 Z0.
N205 G1 Z-3. F50.
N210 G0 Z-1.
N215 G1 Z-4. F50.
N220 G0 Z-2.
N225 G1 Z-5. F50.
N230 G0 Z-3.
N235 G1 Z-6. F50.
N240 G0 Z5.
N245 Z-4.
N250 G1 Z-7. F50.
N255 G0 Z-5.
N260 G1 Z-8. F50.
N265 G0 Z-6.
N270 G1 Z-9. F50.
N275 G0 Z5.
N280 Y-155.
N285 Z2.
N290 G1 Z-1. F50.
N295 G0 Z1.
N300 G1 Z-2. F50.
N305 G0 Z0.
N310 G1 Z-3. F50.
N315 G0 Z-1.
N320 G1 Z-4. F50.
N325 G0 Z-2.
N330 G1 Z-5. F50.
N335 G0 Z-3.
N340 G1 Z-6. F50.
N345 G0 Z5.
N350 Z-4.
N355 G1 Z-7. F50.
N360 G0 Z-5.
N365 G1 Z-8. F50.
N370 G0 Z-6.
N375 G1 Z-9. F50.
N380 G0 Z5.
N385 X-57.5
N390 Z2.
N395 G1 Z-1. F50.
N400 G0 Z1.
N405 G1 Z-2. F50.
N410 G0 Z0.
N415 G1 Z-3. F50.
N420 G0 Z-1.
N425 G1 Z-4. F50.
N430 G0 Z-2.
N435 G1 Z-5. F50.
N440 G0 Z-3.
N445 G1 Z-6. F50.
N450 G0 Z5.
N455 Z-4.
N460 G1 Z-7. F50.
N465 G0 Z-5.
N470 G1 Z-8. F50.
N475 G0 Z-6.
N480 G1 Z-9. F50.
N485 G0 Z5.
N490 X-2.5 Y-75.
N495 Z2.
N500 G1 Z-1. F50.
N505 G0 Z1.
N510 G1 Z-2. F50.
N515 G0 Z0.
N520 G1 Z-3. F50.
N525 G0 Z-1.
N530 G1 Z-4. F50.
N535 G0 Z-2.
N540 G1 Z-5. F50.
N545 G0 Z-3.
N550 G1 Z-6. F50.
N555 G0 Z5.
N560 Z-4.
N565 G1 Z-7. F50.
N570 G0 Z-5.
N575 G1 Z-8. F50.
N580 G0 Z-6.
N585 G1 Z-9. F50.
N590 G0 Z5.
N595 X-57.5
N600 Z2.
N605 G1 Z-1. F50.
N610 G0 Z1.
N615 G1 Z-2. F50.
N620 G0 Z0.
N625 G1 Z-3. F50.
N630 G0 Z-1.
N635 G1 Z-4. F50.
N640 G0 Z-2.
N645 G1 Z-5. F50.
N650 G0 Z-3.
N655 G1 Z-6. F50.
N660 G0 Z5.
N665 Z-4.
N670 G1 Z-7. F50.
N675 G0 Z-5.
N680 G1 Z-8. F50.
N685 G0 Z-6.
N690 G1 Z-9. F50.
N695 G0 Z5.
N700 Y-66.
N705 Z2.
N710 G1 Z-1. F50.
N715 G0 Z1.
N720 G1 Z-2. F50.
N725 G0 Z0.
N730 G1 Z-3. F50.
N735 G0 Z-1.
N740 G1 Z-4. F50.
N745 G0 Z-2.
N750 G1 Z-5. F50.
N755 G0 Z-3.
N760 G1 Z-6. F50.
N765 G0 Z5.
N770 Z-4.
N775 G1 Z-7. F50.
N780 G0 Z-5.
N785 G1 Z-8. F50.
N790 G0 Z-6.
N795 G1 Z-9. F50.
N800 G0 Z5.
N805 Y-51.
N810 Z2.
N815 G1 Z-1. F50.
N820 G0 Z1.
N825 G1 Z-2. F50.
N830 G0 Z0.
N835 G1 Z-3. F50.
N840 G0 Z-1.
N845 G1 Z-4. F50.
N850 G0 Z-2.
N855 G1 Z-5. F50.
N860 G0 Z-3.
N865 G1 Z-6. F50.
N870 G0 Z5.
N875 Z-4.
N880 G1 Z-7. F50.
N885 G0 Z-5.
N890 G1 Z-8. F50.
N895 G0 Z-6.
N900 G1 Z-9. F50.
N905 G0 Z5.
N910 Y-36.
N915 Z2.
N920 G1 Z-1. F50.
N925 G0 Z1.
N930 G1 Z-2. F50.
N935 G0 Z0.
N940 G1 Z-3. F50.
N945 G0 Z-1.
N950 G1 Z-4. F50.
N955 G0 Z-2.
N960 G1 Z-5. F50.
N965 G0 Z-3.
N970 G1 Z-6. F50.
N975 G0 Z5.
N980 Z-4.
N985 G1 Z-7. F50.
N990 G0 Z-5.
N995 G1 Z-8. F50.
N1000 G0 Z-6.
N1005 G1 Z-9. F50.
N1010 G0 Z5.
N1015 Y-21.
N1020 Z2.
N1025 G1 Z-1. F50.
N1030 G0 Z1.
N1035 G1 Z-2. F50.
N1040 G0 Z0.
N1045 G1 Z-3. F50.
N1050 G0 Z-1.
N1055 G1 Z-4. F50.
N1060 G0 Z-2.
N1065 G1 Z-5. F50.
N1070 G0 Z-3.
N1075 G1 Z-6. F50.
N1080 G0 Z5.
N1085 Z-4.
N1090 G1 Z-7. F50.
N1095 G0 Z-5.
N1100 G1 Z-8. F50.
N1105 G0 Z-6.
N1110 G1 Z-9. F50.
N1115 G0 Z5.
N1120 Y-6.
N1125 Z2.
N1130 G1 Z-1. F50.
N1135 G0 Z1.
N1140 G1 Z-2. F50.
N1145 G0 Z0.
N1150 G1 Z-3. F50.
N1155 G0 Z-1.
N1160 G1 Z-4. F50.
N1165 G0 Z-2.
N1170 G1 Z-5. F50.
N1175 G0 Z-3.
N1180 G1 Z-6. F50.
N1185 G0 Z5.
N1190 Z-4.
N1195 G1 Z-7. F50.
N1200 G0 Z-5.
N1205 G1 Z-8. F50.
N1210 G0 Z-6.
N1215 G1 Z-9. F50.
N1220 G0 Z5.
N1225 Z10.
N1235 M9
N1240 G53 Z0.
N1245 M30
%
