%
(1001)
(T142  D=4.2 CR=0. TAPER=118DEG - ZMIN=-7.262 - DRILL)
N10 G90 G94 G17 G91.1
N15 G21
N20 G53 G0 Z0.
(DRILL2)
N25 M9
N30 T142 M6
N35 S2500 M3
N40 G54
N45 M9
N55 G0 X-30. Y-30.
N60 G43 Z4. H0
N70 G0 Z2.
N75 G98 G83 X-30. Y-30. Z-7.262 R2. Q3. F100.
N80 Y-68.
N85 Y-83.
N90 Y-98.
N95 Y-113.
N100 Y-128.
N105 X-49. Y-138.
N110 X-11.
N115 Y-177.
N120 X-30. Y-157.5
N125 X-49. Y-177.
N130 G80
N135 G0 Z4.
N145 M9
N150 G53 Z0.
N155 M30
%
