%
(DRILL-BOT.NGC)
(T142  D=4.2 CR=0. TAPER=118DEG - ZMIN=-7.262 - DRILL)
N10 G90 G94 G17 G91.1
N15 G21
N20 G53 G0 Z0.
(DRILL2 2)
N25 M9
N30 T142 M6
N35 S2500 M3
N40 G54
N45 M9
N55 G0 X-3.57 Y-24.5
N60 G43 Z4. H0
N70 G0 Z2.
N75 G98 G83 X-3.57 Y-24.5 Z-7.262 R2. Q3. F100.
N80 X-36.5
N85 Y-137.5
N90 X-3.57
N95 X-19. Y-153.
N100 X-3.57 Y-168.5
N105 X-36.5
N110 G80
N115 G0 Z4.
N125 M9
N130 G53 Z0.
N135 M30
%
