%
(1001)
(T142  D=4.2 CR=0. TAPER=118DEG - ZMIN=-3.562 - DRILL)
N10 G90 G94 G17 G91.1
N15 G21
N20 G53 G0 Z0.
(DRILL2 3)
N25 M9
N30 T142 M6
N35 S2500 M3
N40 G54
N45 M9
N55 G0 X-17.5 Y-143.5
N60 G43 Z7.7 H0
N70 G0 Z5.7
N75 G98 G83 X-17.5 Y-143.5 Z-3.562 R5.7 Q3. F100.
N80 X-19. Y-163.
N85 X0. Y-182.5
N90 X19. Y-163.
N95 X17.5 Y-143.5
N100 X19. Y-202.
N105 X0. Y-212.
N110 X-19. Y-202.
N115 G80
N120 G0 Z7.7
N130 M9
N135 G53 Z0.
N140 M30
%
