%
(1001)
(T142  D=4.2 CR=0. TAPER=118DEG - ZMIN=-7.262 - DRILL)
N10 G90 G94 G17 G91.1
N15 G21
N20 G53 G0 Z0.
(DRILL2 4)
N25 M9
N30 T142 M6
N35 S2500 M3
N40 G54
N45 M9
N55 G0 X0. Y-15.
N60 G43 Z4. H0
N70 G0 Z2.
N75 G98 G83 X0. Y-15. Z-7.262 R2. Q3. F100.
N80 Y-30.
N85 Y-45.
N90 Y-60.
N95 Y-88.
N100 X16.5 Y-99.341
N105 X-19.316 Y-162.665
N110 G80
N115 G0 Z4.
N125 M9
N130 G53 Z0.
N135 M30
%
