%
(1001)
(T1  D=6. CR=0. - ZMIN=-6. - FLAT END MILL)
N10 G90 G94 G17 G91.1
N15 G21
N20 G53 G0 Z0.
(FACE1)
N25 M9
N30 T1 M6
N35 S3200 M3
N40 G54
N45 M8
N55 G0 X19.288 Y-12.236
N60 G43 Z7. H1
N65 #100=330. (CUTTING)
N70 #102=330. (FINISH)
N75 #103=200. (ENTRY)
N80 #104=200. (EXIT)
N85 G0 Z5.
N90 G1 Z1.8 F#103
N95 G18 G3 X17.288 Z-0.2 I-2. K0.
N100 G1 X16.988 F#100
N105 X-16.988 F#102
N110 X-17. F#100
N115 G17 G2 Y-8.511 I0. J1.862
N120 G1 X17. F#102
N125 G3 Y-4.787 I0. J1.862 F#100
N130 G1 X-17. F#102
N135 G2 Y-1.063 I0. J1.862 F#100
N140 G1 X17. F#102
N145 G3 Y2.661 I0. J1.862 F#100
N150 G1 X-17. F#102
N155 G2 Y6.386 I0. J1.862 F#100
N160 G1 X17. F#102
N165 G3 Y10.11 I0. J1.862 F#100
N170 G1 X-17. F#102
N175 G18 G3 X-19. Z1.8 I0. K2. F#104
N180 G0 Z7.
N185 G17
(2D POCKET1)
N190 M8
N195 G0 X2.494 Y-1.251
N200 #100=330. (CUTTING)
N205 #103=200. (ENTRY)
N210 #104=200. (EXIT)
N215 #106=82.5 (REDUCED)
N220 #107=270. (RAMPING)
N225 Z6.
N230 Z5.
N235 G1 Z1.5 F#103
N240 S3000
N245 X2.509 Y-1.245 Z1.373 F#107
N250 X2.553 Y-1.227 Z1.255
N255 X2.623 Y-1.195 Z1.152
N260 X2.711 Y-1.15 Z1.073
N265 X2.812 Y-1.091 Z1.021
N270 X2.917 Y-1.021 Z1.
N275 G3 X0.696 Y2.05 Z0.792 I-1.11 J1.536
N280 X2.917 Y-1.021 Z0.584 I1.11 J-1.536
N285 X0.696 Y2.05 Z0.376 I-1.11 J1.536
N290 X2.917 Y-1.021 Z0.168 I1.11 J-1.536
N295 X0.696 Y2.05 Z-0.039 I-1.11 J1.536
N300 X2.917 Y-1.021 Z-0.247 I1.11 J-1.536
N305 X0.696 Y2.05 Z-0.455 I-1.11 J1.536
N310 X2.917 Y-1.021 Z-0.663 I1.11 J-1.536
N315 X0.696 Y2.05 Z-0.871 I-1.11 J1.536
N320 X2.917 Y-1.021 Z-1.079 I1.11 J-1.536
N325 X0.696 Y2.05 Z-1.287 I-1.11 J1.536
N330 X2.917 Y-1.021 Z-1.495 I1.11 J-1.536
N335 X0.696 Y2.05 Z-1.703 I-1.11 J1.536
N340 X2.917 Y-1.021 Z-1.911 I1.11 J-1.536
N345 X0.696 Y2.05 Z-2.118 I-1.11 J1.536
N350 X-0.011 Y-0.023 Z-2.2 I1.11 J-1.536
N355 S3200
N360 G1 X-0.005 Y-0.043 F#106
N365 X0.001 Y-0.056
N370 X0.008 Y-0.067
N375 X0.018 Y-0.076
N380 X0.027 Y-0.082
N385 X0.042 Y-0.09
N390 X0.059 Y-0.096
N395 X0.076 Y-0.099
N400 X0.088
N405 G3 X0.163 Y-0.079 I0.005 J0.131
N410 G1 X0.172 Y-0.073
N415 G3 X0.234 Y-0.005 I-0.089 J0.143
N420 G1 X0.237 Y0.002
N425 G3 X0.254 Y0.124 I-0.173 J0.086
N430 G1 X0.247 Y0.161 F#100
N435 G3 X0.132 Y0.345 I-0.296 J-0.057
N440 G1 X0.116 Y0.357
N445 G3 X-0.125 Y0.427 I-0.212 J-0.282
N450 G1 X-0.165 Y0.423
N455 G3 X-0.441 Y0.303 I0.038 J-0.462
N460 G1 X-0.45 Y0.295
N465 G3 X-0.602 Y0.02 I0.338 J-0.367
N470 G1 X-0.608 Y-0.013
N475 G3 X-0.56 Y-0.383 I0.589 J-0.111
N480 G1 X-0.553 Y-0.396
N485 G3 X-0.265 Y-0.69 I0.578 J0.278
N490 G1 X-0.227 Y-0.71
N495 G3 X0.284 Y-0.775 I0.346 J0.683
N500 G1 X0.301 Y-0.771
N505 G3 X0.759 Y-0.487 I-0.175 J0.794
N510 G1 X0.777 Y-0.464
N515 G3 X0.975 Y0.095 I-0.698 J0.562
N520 G1 X0.976 Y0.154
N525 G3 X0.505 Y1.016 I-1.018 J0.004
N530 X0.031 Y1.187 I-0.61 J-0.949
N535 G1 X0.02 Y1.188
N540 G3 X-0.504 Y1.133 I-0.142 J-1.168
N545 G1 X-0.526 Y1.126
N550 G3 X-1.283 Y0.419 I0.412 J-1.199
N555 G1 X-1.288 Y0.407
N560 G3 X-1.393 Y-0.14 I1.239 J-0.522
N565 G1 Y-0.15
N570 G3 X-1.264 Y-0.709 I1.391 J0.025
N575 G1 X-1.261 Y-0.717
N580 G3 X-0.9 Y-1.196 I1.296 J0.601
N585 G1 X-0.889 Y-1.205
N590 G3 X-0.32 Y-1.513 I0.978 J1.13
N595 G1 X-0.306 Y-1.517
N600 G3 X0.382 Y-1.555 I0.427 J1.499
N605 G1 X0.39 Y-1.553
N610 G3 X1.042 Y-1.285 I-0.267 J1.574
N615 G1 X1.052 Y-1.278
N620 G3 X1.54 Y-0.737 I-0.95 J1.35
N625 G1 X1.546 Y-0.727
N630 G3 X1.761 Y-0.006 I-1.485 J0.836
N635 G1 X1.762 Y0.006
N640 G3 X1.643 Y0.772 I-1.754 J0.119
N645 G1 X1.638 Y0.784
N650 G3 X1.187 Y1.443 I-1.684 J-0.668
N655 G1 X1.178 Y1.452
N660 G3 X0.467 Y1.865 I-1.27 J-1.367
N665 G1 X0.455 Y1.869
N670 G3 X-0.388 Y1.938 I-0.575 J-1.831
N675 G1 X-0.404 Y1.935
N680 G3 X-1.211 Y1.633 I0.279 J-1.974
N685 G1 X-1.218 Y1.629
N690 G3 X-1.819 Y1.027 I1.108 J-1.705
N695 G1 X-1.822 Y1.021
N700 G3 X-2.126 Y0.229 I1.734 J-1.119
N705 G1 X-2.128 Y0.215
N710 G3 X-2.086 Y-0.661 I2.105 J-0.338
N715 G1 X-2.084 Y-0.672
N720 G3 X-0.97 Y-2.063 I2.114 J0.551
N725 G1 X-0.941 Y-2.078
N730 G3 X-0.097 Y-2.325 I1.067 J2.072
N735 X1.063 Y-2.139 I0.223 J2.319 F#106
N740 G1 X1.074 Y-2.135
N745 G3 X1.919 Y-1.511 I-0.96 J2.185 F#100
N750 G1 X1.927 Y-1.501
N755 G3 X2.434 Y-0.554 I-1.846 J1.596
N760 G1 X2.437 Y-0.542
N765 G3 X2.489 Y0.554 I-2.404 J0.663
N770 G1 X2.487 Y0.566
N775 G3 X2.054 Y1.6 I-2.509 J-0.443
N780 G1 X2.047 Y1.61
N785 G3 X1.194 Y2.374 I-2.119 J-1.508
N790 G1 X1.183 Y2.38
N795 G3 X0.062 Y2.71 I-1.292 J-2.319
N800 G1 X0.051 Y2.711
N805 G3 X-1.127 Y2.524 I-0.175 J-2.7
N810 G1 X-1.151 Y2.514
N815 G3 X-2.739 Y0.88 I1.035 J-2.594
N820 G1 X-2.742 Y0.871
N825 G3 X-2.912 Y-0.296 I2.699 J-0.988
N830 G1 X-2.911 Y-0.306
N835 G3 X-2.593 Y-1.462 I2.917 J0.182
N840 X-1.813 Y-2.418 I2.621 J1.343
N845 G1 X-1.724 Y-2.489
N850 G3 X-0.077 Y-3.141 I1.886 J2.356
N855 X1.095 Y-3.002 I0.239 J3.008 F#106
N860 G1 X1.106 Y-2.999
N865 G3 X1.75 Y-2.707 I-0.988 J3.037 F#100
N870 X2.321 Y-2.276 I-1.643 J2.771
N875 X2.788 Y-1.725 I-2.231 J2.361
N880 X3.124 Y-1.079 I-2.718 J1.828
N885 X3.312 Y-0.37 I-3.079 J1.195
N890 X3.349 Y0.123 I-3.294 J0.493
N895 G1 X3.34 Y0.37
N900 G3 X3.203 Y1.103 I-3.349 J-0.246
N905 X2.906 Y1.794 I-3.239 J-0.984
N910 X2.46 Y2.407 I-2.967 J-1.686
N915 X1.886 Y2.912 I-2.544 J-2.316
N920 X1.21 Y3.281 I-1.988 J-2.841
N925 X0.464 Y3.493 I-1.325 J-3.234
N930 X-0.123 Y3.543 I-0.586 J-3.473
N935 G1 X-0.317 Y3.537
N940 G3 X-1.095 Y3.407 I0.193 J-3.544
N945 X-1.83 Y3.107 I0.975 J-3.44
N950 G1 X-1.842 Y3.101
N955 G3 X-2.984 Y2.121 I1.727 J-3.17
N960 X-3.377 Y1.478 I2.909 J-2.22
N965 X-3.633 Y0.761 I3.323 J-1.59
N970 X-3.737 Y0.001 I3.603 J-0.882
N975 G1 X-3.74 Y-0.124
N980 G3 X-3.684 Y-0.769 I3.735 J0.
N985 X-3.472 Y-1.516 I3.705 J0.646
N990 X-3.109 Y-2.209 I3.518 J1.401
N995 G1 X-3.105 Y-2.215
N1000 G3 X-2.611 Y-2.814 I3.138 J2.083
N1005 G1 X-2.604 Y-2.822
N1010 G3 X-1.991 Y-3.309 I2.573 J2.609
N1015 G1 X-1.598 Y-3.558
N1020 G3 X1.598 Y3.558 I1.598 J3.558
N1025 X-1.598 Y-3.558 I-1.598 J-3.558
N1030 X-1.474 Y-3.595 Z-2.183 I0.205 J0.456 F#104
N1035 X-1.354 Y-3.6 Z-2.133 I0.081 J0.493
N1040 X-1.252 Y-3.581 Z-2.054 I-0.039 J0.498
N1045 X-1.178 Y-3.553 Z-1.95 I-0.141 J0.48
N1050 X-1.134 Y-3.529 Z-1.829 I-0.215 J0.452
N1055 G1 X-1.12 Y-3.52 Z-1.7
N1060 G0 Z6.
(2D CONTOUR5)
N1070 M8
N1075 G0 X-11.2 Y0.
N1080 #100=330. (CUTTING)
N1085 #107=270. (RAMPING)
N1090 Z4.
N1095 Z2.5
N1100 S3000
N1105 G2 X11.2 Z2. I11.2 J0. F#107
N1110 X-11.2 Z1.5 I-11.2 J0.
N1115 X11.2 Z1. I11.2 J0.
N1120 X-11.2 Z0.5 I-11.2 J0.
N1125 X11.2 Z0. I11.2 J0.
N1130 X-11.2 Z-0.5 I-11.2 J0.
N1135 X11.2 Z-1. I11.2 J0.
N1140 X-11.2 Z-1.5 I-11.2 J0.
N1145 X11.2 Z-2. I11.2 J0.
N1150 X-11.2 Z-2.5 I-11.2 J0.
N1155 X11.2 Z-3. I11.2 J0.
N1160 X-11.2 Z-3.5 I-11.2 J0.
N1165 X11.2 Z-4. I11.2 J0.
N1170 X-11.2 Z-4.5 I-11.2 J0.
N1175 X11.2 Z-5. I11.2 J0.
N1180 X-11.2 Z-5.5 I-11.2 J0.
N1185 X11.2 Z-6. I11.2 J0.
N1190 S3200
N1195 X-11.2 I-11.2 J0. F#100
N1200 X11.2 I11.2 J0.
N1205 G0 Z4.
N1215 M9
N1220 G53 Z0.
N1225 M30
%
