%
(1001)
(T5  D=2. CR=0. - ZMIN=-10.2 - FLAT END MILL)
N10 G90 G94 G17 G91.1
N15 G21
N20 G53 G0 Z0.
(FACE1 2)
N25 M9
N30 T5 M6
N35 S3700 M3
N40 G54
N45 M9
N55 G0 X18.254 Y-12.454
N60 G43 Z4. H5
N65 #100=150. (CUTTING)
N70 #102=150. (FINISH)
N75 #103=130. (ENTRY)
N80 #104=150. (EXIT)
N85 G0 Z2.
N90 G1 Z1.8 F#103
N95 G18 G3 X16.254 Z-0.2 I-2. K0.
N100 G1 X16.154 F#100
N105 X-16.154 F#102
N110 X-16.887 F#100
N115 G17 G2 Y-10.923 I0. J0.765
N120 G1 X16.887 F#102
N125 X17. F#100
N130 G3 Y-9.393 I0. J0.765
N135 G1 X-17. F#102
N140 G2 Y-7.862 I0. J0.765 F#100
N145 G1 X17. F#102
N150 G3 Y-6.332 I0. J0.765 F#100
N155 G1 X-17. F#102
N160 G2 Y-4.801 I0. J0.765 F#100
N165 G1 X17. F#102
N170 G3 Y-3.271 I0. J0.765 F#100
N175 G1 X-17. F#102
N180 G2 Y-1.74 I0. J0.765 F#100
N185 G1 X17. F#102
N190 G3 Y-0.21 I0. J0.765 F#100
N195 G1 X-17. F#102
N200 G2 Y1.321 I0. J0.765 F#100
N205 G1 X17. F#102
N210 G3 Y2.851 I0. J0.765 F#100
N215 G1 X-17. F#102
N220 G2 Y4.382 I0. J0.765 F#100
N225 G1 X17. F#102
N230 G3 Y5.912 I0. J0.765 F#100
N235 G1 X-17. F#102
N240 G2 Y7.443 I0. J0.765 F#100
N245 G1 X17. F#102
N250 G3 Y8.973 I0. J0.765 F#100
N255 G1 X-17. F#102
N260 G2 Y10.504 I0. J0.765 F#100
N265 G1 X-16.964
N270 X16.964 F#102
N275 G3 Y12.034 I0. J0.765 F#100
N280 G1 X16.439
N285 X-16.439 F#102
N290 G18 G3 X-18.439 Z1.8 I0. K2. F#104
N295 G0 Z4.
N300 G17
(2D POCKET1 2)
N305 M9
N310 G0 Z6.
N315 X1.429 Y-0.768
N320 #100=150. (CUTTING)
N325 #103=130. (ENTRY)
N330 #104=150. (EXIT)
N335 #106=37.5 (REDUCED)
N340 #107=150. (RAMPING)
N345 Z5.
N350 G1 Z1.499 F#103
N355 S3300
N360 X1.44 Y-0.756 Z1.374 F#107
N365 X1.471 Y-0.721 Z1.257
N370 G3 X1.516 Y-0.662 Z1.155 I-0.65 J0.54
N375 X1.567 Y-0.578 Z1.075 I-0.695 J0.481
N380 X1.614 Y-0.474 Z1.022 I-0.746 J0.398
N385 X1.648 Y-0.355 Z1. I-0.793 J0.293
N390 X-0.005 Y-0.007 Z0.861 I-0.827 J0.174
N395 X1.648 Y-0.355 Z0.722 I0.827 J-0.174
N400 X-0.005 Y-0.007 Z0.583 I-0.827 J0.174
N405 X1.648 Y-0.355 Z0.444 I0.827 J-0.174
N410 X-0.005 Y-0.007 Z0.304 I-0.827 J0.174
N415 X1.648 Y-0.355 Z0.165 I0.827 J-0.174
N420 X-0.005 Y-0.007 Z0.026 I-0.827 J0.174
N425 X1.648 Y-0.355 Z-0.113 I0.827 J-0.174
N430 X-0.005 Y-0.007 Z-0.252 I-0.827 J0.174
N435 X1.648 Y-0.355 Z-0.391 I0.827 J-0.174
N440 X-0.005 Y-0.007 Z-0.53 I-0.827 J0.174
N445 X1.648 Y-0.355 Z-0.669 I0.827 J-0.174
N450 X-0.005 Y-0.007 Z-0.809 I-0.827 J0.174
N455 X1.648 Y-0.355 Z-0.948 I0.827 J-0.174
N460 X-0.005 Y-0.007 Z-1.087 I-0.827 J0.174
N465 X1.648 Y-0.355 Z-1.226 I0.827 J-0.174
N470 X-0.005 Y-0.007 Z-1.365 I-0.827 J0.174
N475 X1.648 Y-0.355 Z-1.504 I0.827 J-0.174
N480 X-0.005 Y-0.007 Z-1.643 I-0.827 J0.174
N485 X1.648 Y-0.355 Z-1.782 I0.827 J-0.174
N490 X-0.005 Y-0.007 Z-1.922 I-0.827 J0.174
N495 X1.648 Y-0.355 Z-2.061 I0.827 J-0.174
N500 X0.994 Y0.647 Z-2.13 I-0.827 J0.174
N505 X-0.006 Y-0.009 Z-2.2 I-0.173 J-0.827
N510 S3700
N515 G1 X-0.008 Y-0.02 F#106
N520 X-0.009 Y-0.032
N525 Y-0.043
N530 X-0.006 Y-0.054
N535 X0. Y-0.069
N540 X0.009 Y-0.083
N545 X0.02 Y-0.094
N550 G3 X0.077 Y-0.118 I0.062 J0.069
N555 G1 X0.097 Y-0.119 F#100
N560 G3 X0.194 Y-0.091 I0.008 J0.151
N565 G1 X0.207 Y-0.082
N570 G3 X0.279 Y0.015 I-0.116 J0.162
N575 G1 X0.286 Y0.035
N580 G3 X0.292 Y0.188 I-0.251 J0.086
N585 G1 X0.287 Y0.207
N590 G3 X0.193 Y0.367 I-0.323 J-0.083
N595 G1 X0.186 Y0.374
N600 G3 X-0.025 Y0.472 I-0.252 J-0.266
N605 G1 X-0.111 Y0.482
N610 G3 X-0.455 Y0.363 I-0.048 J-0.418
N615 G1 X-0.469 Y0.349
N620 G3 X-0.676 Y-0.088 I0.496 J-0.503
N625 G1 X-0.68 Y-0.13
N630 G3 X-0.463 Y-0.698 I0.685 J-0.064
N635 X-0.345 Y-0.787 I0.486 J0.524
N640 G1 X-0.331 Y-0.795
N645 G3 X0.115 Y-0.923 I0.463 J0.771
N650 X0.275 Y-0.913 I0.018 J0.921
N655 X0.436 Y-0.873 I-0.143 J0.934
N660 X0.591 Y-0.805 I-0.31 J0.916
N665 X0.735 Y-0.709 I-0.474 J0.869
N670 X0.864 Y-0.587 I-0.631 J0.793
N675 X0.971 Y-0.442 I-0.776 J0.687
N680 X1.054 Y-0.276 I-0.902 J0.555
N685 X1.108 Y-0.096 I-1.005 J0.4
N690 X1.131 Y0.096 I-1.082 J0.226
N695 G1 X1.132 Y0.133
N700 G3 X1.121 Y0.292 I-1.128 J0.
N705 X1.076 Y0.487 I-1.14 J-0.16
N710 X0.997 Y0.675 I-1.117 J-0.36
N715 X0.884 Y0.85 I-1.059 J-0.557
N720 X0.741 Y1.006 I-0.966 J-0.744
N725 X0.57 Y1.137 I-0.839 J-0.916
N730 X0.375 Y1.239 I-0.682 J-1.065
N735 X0.163 Y1.307 I-0.499 J-1.188
N740 X-0.062 Y1.339 I-0.293 J-1.278
N745 G1 X-0.133 Y1.341
N750 G3 X-0.293 Y1.331 I0. J-1.334
N755 X-0.523 Y1.283 I0.161 J-1.347
N760 X-0.746 Y1.195 I0.395 J-1.318
N765 X-1.135 Y0.909 I0.632 J-1.268
N770 X-1.291 Y0.716 I1.042 J-1.006
N775 X-1.415 Y0.497 I1.215 J-0.827
N780 X-1.5 Y0.256 I1.359 J-0.619
N785 X-1.544 Y0.001 I1.465 J-0.386
N790 X-1.55 Y-0.133 I1.532 J-0.134
N795 G1 X-1.545 Y-0.262
N800 G3 X-1.5 Y-0.525 I1.555 J0.129
N805 X-1.411 Y-0.78 I1.533 J0.396
N810 X-1.277 Y-1.02 I1.465 J0.658
N815 X-1.103 Y-1.236 I1.352 J0.91
N820 G1 X-1.098 Y-1.242
N825 G3 X-0.653 Y-1.571 I1.175 J1.123
N830 X0.135 Y-1.759 I0.788 J1.556
N835 G1 X0.218 Y-1.757
N840 G3 X0.518 Y-1.717 I-0.084 J1.763
N845 X0.811 Y-1.625 I-0.387 J1.746
N850 X1.088 Y-1.482 I-0.687 J1.676
N855 X1.34 Y-1.292 I-0.975 J1.553
N860 X1.559 Y-1.059 I-1.241 J1.381
N865 X1.736 Y-0.789 I-1.476 J1.164
N870 X1.867 Y-0.489 I-1.673 J0.906
N875 X1.945 Y-0.167 I-1.824 J0.616
N880 X1.968 Y0.132 I-1.925 J0.299
N885 G1 Y0.167
N890 G3 X1.933 Y0.504 I-1.971 J-0.033
N895 X1.841 Y0.834 I-1.959 J-0.372
N900 X1.692 Y1.147 I-1.888 J-0.708
N905 X1.489 Y1.433 I-1.759 J-1.031
N910 X1.238 Y1.683 I-1.576 J-1.33
N915 X0.945 Y1.888 I-1.341 J-1.596
N920 X0.618 Y2.043 I-1.061 J-1.821
N925 X0.266 Y2.141 I-0.744 J-1.997
N930 X-0.102 Y2.178 I-0.397 J-2.116
N935 G1 X-0.134
N940 G3 X-0.475 Y2.151 I0. J-2.176
N945 X-0.841 Y2.061 I0.342 J-2.172
N950 X-1.191 Y1.907 I0.714 J-2.101
N955 X-1.791 Y1.434 I1.079 J-1.984
N960 X-2.026 Y1.123 I1.701 J-1.534
N965 X-2.207 Y0.775 I1.954 J-1.236
N970 X-2.328 Y0.397 I2.155 J-0.899
N975 X-2.384 Y0.001 I2.298 J-0.528
N980 G1 X-2.388 Y-0.134
N985 G3 X-2.373 Y-0.403 I2.38 J0.
N990 X-2.293 Y-0.803 I2.387 J0.27
N995 X-2.145 Y-1.187 I2.33 J0.674
N1000 X-1.933 Y-1.544 I2.203 J1.066
N1005 X-1.662 Y-1.864 I2.012 J1.436
N1010 G1 X-1.657 Y-1.868
N1015 G3 X-0.97 Y-2.349 I1.742 J1.757
N1020 X0.134 Y-2.597 I1.104 J2.332
N1025 G1 X0.319 Y-2.591
N1030 G3 X0.76 Y-2.521 I-0.186 J2.6
N1035 X1.187 Y-2.376 I-0.63 J2.553
N1040 X1.586 Y-2.159 I-1.064 J2.43
N1045 X1.945 Y-1.874 I-1.474 J2.233
N1050 X2.254 Y-1.53 I-1.848 J1.966
N1055 X2.501 Y-1.136 I-2.173 J1.637
N1060 X2.679 Y-0.701 I-2.44 J1.255
N1065 X2.782 Y-0.238 I-2.639 J0.829
N1070 X2.807 Y0.133 I-2.764 J0.371
N1075 G1 X2.805 Y0.238
N1080 G3 X2.746 Y0.716 I-2.81 J-0.104
N1085 X2.606 Y1.181 I-2.774 J-0.585
N1090 X2.387 Y1.618 I-2.655 J-1.056
N1095 X2.094 Y2.015 I-2.457 J-1.504
N1100 X1.736 Y2.359 I-2.183 J-1.914
N1105 X1.321 Y2.64 I-1.84 J-2.275
N1110 X0.861 Y2.847 I-1.438 J-2.574
N1115 X0.369 Y2.975 I-0.988 J-2.803
N1120 X-0.132 Y3.017 I-0.501 J-2.952
N1125 G1 X-0.142
N1130 G3 X-0.656 Y2.971 I0.008 J-3.017
N1135 X-1.159 Y2.838 I0.524 J-2.994
N1140 X-1.635 Y2.62 I1.032 J-2.882
N1145 X-2.447 Y1.958 I1.524 J-2.698
N1150 X-2.761 Y1.53 I2.359 J-2.06
N1155 X-3. Y1.053 I2.69 J-1.645
N1160 X-3.156 Y0.538 I2.95 J-1.177
N1165 X-3.224 Y0.001 I3.128 J-0.669
N1170 G1 X-3.227 Y-0.134
N1175 G3 X-3.201 Y-0.544 I3.221 J0.
N1180 X-3.085 Y-1.081 I3.217 J0.411
N1185 X-2.88 Y-1.594 I3.124 J0.952
N1190 X-2.589 Y-2.069 I2.94 J1.474
N1195 X-2.22 Y-2.491 I2.669 J1.961
N1200 X-1.287 Y-3.127 I2.311 J2.388
N1205 X-0.161 Y-3.424 I1.419 J3.104
N1210 X0.422 I0.295 J3.412
N1215 X1.003 Y-3.325 I-0.289 J3.435
N1220 X1.562 Y-3.127 I-0.873 J3.359
N1225 X2.083 Y-2.835 I-1.44 J3.182
N1230 X2.55 Y-2.457 I-1.972 J2.911
N1235 X2.949 Y-2.002 I-2.454 J2.55
N1240 X3.266 Y-1.482 I-2.869 J2.11
N1245 X3.492 Y-0.913 I-3.206 J1.603
N1250 X3.619 Y-0.31 I-3.453 J1.042
N1255 X3.646 Y0.133 I-3.603 J0.443
N1260 G1 X3.642 Y0.31
N1265 G3 X3.559 Y0.929 I-3.648 J-0.176
N1270 X3.37 Y1.528 I-3.588 J-0.798
N1275 X3.082 Y2.09 I-3.421 J-1.404
N1280 X2.699 Y2.598 I-3.153 J-1.976
N1285 X2.233 Y3.036 I-2.789 J-2.498
N1290 X1.697 Y3.391 I-2.339 J-2.953
N1295 X1.104 Y3.651 I-1.814 J-3.327
N1300 X0.472 Y3.808 I-1.231 J-3.608
N1305 X-0.133 Y3.856 I-0.604 J-3.787
N1310 G1 X-0.182
N1315 G3 X-0.838 Y3.791 I0.047 J-3.857
N1320 X-1.477 Y3.615 I0.706 J-3.816
N1325 X-2.08 Y3.332 I1.35 J-3.661
N1330 X-3.103 Y2.483 I1.97 J-3.411
N1335 X-3.496 Y1.937 I3.016 J-2.585
N1340 X-3.792 Y1.331 I3.426 J-2.052
N1345 X-3.984 Y0.679 I3.743 J-1.456
N1350 X-4.064 Y0.001 I3.957 J-0.811
N1355 G1 X-4.066 Y-0.134
N1360 G3 X-4.029 Y-0.685 I4.061 J0.
N1365 X-3.878 Y-1.359 I4.047 J0.552
N1370 X-3.615 Y-2.001 I3.918 J1.231
N1375 X-3.245 Y-2.593 I3.676 J1.881
N1380 X-2.779 Y-3.118 I3.326 J2.486
N1385 X-1.603 Y-3.905 I2.875 J3.022
N1390 X-0.202 Y-4.262 I1.734 J3.876
N1395 X0.525 Y-4.258 I0.336 J4.252
N1400 X1.246 Y-4.129 I-0.392 J4.27
N1405 X1.938 Y-3.878 I-1.116 J4.164
N1410 X2.581 Y-3.512 I-1.816 J3.935
N1415 X3.155 Y-3.039 I-2.47 J3.588
N1420 X3.644 Y-2.473 I-3.059 J3.133
N1425 X4.031 Y-1.829 I-3.565 J2.582
N1430 X4.305 Y-1.125 I-3.972 J1.95
N1435 X4.456 Y-0.381 I-4.267 J1.254
N1440 X4.486 Y0.133 I-4.44 J0.515
N1445 G1 X4.479 Y0.381
N1450 G3 X4.371 Y1.141 I-4.486 J-0.247
N1455 X4.135 Y1.875 I-4.401 J-1.01
N1460 X3.777 Y2.561 I-4.187 J-1.751
N1465 X3.304 Y3.18 I-3.849 J-2.448
N1470 X2.731 Y3.713 I-3.394 J-3.081
N1475 X2.072 Y4.142 I-2.837 J-3.63
N1480 X1.347 Y4.455 I-2.19 J-4.079
N1485 X0.575 Y4.642 I-1.474 J-4.413
N1490 X-0.133 Y4.695 I-0.707 J-4.621
N1495 G1 X-0.221
N1500 G3 X-1.019 Y4.611 I0.087 J-4.697
N1505 X-1.794 Y4.393 I0.887 J-4.637
N1510 X-2.525 Y4.044 I1.669 J-4.439
N1515 X-3.759 Y3.007 I2.415 J-4.123
N1520 X-4.23 Y2.344 I3.672 J-3.11
N1525 X-4.585 Y1.608 I4.162 J-2.46
N1530 X-4.812 Y0.82 I4.537 J-1.734
N1535 X-4.904 Y0.001 I4.786 J-0.952
N1540 G1 X-4.906 Y-0.134
N1545 G3 X-4.857 Y-0.826 I4.902 J0.
N1550 X-4.671 Y-1.636 I4.875 J0.693
N1555 X-4.349 Y-2.408 I4.711 J1.509
N1560 X-3.901 Y-3.118 I4.411 J2.289
N1565 X-3.338 Y-3.745 I3.982 J3.011
N1570 X-2.675 Y-4.271 I3.437 J3.655
N1575 X-1.92 Y-4.683 I2.774 J4.178
N1580 G1 X-1.915 Y-4.685
N1585 G3 X-1.098 Y-4.964 I2.043 J4.646
N1590 X-0.243 Y-5.101 I1.228 J4.932
N1595 X0.628 Y-5.091 I0.377 J5.091
N1600 X1.489 Y-4.933 I-0.495 J5.104
N1605 X2.314 Y-4.629 I-1.359 J4.968
N1610 X3.078 Y-4.189 I-2.192 J4.686
N1615 X3.76 Y-3.622 I-2.968 J4.265
N1620 X4.339 Y-2.945 I-3.665 J3.716
N1625 X4.796 Y-2.176 I-4.26 J3.054
N1630 X5.117 Y-1.338 I-4.737 J2.297
N1635 X5.293 Y-0.453 I-5.08 J1.467
N1640 X5.315 Y0.453 I-5.278 J0.586
N1645 X5.184 Y1.353 I-5.324 J-0.319
N1650 X4.9 Y2.222 I-5.214 J-1.222
N1655 X4.472 Y3.033 I-4.953 J-2.098
N1660 X3.909 Y3.763 I-4.544 J-2.92
N1665 X3.228 Y4.389 I-4. J-3.664
N1670 X2.448 Y4.893 I-3.334 J-4.307
N1675 X1.589 Y5.259 I-2.566 J-4.83
N1680 X0.678 Y5.475 I-1.717 J-5.217
N1685 X-0.133 Y5.535 I-0.811 J-5.455
N1690 G1 X-0.261 Y5.533
N1695 G3 X-1.2 Y5.431 I0.127 J-5.537
N1700 X-2.112 Y5.17 I1.069 J-5.457
N1705 X-2.97 Y4.757 I1.987 J-5.218
N1710 X-4.415 Y3.531 I2.859 J-4.836
N1715 X-4.965 Y2.751 I4.329 J-3.634
N1720 X-5.377 Y1.886 I4.897 J-2.867
N1725 X-5.64 Y0.961 I5.33 J-2.012
N1730 X-5.744 Y0.001 I5.614 J-1.093
N1735 G1 X-5.745 Y-0.134
N1740 G3 X-5.685 Y-0.967 I5.742 J0.
N1745 X-5.463 Y-1.914 I5.704 J0.834
N1750 X-5.084 Y-2.815 I5.505 J1.787
N1755 X-4.557 Y-3.642 I5.146 J2.696
N1760 X-3.897 Y-4.372 I4.639 J3.535
N1765 G1 X-3.856 Y-4.41
N1770 G3 X-3.164 Y-4.953 I3.547 J3.803
N1775 G1 X-3.126 Y-5.004
N1780 G3 X3.126 Y5.004 I3.126 J5.004
N1785 X-3.126 Y-5.004 I-3.126 J-5.004
N1790 X-3.008 Y-5.058 Z-2.183 I0.265 J0.424 F#104
N1795 X-2.89 Y-5.079 Z-2.133 I0.148 J0.478
N1800 X-2.787 Y-5.074 Z-2.054 I0.029 J0.499
N1805 X-2.709 Y-5.056 Z-1.95 I-0.074 J0.494
N1810 X-2.663 Y-5.039 Z-1.829 I-0.151 J0.477
N1815 G1 X-2.647 Y-5.032 Z-1.7
N1820 G0 Z6.
(2D POCKET2 2)
N1830 M9
N1835 G0 X4.32 Y-0.007
N1840 #100=150. (CUTTING)
N1845 #103=130. (ENTRY)
N1850 #104=150. (EXIT)
N1855 #107=150. (RAMPING)
N1860 Z4.
N1865 Z0.8
N1870 G1 Z-1.2 F#103
N1875 S3300
N1880 G3 X5.18 Y0.007 Z-1.247 I0.43 J0.007 F#107
N1885 X4.32 Y-0.007 Z-1.294 I-0.43 J-0.007
N1890 X5.18 Y0.007 Z-1.342 I0.43 J0.007
N1895 X4.32 Y-0.007 Z-1.389 I-0.43 J-0.007
N1900 X5.18 Y0.007 Z-1.436 I0.43 J0.007
N1905 X4.32 Y-0.007 Z-1.483 I-0.43 J-0.007
N1910 X5.18 Y0.007 Z-1.53 I0.43 J0.007
N1915 X4.32 Y-0.007 Z-1.577 I-0.43 J-0.007
N1920 X5.18 Y0.007 Z-1.625 I0.43 J0.007
N1925 X4.32 Y-0.007 Z-1.672 I-0.43 J-0.007
N1930 X5.18 Y0.007 Z-1.719 I0.43 J0.007
N1935 X4.32 Y-0.007 Z-1.766 I-0.43 J-0.007
N1940 X5.18 Y0.007 Z-1.813 I0.43 J0.007
N1945 X4.32 Y-0.007 Z-1.86 I-0.43 J-0.007
N1950 X5.18 Y0.007 Z-1.908 I0.43 J0.007
N1955 X4.32 Y-0.007 Z-1.955 I-0.43 J-0.007
N1960 X5.18 Y0.007 Z-2.002 I0.43 J0.007
N1965 X4.32 Y-0.007 Z-2.049 I-0.43 J-0.007
N1970 X5.18 Y0.007 Z-2.096 I0.43 J0.007
N1975 X4.32 Y-0.007 Z-2.143 I-0.43 J-0.007
N1980 X5.18 Y0.007 Z-2.191 I0.43 J0.007
N1985 X4.32 Y-0.007 Z-2.238 I-0.43 J-0.007
N1990 X5.18 Y0.007 Z-2.285 I0.43 J0.007
N1995 X4.32 Y-0.007 Z-2.332 I-0.43 J-0.007
N2000 X5.18 Y0.007 Z-2.379 I0.43 J0.007
N2005 X4.32 Y-0.007 Z-2.427 I-0.43 J-0.007
N2010 X5.18 Y0.007 Z-2.474 I0.43 J0.007
N2015 X4.32 Y-0.007 Z-2.521 I-0.43 J-0.007
N2020 X5.18 Y0.007 Z-2.568 I0.43 J0.007
N2025 X4.32 Y-0.007 Z-2.615 I-0.43 J-0.007
N2030 X5.18 Y0.007 Z-2.662 I0.43 J0.007
N2035 X4.32 Y-0.007 Z-2.71 I-0.43 J-0.007
N2040 X5.18 Y0.007 Z-2.757 I0.43 J0.007
N2045 X4.32 Y-0.007 Z-2.804 I-0.43 J-0.007
N2050 X5.18 Y0.007 Z-2.851 I0.43 J0.007
N2055 X4.32 Y-0.007 Z-2.898 I-0.43 J-0.007
N2060 X5.18 Y0.007 Z-2.945 I0.43 J0.007
N2065 X4.32 Y-0.007 Z-2.993 I-0.43 J-0.007
N2070 X5.18 Y0.007 Z-3.04 I0.43 J0.007
N2075 X4.32 Y-0.007 Z-3.087 I-0.43 J-0.007
N2080 X5.18 Y0.007 Z-3.134 I0.43 J0.007
N2085 X4.32 Y-0.007 Z-3.181 I-0.43 J-0.007
N2090 X5.18 Y0.007 Z-3.228 I0.43 J0.007
N2095 X4.32 Y-0.007 Z-3.276 I-0.43 J-0.007
N2100 X5.18 Y0.007 Z-3.323 I0.43 J0.007
N2105 X4.32 Y-0.007 Z-3.37 I-0.43 J-0.007
N2110 X5.18 Y0.007 Z-3.417 I0.43 J0.007
N2115 X4.32 Y-0.007 Z-3.464 I-0.43 J-0.007
N2120 X5.18 Y0.007 Z-3.512 I0.43 J0.007
N2125 X4.32 Y-0.007 Z-3.559 I-0.43 J-0.007
N2130 X5.18 Y0.007 Z-3.606 I0.43 J0.007
N2135 X4.32 Y-0.007 Z-3.653 I-0.43 J-0.007
N2140 X5.18 Y0.007 Z-3.7 I0.43 J0.007
N2145 X4.32 Y-0.007 Z-3.747 I-0.43 J-0.007
N2150 X5.18 Y0.007 Z-3.795 I0.43 J0.007
N2155 X4.32 Y-0.007 Z-3.842 I-0.43 J-0.007
N2160 X5.18 Y0.007 Z-3.889 I0.43 J0.007
N2165 X4.32 Y-0.007 Z-3.936 I-0.43 J-0.007
N2170 X5.18 Y0.007 Z-3.983 I0.43 J0.007
N2175 X4.32 Y-0.007 Z-4.03 I-0.43 J-0.007
N2180 X5.18 Y0.007 Z-4.078 I0.43 J0.007
N2185 X4.32 Y-0.007 Z-4.125 I-0.43 J-0.007
N2190 X5.18 Y0.007 Z-4.172 I0.43 J0.007
N2195 X4.32 Y-0.007 Z-4.219 I-0.43 J-0.007
N2200 X5.18 Y0.007 Z-4.266 I0.43 J0.007
N2205 X4.32 Y-0.007 Z-4.313 I-0.43 J-0.007
N2210 X5.18 Y0.007 Z-4.361 I0.43 J0.007
N2215 X4.32 Y-0.007 Z-4.408 I-0.43 J-0.007
N2220 X5.18 Y0.007 Z-4.455 I0.43 J0.007
N2225 X4.32 Y-0.007 Z-4.502 I-0.43 J-0.007
N2230 X5.18 Y0.007 Z-4.549 I0.43 J0.007
N2235 X4.32 Y-0.007 Z-4.597 I-0.43 J-0.007
N2240 X5.18 Y0.007 Z-4.644 I0.43 J0.007
N2245 X4.32 Y-0.007 Z-4.691 I-0.43 J-0.007
N2250 X5.18 Y0.007 Z-4.738 I0.43 J0.007
N2255 X4.32 Y-0.007 Z-4.785 I-0.43 J-0.007
N2260 X5.18 Y0.007 Z-4.832 I0.43 J0.007
N2265 X4.32 Y-0.007 Z-4.88 I-0.43 J-0.007
N2270 X5.18 Y0.007 Z-4.927 I0.43 J0.007
N2275 X4.32 Y-0.007 Z-4.974 I-0.43 J-0.007
N2280 X5.18 Y0.007 Z-5.021 I0.43 J0.007
N2285 X4.32 Y-0.007 Z-5.068 I-0.43 J-0.007
N2290 X5.18 Y0.007 Z-5.115 I0.43 J0.007
N2295 X4.32 Y-0.007 Z-5.163 I-0.43 J-0.007
N2300 X5.18 Y0.007 Z-5.21 I0.43 J0.007
N2305 X4.32 Y-0.007 Z-5.257 I-0.43 J-0.007
N2310 X5.166 Y-0.11 Z-5.3 I0.43 J0.007
N2315 X4.334 Y0.11 I-0.416 J0.11
N2320 Y-0.11 I0.416 J-0.11
N2325 S3700
N2330 G1 X4.345 Y-0.155 F#100
N2335 G2 X3.182 Y-2.963 I-2.596 J-0.57
N2340 G1 X3.143 Y-2.987
N2345 G3 X2.987 Y-3.143 I0.216 J-0.372
N2350 G1 X2.963 Y-3.182
N2355 G2 X0.155 Y-4.345 I-2.239 J1.433
N2360 G1 X0.11 Y-4.334
N2365 G3 X-0.11 I-0.11 J-0.416
N2370 G1 X-0.155 Y-4.345
N2375 G2 X-2.963 Y-3.182 I-0.57 J2.596
N2380 G1 X-2.987 Y-3.143
N2385 G3 X-3.731 Y-3.575 I-0.372 J-0.216
N2390 X-3.44 Y-3.781 I0.372 J0.216
N2395 G1 X-3.409 Y-3.787
N2400 G2 X-0.268 Y-5.088 I-2.126 J-9.575
N2405 G1 X-0.242 Y-5.106
N2410 G3 X0.242 I0.242 J0.356
N2415 G1 X0.268 Y-5.088
N2420 G2 X3.409 Y-3.787 I5.267 J-8.274
N2425 G1 X3.44 Y-3.781
N2430 G3 X3.781 Y-3.44 I-0.081 J0.422
N2435 G1 X3.787 Y-3.409
N2440 G2 X5.088 Y-0.268 I9.575 J-2.126
N2445 G1 X5.106 Y-0.242
N2450 G3 Y0.242 I-0.356 J0.242
N2455 G1 X5.088 Y0.268
N2460 G2 X3.787 Y3.409 I8.274 J5.267
N2465 G1 X3.781 Y3.44
N2470 G3 X3.44 Y3.781 I-0.422 J-0.081
N2475 G1 X3.409 Y3.787
N2480 G2 X0.268 Y5.088 I2.126 J9.575
N2485 G1 X0.242 Y5.106
N2490 G3 X-0.242 I-0.242 J-0.356
N2495 G1 X-0.268 Y5.088
N2500 G2 X-3.409 Y3.787 I-5.267 J8.274
N2505 G1 X-3.44 Y3.781
N2510 G3 X-3.278 Y2.936 I0.081 J-0.422
N2515 X-2.987 Y3.143 I-0.081 J0.422
N2520 G1 X-2.963 Y3.182
N2525 G2 X-0.155 Y4.345 I2.239 J-1.433
N2530 G1 X-0.11 Y4.334
N2535 G3 X0.11 I0.11 J0.416
N2540 G1 X0.155 Y4.345
N2545 G2 X2.963 Y3.182 I0.57 J-2.596
N2550 G1 X2.987 Y3.143
N2555 G3 X3.143 Y2.987 I0.372 J0.216
N2560 G1 X3.182 Y2.963
N2565 G2 X4.345 Y0.155 I-1.433 J-2.239
N2570 G1 X4.334 Y0.11
N2575 X4.528 Y0.059 Z-5.28 F#104
N2580 G0 Z4.
(2D CONTOUR3 2)
N2590 M9
N2595 G0 X5.164 Y-0.281
N2600 #100=150. (CUTTING)
N2605 #103=130. (ENTRY)
N2610 #108=110. (PLUNGE)
N2615 Z4.
N2620 Z0.8
N2625 G1 Z-1.2 F#103
N2630 Z-5.3 F#108
N2635 G3 Y0.281 I-0.414 J0.281 F#100
N2640 G1 X5.147 Y0.305
N2645 G2 X3.856 Y3.424 I8.215 J5.229
N2650 G1 X3.85 Y3.453
N2655 G3 X3.453 Y3.85 I-0.491 J-0.094
N2660 G1 X3.424 Y3.856
N2665 G2 X0.305 Y5.147 I2.111 J9.506
N2670 G1 X0.281 Y5.164
N2675 G3 X-0.281 I-0.281 J-0.414
N2680 G1 X-0.305 Y5.147
N2685 G2 X-3.424 Y3.856 I-5.229 J8.215
N2690 G1 X-3.453 Y3.85
N2695 G3 X-3.265 Y2.868 I0.094 J-0.491
N2700 X-2.926 Y3.108 I-0.094 J0.491
N2705 G1 X-2.904 Y3.144
N2710 G2 X-0.17 Y4.277 I2.18 J-1.395
N2715 G1 X-0.128 Y4.267
N2720 G3 X0.128 I0.128 J0.483
N2725 G1 X0.17 Y4.277
N2730 G2 X2.904 Y3.144 I0.555 J-2.528
N2735 G1 X2.926 Y3.108
N2740 G3 X3.108 Y2.926 I0.432 J0.251
N2745 G1 X3.144 Y2.904
N2750 G2 X4.277 Y0.17 I-1.395 J-2.18
N2755 G1 X4.267 Y0.128
N2760 G3 Y-0.128 I0.483 J-0.128
N2765 G1 X4.277 Y-0.17
N2770 G2 X3.144 Y-2.904 I-2.528 J-0.555
N2775 G1 X3.108 Y-2.926
N2780 G3 X2.926 Y-3.108 I0.251 J-0.432
N2785 G1 X2.904 Y-3.144
N2790 G2 X0.17 Y-4.277 I-2.18 J1.395
N2795 G1 X0.128 Y-4.267
N2800 G3 X-0.128 I-0.128 J-0.483
N2805 G1 X-0.17 Y-4.277
N2810 G2 X-2.904 Y-3.144 I-0.555 J2.528
N2815 G1 X-2.926 Y-3.108
N2820 G3 X-3.791 Y-3.61 I-0.432 J-0.251
N2825 X-3.453 Y-3.85 I0.432 J0.251
N2830 G1 X-3.424 Y-3.856
N2835 G2 X-0.305 Y-5.147 I-2.111 J-9.506
N2840 G1 X-0.281 Y-5.164
N2845 G3 X0.281 I0.281 J0.414
N2850 G1 X0.305 Y-5.147
N2855 G2 X3.424 Y-3.856 I5.229 J-8.215
N2860 G1 X3.453 Y-3.85
N2865 G3 X3.85 Y-3.453 I-0.094 J0.491
N2870 G1 X3.856 Y-3.424
N2875 G2 X5.147 Y-0.305 I9.506 J-2.111
N2880 G1 X5.164 Y-0.281
N2885 G3 Y0.281 I-0.414 J0.281
N2890 G1 X5.147 Y0.305
N2895 G2 X3.856 Y3.424 I8.215 J5.229
N2900 G1 X3.85 Y3.453
N2905 G3 X3.453 Y3.85 I-0.491 J-0.094
N2910 G1 X3.424 Y3.856
N2915 G2 X0.305 Y5.147 I2.111 J9.506
N2920 G1 X0.281 Y5.164
N2925 G3 X-0.281 I-0.281 J-0.414
N2930 G1 X-0.305 Y5.147
N2935 G2 X-3.424 Y3.856 I-5.229 J8.215
N2940 G1 X-3.453 Y3.85
N2945 G3 X-3.265 Y2.868 I0.094 J-0.491
N2950 X-2.926 Y3.108 I-0.094 J0.491
N2955 G1 X-2.904 Y3.144
N2960 G2 X-0.17 Y4.277 I2.18 J-1.395
N2965 G1 X-0.128 Y4.267
N2970 G3 X0.128 I0.128 J0.483
N2975 G1 X0.17 Y4.277
N2980 G2 X2.904 Y3.144 I0.555 J-2.528
N2985 G1 X2.926 Y3.108
N2990 G3 X3.108 Y2.926 I0.432 J0.251
N2995 G1 X3.144 Y2.904
N3000 G2 X4.277 Y0.17 I-1.395 J-2.18
N3005 G1 X4.267 Y0.128
N3010 G3 Y-0.128 I0.483 J-0.128
N3015 G1 X4.277 Y-0.17
N3020 G2 X3.144 Y-2.904 I-2.528 J-0.555
N3025 G1 X3.108 Y-2.926
N3030 G3 X2.926 Y-3.108 I0.251 J-0.432
N3035 G1 X2.904 Y-3.144
N3040 G2 X0.17 Y-4.277 I-2.18 J1.395
N3045 G1 X0.128 Y-4.267
N3050 G3 X-0.128 I-0.128 J-0.483
N3055 G1 X-0.17 Y-4.277
N3060 G2 X-2.904 Y-3.144 I-0.555 J2.528
N3065 G1 X-2.926 Y-3.108
N3070 G3 X-3.791 Y-3.61 I-0.432 J-0.251
N3075 X-3.453 Y-3.85 I0.432 J0.251
N3080 G1 X-3.424 Y-3.856
N3085 G2 X-0.305 Y-5.147 I-2.111 J-9.506
N3090 G1 X-0.281 Y-5.164
N3095 G3 X0.281 I0.281 J0.414
N3100 G1 X0.305 Y-5.147
N3105 G2 X3.424 Y-3.856 I5.229 J-8.215
N3110 G1 X3.453 Y-3.85
N3115 G3 X3.85 Y-3.453 I-0.094 J0.491
N3120 G1 X3.856 Y-3.424
N3125 G2 X5.147 Y-0.305 I9.506 J-2.111
N3130 G1 X5.164 Y-0.281
N3135 G0 Z4.
(2D POCKET3 2)
N3145 M9
N3150 G0 Z6.
N3155 X0.491 Y-0.061
N3160 #100=150. (CUTTING)
N3165 #103=130. (ENTRY)
N3170 #104=150. (EXIT)
N3175 #107=150. (RAMPING)
N3180 Z0.8
N3185 G1 Z-0.702 F#103
N3190 S3300
N3195 X0.493 Y-0.046 Z-0.824 F#107
N3200 G3 X0.495 Y-0.001 Z-0.939 I-0.493 J0.046
N3205 X0.49 Y0.07 Z-1.04 I-0.495 J0.001
N3210 X0.468 Y0.161 Z-1.12 I-0.49 J-0.07
N3215 X0.421 Y0.261 Z-1.174 I-0.468 J-0.161
N3220 X0.345 Y0.355 Z-1.2 I-0.421 J-0.261
N3225 X-0.345 Y-0.355 Z-1.336 I-0.345 J-0.355
N3230 X0.345 Y0.355 Z-1.472 I0.345 J0.355
N3235 X-0.345 Y-0.355 Z-1.608 I-0.345 J-0.355
N3240 X0.345 Y0.355 Z-1.744 I0.345 J0.355
N3245 X-0.345 Y-0.355 Z-1.88 I-0.345 J-0.355
N3250 X0.345 Y0.355 Z-2.016 I0.345 J0.355
N3255 X-0.345 Y-0.355 Z-2.152 I-0.345 J-0.355
N3260 X0.345 Y0.355 Z-2.288 I0.345 J0.355
N3265 X-0.345 Y-0.355 Z-2.424 I-0.345 J-0.355
N3270 X0.345 Y0.355 Z-2.561 I0.345 J0.355
N3275 X-0.345 Y-0.355 Z-2.697 I-0.345 J-0.355
N3280 X0.345 Y0.355 Z-2.833 I0.345 J0.355
N3285 X-0.345 Y-0.355 Z-2.969 I-0.345 J-0.355
N3290 X0.345 Y0.355 Z-3.105 I0.345 J0.355
N3295 X-0.345 Y-0.355 Z-3.241 I-0.345 J-0.355
N3300 X0.345 Y0.355 Z-3.377 I0.345 J0.355
N3305 X-0.345 Y-0.355 Z-3.513 I-0.345 J-0.355
N3310 X0.345 Y0.355 Z-3.649 I0.345 J0.355
N3315 X-0.345 Y-0.355 Z-3.785 I-0.345 J-0.355
N3320 X0.345 Y0.355 Z-3.921 I0.345 J0.355
N3325 X-0.345 Y-0.355 Z-4.057 I-0.345 J-0.355
N3330 X0.345 Y0.355 Z-4.193 I0.345 J0.355
N3335 X-0.345 Y-0.355 Z-4.329 I-0.345 J-0.355
N3340 X0.345 Y0.355 Z-4.465 I0.345 J0.355
N3345 X-0.345 Y-0.355 Z-4.601 I-0.345 J-0.355
N3350 X0.345 Y0.355 Z-4.737 I0.345 J0.355
N3355 X-0.345 Y-0.355 Z-4.873 I-0.345 J-0.355
N3360 X0.345 Y0.355 Z-5.009 I0.345 J0.355
N3365 X-0.345 Y-0.355 Z-5.146 I-0.345 J-0.355
N3370 X0.345 Y0.355 Z-5.282 I0.345 J0.355
N3375 X-0.345 Y-0.355 Z-5.418 I-0.345 J-0.355
N3380 X0.345 Y0.355 Z-5.554 I0.345 J0.355
N3385 X-0.345 Y-0.355 Z-5.69 I-0.345 J-0.355
N3390 X0.345 Y0.355 Z-5.826 I0.345 J0.355
N3395 X-0.345 Y-0.355 Z-5.962 I-0.345 J-0.355
N3400 X0.345 Y0.355 Z-6.098 I0.345 J0.355
N3405 X-0.345 Y-0.355 Z-6.234 I-0.345 J-0.355
N3410 X0.345 Y0.355 Z-6.37 I0.345 J0.355
N3415 X-0.345 Y-0.355 Z-6.506 I-0.345 J-0.355
N3420 X0.345 Y0.355 Z-6.642 I0.345 J0.355
N3425 X-0.345 Y-0.355 Z-6.778 I-0.345 J-0.355
N3430 X0.345 Y0.355 Z-6.914 I0.345 J0.355
N3435 X-0.345 Y-0.355 Z-7.05 I-0.345 J-0.355
N3440 X0.345 Y0.355 Z-7.186 I0.345 J0.355
N3445 X-0.345 Y-0.355 Z-7.322 I-0.345 J-0.355
N3450 X0.345 Y0.355 Z-7.458 I0.345 J0.355
N3455 X-0.345 Y-0.355 Z-7.594 I-0.345 J-0.355
N3460 X0.345 Y0.355 Z-7.731 I0.345 J0.355
N3465 X-0.345 Y-0.355 Z-7.867 I-0.345 J-0.355
N3470 X0.345 Y0.355 Z-8.003 I0.345 J0.355
N3475 X-0.345 Y-0.355 Z-8.139 I-0.345 J-0.355
N3480 X0.297 Y-0.396 Z-8.2 I0.345 J0.355
N3485 X0.386 Y0.23 I-0.268 J0.358
N3490 X-0.24 Y0.32 I-0.358 J-0.268
N3495 S3700
N3500 X0.24 Y-0.32 I0.24 J-0.32 F#100
N3505 X-0.24 Y0.32 I-0.24 J0.32
N3510 X-0.329 Y0.227 Z-8.183 I0.24 J-0.32 F#104
N3515 X-0.382 Y0.119 Z-8.133 I0.329 J-0.227
N3520 X-0.4 Y0.017 Z-8.054 I0.382 J-0.119
N3525 X-0.395 Y-0.062 Z-7.95 I0.4 J-0.017
N3530 X-0.384 Y-0.111 Z-7.829 I0.395 J0.062
N3535 G1 X-0.379 Y-0.127 Z-7.7
N3540 G0 Z6.
(2D CONTOUR4 2)
N3550 M9
N3555 G0 X8.817 Y-1.805
N3560 #100=150. (CUTTING)
N3565 #107=150. (RAMPING)
N3570 Z4.
N3575 Z2.3
N3580 S3300
N3585 G2 X-8.817 Y1.805 Z0.818 I-8.817 J1.805 F#107
N3590 X8.817 Y-1.805 Z-0.664 I8.817 J-1.805
N3595 X-8.817 Y1.805 Z-2.145 I-8.817 J1.805
N3600 X8.817 Y-1.805 Z-3.627 I8.817 J-1.805
N3605 X-8.817 Y1.805 Z-5.109 I-8.817 J1.805
N3610 X8.817 Y-1.805 Z-6.591 I8.817 J-1.805
N3615 X-8.817 Y1.805 Z-8.073 I-8.817 J1.805
N3620 X8.817 Y-1.805 Z-9.554 I8.817 J-1.805
N3625 X0. Y-9. Z-10.2 I-8.817 J1.805
N3630 S3700
N3635 Y9. I0. J9. F#100
N3640 Y-9. I0. J-9.
N3645 G0 Z4.
N3655 M9
N3660 G53 Z0.
N3665 M30
%
