%
(1001)
(T1  D=6. CR=0. - ZMIN=-0.2 - FLAT END MILL)
N10 G90 G94 G17 G91.1
N15 G21
N20 G53 G0 Z0.
(FACE1)
N25 M9
N30 T1 M6
N35 S3200 M3
N40 G54
N45 M8
N55 G0 X19.288 Y-12.236
N60 G43 Z7. H1
N65 #100=330. (CUTTING)
N70 #102=330. (FINISH)
N75 #103=200. (ENTRY)
N80 #104=200. (EXIT)
N85 G0 Z5.
N90 G1 Z1.8 F#103
N95 G18 G3 X17.288 Z-0.2 I-2. K0.
N100 G1 X16.988 F#100
N105 X-16.988 F#102
N110 X-17. F#100
N115 G17 G2 Y-8.511 I0. J1.862
N120 G1 X17. F#102
N125 G3 Y-4.787 I0. J1.862 F#100
N130 G1 X-17. F#102
N135 G2 Y-1.063 I0. J1.862 F#100
N140 G1 X17. F#102
N145 G3 Y2.661 I0. J1.862 F#100
N150 G1 X-17. F#102
N155 G2 Y6.386 I0. J1.862 F#100
N160 G1 X17. F#102
N165 G3 Y10.11 I0. J1.862 F#100
N170 G1 X-17. F#102
N175 G18 G3 X-19. Z1.8 I0. K2. F#104
N180 G0 Z7.
N185 G17
N190 M9
N195 G53 G0 Z0.
N200 M30
%
