%
(1001)
(T1  D=6. CR=0. - ZMIN=-2.2 - FLAT END MILL)
N10 G90 G94 G17 G91.1
N15 G21
N20 G53 G0 Z0.
(2D POCKET1)
N25 M9
N30 T1 M6
N35 S3200 M3
N40 G54
N45 M8
N55 G0 X2.494 Y-1.251
N60 G43 Z6. H1
N65 #100=330. (CUTTING)
N70 #103=200. (ENTRY)
N75 #104=200. (EXIT)
N80 #106=82.5 (REDUCED)
N85 #107=270. (RAMPING)
N90 G0 Z5.
N95 G1 Z1.5 F#103
N100 S3000
N105 X2.509 Y-1.245 Z1.373 F#107
N110 X2.553 Y-1.227 Z1.255
N115 X2.623 Y-1.195 Z1.152
N120 X2.711 Y-1.15 Z1.073
N125 X2.812 Y-1.091 Z1.021
N130 X2.917 Y-1.021 Z1.
N135 G3 X0.696 Y2.05 Z0.792 I-1.11 J1.536
N140 X2.917 Y-1.021 Z0.584 I1.11 J-1.536
N145 X0.696 Y2.05 Z0.376 I-1.11 J1.536
N150 X2.917 Y-1.021 Z0.168 I1.11 J-1.536
N155 X0.696 Y2.05 Z-0.039 I-1.11 J1.536
N160 X2.917 Y-1.021 Z-0.247 I1.11 J-1.536
N165 X0.696 Y2.05 Z-0.455 I-1.11 J1.536
N170 X2.917 Y-1.021 Z-0.663 I1.11 J-1.536
N175 X0.696 Y2.05 Z-0.871 I-1.11 J1.536
N180 X2.917 Y-1.021 Z-1.079 I1.11 J-1.536
N185 X0.696 Y2.05 Z-1.287 I-1.11 J1.536
N190 X2.917 Y-1.021 Z-1.495 I1.11 J-1.536
N195 X0.696 Y2.05 Z-1.703 I-1.11 J1.536
N200 X2.917 Y-1.021 Z-1.911 I1.11 J-1.536
N205 X0.696 Y2.05 Z-2.118 I-1.11 J1.536
N210 X-0.011 Y-0.023 Z-2.2 I1.11 J-1.536
N215 S3200
N220 G1 X-0.005 Y-0.043 F#106
N225 X0.001 Y-0.056
N230 X0.008 Y-0.067
N235 X0.018 Y-0.076
N240 X0.027 Y-0.082
N245 X0.042 Y-0.09
N250 X0.059 Y-0.096
N255 X0.076 Y-0.099
N260 X0.088
N265 G3 X0.163 Y-0.079 I0.005 J0.131
N270 G1 X0.172 Y-0.073
N275 G3 X0.234 Y-0.005 I-0.089 J0.143
N280 G1 X0.237 Y0.002
N285 G3 X0.254 Y0.124 I-0.173 J0.086
N290 G1 X0.247 Y0.161 F#100
N295 G3 X0.132 Y0.345 I-0.296 J-0.057
N300 G1 X0.116 Y0.357
N305 G3 X-0.125 Y0.427 I-0.212 J-0.282
N310 G1 X-0.165 Y0.423
N315 G3 X-0.441 Y0.303 I0.038 J-0.462
N320 G1 X-0.45 Y0.295
N325 G3 X-0.602 Y0.02 I0.338 J-0.367
N330 G1 X-0.608 Y-0.013
N335 G3 X-0.56 Y-0.383 I0.589 J-0.111
N340 G1 X-0.553 Y-0.396
N345 G3 X-0.265 Y-0.69 I0.578 J0.278
N350 G1 X-0.227 Y-0.71
N355 G3 X0.284 Y-0.775 I0.346 J0.683
N360 G1 X0.301 Y-0.771
N365 G3 X0.759 Y-0.487 I-0.175 J0.794
N370 G1 X0.777 Y-0.464
N375 G3 X0.975 Y0.095 I-0.698 J0.562
N380 G1 X0.976 Y0.154
N385 G3 X0.505 Y1.016 I-1.018 J0.004
N390 X0.031 Y1.187 I-0.61 J-0.949
N395 G1 X0.02 Y1.188
N400 G3 X-0.504 Y1.133 I-0.142 J-1.168
N405 G1 X-0.526 Y1.126
N410 G3 X-1.283 Y0.419 I0.412 J-1.199
N415 G1 X-1.288 Y0.407
N420 G3 X-1.393 Y-0.14 I1.239 J-0.522
N425 G1 Y-0.15
N430 G3 X-1.264 Y-0.709 I1.391 J0.025
N435 G1 X-1.261 Y-0.717
N440 G3 X-0.9 Y-1.196 I1.296 J0.601
N445 G1 X-0.889 Y-1.205
N450 G3 X-0.32 Y-1.513 I0.978 J1.13
N455 G1 X-0.306 Y-1.517
N460 G3 X0.382 Y-1.555 I0.427 J1.499
N465 G1 X0.39 Y-1.553
N470 G3 X1.042 Y-1.285 I-0.267 J1.574
N475 G1 X1.052 Y-1.278
N480 G3 X1.54 Y-0.737 I-0.95 J1.35
N485 G1 X1.546 Y-0.727
N490 G3 X1.761 Y-0.006 I-1.485 J0.836
N495 G1 X1.762 Y0.006
N500 G3 X1.643 Y0.772 I-1.754 J0.119
N505 G1 X1.638 Y0.784
N510 G3 X1.187 Y1.443 I-1.684 J-0.668
N515 G1 X1.178 Y1.452
N520 G3 X0.467 Y1.865 I-1.27 J-1.367
N525 G1 X0.455 Y1.869
N530 G3 X-0.388 Y1.938 I-0.575 J-1.831
N535 G1 X-0.404 Y1.935
N540 G3 X-1.211 Y1.633 I0.279 J-1.974
N545 G1 X-1.218 Y1.629
N550 G3 X-1.819 Y1.027 I1.108 J-1.705
N555 G1 X-1.822 Y1.021
N560 G3 X-2.126 Y0.229 I1.734 J-1.119
N565 G1 X-2.128 Y0.215
N570 G3 X-2.086 Y-0.661 I2.105 J-0.338
N575 G1 X-2.084 Y-0.672
N580 G3 X-0.97 Y-2.063 I2.114 J0.551
N585 G1 X-0.941 Y-2.078
N590 G3 X-0.097 Y-2.325 I1.067 J2.072
N595 X1.063 Y-2.139 I0.223 J2.319 F#106
N600 G1 X1.074 Y-2.135
N605 G3 X1.919 Y-1.511 I-0.96 J2.185 F#100
N610 G1 X1.927 Y-1.501
N615 G3 X2.434 Y-0.554 I-1.846 J1.596
N620 G1 X2.437 Y-0.542
N625 G3 X2.489 Y0.554 I-2.404 J0.663
N630 G1 X2.487 Y0.566
N635 G3 X2.054 Y1.6 I-2.509 J-0.443
N640 G1 X2.047 Y1.61
N645 G3 X1.194 Y2.374 I-2.119 J-1.508
N650 G1 X1.183 Y2.38
N655 G3 X0.062 Y2.71 I-1.292 J-2.319
N660 G1 X0.051 Y2.711
N665 G3 X-1.127 Y2.524 I-0.175 J-2.7
N670 G1 X-1.151 Y2.514
N675 G3 X-2.739 Y0.88 I1.035 J-2.594
N680 G1 X-2.742 Y0.871
N685 G3 X-2.912 Y-0.296 I2.699 J-0.988
N690 G1 X-2.911 Y-0.306
N695 G3 X-2.593 Y-1.462 I2.917 J0.182
N700 X-1.813 Y-2.418 I2.621 J1.343
N705 G1 X-1.724 Y-2.489
N710 G3 X-0.077 Y-3.141 I1.886 J2.356
N715 X1.095 Y-3.002 I0.239 J3.008 F#106
N720 G1 X1.106 Y-2.999
N725 G3 X1.75 Y-2.707 I-0.988 J3.037 F#100
N730 X2.321 Y-2.276 I-1.643 J2.771
N735 X2.788 Y-1.725 I-2.231 J2.361
N740 X3.124 Y-1.079 I-2.718 J1.828
N745 X3.312 Y-0.37 I-3.079 J1.195
N750 X3.349 Y0.123 I-3.294 J0.493
N755 G1 X3.34 Y0.37
N760 G3 X3.203 Y1.103 I-3.349 J-0.246
N765 X2.906 Y1.794 I-3.239 J-0.984
N770 X2.46 Y2.407 I-2.967 J-1.686
N775 X1.886 Y2.912 I-2.544 J-2.316
N780 X1.21 Y3.281 I-1.988 J-2.841
N785 X0.464 Y3.493 I-1.325 J-3.234
N790 X-0.123 Y3.543 I-0.586 J-3.473
N795 G1 X-0.317 Y3.537
N800 G3 X-1.095 Y3.407 I0.193 J-3.544
N805 X-1.83 Y3.107 I0.975 J-3.44
N810 G1 X-1.842 Y3.101
N815 G3 X-2.984 Y2.121 I1.727 J-3.17
N820 X-3.377 Y1.478 I2.909 J-2.22
N825 X-3.633 Y0.761 I3.323 J-1.59
N830 X-3.737 Y0.001 I3.603 J-0.882
N835 G1 X-3.74 Y-0.124
N840 G3 X-3.684 Y-0.769 I3.735 J0.
N845 X-3.472 Y-1.516 I3.705 J0.646
N850 X-3.109 Y-2.209 I3.518 J1.401
N855 G1 X-3.105 Y-2.215
N860 G3 X-2.611 Y-2.814 I3.138 J2.083
N865 G1 X-2.604 Y-2.822
N870 G3 X-1.991 Y-3.309 I2.573 J2.609
N875 G1 X-1.598 Y-3.558
N880 G3 X1.598 Y3.558 I1.598 J3.558
N885 X-1.598 Y-3.558 I-1.598 J-3.558
N890 X-1.474 Y-3.595 Z-2.183 I0.205 J0.456 F#104
N895 X-1.354 Y-3.6 Z-2.133 I0.081 J0.493
N900 X-1.252 Y-3.581 Z-2.054 I-0.039 J0.498
N905 X-1.178 Y-3.553 Z-1.95 I-0.141 J0.48
N910 X-1.134 Y-3.529 Z-1.829 I-0.215 J0.452
N915 G1 X-1.12 Y-3.52 Z-1.7
N920 G0 Z6.
N930 M9
N935 G53 Z0.
N940 M30
%
