%
(1001)
(T1  D=6. CR=0. - ZMIN=-6. - FLAT END MILL)
N10 G90 G94 G17 G91.1
N15 G21
N20 G53 G0 Z0.
(2D CONTOUR5)
N25 M9
N30 T1 M6
N35 S3200 M3
N40 G54
N45 M8
N55 G0 X-11.2 Y0.
N60 G43 Z4. H1
N65 #100=330. (CUTTING)
N70 #107=270. (RAMPING)
N75 G0 Z2.5
N80 S3000
N85 G2 X11.2 Z2. I11.2 J0. F#107
N90 X-11.2 Z1.5 I-11.2 J0.
N95 X11.2 Z1. I11.2 J0.
N100 X-11.2 Z0.5 I-11.2 J0.
N105 X11.2 Z0. I11.2 J0.
N110 X-11.2 Z-0.5 I-11.2 J0.
N115 X11.2 Z-1. I11.2 J0.
N120 X-11.2 Z-1.5 I-11.2 J0.
N125 X11.2 Z-2. I11.2 J0.
N130 X-11.2 Z-2.5 I-11.2 J0.
N135 X11.2 Z-3. I11.2 J0.
N140 X-11.2 Z-3.5 I-11.2 J0.
N145 X11.2 Z-4. I11.2 J0.
N150 X-11.2 Z-4.5 I-11.2 J0.
N155 X11.2 Z-5. I11.2 J0.
N160 X-11.2 Z-5.5 I-11.2 J0.
N165 X11.2 Z-6. I11.2 J0.
N170 S3200
N175 X-11.2 I-11.2 J0. F#100
N180 X11.2 I11.2 J0.
N185 G0 Z4.
N195 M9
N200 G53 Z0.
N205 M30
%
