%
(1001)
(T5  D=2. CR=0. - ZMIN=-10.2 - FLAT END MILL)
N10 G90 G94 G17 G91.1
N15 G21
N20 G53 G0 Z0.
(2D POCKET2)
N25 M9
N30 T5 M6
N35 S3700 M3
N40 G54
N45 M9
N55 G0 X4.32 Y-0.007
N60 G43 Z4. H5
N65 #100=150. (CUTTING)
N70 #103=130. (ENTRY)
N75 #104=150. (EXIT)
N80 #107=150. (RAMPING)
N85 G0 Z0.8
N90 G1 Z-1.2 F#103
N95 S3300
N100 G3 X5.18 Y0.007 Z-1.247 I0.43 J0.007 F#107
N105 X4.32 Y-0.007 Z-1.294 I-0.43 J-0.007
N110 X5.18 Y0.007 Z-1.342 I0.43 J0.007
N115 X4.32 Y-0.007 Z-1.389 I-0.43 J-0.007
N120 X5.18 Y0.007 Z-1.436 I0.43 J0.007
N125 X4.32 Y-0.007 Z-1.483 I-0.43 J-0.007
N130 X5.18 Y0.007 Z-1.53 I0.43 J0.007
N135 X4.32 Y-0.007 Z-1.577 I-0.43 J-0.007
N140 X5.18 Y0.007 Z-1.625 I0.43 J0.007
N145 X4.32 Y-0.007 Z-1.672 I-0.43 J-0.007
N150 X5.18 Y0.007 Z-1.719 I0.43 J0.007
N155 X4.32 Y-0.007 Z-1.766 I-0.43 J-0.007
N160 X5.18 Y0.007 Z-1.813 I0.43 J0.007
N165 X4.32 Y-0.007 Z-1.86 I-0.43 J-0.007
N170 X5.18 Y0.007 Z-1.908 I0.43 J0.007
N175 X4.32 Y-0.007 Z-1.955 I-0.43 J-0.007
N180 X5.18 Y0.007 Z-2.002 I0.43 J0.007
N185 X4.32 Y-0.007 Z-2.049 I-0.43 J-0.007
N190 X5.18 Y0.007 Z-2.096 I0.43 J0.007
N195 X4.32 Y-0.007 Z-2.143 I-0.43 J-0.007
N200 X5.18 Y0.007 Z-2.191 I0.43 J0.007
N205 X4.32 Y-0.007 Z-2.238 I-0.43 J-0.007
N210 X5.18 Y0.007 Z-2.285 I0.43 J0.007
N215 X4.32 Y-0.007 Z-2.332 I-0.43 J-0.007
N220 X5.18 Y0.007 Z-2.379 I0.43 J0.007
N225 X4.32 Y-0.007 Z-2.427 I-0.43 J-0.007
N230 X5.18 Y0.007 Z-2.474 I0.43 J0.007
N235 X4.32 Y-0.007 Z-2.521 I-0.43 J-0.007
N240 X5.18 Y0.007 Z-2.568 I0.43 J0.007
N245 X4.32 Y-0.007 Z-2.615 I-0.43 J-0.007
N250 X5.18 Y0.007 Z-2.662 I0.43 J0.007
N255 X4.32 Y-0.007 Z-2.71 I-0.43 J-0.007
N260 X5.18 Y0.007 Z-2.757 I0.43 J0.007
N265 X4.32 Y-0.007 Z-2.804 I-0.43 J-0.007
N270 X5.18 Y0.007 Z-2.851 I0.43 J0.007
N275 X4.32 Y-0.007 Z-2.898 I-0.43 J-0.007
N280 X5.18 Y0.007 Z-2.945 I0.43 J0.007
N285 X4.32 Y-0.007 Z-2.993 I-0.43 J-0.007
N290 X5.18 Y0.007 Z-3.04 I0.43 J0.007
N295 X4.32 Y-0.007 Z-3.087 I-0.43 J-0.007
N300 X5.18 Y0.007 Z-3.134 I0.43 J0.007
N305 X4.32 Y-0.007 Z-3.181 I-0.43 J-0.007
N310 X5.18 Y0.007 Z-3.228 I0.43 J0.007
N315 X4.32 Y-0.007 Z-3.276 I-0.43 J-0.007
N320 X5.18 Y0.007 Z-3.323 I0.43 J0.007
N325 X4.32 Y-0.007 Z-3.37 I-0.43 J-0.007
N330 X5.18 Y0.007 Z-3.417 I0.43 J0.007
N335 X4.32 Y-0.007 Z-3.464 I-0.43 J-0.007
N340 X5.18 Y0.007 Z-3.512 I0.43 J0.007
N345 X4.32 Y-0.007 Z-3.559 I-0.43 J-0.007
N350 X5.18 Y0.007 Z-3.606 I0.43 J0.007
N355 X4.32 Y-0.007 Z-3.653 I-0.43 J-0.007
N360 X5.18 Y0.007 Z-3.7 I0.43 J0.007
N365 X4.32 Y-0.007 Z-3.747 I-0.43 J-0.007
N370 X5.18 Y0.007 Z-3.795 I0.43 J0.007
N375 X4.32 Y-0.007 Z-3.842 I-0.43 J-0.007
N380 X5.18 Y0.007 Z-3.889 I0.43 J0.007
N385 X4.32 Y-0.007 Z-3.936 I-0.43 J-0.007
N390 X5.18 Y0.007 Z-3.983 I0.43 J0.007
N395 X4.32 Y-0.007 Z-4.03 I-0.43 J-0.007
N400 X5.18 Y0.007 Z-4.078 I0.43 J0.007
N405 X4.32 Y-0.007 Z-4.125 I-0.43 J-0.007
N410 X5.18 Y0.007 Z-4.172 I0.43 J0.007
N415 X4.32 Y-0.007 Z-4.219 I-0.43 J-0.007
N420 X5.18 Y0.007 Z-4.266 I0.43 J0.007
N425 X4.32 Y-0.007 Z-4.313 I-0.43 J-0.007
N430 X5.18 Y0.007 Z-4.361 I0.43 J0.007
N435 X4.32 Y-0.007 Z-4.408 I-0.43 J-0.007
N440 X5.18 Y0.007 Z-4.455 I0.43 J0.007
N445 X4.32 Y-0.007 Z-4.502 I-0.43 J-0.007
N450 X5.18 Y0.007 Z-4.549 I0.43 J0.007
N455 X4.32 Y-0.007 Z-4.597 I-0.43 J-0.007
N460 X5.18 Y0.007 Z-4.644 I0.43 J0.007
N465 X4.32 Y-0.007 Z-4.691 I-0.43 J-0.007
N470 X5.18 Y0.007 Z-4.738 I0.43 J0.007
N475 X4.32 Y-0.007 Z-4.785 I-0.43 J-0.007
N480 X5.18 Y0.007 Z-4.832 I0.43 J0.007
N485 X4.32 Y-0.007 Z-4.88 I-0.43 J-0.007
N490 X5.18 Y0.007 Z-4.927 I0.43 J0.007
N495 X4.32 Y-0.007 Z-4.974 I-0.43 J-0.007
N500 X5.18 Y0.007 Z-5.021 I0.43 J0.007
N505 X4.32 Y-0.007 Z-5.068 I-0.43 J-0.007
N510 X5.18 Y0.007 Z-5.115 I0.43 J0.007
N515 X4.32 Y-0.007 Z-5.163 I-0.43 J-0.007
N520 X5.18 Y0.007 Z-5.21 I0.43 J0.007
N525 X4.32 Y-0.007 Z-5.257 I-0.43 J-0.007
N530 X5.166 Y-0.11 Z-5.3 I0.43 J0.007
N535 X4.334 Y0.11 I-0.416 J0.11
N540 Y-0.11 I0.416 J-0.11
N545 S3700
N550 G1 X4.345 Y-0.155 F#100
N555 G2 X3.182 Y-2.963 I-2.596 J-0.57
N560 G1 X3.143 Y-2.987
N565 G3 X2.987 Y-3.143 I0.216 J-0.372
N570 G1 X2.963 Y-3.182
N575 G2 X0.155 Y-4.345 I-2.239 J1.433
N580 G1 X0.11 Y-4.334
N585 G3 X-0.11 I-0.11 J-0.416
N590 G1 X-0.155 Y-4.345
N595 G2 X-2.963 Y-3.182 I-0.57 J2.596
N600 G1 X-2.987 Y-3.143
N605 G3 X-3.731 Y-3.575 I-0.372 J-0.216
N610 X-3.44 Y-3.781 I0.372 J0.216
N615 G1 X-3.409 Y-3.787
N620 G2 X-0.268 Y-5.088 I-2.126 J-9.575
N625 G1 X-0.242 Y-5.106
N630 G3 X0.242 I0.242 J0.356
N635 G1 X0.268 Y-5.088
N640 G2 X3.409 Y-3.787 I5.267 J-8.274
N645 G1 X3.44 Y-3.781
N650 G3 X3.781 Y-3.44 I-0.081 J0.422
N655 G1 X3.787 Y-3.409
N660 G2 X5.088 Y-0.268 I9.575 J-2.126
N665 G1 X5.106 Y-0.242
N670 G3 Y0.242 I-0.356 J0.242
N675 G1 X5.088 Y0.268
N680 G2 X3.787 Y3.409 I8.274 J5.267
N685 G1 X3.781 Y3.44
N690 G3 X3.44 Y3.781 I-0.422 J-0.081
N695 G1 X3.409 Y3.787
N700 G2 X0.268 Y5.088 I2.126 J9.575
N705 G1 X0.242 Y5.106
N710 G3 X-0.242 I-0.242 J-0.356
N715 G1 X-0.268 Y5.088
N720 G2 X-3.409 Y3.787 I-5.267 J8.274
N725 G1 X-3.44 Y3.781
N730 G3 X-3.278 Y2.936 I0.081 J-0.422
N735 X-2.987 Y3.143 I-0.081 J0.422
N740 G1 X-2.963 Y3.182
N745 G2 X-0.155 Y4.345 I2.239 J-1.433
N750 G1 X-0.11 Y4.334
N755 G3 X0.11 I0.11 J0.416
N760 G1 X0.155 Y4.345
N765 G2 X2.963 Y3.182 I0.57 J-2.596
N770 G1 X2.987 Y3.143
N775 G3 X3.143 Y2.987 I0.372 J0.216
N780 G1 X3.182 Y2.963
N785 G2 X4.345 Y0.155 I-1.433 J-2.239
N790 G1 X4.334 Y0.11
N795 X4.528 Y0.059 Z-5.28 F#104
N800 G0 Z4.
(2D CONTOUR3)
N810 M9
N815 G0 X5.164 Y-0.281
N820 #100=150. (CUTTING)
N825 #103=130. (ENTRY)
N830 #108=110. (PLUNGE)
N835 Z4.
N840 Z0.8
N845 G1 Z-1.2 F#103
N850 Z-5.3 F#108
N855 G3 Y0.281 I-0.414 J0.281 F#100
N860 G1 X5.147 Y0.305
N865 G2 X3.856 Y3.424 I8.215 J5.229
N870 G1 X3.85 Y3.453
N875 G3 X3.453 Y3.85 I-0.491 J-0.094
N880 G1 X3.424 Y3.856
N885 G2 X0.305 Y5.147 I2.111 J9.506
N890 G1 X0.281 Y5.164
N895 G3 X-0.281 I-0.281 J-0.414
N900 G1 X-0.305 Y5.147
N905 G2 X-3.424 Y3.856 I-5.229 J8.215
N910 G1 X-3.453 Y3.85
N915 G3 X-3.265 Y2.868 I0.094 J-0.491
N920 X-2.926 Y3.108 I-0.094 J0.491
N925 G1 X-2.904 Y3.144
N930 G2 X-0.17 Y4.277 I2.18 J-1.395
N935 G1 X-0.128 Y4.267
N940 G3 X0.128 I0.128 J0.483
N945 G1 X0.17 Y4.277
N950 G2 X2.904 Y3.144 I0.555 J-2.528
N955 G1 X2.926 Y3.108
N960 G3 X3.108 Y2.926 I0.432 J0.251
N965 G1 X3.144 Y2.904
N970 G2 X4.277 Y0.17 I-1.395 J-2.18
N975 G1 X4.267 Y0.128
N980 G3 Y-0.128 I0.483 J-0.128
N985 G1 X4.277 Y-0.17
N990 G2 X3.144 Y-2.904 I-2.528 J-0.555
N995 G1 X3.108 Y-2.926
N1000 G3 X2.926 Y-3.108 I0.251 J-0.432
N1005 G1 X2.904 Y-3.144
N1010 G2 X0.17 Y-4.277 I-2.18 J1.395
N1015 G1 X0.128 Y-4.267
N1020 G3 X-0.128 I-0.128 J-0.483
N1025 G1 X-0.17 Y-4.277
N1030 G2 X-2.904 Y-3.144 I-0.555 J2.528
N1035 G1 X-2.926 Y-3.108
N1040 G3 X-3.791 Y-3.61 I-0.432 J-0.251
N1045 X-3.453 Y-3.85 I0.432 J0.251
N1050 G1 X-3.424 Y-3.856
N1055 G2 X-0.305 Y-5.147 I-2.111 J-9.506
N1060 G1 X-0.281 Y-5.164
N1065 G3 X0.281 I0.281 J0.414
N1070 G1 X0.305 Y-5.147
N1075 G2 X3.424 Y-3.856 I5.229 J-8.215
N1080 G1 X3.453 Y-3.85
N1085 G3 X3.85 Y-3.453 I-0.094 J0.491
N1090 G1 X3.856 Y-3.424
N1095 G2 X5.147 Y-0.305 I9.506 J-2.111
N1100 G1 X5.164 Y-0.281
N1105 G3 Y0.281 I-0.414 J0.281
N1110 G1 X5.147 Y0.305
N1115 G2 X3.856 Y3.424 I8.215 J5.229
N1120 G1 X3.85 Y3.453
N1125 G3 X3.453 Y3.85 I-0.491 J-0.094
N1130 G1 X3.424 Y3.856
N1135 G2 X0.305 Y5.147 I2.111 J9.506
N1140 G1 X0.281 Y5.164
N1145 G3 X-0.281 I-0.281 J-0.414
N1150 G1 X-0.305 Y5.147
N1155 G2 X-3.424 Y3.856 I-5.229 J8.215
N1160 G1 X-3.453 Y3.85
N1165 G3 X-3.265 Y2.868 I0.094 J-0.491
N1170 X-2.926 Y3.108 I-0.094 J0.491
N1175 G1 X-2.904 Y3.144
N1180 G2 X-0.17 Y4.277 I2.18 J-1.395
N1185 G1 X-0.128 Y4.267
N1190 G3 X0.128 I0.128 J0.483
N1195 G1 X0.17 Y4.277
N1200 G2 X2.904 Y3.144 I0.555 J-2.528
N1205 G1 X2.926 Y3.108
N1210 G3 X3.108 Y2.926 I0.432 J0.251
N1215 G1 X3.144 Y2.904
N1220 G2 X4.277 Y0.17 I-1.395 J-2.18
N1225 G1 X4.267 Y0.128
N1230 G3 Y-0.128 I0.483 J-0.128
N1235 G1 X4.277 Y-0.17
N1240 G2 X3.144 Y-2.904 I-2.528 J-0.555
N1245 G1 X3.108 Y-2.926
N1250 G3 X2.926 Y-3.108 I0.251 J-0.432
N1255 G1 X2.904 Y-3.144
N1260 G2 X0.17 Y-4.277 I-2.18 J1.395
N1265 G1 X0.128 Y-4.267
N1270 G3 X-0.128 I-0.128 J-0.483
N1275 G1 X-0.17 Y-4.277
N1280 G2 X-2.904 Y-3.144 I-0.555 J2.528
N1285 G1 X-2.926 Y-3.108
N1290 G3 X-3.791 Y-3.61 I-0.432 J-0.251
N1295 X-3.453 Y-3.85 I0.432 J0.251
N1300 G1 X-3.424 Y-3.856
N1305 G2 X-0.305 Y-5.147 I-2.111 J-9.506
N1310 G1 X-0.281 Y-5.164
N1315 G3 X0.281 I0.281 J0.414
N1320 G1 X0.305 Y-5.147
N1325 G2 X3.424 Y-3.856 I5.229 J-8.215
N1330 G1 X3.453 Y-3.85
N1335 G3 X3.85 Y-3.453 I-0.094 J0.491
N1340 G1 X3.856 Y-3.424
N1345 G2 X5.147 Y-0.305 I9.506 J-2.111
N1350 G1 X5.164 Y-0.281
N1355 G0 Z4.
(2D POCKET3)
N1365 M9
N1370 G0 Z6.
N1375 X-0.258 Y0.144
N1380 #100=150. (CUTTING)
N1385 #103=130. (ENTRY)
N1390 #104=150. (EXIT)
N1395 #107=150. (RAMPING)
N1400 Z2.8
N1405 G1 Z-0.701 F#103
N1410 S3300
N1415 X-0.266 Y0.128 Z-0.832 F#107
N1420 G3 X-0.284 Y0.08 Z-0.954 I0.266 J-0.128
N1425 X-0.295 Y0. Z-1.058 I0.284 J-0.08
N1430 X-0.28 Y-0.094 Z-1.131 I0.295 J0.
N1435 X-0.226 Y-0.189 Z-1.179 I0.28 J0.094
N1440 X-0.134 Y-0.263 Z-1.2 I0.226 J0.189
N1445 X0.134 Y0.263 Z-1.249 I0.134 J0.263
N1450 X-0.134 Y-0.263 Z-1.297 I-0.134 J-0.263
N1455 X0.134 Y0.263 Z-1.346 I0.134 J0.263
N1460 X-0.134 Y-0.263 Z-1.394 I-0.134 J-0.263
N1465 X0.134 Y0.263 Z-1.443 I0.134 J0.263
N1470 X-0.134 Y-0.263 Z-1.491 I-0.134 J-0.263
N1475 X0.134 Y0.263 Z-1.54 I0.134 J0.263
N1480 X-0.134 Y-0.263 Z-1.589 I-0.134 J-0.263
N1485 X0.134 Y0.263 Z-1.637 I0.134 J0.263
N1490 X-0.134 Y-0.263 Z-1.686 I-0.134 J-0.263
N1495 X0.134 Y0.263 Z-1.734 I0.134 J0.263
N1500 X-0.134 Y-0.263 Z-1.783 I-0.134 J-0.263
N1505 X0.134 Y0.263 Z-1.831 I0.134 J0.263
N1510 X-0.134 Y-0.263 Z-1.88 I-0.134 J-0.263
N1515 X0.134 Y0.263 Z-1.929 I0.134 J0.263
N1520 X-0.134 Y-0.263 Z-1.977 I-0.134 J-0.263
N1525 X0.134 Y0.263 Z-2.026 I0.134 J0.263
N1530 X-0.134 Y-0.263 Z-2.074 I-0.134 J-0.263
N1535 X0.134 Y0.263 Z-2.123 I0.134 J0.263
N1540 X-0.134 Y-0.263 Z-2.171 I-0.134 J-0.263
N1545 X0.134 Y0.263 Z-2.22 I0.134 J0.263
N1550 X-0.134 Y-0.263 Z-2.269 I-0.134 J-0.263
N1555 X0.134 Y0.263 Z-2.317 I0.134 J0.263
N1560 X-0.134 Y-0.263 Z-2.366 I-0.134 J-0.263
N1565 X0.134 Y0.263 Z-2.414 I0.134 J0.263
N1570 X-0.134 Y-0.263 Z-2.463 I-0.134 J-0.263
N1575 X0.134 Y0.263 Z-2.511 I0.134 J0.263
N1580 X-0.134 Y-0.263 Z-2.56 I-0.134 J-0.263
N1585 X0.134 Y0.263 Z-2.609 I0.134 J0.263
N1590 X-0.134 Y-0.263 Z-2.657 I-0.134 J-0.263
N1595 X0.134 Y0.263 Z-2.706 I0.134 J0.263
N1600 X-0.134 Y-0.263 Z-2.754 I-0.134 J-0.263
N1605 X0.134 Y0.263 Z-2.803 I0.134 J0.263
N1610 X-0.134 Y-0.263 Z-2.851 I-0.134 J-0.263
N1615 X0.134 Y0.263 Z-2.9 I0.134 J0.263
N1620 X-0.134 Y-0.263 Z-2.949 I-0.134 J-0.263
N1625 X0.134 Y0.263 Z-2.997 I0.134 J0.263
N1630 X-0.134 Y-0.263 Z-3.046 I-0.134 J-0.263
N1635 X0.134 Y0.263 Z-3.094 I0.134 J0.263
N1640 X-0.134 Y-0.263 Z-3.143 I-0.134 J-0.263
N1645 X0.134 Y0.263 Z-3.191 I0.134 J0.263
N1650 X-0.134 Y-0.263 Z-3.24 I-0.134 J-0.263
N1655 X0.134 Y0.263 Z-3.289 I0.134 J0.263
N1660 X-0.134 Y-0.263 Z-3.337 I-0.134 J-0.263
N1665 X0.134 Y0.263 Z-3.386 I0.134 J0.263
N1670 X-0.134 Y-0.263 Z-3.434 I-0.134 J-0.263
N1675 X0.134 Y0.263 Z-3.483 I0.134 J0.263
N1680 X-0.134 Y-0.263 Z-3.531 I-0.134 J-0.263
N1685 X0.134 Y0.263 Z-3.58 I0.134 J0.263
N1690 X-0.134 Y-0.263 Z-3.628 I-0.134 J-0.263
N1695 X0.134 Y0.263 Z-3.677 I0.134 J0.263
N1700 X-0.134 Y-0.263 Z-3.726 I-0.134 J-0.263
N1705 X0.134 Y0.263 Z-3.774 I0.134 J0.263
N1710 X-0.134 Y-0.263 Z-3.823 I-0.134 J-0.263
N1715 X0.134 Y0.263 Z-3.871 I0.134 J0.263
N1720 X-0.134 Y-0.263 Z-3.92 I-0.134 J-0.263
N1725 X0.134 Y0.263 Z-3.968 I0.134 J0.263
N1730 X-0.134 Y-0.263 Z-4.017 I-0.134 J-0.263
N1735 X0.134 Y0.263 Z-4.066 I0.134 J0.263
N1740 X-0.134 Y-0.263 Z-4.114 I-0.134 J-0.263
N1745 X0.134 Y0.263 Z-4.163 I0.134 J0.263
N1750 X-0.134 Y-0.263 Z-4.211 I-0.134 J-0.263
N1755 X0.134 Y0.263 Z-4.26 I0.134 J0.263
N1760 X-0.134 Y-0.263 Z-4.308 I-0.134 J-0.263
N1765 X0.134 Y0.263 Z-4.357 I0.134 J0.263
N1770 X-0.134 Y-0.263 Z-4.406 I-0.134 J-0.263
N1775 X0.134 Y0.263 Z-4.454 I0.134 J0.263
N1780 X-0.134 Y-0.263 Z-4.503 I-0.134 J-0.263
N1785 X0.134 Y0.263 Z-4.551 I0.134 J0.263
N1790 X-0.134 Y-0.263 Z-4.6 I-0.134 J-0.263
N1795 X0.134 Y0.263 Z-4.648 I0.134 J0.263
N1800 X-0.134 Y-0.263 Z-4.697 I-0.134 J-0.263
N1805 X0.134 Y0.263 Z-4.746 I0.134 J0.263
N1810 X-0.134 Y-0.263 Z-4.794 I-0.134 J-0.263
N1815 X0.134 Y0.263 Z-4.843 I0.134 J0.263
N1820 X-0.134 Y-0.263 Z-4.891 I-0.134 J-0.263
N1825 X0.134 Y0.263 Z-4.94 I0.134 J0.263
N1830 X-0.134 Y-0.263 Z-4.988 I-0.134 J-0.263
N1835 X0.134 Y0.263 Z-5.037 I0.134 J0.263
N1840 X-0.134 Y-0.263 Z-5.086 I-0.134 J-0.263
N1845 X0.134 Y0.263 Z-5.134 I0.134 J0.263
N1850 X-0.134 Y-0.263 Z-5.183 I-0.134 J-0.263
N1855 X0.177 Y-0.236 Z-5.2 I0.134 J0.263
N1860 X0.226 Y0.111 I-0.149 J0.198
N1865 X-0.12 Y0.16 I-0.198 J-0.148
N1870 S3700
N1875 X0.12 Y-0.16 I0.12 J-0.16 F#100
N1880 X-0.12 Y0.16 I-0.12 J0.16
N1885 X-0.145 Y0.114 Z-5.187 I0.037 J-0.049
N1890 X-0.133 Y0.075 Z-5.15 I0.062 J-0.003
N1895 X-0.108 Y0.054 Z-5.118 I0.05 J0.036
N1900 X-0.066 Y0.051 Z-5.102 I0.025 J0.056
N1905 G1 X-0.047 Y0.056 Z-5.1
N1910 X0.032 Y0.079
N1915 X0.065 Y0.088 Z-5.105
N1920 X0.095 Y0.097 Z-5.12
N1925 G3 X0.121 Y0.111 Z-5.15 I-0.017 J0.059
N1930 X0.139 Y0.148 Z-5.187 I-0.043 J0.045
N1935 X0.124 Y0.197 Z-5.2 I-0.061 J0.009
N1940 S3300
N1945 X-0.314 Y-0.197 Z-5.249 I-0.219 J-0.197 F#107
N1950 X0.124 Y0.197 Z-5.297 I0.219 J0.197
N1955 X-0.314 Y-0.197 Z-5.346 I-0.219 J-0.197
N1960 X0.124 Y0.197 Z-5.394 I0.219 J0.197
N1965 X-0.314 Y-0.197 Z-5.443 I-0.219 J-0.197
N1970 X0.124 Y0.197 Z-5.491 I0.219 J0.197
N1975 X-0.314 Y-0.197 Z-5.54 I-0.219 J-0.197
N1980 X0.124 Y0.197 Z-5.589 I0.219 J0.197
N1985 X-0.314 Y-0.197 Z-5.637 I-0.219 J-0.197
N1990 X0.124 Y0.197 Z-5.686 I0.219 J0.197
N1995 X-0.314 Y-0.197 Z-5.734 I-0.219 J-0.197
N2000 X0.124 Y0.197 Z-5.783 I0.219 J0.197
N2005 X-0.314 Y-0.197 Z-5.831 I-0.219 J-0.197
N2010 X0.124 Y0.197 Z-5.88 I0.219 J0.197
N2015 X-0.314 Y-0.197 Z-5.929 I-0.219 J-0.197
N2020 X0.124 Y0.197 Z-5.977 I0.219 J0.197
N2025 X-0.314 Y-0.197 Z-6.026 I-0.219 J-0.197
N2030 X0.124 Y0.197 Z-6.074 I0.219 J0.197
N2035 X-0.314 Y-0.197 Z-6.123 I-0.219 J-0.197
N2040 X0.124 Y0.197 Z-6.171 I0.219 J0.197
N2045 X-0.314 Y-0.197 Z-6.22 I-0.219 J-0.197
N2050 X0.124 Y0.197 Z-6.269 I0.219 J0.197
N2055 X-0.314 Y-0.197 Z-6.317 I-0.219 J-0.197
N2060 X0.124 Y0.197 Z-6.366 I0.219 J0.197
N2065 X-0.314 Y-0.197 Z-6.414 I-0.219 J-0.197
N2070 X0.124 Y0.197 Z-6.463 I0.219 J0.197
N2075 X-0.314 Y-0.197 Z-6.511 I-0.219 J-0.197
N2080 X0.124 Y0.197 Z-6.56 I0.219 J0.197
N2085 X-0.314 Y-0.197 Z-6.609 I-0.219 J-0.197
N2090 X0.124 Y0.197 Z-6.657 I0.219 J0.197
N2095 X-0.314 Y-0.197 Z-6.706 I-0.219 J-0.197
N2100 X0.124 Y0.197 Z-6.754 I0.219 J0.197
N2105 X-0.314 Y-0.197 Z-6.803 I-0.219 J-0.197
N2110 X0.124 Y0.197 Z-6.851 I0.219 J0.197
N2115 X-0.314 Y-0.197 Z-6.9 I-0.219 J-0.197
N2120 X0.124 Y0.197 Z-6.949 I0.219 J0.197
N2125 X-0.314 Y-0.197 Z-6.997 I-0.219 J-0.197
N2130 X0.124 Y0.197 Z-7.046 I0.219 J0.197
N2135 X-0.314 Y-0.197 Z-7.094 I-0.219 J-0.197
N2140 X0.124 Y0.197 Z-7.143 I0.219 J0.197
N2145 X-0.314 Y-0.197 Z-7.191 I-0.219 J-0.197
N2150 X0.124 Y0.197 Z-7.24 I0.219 J0.197
N2155 X-0.314 Y-0.197 Z-7.289 I-0.219 J-0.197
N2160 X0.124 Y0.197 Z-7.337 I0.219 J0.197
N2165 X-0.314 Y-0.197 Z-7.386 I-0.219 J-0.197
N2170 X0.124 Y0.197 Z-7.434 I0.219 J0.197
N2175 X-0.314 Y-0.197 Z-7.483 I-0.219 J-0.197
N2180 X0.124 Y0.197 Z-7.531 I0.219 J0.197
N2185 X-0.314 Y-0.197 Z-7.58 I-0.219 J-0.197
N2190 X0.124 Y0.197 Z-7.628 I0.219 J0.197
N2195 X-0.314 Y-0.197 Z-7.677 I-0.219 J-0.197
N2200 X0.124 Y0.197 Z-7.726 I0.219 J0.197
N2205 X-0.314 Y-0.197 Z-7.774 I-0.219 J-0.197
N2210 X0.124 Y0.197 Z-7.823 I0.219 J0.197
N2215 X-0.314 Y-0.197 Z-7.871 I-0.219 J-0.197
N2220 X0.124 Y0.197 Z-7.92 I0.219 J0.197
N2225 X-0.314 Y-0.197 Z-7.968 I-0.219 J-0.197
N2230 X0.124 Y0.197 Z-8.017 I0.219 J0.197
N2235 X-0.314 Y-0.197 Z-8.066 I-0.219 J-0.197
N2240 X0.124 Y0.197 Z-8.114 I0.219 J0.197
N2245 X-0.314 Y-0.197 Z-8.163 I-0.219 J-0.197
N2250 X0.2 Y0. Z-8.2 I0.219 J0.197
N2255 S3700
N2260 X-0.2 I-0.2 J0. F#100
N2265 X0.4 I0.3 J0.
N2270 X-0.4 I-0.4 J0.
N2275 X0.4 I0.4 J0.
N2280 X0.394 Y0.049 Z-8.194 I-0.19 J0. F#104
N2285 X0.377 Y0.091 Z-8.175 I-0.184 J-0.049
N2290 X0.354 Y0.123 Z-8.144 I-0.167 J-0.091
N2295 X0.333 Y0.145 Z-8.105 I-0.144 J-0.123
N2300 X0.318 Y0.156 Z-8.059 I-0.123 J-0.145
N2305 G1 X0.313 Y0.16 Z-8.01
N2310 G0 Z6.
(2D CONTOUR4)
N2320 M9
N2325 G0 X0. Y9.
N2330 #100=150. (CUTTING)
N2335 #107=150. (RAMPING)
N2340 Z4.
N2345 Z2.3
N2350 S3300
N2355 G2 Y-9. Z1.8 I0. J-9. F#107
N2360 Y9. Z1.3 I0. J9.
N2365 Y-9. Z0.8 I0. J-9.
N2370 Y9. Z0.3 I0. J9.
N2375 Y-9. Z-0.2 I0. J-9.
N2380 Y9. Z-0.7 I0. J9.
N2385 Y-9. Z-1.2 I0. J-9.
N2390 Y9. Z-1.7 I0. J9.
N2395 Y-9. Z-2.2 I0. J-9.
N2400 Y9. Z-2.7 I0. J9.
N2405 Y-9. Z-3.2 I0. J-9.
N2410 Y9. Z-3.7 I0. J9.
N2415 Y-9. Z-4.2 I0. J-9.
N2420 Y9. Z-4.7 I0. J9.
N2425 Y-9. Z-5.2 I0. J-9.
N2430 Y9. Z-5.7 I0. J9.
N2435 Y-9. Z-6.2 I0. J-9.
N2440 Y9. Z-6.7 I0. J9.
N2445 Y-9. Z-7.2 I0. J-9.
N2450 Y9. Z-7.7 I0. J9.
N2455 Y-9. Z-8.2 I0. J-9.
N2460 Y9. Z-8.7 I0. J9.
N2465 Y-9. Z-9.2 I0. J-9.
N2470 Y9. Z-9.7 I0. J9.
N2475 Y-9. Z-10.2 I0. J-9.
N2480 S3700
N2485 Y9. I0. J9. F#100
N2490 Y-9. I0. J-9.
N2495 G0 Z4.
N2505 M9
N2510 G53 Z0.
N2515 M30
%
