%
(1001)
(T5  D=2. CR=0. - ZMIN=-10.2 - FLAT END MILL)
N10 G90 G94 G17 G91.1
N15 G21
N20 G53 G0 Z0.
(2D CONTOUR4)
N25 M9
N30 T5 M6
N35 S3700 M3
N40 G54
N45 M9
N55 G0 X8.817 Y-1.805
N60 G43 Z4. H5
N65 #100=150. (CUTTING)
N70 #107=150. (RAMPING)
N75 G0 Z2.3
N80 S3300
N85 G2 X-8.817 Y1.805 Z0.818 I-8.817 J1.805 F#107
N90 X8.817 Y-1.805 Z-0.664 I8.817 J-1.805
N95 X-8.817 Y1.805 Z-2.145 I-8.817 J1.805
N100 X8.817 Y-1.805 Z-3.627 I8.817 J-1.805
N105 X-8.817 Y1.805 Z-5.109 I-8.817 J1.805
N110 X8.817 Y-1.805 Z-6.591 I8.817 J-1.805
N115 X-8.817 Y1.805 Z-8.073 I-8.817 J1.805
N120 X8.817 Y-1.805 Z-9.554 I8.817 J-1.805
N125 X0. Y-9. Z-10.2 I-8.817 J1.805
N130 S3700
N135 Y9. I0. J9. F#100
N140 Y-9. I0. J-9.
N145 G0 Z4.
N155 M9
N160 G53 Z0.
N165 M30
%
