%
(T133  D=3.3 CR=0. TAPER=118DEG - ZMIN=-5. - DRILL)
N10 G90 G94 G17 G91.1
N15 G21
N20 G53 G0 Z0.
(DRILL2)
N25 M9
N30 T133 M6
N35 S3200 M3
N40 G54
N45 M9
N55 G0 X-48. Y-175.
N60 G43 Z4. H0
N70 G0 Z2.
N75 G98 G83 X-48. Y-175. Z-5. R2. Q3. F60.
N80 X-25.
N85 Y-135.
N90 X-48.
N95 Y-95.
N100 X-25.
N105 Y-55.
N110 X-48.
N115 X-50. Y-30.
N120 X-48. Y-15.
N125 X-25.
N130 X-27.5 Y-30.
N135 X-5.
N140 G80
N145 G0 Z4.
N155 M9
N160 G53 Z0.
N165 M30
%
