%
(T133  D=3.3 CR=0. TAPER=118DEG - ZMIN=-5. - DRILL)
N10 G90 G94 G17 G91.1
N15 G21
N20 G53 G0 Z0.
(DRILL M4)
N25 M9
N30 T133 M6
N35 S3200 M3
N40 G54
N45 M9
N55 G0 X0. Y-200.
N60 G43 Z15. H0
N70 G0 Z5.
N75 G98 G83 X0. Y-200. Z-5. R5. Q3. F60.
N80 X-23.
N85 Y-160.
N90 X0.
N95 Y-120.
N100 X-23.
N105 Y-80.
N110 X0.
N115 Y-40.
N120 X-23.
N125 Y0.
N130 X0.
N135 G80
N140 G0 Z15.
N150 M9
N155 G53 Z0.
N160 M30
%
