%
(T7  D=8. CR=0. - ZMIN=-4.2 - FLAT END MILL)
N10 G90 G94 G17 G91.1
N15 G21
N20 G53 G0 Z0.
(POCKETING 8MM)
N25 M9
N30 T7 M6
N35 S2500 M3
N40 G54
N45 M9
N55 G0 X-11.545 Y-179.709
N60 G43 Z6. H7
N65 #100=330. (CUTTING)
N70 #103=200. (ENTRY)
N75 #104=200. (EXIT)
N80 #106=120. (REDUCED)
N85 #107=270. (RAMPING)
N90 G0 Z5.
N95 G1 Z1.499 F#103
N100 X-11.54 Y-179.719 Z1.397 F#107
N105 X-11.525 Y-179.746 Z1.299
N110 X-11.5 Y-179.789 Z1.21
N115 X-11.46 Y-179.853 Z1.126
N120 X-11.408 Y-179.929 Z1.061
N125 X-11.345 Y-180.011 Z1.018
N130 X-11.273 Y-180.095 Z1.
N135 G3 X-8.472 Y-177.542 Z0.688 I1.4 J1.277
N140 X-11.273 Y-180.095 Z0.376 I-1.4 J-1.277
N145 X-8.472 Y-177.542 Z0.064 I1.4 J1.277
N150 X-11.273 Y-180.095 Z-0.248 I-1.4 J-1.277
N155 X-8.472 Y-177.542 Z-0.56 I1.4 J1.277
N160 X-11.273 Y-180.095 Z-0.872 I-1.4 J-1.277
N165 X-8.472 Y-177.542 Z-1.184 I1.4 J1.277
N170 X-11.273 Y-180.095 Z-1.496 I-1.4 J-1.277
N175 X-8.472 Y-177.542 Z-1.808 I1.4 J1.277
N180 X-11.5 Y-179.789 Z-2.1 I-1.4 J-1.277
N185 G1 X-11.387 Y-179.98 F#106
N190 X-11.385 Y-179.985
N195 X-11.386 Y-179.991
N200 X-11.391 Y-180.
N205 G3 X-7.324 Y-180.02 I5.232 J652.969 F#100
N210 G1 X-6.451 Y-180.007
N215 X-5.578
N220 X0.322 Y-180.02
N225 X1.922 Y-180.022 F#106
N230 G3 X1.951 Y-179.992 I-0.001 J0.03
N235 G1 X1.941 Y-179.979
N240 X-5.697 Y-179.964 F#100
N245 G3 X-7.227 Y-179.97 I-0.562 J-55.377
N250 G2 X-9.142 I-0.962 J55.007
N255 G1 X-10.997 Y-179.937
N260 G2 X-11.449 Y-179.481 I0.007 J0.459
N265 G1 X-11.455 Y-178.481
N270 X-11.459 Y-170.132
N275 X-11.48 Y-164.178
N280 X-11.482 Y-159.254
N285 X-11.473 Y-155.151
N290 X-11.435 Y-149.618
N295 X-11.405 Y-141.992
N300 X-11.403 Y-141.519 F#106
N305 X-11.382 Y-140.392
N310 G2 X-11.109 Y-140.118 I0.279 J-0.005
N315 G1 X-10.552 Y-140.104 F#100
N320 X-10.516
N325 X-3.709 Y-140.111
N330 X0.326 Y-140.129
N335 X1.824 Y-140.135 F#106
N340 X1.875
N345 X1.926 Y-140.132
N350 G3 X2.072 Y-139.964 I-0.012 J0.158
N355 G1 X2.071 Y-139.942
N360 G3 X2.012 Y-139.876 I-0.071 J-0.005
N365 G1 X1.977 Y-139.871
N370 X1.926 Y-139.866 F#100
N375 X1.875 Y-139.864
N380 X-9.419 Y-139.858
N385 X-10.505 Y-139.857 F#106
N390 X-10.563 Y-139.855
N395 X-11.019 Y-139.835
N400 G2 X-11.332 Y-139.516 I0.014 J0.327
N405 G1 X-11.355 Y-138.531 F#100
N410 X-11.356 Y-138.43
N415 X-11.386 Y-130.132
N420 X-11.448 Y-124.178
N425 X-11.458 Y-119.377
N430 X-11.438 Y-115.151
N435 X-11.312 Y-105.47
N440 G2 X-11.325 Y-102.171 I48.658 J1.842
N445 X-11.251 Y-100.573 I48.671 J-1.456 F#106
N450 X-10.909 Y-100.229 I0.364 J-0.02
N455 G1 X-10.559 Y-100.209 F#100
N460 X-10.509 Y-100.207
N465 X-3.707 Y-100.209
N470 G3 X0.485 Y-100.271 I3.242 J77.322
N475 X1.977 Y-100.239 I-0.95 J77.384 F#106
N480 G1 X2.052 Y-100.232
N485 X2.061 Y-100.231
N490 X2.084 Y-100.227
N495 G3 X2.191 Y-100.107 I-0.023 J0.128
N500 Y-99.894 I-1.708 J0.105
N505 X2.084 Y-99.773 I-0.13 J-0.008
N510 G1 X-2.213 Y-99.752 F#100
N515 X-6.51 Y-99.738
N520 X-10.807 Y-99.732
N525 G2 X-11.218 Y-99.306 I0.035 J0.446
N530 G1 X-11.254 Y-98.516
N535 X-11.255 Y-98.446
N540 X-11.277 Y-92.844
N545 X-11.416 Y-84.178
N550 X-11.433 Y-79.377
N555 X-11.403 Y-75.151
N560 X-11.214 Y-65.47
N565 X-11.201 Y-61.556
N570 X-11.199 Y-61.483
N575 X-11.166 Y-60.824
N580 G2 X-10.677 Y-60.322 I0.53 J-0.027
N585 G1 X-10.562 Y-60.313
N590 X-10.534 Y-60.311
N595 X-10.505 Y-60.31
N600 X-4.75 Y-60.306
N605 G2 X-2.668 Y-60.332 I-0.21 J-100.927
N610 G3 X0.557 Y-60.392 I2.443 J44.71
N615 X2.156 Y-60.335 I-0.782 J44.77 F#106
N620 G1 X2.205 Y-60.318
N625 X2.248 Y-60.289
N630 X2.281 Y-60.251
N635 X2.303 Y-60.205
N640 X2.311 Y-60.155
N645 G3 Y-59.845 I-2.488 J0.153
N650 X2.155 Y-59.67 I-0.189 J-0.012
N655 X1.739 Y-59.639 I-0.43 J-2.896 F#100
N660 X-2.592 Y-59.651 I-1.723 J-153.12
N665 G1 X-3.709 Y-59.669
N670 X-4.826 Y-59.674
N675 X-10.504 Y-59.65
N680 X-10.534 Y-59.649
N685 X-10.563 Y-59.647
N690 X-10.632 Y-59.641
N695 G2 X-11.122 Y-59.131 I0.048 J0.537
N700 G3 X-11.239 Y-50.117 I-759.891 J-5.322
N705 G1 X-11.385 Y-44.178
N710 X-11.409 Y-39.439
N715 X-11.368 Y-35.151
N720 X-11.216 Y-29.868
N725 G3 X-11.145 Y-26.785 I-148.394 J4.957
N730 X-11.113 Y-24.154 I-137.625 J3.005
N735 G1 X-11.101 Y-21.554
N740 X-11.099 Y-21.485
N745 X-11.07 Y-20.936
N750 G2 X-10.579 Y-20.428 I0.538 J-0.028
N755 G1 X-10.544 Y-20.425
N760 X-10.502 Y-20.422
N765 X-9.458 Y-20.399
N770 G2 X-7.193 Y-20.395 I1.221 J-57.548
N775 G3 X-5.719 Y-20.404 I1.11 J61.187
N780 G1 X-4.609 Y-20.4
N785 G2 X-3.008 Y-20.423 I0.277 J-36.485
N790 G3 X0.63 Y-20.486 I3.197 J79.446
N795 X1.696 Y-20.473 I-0.441 J79.509 F#106
N800 G1 X1.875 Y-20.469
N805 X2.053 Y-20.455
N810 X2.16 Y-20.444
N815 X2.185 Y-20.44
N820 X2.228 Y-20.432
N825 G3 X2.432 Y-20.204 I-0.044 J0.244
N830 X2.431 Y-19.797 I-3.26 J0.2
N835 X2.226 Y-19.568 I-0.249 J-0.016
N840 X1.875 Y-19.526 I-0.458 J-2.376 F#100
N845 G1 X-4.055 Y-19.493
N850 X-4.071
N855 X-5.582 Y-19.482
N860 G2 X-7.828 Y-19.42 I0.375 J53.98
N865 G3 X-9.869 Y-19.346 I-4.034 J-82.99
N870 G1 X-10.533 Y-19.331
N875 X-10.61 Y-19.327
N880 G3 X-12.106 Y-20.728 I-0.089 J-1.404
N885 G1 Y-20.848
N890 G2 X-12.13 Y-22.191 I-41.903 J0.086
N895 G1 X-12.199 Y-24.259
N900 G3 X-12.15 Y-25.57 I9.596 J-0.294
N905 G2 X-11.871 Y-29.128 I-63.181 J-6.731
N910 X-11.896 Y-50.883 I-216.011 J-10.63
N915 G1 X-11.953 Y-51.76
N920 X-12.024 Y-52.636
N925 X-12.108 Y-53.51
N930 X-12.207 Y-54.384
N935 G3 X-12.271 Y-55.801 I9.49 J-1.141
N940 G1 X-12.249 Y-56.516
N945 G2 X-12.266 Y-63.514 I-97.251 J-3.259
N950 G1 X-12.293 Y-64.254
N955 G3 X-12.236 Y-65.573 I8.525 J-0.294
N960 G2 X-11.92 Y-69.13 I-55.635 J-6.734
N965 X-11.945 Y-90.88 I-191.531 J-10.662
N970 G1 X-12.008 Y-91.759
N975 X-12.088 Y-92.636
N980 X-12.183 Y-93.512
N985 X-12.294 Y-94.386
N990 G3 X-12.365 Y-95.799 I8.424 J-1.135
N995 G2 X-12.273 Y-98.109 I-52.864 J-3.266
N1000 X-12.268 Y-99.709 I-52.956 J-0.957 F#106
N1005 G3 X-12.234 Y-99.863 I0.363 J-0.001
N1010 G1 X-12.215 Y-99.904
N1015 G2 X-12.229 Y-100.145 I-0.23 J-0.107
N1020 G3 X-12.27 Y-100.287 I0.229 J-0.142
N1025 G2 X-12.342 Y-103.161 I-37.209 J-0.496 F#100
N1030 G3 X-12.184 Y-106.599 I19.405 J-0.83
N1035 G2 X-12.065 Y-107.716 I-19.504 J-2.643
N1040 X-12.096 Y-132.273 I-169.599 J-12.063
N1045 G1 X-12.135 Y-132.653
N1050 X-12.181 Y-133.033
N1055 X-12.234 Y-133.411
N1060 G3 X-12.417 Y-136.851 I17.933 J-2.676
N1065 G2 X-12.359 Y-138.109 I-34.373 J-2.226
N1070 X-12.351 Y-139.709 I-34.431 J-0.968 F#106
N1075 G3 X-12.313 Y-139.861 I0.32 J-0.001
N1080 G1 X-12.307 Y-139.871
N1085 G2 X-12.312 Y-140.142 I-0.244 J-0.131
N1090 G3 X-12.352 Y-140.29 I0.257 J-0.149
N1095 G2 X-12.432 Y-143.157 I-33.822 J-0.494 F#100
N1100 G3 X-12.256 Y-146.599 I17.597 J-0.829
N1105 G2 X-12.124 Y-147.717 I-17.674 J-2.651
N1110 X-12.153 Y-172.273 I-153.889 J-12.097
N1115 G1 X-12.196 Y-172.653
N1120 X-12.247 Y-173.033
N1125 X-12.307 Y-173.41
N1130 G3 X-12.506 Y-176.855 I16.342 J-2.675
N1135 G1 X-12.459 Y-177.867
N1140 G2 X-12.432 Y-179.095 I-25.294 J-1.176
N1145 G3 Y-179.607 I17.219 J-0.262
N1150 X-12.42 Y-180.051 I17.219 J0.25 F#106
N1155 G1 X-12.407 Y-180.173
N1160 X-12.378 Y-180.293
N1165 X-12.336 Y-180.408
N1170 X-12.28 Y-180.518
N1175 X-12.211 Y-180.62
N1180 X-12.13 Y-180.712
N1185 X-12.039 Y-180.795
N1190 X-11.938 Y-180.865
N1195 X-11.83 Y-180.923
N1200 X-11.785 Y-180.943
N1205 G3 X-11.206 Y-181.065 I0.56 J1.223 F#100
N1210 X-9.76 Y-181.028 I-0.13 J32.905
N1215 X-8.05 Y-180.935 I-2.218 J57.119
N1220 G2 X-5.829 Y-180.848 I2.608 J-37.864
N1225 X1.567 Y-180.813 I5.832 J-457.499
N1230 G1 X1.772 Y-180.811
N1235 X1.977 Y-180.801
N1240 X2.182 Y-180.783
N1245 X2.332 Y-180.766
N1250 X2.371 Y-180.76
N1255 X2.449 Y-180.747
N1260 G3 X2.802 Y-180.353 I-0.074 J0.422
N1265 X2.804 Y-179.648 I-5.661 J0.366
N1270 X2.448 Y-179.247 I-0.433 J-0.026
N1275 X1.875 Y-179.173 I-0.789 J-3.878
N1280 X-3.039 Y-179.229 I-1.883 J-50.631
N1285 G1 X-3.544 Y-179.252
N1290 X-4.05 Y-179.263
N1295 X-4.555
N1300 G2 X-10.034 Y-179.215 I-1.406 J149.828
N1305 G1 X-10.135 Y-179.203
N1310 X-10.235 Y-179.178
N1315 X-10.329 Y-179.138
N1320 X-10.417 Y-179.085
N1325 X-10.495 Y-179.02
N1330 X-10.564 Y-178.944
N1335 X-10.621 Y-178.859
N1340 X-10.665 Y-178.767
N1345 X-10.695 Y-178.669
N1350 X-10.71 Y-178.568
N1355 G2 X-10.733 Y-175.739 I22.152 J1.594
N1360 G3 X-10.779 Y-173.323 I-69.633 J-0.116
N1365 G2 X-10.847 Y-171.445 I67.096 J3.382
N1370 G1 X-10.859 Y-171.031
N1375 X-10.878 Y-170.617
N1380 X-10.906 Y-170.204
N1385 G2 X-11.2 Y-155.014 I127.911 J10.071
N1390 G1 X-11.15 Y-153.944
N1395 X-11.089 Y-152.874
N1400 X-11.019 Y-151.805
N1405 X-10.938 Y-150.737
N1410 G3 X-10.791 Y-148.458 I-33.4 J3.3
N1415 G1 X-10.774 Y-147.942
N1420 X-10.747 Y-147.426
N1425 X-10.711 Y-146.76
N1430 G3 X-10.641 Y-144.178 I-59.084 J2.896
N1435 G1 X-10.613 Y-141.632
N1440 G2 X-9.921 Y-140.917 I0.724 J-0.009
N1445 G1 X-9.12 Y-140.881
N1450 X-9.035 Y-140.879
N1455 X-4.765 Y-140.889
N1460 G2 X-2.654 Y-140.962 I-0.165 J-35.396
N1465 G1 X-2.303 Y-140.985
N1470 G3 X-0.988 Y-141.029 I1.386 J21.52
N1475 G1 X1.482 Y-141.038
N1480 G3 X2.265 Y-140.994 I0.022 J6.705
N1485 G1 X2.443 Y-140.974
N1490 X2.49 Y-140.967
N1495 X2.59 Y-140.95
N1500 G3 X3.039 Y-140.448 I-0.094 J0.536
N1505 X3.041 Y-139.553 I-7.19 J0.46
N1510 X2.589 Y-139.044 I-0.55 J-0.033
N1515 X1.875 Y-138.951 I-0.996 J-4.866
N1520 G1 X-0.875 Y-138.942
N1525 G3 X-2.429 Y-138.987 I-0.081 J-24.29
N1530 G1 X-2.593 Y-138.997
N1535 G2 X-4.826 Y-139.063 I-2.194 J36.098
N1540 X-9.818 Y-138.998 I-1.895 J46.319
N1545 X-10.525 Y-138.255 I0.045 J0.75
N1550 G1 X-10.543 Y-135.733
N1555 G3 X-10.599 Y-133.329 I-51.45 J-0.012
N1560 X-10.64 Y-132.566 I-34.281 J-1.463
N1565 G2 X-10.686 Y-131.549 I24.277 J1.601
N1570 G3 X-10.767 Y-130.127 I-21.717 J-0.521
N1575 G1 X-10.842 Y-129.292
N1580 G2 X-11.243 Y-121.198 I100.781 J9.054
N1585 G1 X-11.239 Y-118.618
N1590 G2 X-10.808 Y-110.734 I90.531 J-1.003
N1595 G3 X-10.676 Y-109.382 I-75.091 J7.978
N1600 G1 X-10.651 Y-109.
N1605 X-10.635 Y-108.617
N1610 X-10.63 Y-108.458
N1615 G2 X-10.575 Y-107.427 I22.762 J-0.698
N1620 G1 X-10.531 Y-106.758
N1625 G3 X-10.447 Y-104.179 I-48.11 J2.863
N1630 G1 X-10.418 Y-101.896
N1635 G2 X-9.667 Y-101.11 I0.799 J-0.011
N1640 G1 X-9.128 Y-101.078
N1645 X-9.077 Y-101.076
N1650 X-9.026 Y-101.075
N1655 X-4.775 Y-101.084
N1660 G2 X-2.645 Y-101.172 I-0.148 J-29.397
N1665 G1 X-2.416 Y-101.19
N1670 G3 X-0.875 Y-101.252 I1.61 J20.708
N1675 G1 X1.875 Y-101.261
N1680 G3 X2.731 Y-101.152 I-0.65 J8.527
N1685 X3.276 Y-100.543 I-0.114 J0.652
N1690 X3.278 Y-99.457 I-8.716 J0.554
N1695 X2.73 Y-98.841 I-0.666 J-0.041
N1700 X1.875 Y-98.729 I-1.204 J-5.859
N1705 G1 X-0.874 Y-98.72
N1710 G3 X-2.427 Y-98.775 I-0.067 J-20.114
N1715 G1 X-2.594 Y-98.787
N1720 G2 X-4.826 Y-98.869 I-2.211 J29.84
N1725 G1 X-9.029 Y-98.847
N1730 X-9.077 Y-98.846
N1735 X-9.126 Y-98.843
N1740 X-9.566 Y-98.81
N1745 G2 X-10.283 Y-98.065 I0.057 J0.773
N1750 G1 X-10.346 Y-96.273
N1755 X-10.348 Y-96.156
N1760 X-10.349 Y-95.58
N1765 G3 X-10.41 Y-93.482 I-37.07 J-0.03
N1770 X-10.469 Y-92.566 I-35.42 J-1.81
N1775 G1 X-10.503 Y-92.058
N1780 X-10.524 Y-91.549
N1785 G3 X-10.621 Y-90.131 I-18.143 J-0.531
N1790 G1 X-10.712 Y-89.29
N1795 G2 X-11.194 Y-81.207 I83.813 J9.049
N1800 G1 X-11.19 Y-78.64
N1805 G2 X-10.678 Y-70.732 I76.827 J-1.003
N1810 G3 X-10.523 Y-69.382 I-63.111 J7.939
N1815 G1 X-10.493 Y-69.
N1820 X-10.474 Y-68.617
N1825 X-10.468 Y-68.457
N1830 G2 X-10.404 Y-67.428 I19.211 J-0.69
N1835 G3 X-10.337 Y-66.548 I-34.891 J3.097
N1840 X-10.254 Y-64.388 I-34.003 J2.381
N1845 G2 X-10.179 Y-62.09 I34.355 J0.031
N1850 X-9.412 Y-61.296 I0.83 J-0.035
N1855 G1 X-9.126 Y-61.275
N1860 X-9.077 Y-61.272
N1865 X-9.028 Y-61.271
N1870 X-4.783 Y-61.278
N1875 G2 X-2.639 Y-61.381 I-0.136 J-25.142
N1880 G1 X-2.416 Y-61.402
N1885 G3 X-0.874 Y-61.474 I1.601 J17.579
N1890 G1 X1.875 Y-61.483
N1895 G3 X2.872 Y-61.355 I-0.763 J9.883
N1900 G1 X2.973 Y-61.331
N1905 X3.069 Y-61.293
N1910 X3.16 Y-61.242
N1915 X3.243 Y-61.18
N1920 X3.317 Y-61.108
N1925 X3.381 Y-61.026
N1930 X3.433 Y-60.936
N1935 X3.473 Y-60.841
N1940 X3.5 Y-60.741
N1945 X3.514 Y-60.638
N1950 G3 X3.515 Y-59.362 I-10.251 J0.648
N1955 X2.872 Y-58.638 I-0.782 J-0.047
N1960 G1 X2.733 Y-58.613
N1965 X2.669 Y-58.603
N1970 X2.432 Y-58.574
N1975 G3 X1.314 Y-58.505 I-1.15 J-9.438
N1980 G1 X-0.983 Y-58.497
N1985 G3 X-2.318 Y-58.553 I-0.049 J-14.762
N1990 G1 X-2.426 Y-58.563
N1995 G2 X-4.88 Y-58.674 I-2.566 J29.35
N2000 G1 X-8.974 Y-58.652
N2005 G2 X-9.255 Y-58.62 I0.034 J1.577
N2010 G1 X-9.37 Y-58.594
N2015 X-9.481 Y-58.555
N2020 X-9.586 Y-58.504
N2025 X-9.686 Y-58.441
N2030 X-9.777 Y-58.366
N2035 X-9.859 Y-58.282
N2040 X-9.931 Y-58.19
N2045 X-9.992 Y-58.089
N2050 X-10.041 Y-57.982
N2055 X-10.078 Y-57.87
N2060 X-10.101 Y-57.755
N2065 X-10.112 Y-57.638
N2070 X-10.153 Y-56.26
N2075 X-10.154 Y-56.168
N2080 X-10.155 Y-55.71
N2085 G3 X-10.237 Y-53.353 I-35.465 J-0.05
N2090 X-10.297 Y-52.566 I-26.288 J-1.624
N2095 G2 X-10.362 Y-51.548 I17.368 J1.62
N2100 G1 X-10.368 Y-51.383
N2105 G3 X-10.418 Y-50.619 I-12.172 J-0.42
N2110 X-10.583 Y-49.289 I-32.429 J-3.338
N2115 G1 X-10.703 Y-48.283
N2120 X-10.808 Y-47.276
N2125 X-10.899 Y-46.267
N2130 X-10.977 Y-45.257
N2135 X-11.04 Y-44.246
N2140 X-11.089 Y-43.235
N2145 X-11.123 Y-42.222
N2150 X-11.144 Y-41.21
N2155 X-11.139 Y-38.6
N2160 G2 X-10.556 Y-30.789 I65.827 J-0.99
N2165 G1 X-10.42 Y-29.789
N2170 X-10.396 Y-29.618
N2175 X-10.374 Y-29.447
N2180 G3 X-10.304 Y-28.552 I-11.261 J1.334
N2185 G1 X-10.298 Y-28.401
N2190 G2 X-10.235 Y-27.484 I15.155 J-0.587
N2195 G3 X-10.155 Y-26.559 I-32.192 J3.244
N2200 X-10.059 Y-24.377 I-31.128 J2.462
N2205 G2 X-9.988 Y-22.389 I27.849 J0.004
N2210 X-9.119 Y-21.465 I0.974 J-0.046
N2215 X-4.515 Y-21.472 I2.087 J-152.64
N2220 G1 X-4.152 Y-21.474
N2225 X-3.79 Y-21.486
N2230 X-3.428 Y-21.509
N2235 X-3.067 Y-21.543
N2240 G3 X1.229 Y-21.703 I2.991 J22.609
N2245 G1 X1.551 Y-21.699
N2250 X1.874 Y-21.686
N2255 X2.196 Y-21.662
N2260 X2.517 Y-21.629
N2265 G3 X3.015 Y-21.558 I-0.432 J4.812
N2270 X3.751 Y-20.735 I-0.156 J0.879
N2275 X3.752 Y-19.267 I-11.778 J0.742
N2280 X3.011 Y-18.435 I-0.9 J-0.055
N2285 X1.875 Y-18.283 I-2.087 J-11.246
N2290 G2 X-5.387 Y-18.148 I-1.263 J128.022
N2295 G1 X-6.072 Y-18.109
N2300 X-6.755 Y-18.055
N2305 X-7.437 Y-17.987
N2310 X-8.117 Y-17.906
N2315 X-8.796 Y-17.81
N2320 G3 X-9.436 Y-17.723 I-3.242 J-21.424
N2325 G2 X-10.926 Y-17.526 I1.618 J17.98
N2330 G1 X-11.075 Y-17.506
N2335 X-11.225 Y-17.501
N2340 X-11.374 Y-17.511
N2345 X-11.523 Y-17.535
N2350 X-11.668 Y-17.574
N2355 X-11.808 Y-17.627
N2360 X-12.222 Y-17.806
N2365 G3 X-13.639 Y-19.886 I0.936 J-2.161
N2370 X-13.652 Y-20.613 I16.833 J-0.657
N2375 G2 X-13.762 Y-22.42 I-16.033 J0.065
N2380 G1 X-13.836 Y-23.056
N2385 G3 X-13.399 Y-26.609 I7.495 J-0.881
N2390 G2 X-13.068 Y-27.728 I-7.396 J-2.799
N2395 X-12.861 Y-28.813 I-24.931 J-5.32
N2400 X-12.599 Y-30.403 I-41.449 J-7.642
N2405 G1 X-12.543 Y-30.791
N2410 G2 X-11.909 Y-38.713 I-61.205 J-8.881
N2415 G1 X-11.913 Y-41.395
N2420 G2 X-12.577 Y-49.199 I-57.798 J0.989
N2425 G1 X-12.656 Y-49.713
N2430 G2 X-12.843 Y-50.804 I-31.905 J4.91
N2435 X-13.894 Y-54.374 I-18.469 J3.494
N2440 G1 X-13.904 Y-54.399
N2445 G3 X-14.108 Y-55.829 I2.781 J-1.128
N2450 G1 X-14.037 Y-56.497
N2455 G2 X-14.07 Y-63.518 I-28.985 J-3.372
N2460 G1 X-14.151 Y-64.205
N2465 G3 X-13.961 Y-65.577 I2.791 J-0.313
N2470 G1 X-13.943 Y-65.623
N2475 G2 X-12.89 Y-69.181 I-17.377 J-7.073
N2480 X-12.697 Y-70.297 I-33.014 J-6.296
N2485 G1 X-12.62 Y-70.791
N2490 G2 X-11.939 Y-78.715 I-56.971 J-8.887
N2495 G1 X-11.943 Y-81.384
N2500 G2 X-12.654 Y-89.2 I-54.15 J0.991
N2505 G1 X-12.739 Y-89.712
N2510 G2 X-12.939 Y-90.804 I-30.002 J4.944
N2515 X-14.058 Y-94.361 I-17.454 J3.535
N2520 G1 X-14.075 Y-94.401
N2525 G3 X-14.293 Y-95.834 I2.597 J-1.127
N2530 G1 X-14.192 Y-96.687
N2535 G2 X-14.224 Y-103.326 I-25.612 J-3.197
N2540 G1 X-14.335 Y-104.198
N2545 G3 X-14.133 Y-105.577 I2.642 J-0.316
N2550 G1 X-14.107 Y-105.636
N2555 G2 X-12.986 Y-109.182 I-16.3 J-7.1
N2560 X-12.78 Y-110.297 I-30.938 J-6.314
N2565 G1 X-12.697 Y-110.791
N2570 G2 X-11.969 Y-118.719 I-53.293 J-8.894
N2575 X-11.973 Y-121.374 I-56.287 J-1.247
N2580 X-12.732 Y-129.2 I-50.959 J0.993
N2585 G1 X-12.821 Y-129.711
N2590 G2 X-13.036 Y-130.805 I-28.338 J4.979
N2595 X-14.221 Y-134.348 I-16.576 J3.579
N2600 G1 X-14.247 Y-134.402
N2605 G3 X-14.477 Y-135.84 I2.436 J-1.127
N2610 G1 X-14.374 Y-136.656
N2615 G2 X-14.406 Y-143.356 I-24.253 J-3.235
N2620 G1 X-14.519 Y-144.19
N2625 G3 X-14.304 Y-145.577 I2.513 J-0.32
N2630 G1 X-14.27 Y-145.65
N2635 G2 X-13.083 Y-149.182 I-15.36 J-7.13
N2640 X-12.862 Y-150.297 I-29.132 J-6.334
N2645 G1 X-12.775 Y-150.791
N2650 G2 X-11.999 Y-158.723 I-50.073 J-8.903
N2655 X-12.002 Y-161.363 I-52.778 J-1.245
N2660 X-12.809 Y-169.201 I-48.148 J0.995
N2665 G1 X-12.853 Y-169.435
N2670 G2 X-14.172 Y-173.804 I-20.674 J3.858
N2675 G1 X-14.258 Y-174.007
N2680 G3 X-14.58 Y-176.461 I4.248 J-1.806
N2685 G1 X-14.425 Y-177.552
N2690 G2 X-14.297 Y-179.419 I-12.792 J-1.815
N2695 X-14.361 Y-180.796 I-16.131 J0.053
N2700 G1 X-14.363 Y-180.944
N2705 X-14.35 Y-181.092
N2710 X-14.323 Y-181.237
N2715 X-14.282 Y-181.379
N2720 X-14.227 Y-181.516
N2725 X-14.159 Y-181.648
N2730 X-14.079 Y-181.772
N2735 X-13.987 Y-181.888
N2740 X-13.884 Y-181.994
N2745 X-13.771 Y-182.089
N2750 X-13.649 Y-182.173
N2755 X-13.519 Y-182.245
N2760 X-13.384 Y-182.303
N2765 X-13.243 Y-182.348
N2770 G2 X-12.663 Y-182.612 I-0.5 J-1.872
N2775 G1 X-12.489 Y-182.729
N2780 G3 X-10.693 Y-183.193 I1.557 J2.318
N2785 X-8.721 Y-182.885 I-2.666 J23.538
N2790 G1 X-8.201 Y-182.791
N2795 X-7.679 Y-182.709
N2800 X-7.155 Y-182.638
N2805 X-6.629 Y-182.579
N2810 X-6.103 Y-182.533
N2815 X-5.575 Y-182.498
N2820 X-5.275 Y-182.481
N2825 G2 X-2.955 Y-182.384 I4.153 J-71.565
N2830 X0.984 Y-182.355 I2.62 J-90.307
N2835 G1 X1.429 Y-182.35
N2840 X1.873 Y-182.331
N2845 X2.317 Y-182.298
N2850 X2.759 Y-182.252
N2855 G3 X3.434 Y-182.156 I-0.618 J6.74
N2860 X4.455 Y-181.018 I-0.213 J1.218
N2865 X4.46 Y-178.983 I-16.343 J1.058
N2870 X3.433 Y-177.825 I-1.25 J-0.075
N2875 X1.875 Y-177.614 I-3.089 J-16.88
N2880 G1 X-1.263 Y-177.603
N2885 X-1.374
N2890 G3 X-1.898 Y-177.633 I0.063 J-5.709
N2895 X-3.088 Y-177.806 I1.896 J-17.22
N2900 G2 X-4.498 Y-177.901 I-1.289 J8.628
N2905 X-8.029 Y-177.89 I-1.069 J234.713
N2910 G1 X-8.169 Y-177.88
N2915 X-8.308 Y-177.856
N2920 X-8.443 Y-177.817
N2925 X-8.574 Y-177.764
N2930 X-8.698 Y-177.697
N2935 X-8.815 Y-177.618
N2940 X-8.922 Y-177.527
N2945 X-9.02 Y-177.425
N2950 X-9.106 Y-177.314
N2955 X-9.18 Y-177.194
N2960 X-9.241 Y-177.067
N2965 X-9.288 Y-176.935
N2970 X-9.321 Y-176.798
N2975 X-9.34 Y-176.659
N2980 G2 X-9.381 Y-175.509 I8.968 J0.9
N2985 G3 X-9.495 Y-173.558 I-19.603 J-0.164
N2990 X-9.62 Y-172.51 I-24.06 J-2.329
N2995 G1 X-9.658 Y-172.209
N3000 X-9.687 Y-171.906
N3005 X-9.708 Y-171.602
N3010 X-9.715 Y-171.455
N3015 G3 X-9.883 Y-170.207 I-7.707 J-0.399
N3020 G1 X-9.914 Y-170.056
N3025 X-10.079 Y-169.224
N3030 G2 X-10.947 Y-161.252 I45.207 J8.954
N3035 X-10.945 Y-158.732 I46.608 J1.221
N3040 X-10.034 Y-150.725 I44.601 J-1.019
N3045 G3 X-9.761 Y-149.384 I-47.543 J10.381
N3050 G1 X-9.723 Y-149.128
N3055 X-9.695 Y-148.87
N3060 X-9.675 Y-148.612
N3065 X-9.665 Y-148.456
N3070 G2 X-9.554 Y-147.433 I10.893 J-0.675
N3075 G3 X-9.397 Y-146.232 I-26.923 J4.114
N3080 X-9.297 Y-144.702 I-13.536 J1.651
N3085 G2 X-9.24 Y-143.438 I6. J0.363
N3090 G1 X-9.212 Y-143.294
N3095 X-9.168 Y-143.153
N3100 X-9.11 Y-143.018
N3105 X-9.039 Y-142.89
N3110 X-8.954 Y-142.769
N3115 X-8.858 Y-142.659
N3120 X-8.75 Y-142.559
N3125 X-8.632 Y-142.47
N3130 X-8.506 Y-142.395
N3135 X-8.373 Y-142.333
N3140 X-8.234 Y-142.285
N3145 X-8.091 Y-142.252
N3150 X-7.945 Y-142.234
N3155 G2 X-4.805 I1.555 J-53.518
N3160 G1 X-4.368 Y-142.244
N3165 X-3.93 Y-142.266
N3170 X-3.494 Y-142.301
N3175 X-3.059 Y-142.349
N3180 X-2.625 Y-142.41
N3185 X-2.316 Y-142.458
N3190 G3 X-0.972 Y-142.564 I1.372 J8.777
N3195 G1 X0.903 Y-142.57
N3200 G3 X2.84 Y-142.457 I0.051 J15.812
N3205 X3.572 Y-142.353 I-0.681 J7.35
N3210 X4.685 Y-141.111 I-0.233 J1.329
N3215 X4.69 Y-138.891 I-17.825 J1.149
N3220 X3.569 Y-137.629 I-1.363 J-0.082
N3225 X1.875 Y-137.398 I-3.385 J-18.528
N3230 G1 X-0.869 Y-137.389
N3235 G3 X-2.422 Y-137.506 I-0.032 J-9.997
N3240 G2 X-4.894 Y-137.706 I-2.624 J17.044
N3245 X-7.967 Y-137.684 I-1.21 J44.96
N3250 G1 X-8.108 Y-137.661
N3255 X-8.245 Y-137.624
N3260 X-8.379 Y-137.572
N3265 X-8.506 Y-137.507
N3270 X-8.625 Y-137.429
N3275 X-8.735 Y-137.338
N3280 X-8.835 Y-137.237
N3285 X-8.924 Y-137.125
N3290 X-9.001 Y-137.005
N3295 X-9.064 Y-136.878
N3300 X-9.114 Y-136.744
N3305 X-9.149 Y-136.606
N3310 X-9.17 Y-136.465
N3315 G2 X-9.197 Y-135.472 I6.602 J0.681
N3320 G3 X-9.315 Y-133.596 I-16.344 J-0.079
N3325 X-9.45 Y-132.564 I-21.354 J-2.274
N3330 G1 X-9.499 Y-132.226
N3335 X-9.536 Y-131.887
N3340 X-9.563 Y-131.547
N3345 X-9.572 Y-131.389
N3350 G3 X-9.66 Y-130.616 I-7.334 J-0.444
N3355 X-9.941 Y-129.287 I-22.912 J-4.138
N3360 G2 X-10.9 Y-121.177 I42.265 J9.114
N3365 X-10.897 Y-118.751 I42.145 J1.153
N3370 X-9.907 Y-110.724 I41.366 J-1.024
N3375 G3 X-9.612 Y-109.385 I-43.974 J10.419
N3380 G1 X-9.571 Y-109.128
N3385 X-9.54 Y-108.869
N3390 X-9.519 Y-108.61
N3395 X-9.508 Y-108.456
N3400 G2 X-9.387 Y-107.434 I10.056 J-0.674
N3405 G3 X-9.237 Y-106.376 I-21.181 J3.551
N3410 G1 X-9.184 Y-105.923
N3415 X-9.145 Y-105.468
N3420 X-9.12 Y-105.012
N3425 X-9.108 Y-104.555
N3430 G2 X-9.087 Y-103.649 I6.851 J0.289
N3435 G1 X-9.063 Y-103.506
N3440 X-9.024 Y-103.367
N3445 X-8.972 Y-103.232
N3450 X-8.905 Y-103.103
N3455 X-8.826 Y-102.982
N3460 X-8.734 Y-102.869
N3465 X-8.632 Y-102.767
N3470 X-8.519 Y-102.676
N3475 X-8.397 Y-102.597
N3480 X-8.268 Y-102.532
N3485 X-8.133 Y-102.48
N3490 X-7.993 Y-102.442
N3495 X-7.85 Y-102.419
N3500 G2 X-4.807 Y-102.421 I1.511 J-22.041
N3505 X-2.626 Y-102.612 I-0.103 J-13.687
N3510 G1 X-2.417 Y-102.648
N3515 G3 X-0.869 Y-102.78 I1.578 J9.324
N3520 X3.706 Y-102.549 I1.377 J18.129
N3525 X4.915 Y-101.201 I-0.252 J1.442
N3530 X4.919 Y-98.799 I-19.29 J1.239
N3535 X3.706 Y-97.432 I-1.476 J-0.088
N3540 X1.875 Y-97.183 I-3.68 J-20.172
N3545 G1 X-0.868 Y-97.174
N3550 G3 X-2.422 Y-97.3 I-0.03 J-9.259
N3555 G2 X-4.897 Y-97.518 I-2.632 J15.773
N3560 X-7.592 Y-97.514 I-1.254 J78.517
N3565 X-9.006 Y-96.094 I0.014 J1.428
N3570 G1 X-9.01 Y-95.418
N3575 G3 X-9.13 Y-93.65 I-14.242 J-0.077
N3580 X-9.284 Y-92.563 I-20.991 J-2.415
N3585 G1 X-9.336 Y-92.226
N3590 X-9.377 Y-91.887
N3595 X-9.406 Y-91.547
N3600 X-9.416 Y-91.39
N3605 G3 X-9.511 Y-90.615 I-6.826 J-0.448
N3610 X-9.814 Y-89.287 I-21.409 J-4.186
N3615 G2 X-10.853 Y-81.164 I39.166 J9.134
N3620 X-10.849 Y-78.77 I38.833 J1.142
N3625 X-9.781 Y-70.722 I38.618 J-1.03
N3630 G3 X-9.463 Y-69.386 I-40.966 J10.468
N3635 G1 X-9.419 Y-69.128
N3640 X-9.386 Y-68.869
N3645 X-9.363 Y-68.609
N3650 X-9.351 Y-68.456
N3655 G2 X-9.221 Y-67.435 I9.343 J-0.674
N3660 G3 X-9.05 Y-66.312 I-20.87 J3.759
N3665 G1 X-8.997 Y-65.891
N3670 X-8.958 Y-65.468
N3675 X-8.933 Y-65.043
N3680 X-8.921 Y-64.619
N3685 X-8.915 Y-64.017
N3690 G2 X-7.486 Y-62.593 I1.438 J-0.014
N3695 X-4.808 Y-62.609 I0.96 J-64.84
N3700 X-2.627 Y-62.815 I-0.101 J-12.732
N3705 G1 X-2.416 Y-62.853
N3710 G3 X-0.867 Y-62.996 I1.577 J8.657
N3715 G1 X1.875 Y-63.004
N3720 G3 X3.89 Y-62.737 I-1.627 J19.966
N3725 G1 X4.005 Y-62.712
N3730 X4.117 Y-62.679
N3735 X4.227 Y-62.637
N3740 X4.333 Y-62.586
N3745 X4.455 Y-62.515 F#106
N3750 X4.57 Y-62.432
N3755 X4.676 Y-62.339
N3760 X4.774 Y-62.237
N3765 X4.862 Y-62.126
N3770 X4.939 Y-62.007
N3775 X5.004 Y-61.881
N3780 X5.058 Y-61.75
N3785 X5.099 Y-61.615
N3790 X5.127 Y-61.476
N3795 X5.142 Y-61.335
N3800 X5.145 Y-61.293
N3805 G3 X5.149 Y-58.707 I-20.782 J1.331 F#100
N3810 G1 X5.144 Y-58.625
N3815 G3 X3.922 Y-57.249 I-1.487 J-0.09
N3820 X3.007 Y-57.11 I-1.851 J-9.129
N3825 X0.734 Y-56.964 I-2.333 J-18.465
N3830 G1 X-1.013 Y-56.958
N3835 G3 X-1.999 Y-57.024 I-0.032 J-6.906
N3840 G2 X-2.265 Y-57.057 I-1.061 J7.603
N3845 G1 X-3.893 Y-57.226
N3850 G2 X-5.87 Y-57.34 I-2.204 J21.156
N3855 X-7.399 Y-57.328 I-0.307 J61.845
N3860 X-8.819 Y-55.901 I0.015 J1.435
N3865 G1 X-8.823 Y-55.351
N3870 G3 X-8.942 Y-53.718 I-12.228 J-0.073
N3875 X-9.117 Y-52.562 I-20.956 J-2.588
N3880 G1 X-9.174 Y-52.225
N3885 X-9.218 Y-51.887
N3890 X-9.249 Y-51.547
N3895 X-9.26 Y-51.392
N3900 G3 X-9.363 Y-50.615 I-6.391 J-0.452
N3905 X-9.688 Y-49.288 I-20.124 J-4.235
N3910 G2 X-10.805 Y-41.15 I36.51 J9.156
N3915 X-10.8 Y-38.729 I36.299 J1.133
N3920 X-9.67 Y-30.781 I35.716 J-1.021
N3925 G1 X-9.454 Y-29.947
N3930 X-9.433 Y-29.869
N3935 X-9.412 Y-29.79
N3940 G3 X-9.189 Y-28.537 I-5.915 J1.698
N3945 G1 X-9.179 Y-28.401
N3950 G2 X-9.06 Y-27.489 I7.961 J-0.576
N3955 G3 X-8.856 Y-26.22 I-22.95 J4.327
N3960 X-8.732 Y-24.711 I-11.219 J1.68
N3965 G1 X-8.724 Y-24.183
N3970 G2 X-7.46 Y-22.831 I1.378 J-0.021
N3975 X-4.489 Y-22.805 I1.677 J-22.359
N3980 G1 X-4.211 Y-22.806
N3985 X-3.933 Y-22.818
N3990 X-3.657 Y-22.843
N3995 X-3.381 Y-22.878
N4000 X-3.107 Y-22.926
N4005 G3 X-1.867 Y-23.174 I5.884 J26.187
N4010 G1 X-1.701 Y-23.193
N4015 X-1.535 Y-23.205
N4020 X-1.369 Y-23.21
N4025 X0.657 Y-23.216
N4030 G3 X3.084 Y-23.073 I0.063 J19.569
N4035 X4.031 Y-22.934 I-0.981 J10.007
N4040 X4.604 Y-22.715 I-0.282 J1.601
N4045 X5.372 Y-21.431 I-0.855 J1.383 F#106
N4050 G1 X5.375 Y-21.386
N4055 G3 X5.379 Y-18.614 I-22.273 J1.42 F#100
N4060 G1 X5.373 Y-18.519
N4065 G3 X4.085 Y-17.058 I-1.566 J-0.083
N4070 X-0.679 Y-16.743 I-3.556 J-17.59
N4075 G1 X-1.317 Y-16.736
N4080 X-1.955 Y-16.72
N4085 X-2.611 Y-16.695
N4090 G2 X-5.462 Y-16.508 I2.375 J58.161
N4095 G1 X-5.681 Y-16.489
N4100 G2 X-8.76 Y-15.921 I1.526 J16.927
N4105 G3 X-9.534 Y-15.721 I-5.04 J-17.903
N4110 G2 X-10.686 Y-15.446 I3.671 J17.896
N4115 G1 X-10.84 Y-15.404
N4120 X-10.997 Y-15.375
N4125 X-11.156 Y-15.36
N4130 X-11.316 Y-15.357
N4135 X-11.476 Y-15.368
N4140 X-11.634 Y-15.392
N4145 X-11.789 Y-15.428
N4150 X-11.941 Y-15.478
N4155 X-12.088 Y-15.54
N4160 X-12.23 Y-15.613
N4165 X-13.612 Y-16.408
N4170 G2 X-14.125 Y-16.626 I-1.156 J2.011
N4175 G3 X-15.527 Y-18.669 I0.541 J-1.874
N4180 G1 X-15.503 Y-18.941
N4185 G2 X-15.495 Y-19.273 I-2.714 J-0.236
N4190 G1 X-15.51 Y-19.707
N4195 G2 X-15.597 Y-20.709 I-9.845 J0.346
N4200 G1 X-15.983 Y-23.504
N4205 G3 X-15.431 Y-26.145 I3.968 J-0.548
N4210 G2 X-13.447 Y-30.746 I-15.047 J-9.215
N4215 G1 X-13.436 Y-30.788
N4220 G2 X-12.252 Y-38.79 I-33.251 J-9.009
N4225 X-12.255 Y-41.262 I-33.941 J-1.19
N4230 X-13.469 Y-49.207 I-33.311 J1.026
N4235 G1 X-13.476 Y-49.232
N4240 G2 X-15.535 Y-53.849 I-16.623 J4.646
N4245 G1 X-15.675 Y-54.069
N4250 G3 X-16.109 Y-56.485 I2.731 J-1.737
N4255 G2 X-15.949 Y-62.178 I-15.267 J-3.278
N4260 G1 X-16.149 Y-63.457
N4265 G3 X-15.589 Y-66.14 I3.832 J-0.6
N4270 G2 X-13.516 Y-70.771 I-14.687 J-9.351
N4275 G1 X-13.512 Y-70.788
N4280 G2 X-12.281 Y-78.8 I-32.047 J-9.025
N4285 X-12.284 Y-81.249 I-32.548 J-1.181
N4290 X-13.545 Y-89.207 I-32.24 J1.03
N4295 X-15.692 Y-93.853 I-16.383 J4.754
N4300 G3 X-16.337 Y-95.999 I3.248 J-2.147
N4305 X-16.3 Y-96.539 I3.894 J0.
N4310 G1 X-16.18 Y-97.398
N4315 G2 X-16.385 Y-103.818 I-18.679 J-2.615
N4320 G1 X-16.444 Y-104.104
N4325 G3 X-16.109 Y-105.571 I1.777 J-0.366
N4330 G2 X-13.75 Y-110.234 I-11.343 J-8.667
N4335 G1 X-13.588 Y-110.787
N4340 G2 X-12.309 Y-118.811 I-30.931 J-9.041
N4345 X-12.313 Y-121.236 I-31.255 J-1.171
N4350 X-13.621 Y-129.208 I-31.249 J1.035
N4355 G1 X-13.781 Y-129.739
N4360 G2 X-16.221 Y-134.417 I-13.476 J4.054
N4365 G3 X-16.582 Y-135.926 I1.445 J-1.143
N4370 G1 X-16.525 Y-136.206
N4375 G2 X-16.564 Y-143.818 I-18.313 J-3.713
N4380 G1 X-16.623 Y-144.094
N4385 G3 X-16.277 Y-145.571 I1.741 J-0.371
N4390 G2 X-13.823 Y-150.262 I-11.11 J-8.801
N4395 G1 X-13.664 Y-150.787
N4400 G2 X-12.338 Y-158.823 I-29.897 J-9.059
N4405 X-12.341 Y-161.222 I-30.048 J-1.16
N4410 X-13.697 Y-169.209 I-30.331 J1.04
N4415 G1 X-13.853 Y-169.71
N4420 G2 X-16.39 Y-174.418 I-13.365 J4.164
N4425 G3 X-16.761 Y-175.935 I1.398 J-1.145
N4430 G1 X-16.709 Y-176.18
N4435 X-16.694 Y-176.248
N4440 X-16.59 Y-176.68
N4445 G2 X-16.259 Y-180.965 I-13.262 J-3.18
N4450 G3 X-16.371 Y-182.997 I10.815 J-1.612
N4455 X-15.966 Y-183.515 I0.545 J0.009
N4460 G1 X-15.547 Y-183.627
N4465 G2 X-12.59 Y-184.969 I-2.548 J-9.541
N4470 G1 X-12.339 Y-185.138
N4475 G3 X-10.687 Y-185.346 I1.034 J1.54
N4480 G2 X-9.557 Y-185.035 I5.029 J-16.049
N4485 G3 X-8.762 Y-184.8 I-4.698 J17.373
N4490 G2 X-5.7 Y-184.161 I4.58 J-14.292
N4495 G1 X-5.543 Y-184.145
N4500 G2 X-2.55 Y-183.933 I4.978 J-48.97
N4505 G1 X-1.836 Y-183.907
N4510 G2 X-0.798 Y-183.891 I0.953 J-27.837
N4515 G1 X0.403 Y-183.894
N4520 G3 X3.337 Y-183.721 I0.073 J23.697
N4525 X4.477 Y-183.554 I-1.133 J11.729
N4530 X6.103 Y-181.734 I-0.34 J1.94
N4535 G1 X6.106 Y-181.681
N4540 G3 X6.114 Y-178.319 I-27.012 J1.743
N4545 G1 X6.107 Y-178.203
N4550 G3 X4.545 Y-176.43 I-1.9 J-0.099
N4555 X1.875 Y-176.056 I-5.452 J-29.283
N4560 G1 X-1.26 Y-176.045
N4565 G3 X-1.901 Y-176.096 I-0.035 J-3.577
N4570 X-3.126 Y-176.388 I3.751 J-18.474
N4575 G1 X-3.393 Y-176.446
N4580 X-3.662 Y-176.49
N4585 X-3.934 Y-176.521
N4590 X-4.207 Y-176.537
N4595 X-4.48 Y-176.54
N4600 G2 X-6.307 Y-176.543 I-1.03 J73.762
N4605 X-8.01 Y-174.961 I0.018 J1.727
N4610 G3 X-8.433 Y-172.522 I-15.373 J-1.406
N4615 G1 X-8.498 Y-172.212
N4620 X-8.557 Y-171.902
N4625 X-8.608 Y-171.59
N4630 G3 X-9.152 Y-169.318 I-14.71 J-2.321
N4635 G1 X-9.181 Y-169.229
N4640 G2 X-10.605 Y-161.138 I28.153 J9.128
N4645 Y-158.883 I27.611 J1.121
N4650 G1 X-10.574 Y-158.243
N4655 X-10.53 Y-157.604
N4660 X-10.472 Y-156.966
N4665 X-10.399 Y-156.33
N4670 X-10.313 Y-155.695
N4675 X-10.213 Y-155.063
N4680 X-10.099 Y-154.432
N4685 X-9.971 Y-153.805
N4690 X-9.83 Y-153.18
N4695 X-9.675 Y-152.558
N4700 X-9.506 Y-151.941
N4705 X-9.324 Y-151.326
N4710 X-9.129 Y-150.717
N4715 X-8.866 Y-149.927
N4720 X-8.826 Y-149.811
N4725 G3 X-8.704 Y-149.421 I-4.13 J1.503
N4730 G1 X-8.696 Y-149.389
N4735 G3 X-8.554 Y-148.6 I-4.918 J1.287
N4740 G1 X-8.54 Y-148.456
N4745 G2 X-8.363 Y-147.441 I6.879 J-0.677
N4750 G3 X-7.909 Y-145.098 I-26.198 J6.296
N4755 G1 X-7.88 Y-144.933
N4760 X-7.835 Y-144.772
N4765 X-7.775 Y-144.616
N4770 X-7.701 Y-144.466
N4775 X-7.613 Y-144.324
N4780 X-7.511 Y-144.19
N4785 X-7.397 Y-144.067
N4790 X-7.273 Y-143.956
N4795 X-7.138 Y-143.857
N4800 X-6.994 Y-143.771
N4805 X-6.842 Y-143.699
N4810 X-6.685 Y-143.641
N4815 X-6.523 Y-143.599
N4820 X-6.357 Y-143.573
N4825 X-6.243 Y-143.561
N4830 G2 X-5.947 Y-143.548 I0.243 J-2.235
N4835 G1 X-4.895 Y-143.573
N4840 G2 X-2.414 Y-143.906 I-0.269 J-11.408
N4845 G1 X-2.321 Y-143.929
N4850 G3 X-0.956 Y-144.098 I1.382 J5.568
N4855 G1 X0.324 Y-144.102
N4860 G3 X3.415 Y-143.919 I0.076 J24.909
N4865 X4.613 Y-143.744 I-1.198 J12.355
N4870 X6.325 Y-141.826 I-0.359 J2.043
N4875 G1 X6.328 Y-141.77
N4880 G3 X6.336 Y-138.229 I-28.446 J1.831
N4885 G1 X6.329 Y-138.108
N4890 G3 X4.684 Y-136.241 I-2.001 J-0.104
N4895 X-0.859 Y-135.84 I-4.235 J-20.039
N4900 X-2.418 Y-136.027 I-0.02 J-6.418
N4905 G2 X-4.922 Y-136.352 I-2.681 J10.857
N4910 G1 X-5.942 Y-136.368
N4915 G2 X-6.249 Y-136.351 I-0.034 J2.157
N4920 G1 X-6.306 Y-136.343
N4925 G2 X-7.831 Y-134.804 I0.223 J1.747
N4930 G3 X-8.265 Y-132.557 I-18.946 J-2.49
N4935 G1 X-8.323 Y-132.307
N4940 X-8.372 Y-132.055
N4945 X-8.411 Y-131.801
N4950 X-8.441 Y-131.546
N4955 X-8.455 Y-131.401
N4960 G3 X-8.598 Y-130.611 I-4.893 J-0.475
N4965 G1 X-8.605 Y-130.582
N4970 G3 X-8.731 Y-130.188 I-4.158 J-1.108
N4975 G1 X-8.771 Y-130.075
N4980 X-9.044 Y-129.275
N4985 G2 X-10.58 Y-120. I27.124 J9.256
N4990 G1 Y-119.965
N4995 G2 X-9.006 Y-110.715 I28.089 J-0.019
N5000 G1 X-8.731 Y-109.927
N5005 X-8.688 Y-109.811
N5010 G3 X-8.56 Y-109.42 I-3.968 J1.518
N5015 G1 X-8.552 Y-109.39
N5020 G3 X-8.403 Y-108.598 I-4.703 J1.294
N5025 G1 X-8.388 Y-108.456
N5030 G2 X-8.203 Y-107.442 I6.564 J-0.678
N5035 G3 X-7.749 Y-105.246 I-22.734 J5.843
N5040 G1 X-7.72 Y-105.086
N5045 X-7.677 Y-104.93
N5050 X-7.619 Y-104.778
N5055 X-7.548 Y-104.632
N5060 X-7.463 Y-104.494
N5065 X-7.365 Y-104.364
N5070 X-7.256 Y-104.244
N5075 X-7.136 Y-104.134
N5080 X-7.007 Y-104.036
N5085 X-6.868 Y-103.951
N5090 X-6.723 Y-103.878
N5095 X-6.571 Y-103.82
N5100 X-6.415 Y-103.776
N5105 X-6.255 Y-103.747
N5110 G2 X-5.936 Y-103.73 I0.269 J-2.02
N5115 G1 X-4.901 Y-103.755
N5120 G2 X-2.414 Y-104.105 I-0.267 J-10.913
N5125 G3 X-0.858 Y-104.307 I1.575 J6.04
N5130 X4.747 Y-103.924 I1.424 J20.364
N5135 G1 X4.924 Y-103.886
N5140 X5.097 Y-103.833
N5145 X5.266 Y-103.766
N5150 X5.428 Y-103.685
N5155 X5.583 Y-103.591
N5160 X5.73 Y-103.484
N5165 X5.867 Y-103.365
N5170 X5.994 Y-103.235
N5175 X6.11 Y-103.095
N5180 X6.213 Y-102.946
N5185 X6.304 Y-102.788
N5190 X6.381 Y-102.624
N5195 X6.445 Y-102.453
N5200 X6.493 Y-102.278
N5205 X6.528 Y-102.1
N5210 X6.547 Y-101.919
N5215 X6.55 Y-101.858
N5220 G3 X6.558 Y-98.141 I-29.849 J1.919
N5225 G1 X6.55 Y-98.013
N5230 G3 X4.823 Y-96.052 I-2.101 J-0.11
N5235 X-0.858 Y-95.629 I-4.427 J-21.1
N5240 G1 X-1.12 Y-95.634
N5245 X-1.383 Y-95.651
N5250 X-1.644 Y-95.678
N5255 X-1.904 Y-95.717
N5260 X-2.161 Y-95.767
N5265 X-2.417 Y-95.828
N5270 G2 X-4.926 Y-96.17 I-2.689 J10.364
N5275 G1 X-5.936 Y-96.187
N5280 G2 X-6.254 Y-96.165 I-0.032 J1.928
N5285 X-7.652 Y-94.752 I0.246 J1.642
N5290 G3 X-8.103 Y-92.556 I-20.949 J-3.16
N5295 G1 X-8.165 Y-92.306
N5300 X-8.216 Y-92.055
N5305 X-8.258 Y-91.801
N5310 X-8.289 Y-91.546
N5315 X-8.304 Y-91.403
N5320 G3 X-8.454 Y-90.61 I-4.701 J-0.48
N5325 G1 X-8.462 Y-90.582
N5330 G3 X-8.594 Y-90.187 I-4.011 J-1.122
N5335 G1 X-8.636 Y-90.075
N5340 X-8.93 Y-89.252
N5345 G2 X-10.534 Y-80. I25.777 J9.234
N5350 G1 Y-79.993
N5355 G2 X-8.884 Y-70.714 I27.014 J-0.018
N5360 G1 X-8.596 Y-69.927
N5365 X-8.551 Y-69.811
N5370 G3 X-8.416 Y-69.419 I-3.821 J1.533
N5375 G1 X-8.408 Y-69.391
N5380 G3 X-8.252 Y-68.595 I-4.508 J1.3
N5385 G1 X-8.237 Y-68.456
N5390 G2 X-8.043 Y-67.444 I6.279 J-0.68
N5395 G3 X-7.592 Y-65.415 I-24.077 J6.409
N5400 G2 X-6.072 Y-64.02 I1.634 J-0.255
N5405 X-4.602 Y-63.939 I1.45 J-12.945
N5410 G1 X-4.306 Y-63.949
N5415 X-4.01 Y-63.971
N5420 X-3.716 Y-64.006
N5425 X-3.424 Y-64.053
N5430 X-3.134 Y-64.113
N5435 X-2.847 Y-64.185
N5440 X-2.413 Y-64.304
N5445 G3 X-0.857 Y-64.515 I1.574 J5.761
N5450 X4.882 Y-64.112 I1.422 J20.82
N5455 G1 X5.068 Y-64.072
N5460 X5.25 Y-64.017
N5465 X5.426 Y-63.947
N5470 X5.596 Y-63.862
N5475 X5.759 Y-63.763
N5480 X5.912 Y-63.651
N5485 X6.056 Y-63.527
N5490 X6.189 Y-63.39
N5495 X6.311 Y-63.244
N5500 X6.419 Y-63.087
N5505 X6.514 Y-62.922
N5510 X6.595 Y-62.75
N5515 X6.662 Y-62.571
N5520 X6.713 Y-62.388
N5525 X6.749 Y-62.201
N5530 X6.769 Y-62.011
N5535 X6.773 Y-61.947
N5540 G3 X6.78 Y-58.052 I-31.296 J2.009
N5545 G1 X6.772 Y-57.918
N5550 G3 X4.961 Y-55.862 I-2.204 J-0.116
N5555 X3.581 Y-55.65 I-2.867 J-14.081
N5560 X0.155 Y-55.426 I-3.511 J-27.474
N5565 G1 X-0.949 Y-55.423
N5570 G3 X-2.328 Y-55.605 I-0.016 J-5.193
N5575 G1 X-2.858 Y-55.749
N5580 G2 X-4.59 Y-55.985 I-1.767 J6.497
N5585 X-6.06 Y-55.892 I-0.046 J10.902
N5590 X-7.495 Y-54.573 I0.127 J1.577
N5595 G1 X-7.511 Y-54.488
N5600 X-7.795 Y-53.155
N5605 G3 X-7.948 Y-52.538 I-9.713 J-2.071
N5610 G2 X-8.169 Y-51.568 I9.556 J2.687
N5615 G1 X-8.176 Y-51.525
N5620 G3 X-8.762 Y-49.379 I-11.854 J-2.082
N5625 G1 X-8.818 Y-49.229
N5630 G2 X-10.489 Y-40. I24.55 J9.211
N5635 X-10.466 Y-38.893 I17.465 J0.19
N5640 X-8.785 Y-30.773 I25.675 J-1.081
N5645 G1 X-8.74 Y-30.655
N5650 G3 X-8.104 Y-28.419 I-12.192 J4.676
N5655 G2 X-7.882 Y-27.474 I11.232 J-2.136
N5660 G1 X-7.881 Y-27.468
N5665 G3 X-7.723 Y-26.839 I-11.152 J3.12
N5670 G1 X-7.427 Y-25.496
N5675 X-7.417 Y-25.443
N5680 G2 X-5.797 Y-24.091 I1.637 J-0.314
N5685 X-5.107 Y-24.103 I0.214 J-7.73
N5690 G1 X-4.844 Y-24.114
N5695 X-4.58 Y-24.116
N5700 X-4.475 Y-24.115
N5705 G2 X-3.174 Y-24.295 I0.048 J-4.455
N5710 G3 X-1.866 Y-24.671 I6.413 J19.848
N5715 G1 X-1.701 Y-24.699
N5720 X-1.535 Y-24.716
N5725 X-1.368 Y-24.723
N5730 X-1.196 Y-24.724
N5735 X0.086 Y-24.726
N5740 G3 X3.65 Y-24.514 I0.087 J28.544
N5745 X5.02 Y-24.312 I-1.477 J14.782
N5750 X6.991 Y-22.103 I-0.414 J2.353
N5755 G1 X6.995 Y-22.038
N5760 G3 X7.002 Y-17.962 I-32.745 J2.094
N5765 G1 X6.994 Y-17.822
N5770 G3 X5.1 Y-15.674 I-2.303 J-0.121
N5775 X-0.371 Y-15.211 I-4.528 J-20.939
N5780 G1 X-1.073 Y-15.204
N5785 X-1.774 Y-15.186
N5790 X-2.475 Y-15.155
N5795 X-2.635 Y-15.147
N5800 G2 X-5.536 Y-14.868 I1.985 J35.972
N5805 G1 X-5.706 Y-14.845
N5810 G2 X-8.761 Y-14.036 I1.748 J12.769
N5815 G3 X-9.596 Y-13.722 I-7.3 J-18.175
N5820 G1 X-10.288 Y-13.48
N5825 G3 X-12.868 Y-13.72 I-1.028 J-2.94
N5830 G1 X-14.648 Y-14.743
N5835 G2 X-15.389 Y-15.058 I-1.672 J2.908
N5840 G1 X-15.716 Y-15.152
N5845 G3 X-17.436 Y-17.713 I0.665 J-2.305
N5850 G1 X-17.37 Y-18.327
N5855 G2 X-17.351 Y-18.862 I-3.74 J-0.401
N5860 G1 X-17.389 Y-19.916
N5865 G2 X-17.976 Y-23.341 I-12.968 J0.459
N5870 G1 X-18.104 Y-23.752
N5875 X-18.124 Y-23.82
N5880 X-18.177 Y-24.01
N5885 G3 X-17.753 Y-25.565 I1.519 J-0.421
N5890 G2 X-14.432 Y-30.521 I-9.799 J-10.156
N5895 G1 X-14.321 Y-30.801
N5900 G2 X-12.567 Y-40. I-23.163 J-9.182
N5905 G1 Y-40.018
N5910 G2 X-14.361 Y-49.215 I-24.559 J0.016
N5915 G1 X-14.54 Y-49.656
N5920 G2 X-17.702 Y-54.274 I-12.106 J4.9
N5925 G3 X-18.233 Y-56.297 I1.349 J-1.435
N5930 G1 X-18.107 Y-56.7
N5935 G2 X-18.135 Y-63.3 I-10.41 J-3.257
N5940 G1 X-18.233 Y-63.604
N5945 G3 X-17.665 Y-65.804 I2.023 J-0.652
N5950 G2 X-14.629 Y-70.227 I-8.609 J-9.162
N5955 G1 X-14.389 Y-70.817
N5960 G2 X-12.596 Y-80. I-22.524 J-9.167
N5965 X-14.436 Y-89.215 I-24.069 J0.016
N5970 G1 X-14.633 Y-89.69
N5975 G2 X-15.151 Y-90.812 I-14.679 J6.096
N5980 G1 X-15.17 Y-90.85
N5985 G2 X-17.581 Y-94.004 I-9.818 J5.004
N5990 G1 X-17.612 Y-94.033
N5995 G3 X-18.305 Y-96.621 I1.664 J-1.832
N6000 G1 X-18.232 Y-96.849
N6005 G2 X-18.258 Y-103.15 I-9.686 J-3.11
N6010 G1 X-18.335 Y-103.383
N6015 G3 X-17.643 Y-105.992 I2.344 J-0.774
N6020 G1 X-17.48 Y-106.138
N6025 G2 X-15.398 Y-108.801 I-6.519 J-7.243
N6030 X-14.621 Y-110.441 I-17.096 J-9.103
N6035 G1 X-14.458 Y-110.833
N6040 G2 X-12.624 Y-120. I-21.916 J-9.151
N6045 X-14.504 Y-129.198 I-23.515 J0.016
N6050 G1 X-14.657 Y-129.557
N6055 G2 X-15.455 Y-131.205 I-17.456 J7.434
N6060 X-17.592 Y-133.841 I-8.222 J4.483
N6065 G1 X-17.736 Y-133.964
N6070 G3 X-18.479 Y-136.619 I1.608 J-1.881
N6075 G1 X-18.357 Y-136.987
N6080 G2 X-18.382 Y-143.011 I-9.043 J-2.976
N6085 G1 X-18.509 Y-143.387
N6090 G3 X-17.765 Y-146.061 I2.338 J-0.79
N6095 G1 X-17.653 Y-146.156
N6100 G2 X-15.497 Y-148.801 I-6.014 J-7.105
N6105 X-14.699 Y-150.442 I-16.834 J-9.191
N6110 G1 X-14.523 Y-150.854
N6115 G2 X-14.587 Y-169.218 I-21.272 J-9.107
N6120 G1 X-14.735 Y-169.556
N6125 G2 X-15.554 Y-171.206 I-17.237 J7.523
N6130 X-17.767 Y-173.819 I-7.782 J4.348
N6135 G1 X-17.856 Y-173.89
N6140 G3 X-18.654 Y-176.602 I1.541 J-1.926
N6145 G1 X-18.381 Y-177.415
N6150 G2 X-18.028 Y-179.605 I-6.448 J-2.164
N6155 G3 X-18.019 Y-179.974 I6.862 J-0.026
N6160 G1 X-17.985 Y-180.667
N6165 G2 X-18.167 Y-182.448 I-5.896 J-0.296
N6170 G1 X-18.312 Y-183.005
N6175 G3 X-16.974 Y-185.212 I1.743 J-0.453
N6180 G2 X-13.285 Y-186.811 I-2.494 J-10.81
N6185 G1 X-13.003 Y-187.
N6190 G3 X-10.272 Y-187.306 I1.66 J2.473
N6195 G1 X-9.61 Y-187.051
N6200 G3 X-8.772 Y-186.706 I-7.249 J18.798
N6205 G2 X-5.675 Y-185.812 I4.907 J-11.196
N6210 G1 X-5.503 Y-185.787
N6215 G2 X-2.698 Y-185.5 I4.463 J-29.801
N6220 G1 X-1.911 Y-185.458
N6225 G2 X-0.727 Y-185.431 I1.118 J-22.612
N6230 G1 X-0.233 Y-185.432
N6235 G3 X3.968 Y-185.182 I0.098 J33.777
N6240 X5.445 Y-184.969 I-1.716 J17.061
N6245 X7.751 Y-182.419 I-0.465 J2.739
N6250 G1 X7.756 Y-182.34
N6255 G3 X7.766 Y-177.659 I-37.61 J2.421
N6260 G1 X7.757 Y-177.505
N6265 G3 X5.523 Y-175.005 I-2.7 J-0.164
N6270 X1.875 Y-174.502 I-7.983 J-44.413
N6275 G1 X-0.63 Y-174.495
N6280 G3 X-2.793 Y-174.802 I-0.022 J-7.609
N6285 G1 X-3.307 Y-174.953
N6290 G2 X-5.065 Y-175.145 I-1.418 J4.837
N6295 X-6.838 Y-173.737 I0.134 J1.991
N6300 G1 X-7.231 Y-172.464
N6305 G2 X-7.414 Y-171.637 I4.701 J1.474
N6310 G1 X-7.424 Y-171.561
N6315 G3 X-7.833 Y-170.22 I-4.23 J-0.56
N6320 G1 X-7.918 Y-170.041
N6325 X-8.291 Y-169.213
N6330 G2 X-8.229 Y-150.722 I20.381 J9.177
N6335 G1 X-8.193 Y-150.644
N6340 G3 X-7.427 Y-148.416 I-10.898 J4.996
N6345 G2 X-7.158 Y-147.479 I10.314 J-2.447
N6350 G1 X-6.841 Y-146.527
N6355 G2 X-4.599 Y-144.945 I2.192 J-0.726
N6360 X-2.864 Y-145.249 I-0.127 J-5.826
N6365 G1 X-2.548 Y-145.355
N6370 G3 X-1.7 Y-145.565 I1.681 J4.987
N6375 G1 X-1.678 Y-145.568
N6380 G3 X-0.898 Y-145.632 I0.795 J4.957
N6385 G1 X-0.185 Y-145.634
N6390 G3 X3.92 Y-145.399 I0.1 J34.285
N6395 X5.485 Y-145.178 I-1.651 J17.373
N6400 X7.978 Y-142.46 I-0.494 J2.955
N6405 G1 X7.982 Y-142.393
N6410 X8.001 Y-142.084
N6415 G3 X8.011 Y-137.915 I-36.002 J2.17
N6420 G1 X7.99 Y-137.531
N6425 X7.986 Y-137.469
N6430 X7.954 Y-137.043
N6435 G3 X5.979 Y-134.866 I-2.379 J-0.175
N6440 X1.875 Y-134.299 I-8.428 J-45.817
N6445 G1 X-0.738 Y-134.293
N6450 G3 X-2.697 Y-134.607 I-0.018 J-6.163
N6455 G1 X-2.967 Y-134.696
N6460 G2 X-4.49 Y-134.955 I-1.608 J4.843
N6465 G1 X-4.598 Y-134.957
N6470 G2 X-6.727 Y-133.461 I-0.037 J2.211
N6475 G1 X-7.054 Y-132.503
N6480 G2 X-7.318 Y-131.602 I10.296 J3.502
N6485 G3 X-8.115 Y-129.34 I-11.956 J-2.945
N6490 G1 X-8.152 Y-129.262
N6495 G2 X-8.095 Y-110.689 I19.77 J9.226
N6500 G3 X-7.266 Y-108.413 I-11.761 J5.576
N6505 G1 X-7.262 Y-108.4
N6510 G2 X-6.985 Y-107.495 I11.236 J-2.946
N6515 G1 X-6.668 Y-106.611
N6520 G2 X-4.529 Y-105.15 I2.088 J-0.76
N6525 X-2.931 Y-105.432 I-0.123 J-5.367
N6530 G1 X-2.575 Y-105.552
N6535 G3 X-0.888 Y-105.833 I1.703 J5.03
N6540 X6.121 Y-105.267 I1.378 J26.62
N6545 G1 X6.304 Y-105.231
N6550 X6.484 Y-105.181
N6555 X6.66 Y-105.117
N6560 X6.83 Y-105.039
N6565 X6.994 Y-104.948
N6570 X7.15 Y-104.845
N6575 X7.298 Y-104.731
N6580 X7.437 Y-104.604
N6585 X7.565 Y-104.468
N6590 X7.683 Y-104.322
N6595 X7.789 Y-104.167
N6600 X7.883 Y-104.004
N6605 X7.964 Y-103.834
N6610 X8.031 Y-103.659
N6615 X8.085 Y-103.478
N6620 X8.125 Y-103.294
N6625 X8.15 Y-103.108
N6630 G3 X8.243 Y-101.855 I-20.579 J2.152
N6635 X8.252 Y-98.144 I-34.701 J1.942
N6640 X8.167 Y-96.877 I-20.742 J-0.759
N6645 X6.143 Y-94.676 I-2.431 J-0.205
N6650 X-0.887 Y-94.08 I-6. J-28.991
N6655 G1 X-1.177 Y-94.089
N6660 X-1.465 Y-94.113
N6665 X-1.752 Y-94.153
N6670 X-2.036 Y-94.208
N6675 X-2.317 Y-94.279
N6680 X-2.593 Y-94.364
N6685 X-3.033 Y-94.51
N6690 G2 X-4.42 Y-94.746 I-1.466 J4.422
N6695 X-6.589 Y-93.271 I-0.038 J2.276
N6700 G1 X-6.876 Y-92.49
N6705 G2 X-7.155 Y-91.617 I13.326 J4.747
N6710 G1 X-7.253 Y-91.273
N6715 G3 X-7.952 Y-89.432 I-11.131 J-3.17
N6720 G1 X-7.955 Y-89.425
N6725 G2 X-7.897 Y-70.529 I19.549 J9.388
N6730 G3 X-7.239 Y-68.849 I-10.121 J4.937
N6735 G1 X-7.099 Y-68.387
N6740 G2 X-6.804 Y-67.505 I14.866 J-4.491
N6745 G1 X-6.69 Y-67.198
N6750 X-6.658 Y-67.115
N6755 X-6.481 Y-66.672
N6760 G2 X-4.502 Y-65.364 I1.932 J-0.773
N6765 X-2.955 Y-65.632 I-0.118 J-5.271
N6770 G1 X-2.594 Y-65.752
N6775 G3 X-0.874 Y-66.034 I1.736 J5.216
N6780 X6.207 Y-65.472 I1.371 J27.626
N6785 G1 X6.401 Y-65.434
N6790 X6.591 Y-65.381
N6795 X6.778 Y-65.314
N6800 X6.958 Y-65.232
N6805 X7.132 Y-65.137
N6810 X7.298 Y-65.028
N6815 X7.455 Y-64.907
N6820 X7.602 Y-64.774
N6825 X7.739 Y-64.63
N6830 X7.864 Y-64.476
N6835 X7.977 Y-64.313
N6840 X8.077 Y-64.141
N6845 X8.164 Y-63.962
N6850 X8.236 Y-63.777
N6855 X8.294 Y-63.586
N6860 X8.338 Y-63.392
N6865 X8.366 Y-63.194
N6870 G3 X8.48 Y-61.67 I-18.647 J2.16
N6875 X8.488 Y-58.329 I-33.78 J1.758
N6880 X8.385 Y-56.805 I-18.323 J-0.478
N6885 X6.214 Y-54.469 I-2.603 J-0.242
N6890 X3.817 Y-54.119 I-4.853 J-24.797
N6895 G1 X3.17 Y-54.051
N6900 X2.521 Y-53.996
N6905 X1.872 Y-53.952
N6910 X1.222 Y-53.92
N6915 X0.571 Y-53.901
N6920 X-0.079 Y-53.893
N6925 X-0.874 Y-53.891
N6930 G3 X-2.586 Y-54.156 I-0.016 J-5.538
N6935 G1 X-2.945 Y-54.272
N6940 G2 X-4.51 Y-54.53 I-1.646 J5.118
N6945 X-6.362 Y-53.308 I-0.03 J1.97
N6950 G1 X-6.535 Y-52.889
N6955 X-6.57 Y-52.799
N6960 X-6.674 Y-52.522
N6965 G2 X-6.972 Y-51.578 I8.747 J3.283
N6970 G3 X-7.594 Y-49.906 I-8.406 J-2.174
N6975 G1 X-7.881 Y-49.325
N6980 G2 X-7.823 Y-30.63 I18.799 J9.289
N6985 G1 X-7.577 Y-30.141
N6990 G3 X-6.883 Y-28.362 I-9.174 J4.604
N6995 G2 X-6.609 Y-27.533 I10.47 J-2.998
N7000 X-6.31 Y-26.79 I8.866 J-3.144
N7005 X-4.476 Y-25.578 I1.845 J-0.797
N7010 X-3.201 Y-25.781 I0.021 J-3.97
N7015 G1 X-2.394 Y-26.05
N7020 G3 X-1.215 Y-26.236 I1.152 J3.46
N7025 G1 X-0.026 Y-26.237
N7030 G3 X3.765 Y-26.046 I0.104 J35.646
N7035 X5.566 Y-25.813 I-1.476 J18.458
N7040 X8.657 Y-22.545 I-0.586 J3.649
N7045 G1 X8.675 Y-22.308
N7050 X8.713 Y-21.517
N7055 G3 X8.721 Y-18.482 I-33.042 J1.601
N7060 G1 X8.683 Y-17.62
N7065 X8.676 Y-17.5
N7070 X8.666 Y-17.381
N7075 G3 X5.642 Y-14.159 I-3.614 J-0.361
N7080 X-0.305 Y-13.684 I-5.106 J-26.471
N7085 G1 X-0.892 Y-13.675
N7090 X-1.478 Y-13.651
N7095 X-2.063 Y-13.613
N7100 X-2.648 Y-13.559
N7105 X-3.23 Y-13.49
N7110 X-3.811 Y-13.407
N7115 X-4.39 Y-13.309
N7120 X-4.965 Y-13.195
N7125 X-5.538 Y-13.068
N7130 X-6.107 Y-12.925
N7135 X-6.673 Y-12.768
N7140 X-7.234 Y-12.597
N7145 X-7.791 Y-12.412
N7150 X-8.343 Y-12.212
N7155 X-8.889 Y-11.998
N7160 X-9.43 Y-11.77
N7165 X-9.575 Y-11.707
N7170 G3 X-13.768 Y-11.966 I-1.844 J-4.22
N7175 G1 X-15.393 Y-12.929
N7180 G2 X-16.616 Y-13.443 I-2.474 J4.173
N7185 G1 X-17.688 Y-13.729
N7190 G3 X-19.673 Y-16.129 I0.692 J-2.593
N7195 X-19.553 Y-17.224 I3.047 J-0.22
N7200 G1 X-19.45 Y-17.571
N7205 G2 X-19.24 Y-19.14 I-4.83 J-1.444
N7210 G1 X-19.264 Y-20.131
N7215 X-19.267 Y-20.29
N7220 G2 X-19.667 Y-22.682 I-7.496 J0.027
N7225 G1 X-19.886 Y-23.323
N7230 G3 X-20.06 Y-24.275 I3.118 J-1.063
N7235 G1 X-20.096 Y-25.337
N7240 G3 X-19.274 Y-26.643 I1.375 J-0.046 F#106
N7245 G1 X-19.268 Y-26.645
N7250 G2 X-15.83 Y-29.674 I-3.042 J-6.92 F#100
N7255 G1 X-15.802 Y-29.72
N7260 G2 X-15.489 Y-30.283 I-8.34 J-5.008
N7265 G1 X-15.22 Y-30.806
N7270 G2 X-15.279 Y-49.238 I-17.83 J-9.158
N7275 X-15.861 Y-50.301 I-12.686 J6.256
N7280 G1 X-16.039 Y-50.578
N7285 X-16.228 Y-50.847
N7290 X-16.43 Y-51.107
N7295 X-16.643 Y-51.357
N7300 X-16.867 Y-51.598
N7305 X-17.101 Y-51.829
N7310 X-17.346 Y-52.049
N7315 X-17.6 Y-52.258
N7320 X-17.863 Y-52.455
N7325 X-18.135 Y-52.64
N7330 X-18.415 Y-52.812
N7335 X-18.703 Y-52.972
N7340 X-18.997 Y-53.119
N7345 X-19.298 Y-53.253
N7350 G3 X-20.202 Y-54.653 I0.568 J-1.36
N7355 G1 X-20.173 Y-55.719
N7360 G3 X-20.006 Y-56.685 I3.398 J0.092
N7365 G1 X-19.785 Y-57.358
N7370 G2 X-19.379 Y-59.661 I-7.849 J-2.572
N7375 G1 X-19.373 Y-59.833
N7380 G2 X-19.376 Y-60.354 I-6.774 J-0.22
N7385 X-19.797 Y-62.625 I-8.326 J0.368
N7390 G1 X-20.026 Y-63.31
N7395 G3 X-20.2 Y-64.287 I3.237 J-1.08
N7400 G1 X-20.231 Y-65.302
N7405 G3 X-19.27 Y-66.797 I1.569 J-0.048
N7410 G1 X-18.925 Y-66.942
N7415 G2 X-18.269 Y-67.265 I-2.375 J-5.652
N7420 G1 X-18.228 Y-67.288
N7425 G2 X-16.383 Y-68.985 I-2.758 J-4.849
N7430 G1 X-16.199 Y-69.254
N7435 G2 X-15.535 Y-70.359 I-9.001 J-6.163
N7440 G1 X-15.269 Y-70.867
N7445 G2 X-15.329 Y-89.177 I-17.387 J-9.098
N7450 G1 X-15.537 Y-89.568
N7455 G2 X-16.268 Y-90.761 I-10.15 J5.396
N7460 G1 X-16.426 Y-90.988
N7465 G2 X-18.231 Y-92.617 I-4.439 J3.106
N7470 G1 X-18.284 Y-92.646
N7475 G2 X-18.963 Y-92.97 I-2.922 J5.251
N7480 G1 X-19.281 Y-93.098
N7485 G3 X-20.336 Y-94.703 I0.629 J-1.562
N7490 G1 X-20.311 Y-95.711
N7495 G3 X-20.145 Y-96.694 I3.518 J0.089
N7500 G1 X-19.954 Y-97.293
N7505 G2 X-19.579 Y-99.728 I-7.534 J-2.406
N7510 G1 X-19.581 Y-100.278
N7515 G2 X-19.969 Y-102.699 I-7.916 J0.028
N7520 G1 X-20.165 Y-103.302
N7525 G3 X-20.337 Y-104.294 I3.358 J-1.093
N7530 G1 X-20.364 Y-105.251
N7535 G3 X-19.255 Y-106.95 I1.779 J-0.05
N7540 G1 X-18.981 Y-107.061
N7545 G2 X-18.289 Y-107.395 I-2.257 J-5.558
N7550 G1 X-18.22 Y-107.434
N7555 G2 X-16.47 Y-109.022 I-2.627 J-4.654
N7560 G1 X-16.363 Y-109.174
N7565 G2 X-15.525 Y-110.54 I-10.828 J-7.586
N7570 G1 X-15.32 Y-110.924
N7575 G2 X-15.38 Y-129.12 I-16.959 J-9.042
N7580 G1 X-15.533 Y-129.4
N7585 G2 X-16.422 Y-130.823 I-11.835 J6.411
N7590 G1 X-16.513 Y-130.95
N7595 G2 X-18.224 Y-132.472 I-4.218 J3.019
N7600 G1 X-18.313 Y-132.521
N7605 G2 X-19.01 Y-132.849 I-2.863 J5.187
N7610 G1 X-19.252 Y-132.944
N7615 G3 X-20.47 Y-134.777 I0.702 J-1.788
N7620 G1 X-20.448 Y-135.706
N7625 G3 X-20.285 Y-136.7 I3.636 J0.086
N7630 G1 X-20.1 Y-137.295
N7635 G2 X-19.736 Y-139.723 I-7.718 J-2.399
N7640 G1 X-19.738 Y-140.284
N7645 G2 X-20.116 Y-142.697 I-8.087 J0.029
N7650 G1 X-20.305 Y-143.295
N7655 G3 X-20.474 Y-144.3 I3.478 J-1.102
N7660 G1 X-20.502 Y-145.329
N7665 G3 X-19.371 Y-147.045 I1.795 J-0.048
N7670 G1 X-19.024 Y-147.184
N7675 G2 X-18.321 Y-147.519 I-2.194 J-5.508
N7680 G1 X-18.212 Y-147.579
N7685 G2 X-16.558 Y-149.059 I-2.492 J-4.452
N7690 G1 X-16.507 Y-149.13
N7695 G2 X-15.529 Y-150.691 I-12.073 J-8.653
N7700 G1 X-15.373 Y-150.977
N7705 G2 X-15.434 Y-169.065 I-16.545 J-8.989
N7710 G1 X-15.54 Y-169.258
N7715 G2 X-16.56 Y-170.855 I-13.003 J7.178
N7720 G1 X-16.601 Y-170.911
N7725 G2 X-18.218 Y-172.329 I-3.992 J2.924
N7730 G1 X-18.353 Y-172.402
N7735 G2 X-19.043 Y-172.724 I-2.832 J5.177
N7740 G1 X-19.24 Y-172.801
N7745 G3 X-20.604 Y-174.845 I0.778 J-1.997
N7750 G1 X-20.585 Y-175.702
N7755 G3 X-20.426 Y-176.705 I3.752 J0.083
N7760 G1 X-20.225 Y-177.37
N7765 G2 X-19.893 Y-179.641 I-7.423 J-2.244
N7770 G3 X-19.889 Y-179.938 I7.811 J-0.028
N7775 G1 X-19.859 Y-180.808
N7780 G2 X-20.059 Y-182.484 I-5.524 J-0.19
N7785 G1 X-20.123 Y-182.713
N7790 G3 X-20.267 Y-183.934 I3.85 J-1.075
N7795 G1 X-20.233 Y-184.895
N7800 G3 X-18.553 Y-186.817 I2.024 J0.074
N7805 G2 X-18.064 Y-186.905 I-2.129 J-13.195
N7810 X-14.115 Y-188.606 I-2.041 J-10.175
N7815 G3 X-13.063 Y-189.288 I6.773 J9.302
N7820 X-9.936 Y-189.283 I1.559 J2.572
N7825 G1 X-9.834 Y-189.22
N7830 G2 X-9.281 Y-188.942 I1.954 J-3.201
N7835 G1 X-9.136 Y-188.881
N7840 X-8.544 Y-188.622
N7845 G2 X-0.621 Y-186.972 I7.868 J-17.936
N7850 G1 X0.172 Y-186.974
N7855 G3 X3.572 Y-186.828 I0.103 J37.329
N7860 X6.583 Y-186.443 I-1.865 J26.564
N7865 G1 X6.805 Y-186.401
N7870 X7.024 Y-186.345
N7875 X7.238 Y-186.273
N7880 X7.447 Y-186.187
N7885 X7.649 Y-186.087
N7890 X7.844 Y-185.973
N7895 X8.031 Y-185.846
N7900 X8.209 Y-185.707
N7905 X8.377 Y-185.556
N7910 X8.534 Y-185.393
N7915 X8.68 Y-185.221
N7920 X8.813 Y-185.039
N7925 X8.934 Y-184.848
N7930 X9.042 Y-184.649
N7935 X9.135 Y-184.444
N7940 X9.215 Y-184.232
N7945 X9.28 Y-184.016
N7950 X9.329 Y-183.795
N7955 X9.364 Y-183.572
N7960 G3 X9.552 Y-181.163 I-16.923 J2.531
N7965 X9.558 Y-178.837 I-31.429 J1.241
N7970 X9.431 Y-176.794 I-15.283 J0.074
N7975 G1 X9.396 Y-176.559
N7980 X9.347 Y-176.327
N7985 X9.284 Y-176.099
N7990 X9.207 Y-175.875
N7995 X9.116 Y-175.656
N8000 X9.012 Y-175.443
N8005 X8.894 Y-175.238
N8010 X8.765 Y-175.039
N8015 X8.623 Y-174.849
N8020 X8.47 Y-174.669
N8025 X8.306 Y-174.498
N8030 X8.132 Y-174.337
N8035 X7.948 Y-174.188
N8040 X7.755 Y-174.05
N8045 X7.554 Y-173.924
N8050 X7.346 Y-173.811
N8055 X7.131 Y-173.712
N8060 X6.911 Y-173.625
N8065 X6.685 Y-173.553
N8070 X6.456 Y-173.494
N8075 X6.223 Y-173.45
N8080 G3 X-1.177 Y-172.938 I-6.158 J-35.298
N8085 X-2.348 Y-173.088 I-0.056 J-4.198
N8090 G1 X-3.25 Y-173.337
N8095 G2 X-6.015 Y-172.062 I-0.627 J2.277
N8100 X-6.523 Y-170.912 I16.237 J7.857
N8105 G3 X-7.437 Y-169.033 I-15.426 J-6.344
N8110 G1 X-7.501 Y-168.922
N8115 G2 X-7.445 Y-151.042 I15.691 J8.891
N8120 G1 X-7.439 Y-151.032
N8125 G3 X-6.588 Y-149.323 I-13.827 J7.949
N8130 G1 X-6.418 Y-148.921
N8135 G2 X-6.115 Y-148.258 I12.866 J-5.469
N8140 X-5.624 Y-147.34 I6.436 J-2.852
N8145 X-4.48 Y-146.68 I1.159 J-0.687
N8150 X-2.654 Y-146.907 I0.073 J-6.872
N8155 G1 X-2.487 Y-146.951
N8160 G3 X-0.855 Y-147.165 I1.649 J6.252
N8165 G1 X0.23 Y-147.168
N8170 G3 X3.514 Y-147.034 I0.104 J37.668
N8175 X6.662 Y-146.639 I-1.761 J26.809
N8180 G1 X6.882 Y-146.599
N8185 X7.099 Y-146.544
N8190 X7.312 Y-146.475
N8195 X7.52 Y-146.393
N8200 X7.722 Y-146.297
N8205 X7.917 Y-146.188
N8210 X8.105 Y-146.067
N8215 X8.285 Y-145.934
N8220 X8.456 Y-145.79
N8225 X8.617 Y-145.634
N8230 X8.768 Y-145.469
N8235 X8.907 Y-145.294
N8240 X9.035 Y-145.111
N8245 X9.151 Y-144.919
N8250 X9.254 Y-144.721
N8255 X9.345 Y-144.516
N8260 X9.421 Y-144.306
N8265 X9.484 Y-144.091
N8270 X9.533 Y-143.873
N8275 X9.567 Y-143.652
N8280 X9.689 Y-142.661
N8285 G3 X9.727 Y-142.192 I-5.524 J0.68
N8290 G1 X9.768 Y-141.106
N8295 G3 X9.774 Y-138.894 I-31.239 J1.184
N8300 G1 X9.736 Y-137.735
N8305 G3 X9.7 Y-137.267 I-5.499 J-0.181
N8310 G1 X9.467 Y-135.303
N8315 G3 X7.705 Y-133.474 I-2.088 J-0.248
N8320 X-0.864 Y-132.733 I-7.709 J-39.219
N8325 G1 X-1.135 Y-132.74
N8330 X-1.406 Y-132.759
N8335 X-1.675 Y-132.788
N8340 X-1.943 Y-132.829
N8345 X-2.209 Y-132.881
N8350 X-2.472 Y-132.944
N8355 X-3.179 Y-133.123
N8360 G2 X-5.963 Y-131.831 I-0.596 J2.362
N8365 X-6.558 Y-130.534 I20.685 J10.266
N8370 G1 X-6.753 Y-130.106
N8375 X-6.96 Y-129.683
N8380 X-7.179 Y-129.267
N8385 X-7.411 Y-128.857
N8390 X-7.451 Y-128.788
N8395 G2 X-7.395 Y-111.176 I15.017 J8.758
N8400 G3 X-6.548 Y-109.546 I-14.366 J8.501
N8405 G2 X-5.884 Y-108.14 I24.122 J-10.525
N8410 G1 X-5.802 Y-107.992
N8415 X-5.708 Y-107.851
N8420 X-5.603 Y-107.718
N8425 X-5.487 Y-107.594
N8430 X-5.361 Y-107.48
N8435 X-5.226 Y-107.377
N8440 X-5.083 Y-107.286
N8445 X-4.933 Y-107.207
N8450 X-4.777 Y-107.141
N8455 X-4.615 Y-107.087
N8460 X-4.45 Y-107.048
N8465 X-4.283 Y-107.022
N8470 X-4.113 Y-107.01
N8475 X-3.944 Y-107.013
N8480 X-3.775 Y-107.029
N8485 X-2.253 Y-107.241
N8490 G3 X-0.574 Y-107.36 I1.713 J12.29
N8495 X7.849 Y-106.657 I1.099 J37.634
N8500 G1 X8.027 Y-106.623
N8505 X8.202 Y-106.574
N8510 X8.371 Y-106.51
N8515 X8.535 Y-106.431
N8520 X8.691 Y-106.339
N8525 X8.839 Y-106.234
N8530 X8.977 Y-106.116
N8535 X9.105 Y-105.986
N8540 X9.221 Y-105.846
N8545 X9.324 Y-105.697
N8550 X9.415 Y-105.539
N8555 X9.491 Y-105.373
N8560 X9.553 Y-105.202
N8565 X9.599 Y-105.026
N8570 X9.63 Y-104.846
N8575 X9.902 Y-102.682
N8580 G3 X9.943 Y-102.17 I-5.778 J0.724
N8585 G1 X9.984 Y-101.053
N8590 G3 X9.989 Y-98.947 I-31.117 J1.133
N8595 G1 X9.952 Y-97.758
N8600 G3 X9.913 Y-97.244 I-5.756 J-0.18
N8605 G1 X9.657 Y-95.133
N8610 G3 X7.874 Y-93.29 I-2.109 J-0.256
N8615 X-0.59 Y-92.539 I-7.797 J-39.779
N8620 G1 X-1. Y-92.548
N8625 X-1.409 Y-92.571
N8630 X-1.817 Y-92.606
N8635 X-2.224 Y-92.656
N8640 X-3.653 Y-92.839
N8645 G2 X-5.877 Y-91.653 I-0.277 J2.159
N8650 X-6.528 Y-90.293 I30.354 J15.349
N8655 G3 X-7.362 Y-88.723 I-15.324 J-7.13
N8660 G1 X-7.401 Y-88.657
N8665 G2 X-7.345 Y-71.308 I14.369 J8.628
N8670 G3 X-6.525 Y-69.796 I-14.694 J8.953
N8675 G2 X-5.839 Y-68.398 I35.635 J-16.623
N8680 G1 X-5.753 Y-68.247
N8685 X-5.656 Y-68.102
N8690 X-5.547 Y-67.967
N8695 X-5.427 Y-67.84
N8700 X-5.297 Y-67.724
N8705 X-5.158 Y-67.619
N8710 X-5.011 Y-67.525
N8715 X-4.857 Y-67.444
N8720 X-4.697 Y-67.376
N8725 X-4.531 Y-67.321
N8730 X-4.362 Y-67.28
N8735 X-4.19 Y-67.253
N8740 X-4.016 Y-67.24
N8745 X-3.842 Y-67.241
N8750 X-3.669 Y-67.256
N8755 X-2.245 Y-67.442
N8760 G3 X-0.563 Y-67.554 I1.719 J13.154
N8765 X7.949 Y-66.853 I1.123 J38.409
N8770 G1 X8.126 Y-66.82
N8775 X8.298 Y-66.773
N8780 X8.467 Y-66.712
N8785 X8.63 Y-66.638
N8790 X8.787 Y-66.551
N8795 X8.936 Y-66.451
N8800 X9.077 Y-66.339
N8805 X9.208 Y-66.217
N8810 X9.329 Y-66.084
N8815 X9.439 Y-65.942
N8820 X9.536 Y-65.791
N8825 X9.622 Y-65.633
N8830 X9.694 Y-65.468
N8835 X9.753 Y-65.298
N8840 X9.798 Y-65.124
N8845 X9.828 Y-64.947
N8850 X10.114 Y-62.705
N8855 G3 X10.16 Y-62.147 I-6.031 J0.769
N8860 G1 X10.2 Y-60.999
N8865 G3 X10.205 Y-59.001 I-31.033 J1.082
N8870 G1 X10.169 Y-57.782
N8875 G3 X10.126 Y-57.22 I-6.011 J-0.177
N8880 G1 X9.856 Y-55.041
N8885 G3 X7.966 Y-53.094 I-2.232 J-0.276
N8890 G1 X5.006 Y-52.639
N8895 G3 X4.492 Y-52.579 I-1.101 J-7.165
N8900 G1 X3.38 Y-52.489
N8905 G3 X0.365 Y-52.362 I-3.122 J-38.373
N8910 G1 X-0.815 Y-52.359
N8915 G3 X-1.852 Y-52.412 I-0.026 J-9.528
N8920 G1 X-3.561 Y-52.615
N8925 G2 X-5.826 Y-51.409 I-0.266 J2.229
N8930 G1 X-6.517 Y-50.024
N8935 G3 X-7.308 Y-48.598 I-15.418 J-7.618
N8940 G1 X-7.338 Y-48.55
N8945 G2 X-7.281 Y-31.415 I13.782 J8.522
N8950 G3 X-6.397 Y-29.854 I-16.86 J10.58
N8955 G1 X-5.852 Y-28.784
N8960 G2 X-2.952 Y-27.46 I2.288 J-1.173
N8965 G1 X-2.427 Y-27.588
N8970 G3 X-1.069 Y-27.748 I1.319 J5.381
N8975 G1 X0.417 Y-27.751
N8980 G3 X3.329 Y-27.649 I0.107 J38.565
N8985 G1 X4.475 Y-27.565
N8990 G3 X5.022 Y-27.505 I-0.542 J7.433
N8995 G1 X6.9 Y-27.228
N9000 G3 X10.176 Y-23.893 I-0.566 J3.833
N9005 G1 X10.327 Y-22.728
N9010 G3 X10.376 Y-22.124 I-6.282 J0.814
N9015 G1 X10.415 Y-20.946
N9020 G3 X10.42 Y-19.053 I-30.939 J1.027
N9025 G1 X10.385 Y-17.805
N9030 G3 X10.338 Y-17.197 I-6.267 J-0.175
N9035 G1 X10.247 Y-16.469
N9040 G3 X6.543 Y-12.668 I-4.368 J-0.55
N9045 G1 X5.05 Y-12.44
N9050 G3 X4.516 Y-12.378 I-1.126 J-7.385
N9055 X-0.492 Y-12.166 I-3.913 J-33.102
N9060 G2 X-2.035 Y-12.102 I0.056 J20.091
N9065 G1 X-2.886 Y-12.034
N9070 G2 X-4.726 Y-11.75 I1.007 J12.619
N9075 G1 X-5.154 Y-11.651
N9080 G2 X-7.171 Y-10.913 I1.952 J8.459
N9085 G1 X-7.306 Y-10.842
N9090 X-7.435 Y-10.772
N9095 G3 X-7.996 Y-10.485 I-4.18 J-7.491
N9100 G1 X-8.232 Y-10.375
N9105 G2 X-9.088 Y-9.867 I2.103 J4.521
N9110 G1 X-9.23 Y-9.763
N9115 G3 X-13.772 Y-9.758 I-2.274 J-3.084
N9120 G1 X-14.109 Y-10.006
N9125 G2 X-14.657 Y-10.37 I-4.108 J5.595
N9130 G1 X-14.928 Y-10.532
N9135 G2 X-18.802 Y-12.093 I-6.916 J11.572
N9140 G1 X-19.318 Y-12.213
N9145 X-19.389 Y-12.228
N9150 X-19.701 Y-12.292
N9155 G3 X-21.373 Y-14.283 I0.422 J-2.052
N9160 G1 X-21.427 Y-16.081
N9165 G3 X-21.321 Y-17.282 I5.139 J-0.152
N9170 G1 X-21.268 Y-17.537
N9175 G2 X-21.114 Y-19.158 I-7.188 J-1.499
N9180 G1 X-21.132 Y-20.32
N9185 G2 X-21.417 Y-22.685 I-10.254 J0.035
N9190 G1 X-21.552 Y-23.246
N9195 G3 X-21.691 Y-24.341 I4.892 J-1.178
N9200 G1 X-21.722 Y-26.267
N9205 G3 X-20.295 Y-28.105 I1.857 J-0.031
N9210 G1 X-19.402 Y-28.318
N9215 G2 X-18.615 Y-28.607 I-0.82 J-3.449
N9220 G1 X-18.477 Y-28.677
N9225 G2 X-17.15 Y-29.705 I-2.03 J-3.989
N9230 X-15.968 Y-31.272 I-9.613 J-8.479
N9235 G1 X-15.664 Y-31.748
N9240 G2 X-15.72 Y-48.286 I-12.847 J-8.226
N9245 G1 X-15.991 Y-48.703
N9250 G2 X-17.17 Y-50.24 I-10.381 J6.746
N9255 X-18.509 Y-51.258 I-3.347 J3.013
N9260 G1 X-18.626 Y-51.316
N9265 G2 X-19.436 Y-51.605 I-1.612 J3.235
N9270 G3 X-21.814 Y-54.617 I0.678 J-2.979
N9275 G1 X-21.8 Y-55.853
N9280 G3 X-21.745 Y-56.572 I5.443 J0.058
N9285 G1 X-21.503 Y-58.248
N9290 G2 X-21.529 Y-61.957 I-12.253 J-1.768
N9295 G1 X-21.752 Y-63.363
N9300 G3 X-21.82 Y-64.214 I5.394 J-0.856
N9305 G1 X-21.822 Y-66.388
N9310 G3 X-20.336 Y-68.245 I1.901 J-0.002
N9315 G1 X-19.458 Y-68.441
N9320 G2 X-18.634 Y-68.736 I-0.779 J-3.483
N9325 G1 X-18.531 Y-68.788
N9330 G2 X-17.2 Y-69.802 I-2.042 J-4.061
N9335 G1 X-17.178 Y-69.826
N9340 G2 X-16.045 Y-71.295 I-8.832 J-7.979
N9345 G1 X-15.694 Y-71.833
N9350 G2 X-15.75 Y-88.201 I-12.464 J-8.141
N9355 G1 X-16.065 Y-88.676
N9360 G2 X-17.2 Y-90.122 I-9.62 J6.379
N9365 G1 X-17.223 Y-90.147
N9370 G2 X-18.558 Y-91.145 I-3.345 J3.085
N9375 G1 X-18.646 Y-91.188
N9380 G2 X-19.492 Y-91.483 I-1.635 J3.323
N9385 G1 X-20.534 Y-91.711
N9390 G3 X-21.96 Y-93.499 I0.387 J-1.771
N9395 G1 X-21.938 Y-95.858
N9400 G3 X-21.886 Y-96.567 I5.608 J0.052
N9405 G1 X-21.665 Y-98.187
N9410 G2 X-21.675 Y-101.81 I-12.948 J-1.773
N9415 G1 X-21.889 Y-103.302
N9420 G3 X-21.944 Y-104.274 I5.633 J-0.805
N9425 G1 X-21.876 Y-106.577
N9430 G3 X-20.352 Y-108.394 I1.912 J0.056
N9435 G1 X-19.511 Y-108.568
N9440 G2 X-18.657 Y-108.862 I-0.714 J-3.451
N9445 G1 X-18.556 Y-108.913
N9450 G2 X-17.27 Y-109.875 I-1.979 J-3.984
N9455 G1 X-17.209 Y-109.941
N9460 G2 X-16.118 Y-111.327 I-8.16 J-7.551
N9465 G1 X-15.737 Y-111.898
N9470 G2 X-13.29 Y-119.99 I-12.127 J-8.083
N9475 G1 Y-119.997
N9480 G2 X-15.782 Y-128.118 I-14.508 J0.009
N9485 G1 X-15.995 Y-128.433
N9490 G2 X-20.78 Y-131.592 I-6.207 J4.2
N9495 G1 X-20.839 Y-131.603
N9500 G3 X-22.096 Y-133.138 I0.295 J-1.523
N9505 G1 X-22.076 Y-135.819
N9510 G3 X-22.021 Y-136.607 I6.405 J0.047
N9515 G1 X-21.845 Y-137.945
N9520 G2 X-21.857 Y-142.052 I-15.271 J-2.008
N9525 G1 X-22.048 Y-143.437
N9530 G3 X-22.1 Y-144.138 I5.558 J-0.764
N9535 G1 X-22.129 Y-146.735
N9540 G3 X-20.752 Y-148.363 I1.629 J-0.018
N9545 G1 X-20.113 Y-148.463
N9550 G2 X-19.531 Y-148.618 I-0.445 J-2.838
N9555 G1 X-19.317 Y-148.7
N9560 G2 X-18.896 Y-148.883 I-1.809 J-4.731
N9565 G1 X-18.71 Y-148.975
N9570 G2 X-17.243 Y-150.053 I-2.265 J-4.617
N9575 X-16.187 Y-151.365 I-7.577 J-7.185
N9580 G1 X-15.792 Y-151.945
N9585 G2 X-13.318 Y-159.989 I-11.812 J-8.035
N9590 G1 Y-160.038
N9595 G2 X-15.815 Y-168.038 I-14.094 J0.008
N9600 G1 X-15.983 Y-168.281
N9605 G2 X-20.922 Y-171.469 I-6.311 J4.358
N9610 G1 X-20.959 Y-171.475
N9615 G3 X-22.229 Y-173.006 I0.277 J-1.522
N9620 G1 X-22.213 Y-175.827
N9625 G3 X-22.163 Y-176.598 I6.446 J0.035
N9630 G1 X-22.035 Y-177.61
N9635 G2 X-21.927 Y-181.98 I-21.582 J-2.72
N9640 G1 X-21.999 Y-182.926
N9645 G3 X-22.01 Y-183.699 I6.302 J-0.479
N9650 G1 X-21.882 Y-186.447
N9655 G3 X-20.233 Y-188.279 I1.942 J0.091
N9660 G2 X-19.007 Y-188.489 I-1.801 J-14.196
N9665 X-15.205 Y-190.093 I-2.023 J-10.098
N9670 G1 X-15.065 Y-190.189
N9675 G2 X-14.583 Y-190.553 I-3.782 J-5.517
N9680 G1 X-14.364 Y-190.734
N9685 G3 X-10.014 Y-191.543 I2.901 J3.505
N9690 X-8.632 Y-190.792 I-1.448 J4.314 F#106
N9695 G1 X-8.617 Y-190.78
N9700 G2 X-7.506 Y-190.089 I3.555 J-4.475 F#100
N9705 G3 X-7.187 Y-189.926 I-1.992 J4.292
N9710 G2 X-6.64 Y-189.665 I2.222 J-3.96
N9715 G1 X-6.038 Y-189.426
N9720 G2 X-2.565 Y-188.617 I4.427 J-11.15
N9725 G1 X-1.975 Y-188.57
N9730 G2 X-0.463 Y-188.512 I1.463 J-18.339
N9735 G1 X0.697 Y-188.515
N9740 G3 X3.051 Y-188.45 I0.103 J39.136
N9745 G1 X4.382 Y-188.374
N9750 G3 X5.115 Y-188.299 I-0.487 J8.459
N9755 G1 X9.042 Y-187.728
N9760 G3 X10.736 Y-186.017 I-0.288 J1.979
N9765 G1 X11.169 Y-182.819
N9770 G3 X11.232 Y-182.032 I-7.258 J0.983
N9775 G1 X11.267 Y-180.736
N9780 G3 X11.271 Y-179.264 I-30.35 J0.813
N9785 G1 X11.242 Y-177.925
N9790 G3 X11.174 Y-177.079 I-7.3 J-0.159
N9795 G1 X10.73 Y-173.878
N9800 G3 X9.067 Y-172.203 I-1.947 J-0.27
N9805 G1 X5.128 Y-171.628
N9810 G3 X4.438 Y-171.556 I-1.224 J-8.38
N9815 X-0.771 Y-171.39 I-3.996 J-43.645
N9820 X-2.797 Y-171.573 I-0.029 J-11.033
N9825 G1 X-2.833 Y-171.579
N9830 G2 X-5.496 Y-170.352 I-0.461 J2.503
N9835 G3 X-5.727 Y-169.98 I-6.134 J-3.556
N9840 G1 X-6.227 Y-169.23
N9845 X-6.315 Y-169.095
N9850 X-6.38 Y-168.993
N9855 G3 X-7.126 Y-167.887 I-21.998 J-14.05
N9860 G2 X-9.578 Y-161.093 I10.9 J7.774
N9865 X-9.574 Y-158.869 I12.246 J1.09
N9870 X-7.118 Y-152.144 I13.114 J-0.979
N9875 G1 X-7.022 Y-152.011
N9880 G3 X-6.345 Y-151.003 I-14.269 J10.314
N9885 G2 X-6.165 Y-150.727 I6.469 J-4.028
N9890 G3 X-5.463 Y-149.678 I-16.057 J11.507
N9895 G1 X-5.363 Y-149.526
N9900 X-5.251 Y-149.382
N9905 X-5.128 Y-149.246
N9910 X-4.995 Y-149.122
N9915 X-4.852 Y-149.007
N9920 X-4.701 Y-148.905
N9925 X-4.543 Y-148.814
N9930 X-4.378 Y-148.737
N9935 X-4.207 Y-148.672
N9940 X-4.032 Y-148.621
N9945 X-3.853 Y-148.584
N9950 X-3.672 Y-148.561
N9955 X-3.489 Y-148.553
N9960 X-3.307 Y-148.558
N9965 X-1.617 Y-148.675
N9970 G3 X-0.793 Y-148.699 I0.865 J15.392
N9975 G1 X0.786 Y-148.703
N9980 G3 X2.962 Y-148.647 I0.101 J38.605
N9985 G1 X4.215 Y-148.58
N9990 G3 X5.28 Y-148.473 I-0.621 J11.539
N9995 G1 X9.356 Y-147.872
N10000 G3 X10.943 Y-146.254 I-0.274 J1.855
N10005 G1 X11.281 Y-143.603
N10010 G3 X11.461 Y-141.242 I-23.127 J2.949
N10015 G1 X11.474 Y-140.742
N10020 G3 X11.477 Y-139.258 I-32.69 J0.826
N10025 G1 X11.452 Y-138.014
N10030 G3 X11.377 Y-136.99 I-9.549 J-0.192
N10035 G1 X10.959 Y-133.738
N10040 G3 X9.103 Y-131.897 I-2.11 J-0.271
N10045 G1 X5.613 Y-131.478
N10050 G3 X3.951 Y-131.33 I-3.302 J-27.543
N10055 X-0.631 Y-131.203 I-3.431 J-41.164
N10060 X-2.03 Y-131.242 I-0.06 J-22.965
N10065 G1 X-3.315 Y-131.317
N10070 G2 X-5.396 Y-130.227 I-0.133 J2.278
N10075 G3 X-5.67 Y-129.81 I-6.266 J-3.819
N10080 G2 X-6.297 Y-128.91 I16.511 J12.17
N10085 G1 X-6.517 Y-128.572
N10090 X-6.744 Y-128.239
N10095 X-6.979 Y-127.911
N10100 X-7.081 Y-127.772
N10105 G2 X-9.533 Y-121.147 I10.312 J7.582
N10110 X-9.529 Y-118.829 I12.208 J1.142
N10115 X-7.066 Y-112.249 I12.576 J-0.958
N10120 G1 X-6.969 Y-112.12
N10125 G3 X-6.279 Y-111.126 I-14.407 J10.738
N10130 G2 X-6.095 Y-110.856 I5.017 J-3.238
N10135 G1 X-5.51 Y-110.051
N10140 G2 X-2.852 Y-108.795 I2.476 J-1.797
N10145 G1 X-2.028 Y-108.844
N10150 G3 X-0.634 Y-108.887 I1.458 J24.39
N10155 X4.312 Y-108.771 I1.382 J46.57
N10160 X5.252 Y-108.684 I-0.59 J11.465
N10165 G1 X9.347 Y-108.133
N10170 G3 X11.271 Y-106.141 I-0.298 J2.213
N10175 G1 X11.558 Y-103.257
N10180 G3 X11.66 Y-101.593 I-22.066 J2.191
N10185 G1 X11.681 Y-100.71
N10190 G3 X11.685 Y-99.29 I-33.553 J0.798
N10195 G1 X11.661 Y-98.026
N10200 G3 X11.586 Y-96.978 I-9.862 J-0.183
N10205 G1 X11.166 Y-93.642
N10210 G3 X9.162 Y-91.667 I-2.255 J-0.284
N10215 G1 X5.532 Y-91.263
N10220 G3 X4.033 Y-91.138 I-2.996 J-26.93
N10225 X-0.648 Y-91.015 I-3.532 J-45.166
N10230 X-1.983 Y-91.044 I-0.071 J-27.058
N10235 G1 X-2.759 Y-91.081
N10240 G2 X-5.486 Y-89.796 I-0.151 J3.218
N10245 X-6.734 Y-88.082 I86.486 J64.274
N10250 X-6.68 Y-71.893 I10.878 J8.059
N10255 X-5.481 Y-70.28 I56.036 J-40.404
N10260 X-2.724 Y-69.006 I2.599 J-2.003
N10265 G3 X4.301 Y-68.971 I3.228 J56.816
N10270 G1 X4.623 Y-68.95
N10275 X4.944 Y-68.921
N10280 X5.264 Y-68.884
N10285 X9.389 Y-68.345
N10290 G3 X11.507 Y-66.144 I-0.317 J2.425
N10295 G1 X11.779 Y-63.188
N10300 G3 X11.866 Y-61.663 I-21.915 J2.015
N10305 G1 X11.888 Y-60.675
N10310 G3 X11.892 Y-59.325 I-34.435 J0.767
N10315 G1 X11.87 Y-58.038
N10320 G3 X11.795 Y-56.966 I-10.144 J-0.172
N10325 G1 X11.38 Y-53.605
N10330 G3 X9.161 Y-51.431 I-2.474 J-0.306
N10335 G1 X5.448 Y-51.049
N10340 G3 X4.049 Y-50.942 I-2.741 J-26.662
N10345 G1 X3.242 Y-50.902
N10350 G3 X0.507 Y-50.83 I-2.886 J-57.6
N10355 X-2.625 Y-50.871 I-0.874 J-52.61
N10360 G1 X-2.856
N10365 X-3.087 Y-50.856
N10370 X-3.317 Y-50.826
N10375 X-3.544 Y-50.78
N10380 X-3.767 Y-50.72
N10385 X-3.986 Y-50.644
N10390 X-4.2 Y-50.554
N10395 X-4.407 Y-50.45
N10400 X-4.606 Y-50.333
N10405 X-4.798 Y-50.203
N10410 X-4.98 Y-50.06
N10415 X-5.152 Y-49.905
N10420 X-5.314 Y-49.739
N10425 X-5.464 Y-49.563
N10430 G2 X-6.614 Y-48.046 I23.242 J18.799
N10435 G1 X-6.884 Y-47.679
N10440 X-7.142 Y-47.302
N10445 X-7.387 Y-46.918
N10450 X-7.619 Y-46.525
N10455 X-7.836 Y-46.124
N10460 X-8.04 Y-45.716
N10465 X-8.23 Y-45.301
N10470 X-8.405 Y-44.879
N10475 X-8.565 Y-44.452
N10480 X-8.711 Y-44.02
N10485 X-8.842 Y-43.583
N10490 X-8.957 Y-43.142
N10495 X-9.057 Y-42.696
N10500 X-9.142 Y-42.248
N10505 X-9.211 Y-41.797
N10510 X-9.265 Y-41.344
N10515 X-9.303 Y-40.889
N10520 X-9.325 Y-40.434
N10525 X-9.331 Y-39.978
N10530 X-9.322 Y-39.521
N10535 X-9.297 Y-39.066
N10540 X-9.256 Y-38.611
N10545 X-9.2 Y-38.159
N10550 X-9.127 Y-37.708
N10555 X-9.04 Y-37.26
N10560 X-8.937 Y-36.816
N10565 X-8.819 Y-36.375
N10570 X-8.685 Y-35.939
N10575 X-8.537 Y-35.507
N10580 X-8.374 Y-35.081
N10585 X-8.196 Y-34.661
N10590 X-8.004 Y-34.247
N10595 X-7.797 Y-33.84
N10600 X-7.577 Y-33.44
N10605 X-7.343 Y-33.049
N10610 X-7.095 Y-32.665
N10615 X-6.835 Y-32.29
N10620 X-6.562 Y-31.925
N10625 G2 X-5.468 Y-30.529 I29.672 J-22.134
N10630 G1 X-5.311 Y-30.35
N10635 X-5.143 Y-30.182
N10640 X-4.964 Y-30.025
N10645 X-4.775 Y-29.881
N10650 X-4.576 Y-29.749
N10655 X-4.37 Y-29.63
N10660 X-4.156 Y-29.526
N10665 X-3.936 Y-29.436
N10670 X-3.71 Y-29.361
N10675 X-3.48 Y-29.301
N10680 X-3.246 Y-29.256
N10685 X-3.01 Y-29.227
N10690 X-2.773 Y-29.214
N10695 X-2.535 Y-29.216
N10700 G3 X0.702 Y-29.26 I2.115 J36.725
N10705 G1 X1.484 Y-29.258
N10710 X2.265 Y-29.245
N10715 X3.047 Y-29.22
N10720 X4.213 Y-29.171
N10725 G3 X5.284 Y-29.09 I-0.696 J16.419
N10730 G1 X9.149 Y-28.672
N10735 G3 X11.667 Y-26.146 I-0.305 J2.822
N10740 G1 X11.996 Y-23.02
N10745 G3 X12.071 Y-21.831 I-14.102 J1.483
N10750 G1 X12.094 Y-20.729
N10755 G3 X12.097 Y-19.271 I-40.389 J0.835
N10760 G1 X12.079 Y-18.08
N10765 G3 X12.013 Y-16.922 I-13.924 J-0.215
N10770 G1 X11.71 Y-13.865
N10775 G3 X9.147 Y-11.27 I-2.885 J-0.286
N10780 G1 X5.309 Y-10.84
N10785 G3 X4.257 Y-10.756 I-1.835 J-16.403
N10790 X-0.283 Y-10.64 I-3.593 J-51.478
N10795 G2 X-2.029 Y-10.557 I0.051 J19.437
N10800 G1 X-2.205 Y-10.54
N10805 G2 X-8.683 Y-7.743 I1.053 J11.338
N10810 G3 X-11.412 Y-6.711 I-2.732 J-3.098
N10815 G1 X-11.506
N10820 G3 X-14.386 Y-7.788 I-0.003 J-4.381
N10825 G1 X-14.614 Y-7.987
N10830 G2 X-20.765 Y-10.678 I-7.361 J8.451
N10835 G1 X-21.726 Y-10.782
N10840 G3 X-23.074 Y-12.252 I0.163 J-1.503
N10845 G1 X-23.161 Y-16.171
N10850 G3 X-23.112 Y-17.2 I7.357 J-0.163
N10855 G1 X-23.07 Y-17.548
N10860 G2 X-22.985 Y-19.134 I-12.267 J-1.453
N10865 G1 X-22.998 Y-20.399
N10870 G2 X-23.155 Y-22.628 I-16.582 J0.053
N10875 G1 X-23.249 Y-23.304
N10880 G3 X-23.315 Y-24.272 I6.834 J-0.95
N10885 G1 X-23.304 Y-28.152
N10890 G3 X-22.159 Y-29.431 I1.29 J0.003
N10895 G2 X-21.578 Y-29.513 I-0.586 J-6.207
N10900 X-15.338 Y-33.66 I-1.491 J-9.012
N10905 G1 X-15.211 Y-33.863
N10910 G2 X-14.473 Y-35.295 I-7.961 J-5.01
N10915 X-13.615 Y-38.876 I-11.035 J-4.537
N10920 X-13.617 Y-41.134 I-11.129 J-1.119
N10925 G1 X-13.657 Y-41.541
N10930 X-13.711 Y-41.947
N10935 X-13.78 Y-42.35
N10940 X-13.862 Y-42.751
N10945 X-13.959 Y-43.148
N10950 X-14.069 Y-43.542
N10955 X-14.192 Y-43.932
N10960 X-14.329 Y-44.318
N10965 X-14.479 Y-44.699
N10970 G2 X-15.224 Y-46.13 I-8.628 J3.579
N10975 G1 X-15.342 Y-46.316
N10980 G2 X-21.556 Y-50.404 I-7.651 J4.863
N10985 G3 X-23.402 Y-52.553 I0.348 J-2.167
N10990 G1 X-23.429 Y-55.747
N10995 G3 X-23.375 Y-56.678 I7.026 J-0.059
N11000 G1 X-23.28 Y-57.435
N11005 G2 X-23.138 Y-59.534 I-18.357 J-2.297
N11010 X-23.139 Y-60.484 I-24.14 J-0.441
N11015 X-23.293 Y-62.546 I-18.695 J0.354
N11020 G1 X-23.393 Y-63.318
N11025 G3 X-23.453 Y-64.258 I7.001 J-0.912
N11030 G1 X-23.437 Y-68.266
N11035 G3 X-22.273 Y-69.552 I1.298 J0.005
N11040 G2 X-21.537 Y-69.651 I-0.529 J-6.734
N11045 X-15.378 Y-73.704 I-1.47 J-8.939
N11050 G1 X-15.25 Y-73.904
N11055 G2 X-14.509 Y-75.318 I-7.749 J-4.963
N11060 X-13.644 Y-78.875 I-10.784 J-4.508
N11065 X-13.646 Y-81.134 I-10.96 J-1.12
N11070 G1 X-13.686 Y-81.539
N11075 X-13.741 Y-81.942
N11080 X-13.81 Y-82.343
N11085 X-13.894 Y-82.742
N11090 X-13.991 Y-83.137
N11095 X-14.102 Y-83.528
N11100 X-14.226 Y-83.916
N11105 X-14.364 Y-84.298
N11110 X-14.516 Y-84.676
N11115 G2 X-15.263 Y-86.088 I-8.422 J3.552
N11120 G1 X-15.377 Y-86.265
N11125 G2 X-21.521 Y-90.268 I-7.563 J4.892
N11130 X-22.386 Y-90.375 I-1.353 J7.357
N11135 G3 X-23.528 Y-91.619 I0.12 J-1.256
N11140 G1 X-23.567 Y-95.762
N11145 G3 X-23.519 Y-96.663 I7.192 J-0.068
N11150 G1 X-23.436 Y-97.377
N11155 G2 X-23.311 Y-99.592 I-18.497 J-2.156
N11160 G1 X-23.313 Y-100.417
N11165 G2 X-23.45 Y-102.614 I-18.673 J0.06
N11170 G1 X-23.538 Y-103.332
N11175 G3 X-23.591 Y-104.243 I7.173 J-0.873
N11180 G1 X-23.569 Y-108.426
N11185 G3 X-22.432 Y-109.671 I1.257 J0.006
N11190 G2 X-21.504 Y-109.787 I-0.477 J-7.568
N11195 X-15.412 Y-113.758 I-1.452 J-8.887
N11200 G1 X-15.289 Y-113.945
N11205 G2 X-14.546 Y-115.34 I-7.545 J-4.917
N11210 X-13.673 Y-118.875 I-10.536 J-4.478
N11215 X-13.675 Y-121.135 I-10.796 J-1.12
N11220 G1 X-13.716 Y-121.538
N11225 X-13.771 Y-121.938
N11230 X-13.841 Y-122.337
N11235 X-13.925 Y-122.733
N11240 X-14.023 Y-123.126
N11245 X-14.135 Y-123.514
N11250 X-14.26 Y-123.899
N11255 X-14.4 Y-124.279
N11260 X-14.552 Y-124.654
N11265 G2 X-15.302 Y-126.047 I-8.223 J3.526
N11270 G1 X-15.407 Y-126.206
N11275 G2 X-21.494 Y-130.133 I-7.489 J4.929
N11280 X-22.521 Y-130.253 I-1.454 J7.978
N11285 G3 X-23.66 Y-131.484 I0.11 J-1.244
N11290 G1 X-23.705 Y-135.779
N11295 G3 X-23.663 Y-136.647 I7.363 J-0.078
N11300 G1 X-23.544 Y-137.751
N11305 G2 X-23.468 Y-139.215 I-13.17 J-1.422
N11310 G1 X-23.469 Y-139.719
N11315 X-23.468 Y-139.789
N11320 X-23.464 Y-139.86
N11325 G2 Y-140.14 I-1.615 J-0.135
N11330 G1 X-23.471 Y-140.281
N11335 X-23.473 Y-140.789
N11340 G2 X-23.557 Y-142.245 I-13.33 J0.043
N11345 G1 X-23.682 Y-143.348
N11350 G3 X-23.729 Y-144.226 I7.351 J-0.832
N11355 G1 X-23.701 Y-148.561
N11360 G3 X-22.566 Y-149.794 I1.245 J0.008
N11365 G2 X-21.477 Y-149.922 I-0.414 J-8.166
N11370 X-15.44 Y-153.818 I-1.437 J-8.852
N11375 G1 X-15.328 Y-153.987
N11380 G2 X-14.582 Y-155.363 I-7.348 J-4.873
N11385 X-13.702 Y-158.873 I-10.291 J-4.446
N11390 X-13.704 Y-161.136 I-10.638 J-1.122
N11395 G1 X-13.745 Y-161.537
N11400 X-13.801 Y-161.935
N11405 X-13.871 Y-162.331
N11410 X-13.956 Y-162.724
N11415 X-14.055 Y-163.114
N11420 X-14.167 Y-163.5
N11425 X-14.294 Y-163.882
N11430 X-14.435 Y-164.259
N11435 X-14.589 Y-164.631
N11440 G2 X-15.34 Y-166.005 I-8.031 J3.501
N11445 G1 X-15.432 Y-166.142
N11450 G2 X-21.471 Y-169.998 I-7.428 J4.974
N11455 X-22.655 Y-170.129 I-1.548 J8.579
N11460 G3 X-23.792 Y-171.348 I0.101 J-1.233
N11465 G1 X-23.843 Y-175.797
N11470 G3 X-23.807 Y-176.63 I7.54 J-0.088
N11475 G1 X-23.731 Y-177.392
N11480 G2 X-23.627 Y-179.574 I-21.275 J-2.114
N11485 G1 X-23.617 Y-180.853
N11490 G2 X-23.686 Y-182.467 I-15.563 J-0.146
N11495 G1 X-23.725 Y-182.874
N11500 G3 X-23.76 Y-183.753 I8.033 J-0.761
N11505 G1 X-23.692 Y-188.436
N11510 G3 X-22.441 Y-189.785 I1.374 J0.02
N11515 G1 X-21.933 Y-189.831
N11520 X-21.882 Y-189.836
N11525 X-20.36 Y-190.006
N11530 G2 X-19.216 Y-190.229 I-0.795 J-7.108
N11535 G1 X-18.86 Y-190.33
N11540 G2 X-16.682 Y-191.325 I-2.117 J-7.514
N11545 G1 X-16.525 Y-191.428
N11550 G2 X-15.476 Y-192.3 I-3.385 J-5.14
N11555 G1 X-15.228 Y-192.558
N11560 G3 X-11.63 Y-194.091 I3.603 J3.467
N11565 G1 X-11.33 Y-194.092
N11570 G3 X-7.779 Y-192.606 I0.006 J4.973
N11575 G2 X-5.608 Y-191.103 I5.034 J-4.952
N11580 G1 X-5.165 Y-190.906
N11585 G2 X-2.319 Y-190.163 I3.699 J-8.338
N11590 G1 X-2.136 Y-190.146
N11595 G2 X-0.078 Y-190.052 I2.005 J-21.346
N11600 G1 X0.46 Y-190.053
N11605 G3 X3.289 Y-190.019 I0.241 J97.278
N11610 X9.346 Y-189.719 I-3.103 J124.053
N11615 G1 X9.583 Y-189.698
N11620 X9.818 Y-189.661
N11625 X10.051 Y-189.608
N11630 X10.279 Y-189.541
N11635 X10.502 Y-189.458
N11640 X10.719 Y-189.36
N11645 X10.93 Y-189.249
N11650 X11.132 Y-189.123
N11655 X11.326 Y-188.985
N11660 X11.51 Y-188.834
N11665 X11.684 Y-188.671
N11670 X11.846 Y-188.497
N11675 X11.997 Y-188.313
N11680 X12.135 Y-188.119
N11685 X12.26 Y-187.916
N11690 X12.371 Y-187.705
N11695 X12.468 Y-187.488
N11700 X12.55 Y-187.264
N11705 X12.618 Y-187.036
N11710 X12.67 Y-186.804
N11715 X12.706 Y-186.568
N11720 X12.727 Y-186.331
N11725 X12.886 Y-183.425
N11730 G3 X12.954 Y-181.427 I-49.372 J2.694
N11735 G1 X12.962 Y-180.881
N11740 G3 X12.967 Y-179.119 I-76.49 J1.078
N11745 G1 X12.957 Y-178.097
N11750 G3 X12.924 Y-176.904 I-30.816 J-0.275
N11755 G1 X12.768 Y-173.638
N11760 G3 X9.383 Y-170.212 I-3.6 J-0.172
N11765 G1 X5.688 Y-169.99
N11770 G3 X3.879 Y-169.908 I-3.712 J-61.83
N11775 G2 X-1.392 Y-169.83 I3.025 J379.497
N11780 G3 X-2.216 Y-169.84 I-0.294 J-9.289
N11785 G1 X-2.292 Y-169.844
N11790 G2 X-4.882 Y-168.898 I-0.198 J3.476
N11795 G1 X-4.947 Y-168.839
N11800 X-5.029 Y-168.764
N11805 G2 X-6.044 Y-167.764 I11.141 J12.321
N11810 G1 X-6.225 Y-167.569
N11815 G2 X-6.23 Y-152.453 I8.119 J7.561
N11820 G1 X-5.962 Y-152.165
N11825 G2 X-1.782 Y-150.249 I4.408 J-4.099
N11830 X0.454 Y-150.236 I1.407 J-50.459
N11835 G3 X3.296 Y-150.207 I0.278 J111.979
N11840 X9.47 Y-149.942 I-2.993 J142.127
N11845 G1 X9.704 Y-149.924
N11850 X9.936 Y-149.89
N11855 X10.166 Y-149.841
N11860 X10.392 Y-149.777
N11865 X10.614 Y-149.7
N11870 X10.83 Y-149.608
N11875 X11.04 Y-149.503
N11880 X11.243 Y-149.384
N11885 X11.437 Y-149.253
N11890 X11.623 Y-149.109
N11895 X11.799 Y-148.954
N11900 X11.965 Y-148.788
N11905 X12.12 Y-148.611
N11910 X12.264 Y-148.425
N11915 X12.395 Y-148.231
N11920 X12.513 Y-148.028
N11925 X12.618 Y-147.818
N11930 X12.71 Y-147.602
N11935 X12.787 Y-147.38
N11940 X12.85 Y-147.154
N11945 X12.899 Y-146.924
N11950 X12.933 Y-146.691
N11955 X12.951 Y-146.457
N11960 X13.1 Y-143.337
N11965 G3 X13.155 Y-141.516 I-51.84 J2.475
N11970 X12.993 Y-133.515 I-106.569 J1.844
N11975 G1 X12.976 Y-133.279
N11980 X12.943 Y-133.045
N11985 X12.896 Y-132.813
N11990 X12.834 Y-132.585
N11995 X12.757 Y-132.361
N12000 X12.667 Y-132.143
N12005 X12.562 Y-131.931
N12010 X12.444 Y-131.726
N12015 X12.313 Y-131.529
N12020 X12.169 Y-131.341
N12025 X12.014 Y-131.162
N12030 X11.848 Y-130.994
N12035 X11.671 Y-130.837
N12040 X11.485 Y-130.692
N12045 X11.289 Y-130.558
N12050 X11.086 Y-130.438
N12055 X10.875 Y-130.331
N12060 X10.658 Y-130.238
N12065 X10.435 Y-130.159
N12070 X10.207 Y-130.094
N12075 X9.976 Y-130.044
N12080 X9.742 Y-130.009
N12085 X9.507 Y-129.989
N12090 X5.596 Y-129.785
N12095 G3 X3.972 Y-129.72 I-3.354 J-64.218
N12100 G2 X-1.571 Y-129.642 I2.825 J395.869
N12105 X-5.969 Y-127.674 I0.243 J6.441
N12110 G1 X-6.142 Y-127.494
N12115 G2 X-6.143 Y-112.525 I7.767 J7.485
N12120 G1 X-5.925 Y-112.299
N12125 G2 X-1.869 Y-110.444 I4.384 J-4.224
N12130 G3 X9.587 Y-110.174 I0.37 J227.298
N12135 G1 X9.829 Y-110.156
N12140 X10.07 Y-110.122
N12145 X10.307 Y-110.073
N12150 X10.542 Y-110.009
N12155 X10.771 Y-109.929
N12160 X10.995 Y-109.835
N12165 X11.212 Y-109.726
N12170 X11.422 Y-109.604
N12175 X11.623 Y-109.468
N12180 X11.816 Y-109.32
N12185 X11.998 Y-109.16
N12190 X12.169 Y-108.988
N12195 X12.329 Y-108.805
N12200 X12.477 Y-108.613
N12205 X12.612 Y-108.411
N12210 X12.734 Y-108.201
N12215 X12.842 Y-107.984
N12220 X12.935 Y-107.76
N12225 X13.014 Y-107.53
N12230 X13.078 Y-107.296
N12235 X13.127 Y-107.058
N12240 X13.16 Y-106.818
N12245 X13.177 Y-106.576
N12250 X13.314 Y-103.234
N12255 G3 X13.356 Y-101.62 I-54.177 J2.218
N12260 X13.219 Y-93.403 I-124.5 J2.039
N12265 G1 X13.203 Y-93.159
N12270 X13.171 Y-92.917
N12275 X13.123 Y-92.677
N12280 X13.06 Y-92.44
N12285 X12.982 Y-92.209
N12290 X12.889 Y-91.982
N12295 X12.781 Y-91.763
N12300 X12.659 Y-91.55
N12305 X12.524 Y-91.347
N12310 X12.376 Y-91.152
N12315 X12.216 Y-90.967
N12320 X12.044 Y-90.793
N12325 X11.861 Y-90.631
N12330 X11.667 Y-90.481
N12335 X11.465 Y-90.343
N12340 X11.254 Y-90.219
N12345 X11.035 Y-90.109
N12350 X10.81 Y-90.014
N12355 X10.579 Y-89.933
N12360 X10.344 Y-89.867
N12365 X10.104 Y-89.817
N12370 X9.862 Y-89.783
N12375 X9.618 Y-89.764
N12380 G3 X-0.712 Y-89.472 I-10.152 J-176.162
N12385 G1 X-1.122 Y-89.468
N12390 X-1.532 Y-89.456
N12395 X-1.554 Y-89.454
N12400 G2 X-5.986 Y-87.491 I0.32 J6.706
N12405 X-5.981 Y-72.524 I7.496 J7.481
N12410 G1 X-5.934 Y-72.477
N12415 G2 X-1.91 Y-70.641 I4.47 J-4.467
N12420 X-0.68 Y-70.599 I1.188 J-16.813
N12425 G3 X9.892 Y-70.386 I1.252 J200.64
N12430 G1 X10.129 Y-70.37
N12435 X10.364 Y-70.339
N12440 X10.596 Y-70.293
N12445 X10.825 Y-70.232
N12450 X11.049 Y-70.156
N12455 X11.268 Y-70.065
N12460 X11.481 Y-69.96
N12465 X11.686 Y-69.842
N12470 X11.884 Y-69.71
N12475 X12.072 Y-69.566
N12480 X12.25 Y-69.41
N12485 X12.418 Y-69.242
N12490 X12.574 Y-69.064
N12495 X12.719 Y-68.876
N12500 X12.851 Y-68.679
N12505 X12.969 Y-68.474
N12510 X13.075 Y-68.261
N12515 X13.166 Y-68.043
N12520 X13.242 Y-67.818
N12525 X13.304 Y-67.589
N12530 X13.351 Y-67.357
N12535 X13.382 Y-67.122
N12540 X13.398 Y-66.885
N12545 G3 X13.441 Y-53.086 I-157.375 J7.393
N12550 G1 X13.427 Y-52.848
N12555 X13.397 Y-52.611
N12560 X13.352 Y-52.377
N12565 X13.291 Y-52.146
N12570 X13.216 Y-51.92
N12575 X13.126 Y-51.699
N12580 X13.021 Y-51.484
N12585 X12.903 Y-51.277
N12590 X12.772 Y-51.078
N12595 X12.627 Y-50.888
N12600 X12.471 Y-50.708
N12605 X12.303 Y-50.538
N12610 X12.124 Y-50.38
N12615 X11.936 Y-50.234
N12620 X11.738 Y-50.101
N12625 X11.532 Y-49.98
N12630 X11.318 Y-49.874
N12635 X11.098 Y-49.781
N12640 X10.873 Y-49.704
N12645 X10.643 Y-49.641
N12650 X10.409 Y-49.593
N12655 X10.172 Y-49.561
N12660 X9.934 Y-49.545
N12665 G3 X-0.692 Y-49.291 I-10.564 J-219.904
N12670 G1 X-1.094 Y-49.286
N12675 X-1.495 Y-49.269
N12680 G2 X-1.795 Y-49.247 I0.569 J9.868
N12685 G1 X-2.182 Y-49.213
N12690 G2 X-5.061 Y-48.121 I0.499 J5.66
N12695 G1 X-5.225 Y-48.
N12700 G2 X-5.785 Y-47.526 I3.315 J4.482
N12705 G1 X-5.958 Y-47.358
N12710 G2 X-4.829 Y-31.766 I7.081 J7.324
N12715 G1 X-4.763 Y-31.719
N12720 G2 X-1.995 Y-30.822 I2.781 J-3.863
N12725 G3 X-1.376 Y-30.8 I-0.007 J8.603
N12730 G1 X-1.049 Y-30.785
N12735 X-0.722 Y-30.781
N12740 X1.875 Y-30.788
N12745 X4.75 Y-30.754
N12750 X10.01 Y-30.618
N12755 G3 X13.628 Y-27.006 I-0.096 J3.714
N12760 X13.673 Y-12.997 I-201.765 J7.652
N12765 G1 X13.66 Y-12.759
N12770 X13.633 Y-12.522
N12775 X13.59 Y-12.288
N12780 X13.533 Y-12.056
N12785 X13.462 Y-11.829
N12790 X13.376 Y-11.607
N12795 X13.276 Y-11.39
N12800 X13.162 Y-11.181
N12805 X13.036 Y-10.979
N12810 X12.897 Y-10.785
N12815 X12.746 Y-10.601
N12820 X12.584 Y-10.426
N12825 X12.411 Y-10.262
N12830 X12.227 Y-10.11
N12835 X12.035 Y-9.969
N12840 X11.834 Y-9.841
N12845 X11.626 Y-9.725
N12850 X11.41 Y-9.624
N12855 X11.188 Y-9.536
N12860 X10.962 Y-9.462
N12865 X10.731 Y-9.403
N12870 X10.497 Y-9.358
N12875 X10.26 Y-9.329
N12880 X10.022 Y-9.314
N12885 X4.784 Y-9.161
N12890 X1.875 Y-9.117
N12895 X-0.303 Y-9.111
N12900 G2 X-1.783 Y-9.03 I0.035 J14.16
N12905 G1 X-1.84 Y-9.024
N12910 G2 X-7.261 Y-6.511 I0.996 J9.251
N12915 G1 X-7.581 Y-6.206
N12920 G2 X-7.937 Y-5.782 I1.716 J1.802
N12925 G1 X-8.176 Y-5.423
N12930 G3 X-9.413 Y-4.759 I-1.239 J-0.824
N12935 G1 X-13.57 Y-4.755
N12940 G3 X-14.842 Y-5.431 I-0.001 J-1.532
N12945 G1 X-15.071 Y-5.771
N12950 G2 X-15.434 Y-6.197 I-2.069 J1.396
N12955 G1 X-15.967 Y-6.696
N12960 G2 X-20.992 Y-9.004 I-5.972 J6.377
N12965 X-24.176 Y-9.227 I-3.704 J30.089
N12970 G3 X-24.755 Y-9.825 I0.032 J-0.611
N12975 G1 X-24.896 Y-16.45
N12980 G3 X-24.873 Y-17.676 I21.41 J-0.213
N12985 G2 X-24.858 Y-19.001 I-39.896 J-1.127
N12990 G1 X-24.865 Y-20.616
N12995 G2 X-24.902 Y-22.422 I-53.088 J0.16
N13000 G3 X-24.949 Y-24.019 I26.991 J-1.597
N13005 G1 X-24.857 Y-30.409
N13010 G3 X-24.41 Y-30.874 I0.472 J0.007
N13015 G2 X-20.834 Y-31.117 I-0.904 J-39.678
N13020 X-19.842 Y-31.332 I-0.449 J-4.468
N13025 G1 X-19.523 Y-31.441
N13030 G2 X-18.221 Y-32.046 I-2.133 J-6.296
N13035 G1 X-18.033 Y-32.159
N13040 G2 X-17.009 Y-32.923 I-3.382 J-5.603
N13045 G1 X-16.998 Y-32.933
N13050 G2 X-13.9 Y-39.948 I-6.385 J-7.011
N13055 X-13.963 Y-41.166 I-7.536 J-0.22
N13060 G1 X-14.006 Y-41.534
N13065 X-14.065 Y-41.899
N13070 X-14.139 Y-42.261
N13075 X-14.229 Y-42.62
N13080 X-14.335 Y-42.975
N13085 X-14.455 Y-43.325
N13090 X-14.591 Y-43.669
N13095 X-14.741 Y-44.007
N13100 X-14.906 Y-44.338
N13105 X-15.084 Y-44.662
N13110 X-15.277 Y-44.978
N13115 X-15.483 Y-45.285
N13120 X-15.702 Y-45.583
N13125 X-15.934 Y-45.872
N13130 X-16.177 Y-46.15
N13135 X-16.433 Y-46.417
N13140 X-16.7 Y-46.674
N13145 X-16.978 Y-46.918
N13150 X-17.266 Y-47.15
N13155 X-17.564 Y-47.37
N13160 X-17.87 Y-47.576
N13165 X-18.186 Y-47.769
N13170 X-18.51 Y-47.949
N13175 X-18.841 Y-48.114
N13180 X-19.178 Y-48.265
N13185 X-19.522 Y-48.401
N13190 X-19.872 Y-48.522
N13195 X-20.226 Y-48.628
N13200 X-20.585 Y-48.718
N13205 X-20.947 Y-48.793
N13210 X-21.312 Y-48.853
N13215 X-21.68 Y-48.896
N13220 G2 X-24.488 Y-49.049 I-3.305 J34.905
N13225 G3 X-24.938 Y-49.512 I0.023 J-0.473
N13230 G1 X-25.066 Y-56.014
N13235 G3 X-25.036 Y-57.677 I33.356 J-0.217
N13240 G2 X-25.017 Y-59.284 I-67.433 J-1.595
N13245 X-25.087 Y-63.988 I-157.444 J0.008
N13250 G1 X-24.988 Y-70.542
N13255 G3 X-24.542 Y-71.004 I0.47 J0.007
N13260 G2 X-21.679 Y-71.164 I-0.372 J-32.371
N13265 G1 X-21.312 Y-71.208
N13270 X-20.948 Y-71.269
N13275 X-20.587 Y-71.345
N13280 X-20.229 Y-71.437
N13285 X-19.875 Y-71.544
N13290 X-19.526 Y-71.666
N13295 X-19.183 Y-71.803
N13300 X-18.846 Y-71.954
N13305 X-18.516 Y-72.12
N13310 X-18.194 Y-72.3
N13315 X-17.879 Y-72.494
N13320 X-17.573 Y-72.7
N13325 X-17.276 Y-72.92
N13330 X-16.989 Y-73.153
N13335 X-16.712 Y-73.397
N13340 X-16.446 Y-73.654
N13345 X-16.191 Y-73.921
N13350 X-15.948 Y-74.199
N13355 X-15.717 Y-74.488
N13360 X-15.499 Y-74.786
N13365 X-15.294 Y-75.093
N13370 X-15.102 Y-75.408
N13375 X-14.924 Y-75.732
N13380 X-14.76 Y-76.063
N13385 X-14.61 Y-76.401
N13390 X-14.475 Y-76.745
N13395 X-14.355 Y-77.094
N13400 X-14.25 Y-77.448
N13405 X-14.16 Y-77.807
N13410 X-14.086 Y-78.168
N13415 X-14.028 Y-78.533
N13420 X-13.985 Y-78.9
N13425 G2 X-13.992 Y-81.156 I-9.162 J-1.1
N13430 G1 X-14.034 Y-81.517
N13435 X-14.093 Y-81.877
N13440 X-14.166 Y-82.233
N13445 X-14.255 Y-82.586
N13450 X-14.359 Y-82.935
N13455 X-14.478 Y-83.279
N13460 X-14.611 Y-83.617
N13465 X-14.759 Y-83.95
N13470 X-14.922 Y-84.275
N13475 X-15.098 Y-84.594
N13480 X-15.287 Y-84.905
N13485 X-15.49 Y-85.207
N13490 X-15.706 Y-85.5
N13495 X-15.934 Y-85.783
N13500 X-16.174 Y-86.057
N13505 X-16.426 Y-86.32
N13510 X-16.688 Y-86.572
N13515 X-16.962 Y-86.812
N13520 X-17.245 Y-87.04
N13525 X-17.538 Y-87.256
N13530 X-17.84 Y-87.459
N13535 X-18.151 Y-87.649
N13540 X-18.469 Y-87.825
N13545 X-18.795 Y-87.987
N13550 X-19.127 Y-88.136
N13555 X-19.466 Y-88.269
N13560 X-19.81 Y-88.388
N13565 X-20.158 Y-88.493
N13570 X-20.511 Y-88.582
N13575 X-20.867 Y-88.655
N13580 X-21.227 Y-88.714
N13585 X-21.588 Y-88.757
N13590 G2 X-22.385 Y-88.807 I-1.139 J11.781
N13595 G1 X-24.49 Y-88.867
N13600 G3 X-25.125 Y-89.514 I0.019 J-0.655
N13605 G1 X-25.203 Y-95.758
N13610 G2 X-25.226 Y-104.216 I-260.944 J-3.51
N13615 G1 X-25.19 Y-110.545
N13620 G3 X-24.55 Y-111.198 I0.657 J0.004
N13625 G1 X-22.406 Y-111.252
N13630 G2 X-21.573 Y-111.305 I-0.286 J-11.19
N13635 G1 X-21.481 Y-111.314
N13640 G2 X-14.023 Y-118.805 I-0.833 J-8.288
N13645 X-14.028 Y-121.226 I-9.408 J-1.193
N13650 G1 X-14.069 Y-121.577
N13655 X-14.126 Y-121.926
N13660 X-14.198 Y-122.272
N13665 X-14.285 Y-122.615
N13670 X-14.386 Y-122.954
N13675 X-14.502 Y-123.288
N13680 X-14.632 Y-123.617
N13685 X-14.776 Y-123.94
N13690 X-14.934 Y-124.257
N13695 X-15.106 Y-124.566
N13700 X-15.29 Y-124.868
N13705 X-15.488 Y-125.161
N13710 X-15.698 Y-125.446
N13715 X-15.919 Y-125.721
N13720 X-16.153 Y-125.987
N13725 X-16.398 Y-126.242
N13730 X-16.653 Y-126.487
N13735 X-16.919 Y-126.72
N13740 X-17.195 Y-126.942
N13745 X-17.479 Y-127.152
N13750 X-17.773 Y-127.349
N13755 X-18.075 Y-127.533
N13760 X-18.384 Y-127.704
N13765 X-18.701 Y-127.862
N13770 X-19.024 Y-128.006
N13775 X-19.353 Y-128.136
N13780 X-19.687 Y-128.252
N13785 X-20.026 Y-128.353
N13790 X-20.369 Y-128.439
N13795 X-20.716 Y-128.511
N13800 X-21.065 Y-128.568
N13805 X-21.416 Y-128.609
N13810 X-21.536 Y-128.621
N13815 G2 X-22.449 Y-128.672 I-1.087 J11.255
N13820 G1 X-24.7 Y-128.707
N13825 G3 X-25.292 Y-129.303 I0.009 J-0.601
N13830 G1 X-25.347 Y-136.214
N13835 X-25.342 Y-141.519
N13840 X-25.367 Y-143.786
N13845 X-25.357 Y-150.795
N13850 G3 X-24.799 Y-151.359 I0.565 J0.001
N13855 G1 X-22.466 Y-151.387
N13860 G2 X-21.526 Y-151.44 I-0.13 J-10.703
N13865 G1 X-20.917 Y-151.501
N13870 G2 X-19.961 Y-151.697 I-0.481 J-4.786
N13875 G1 X-19.542 Y-151.828
N13880 G2 X-18.356 Y-152.334 I-1.935 J-6.184
N13885 G1 X-18.212 Y-152.413
N13890 G2 X-16.962 Y-153.268 I-3.733 J-6.792
N13895 G1 X-16.876 Y-153.341
N13900 G2 X-15.858 Y-154.376 I-4.875 J-5.809
N13905 G1 X-15.714 Y-154.555
N13910 G2 X-15.033 Y-155.588 I-4.972 J-4.015
N13915 G1 X-14.803 Y-156.023
N13920 G2 X-14.458 Y-156.865 I-4.133 J-2.187
N13925 G1 X-14.24 Y-157.592
N13930 G2 X-14.102 Y-158.29 I-3.501 J-1.052
N13935 X-14.111 Y-161.76 I-11.61 J-1.706
N13940 G1 X-14.137 Y-161.962
N13945 X-14.176 Y-162.161
N13950 X-14.228 Y-162.357
N13955 X-14.494 Y-163.238
N13960 G2 X-14.757 Y-163.876 I-3.38 J1.021
N13965 G1 X-15.137 Y-164.59
N13970 G2 X-15.593 Y-165.277 I-3.738 J1.988
N13975 G1 X-16.004 Y-165.78
N13980 G2 X-16.722 Y-166.503 I-4.065 J3.321
N13985 G1 X-17.038 Y-166.764
N13990 G2 X-18.125 Y-167.496 I-4.231 J5.113
N13995 G1 X-18.369 Y-167.627
N14000 G2 X-19.538 Y-168.113 I-3.017 J5.609
N14005 G1 X-19.992 Y-168.251
N14010 G2 X-20.881 Y-168.427 I-1.33 J4.385
N14015 G1 X-21.491 Y-168.486
N14020 G2 X-22.508 Y-168.536 I-1.041 J10.78
N14025 G1 X-24.673 Y-168.54
N14030 G3 X-25.46 Y-169.326 I0.002 J-0.789
N14035 G1 X-25.486 Y-176.214
N14040 X-25.494 Y-179.789
N14045 X-25.5 Y-181.661
N14050 Y-191.
N14055 G3 X-25. Y-191.5 I0.5 J0.
N14060 G1 X-22.
N14065 G2 X-15.683 Y-194.592 I0. J-8.
N14070 X-14.833 Y-195.944 I-6.317 J-4.909 F#106
N14075 G3 X-14.744 Y-196. I0.09 J0.044
N14080 G1 X-9.856 F#100
N14085 X-8.256 F#106
N14090 G3 X-8.167 Y-195.944 I0. J0.1
N14095 G2 X-1. Y-191.5 I7.167 J-3.556 F#100
N14100 G1 X10.5
N14105 G3 X14.5 Y-187.5 I0. J4.
N14110 G1 Y-172.5
N14115 G3 X10.5 Y-168.5 I-4. J0.
N14120 G1 X-1.
N14125 G2 X-9. Y-160.5 I0. J8.
N14130 G1 Y-159.5
N14135 G2 X-1. Y-151.5 I8. J0.
N14140 G1 X10.5
N14145 G3 X14.5 Y-147.5 I0. J4.
N14150 G1 Y-132.5
N14155 G3 X10.5 Y-128.5 I-4. J0.
N14160 G1 X-1.
N14165 G2 X-9. Y-120.5 I0. J8.
N14170 G1 Y-119.5
N14175 G2 X-1. Y-111.5 I8. J0.
N14180 G1 X10.5
N14185 G3 X14.5 Y-107.5 I0. J4.
N14190 G1 Y-92.5
N14195 G3 X10.5 Y-88.5 I-4. J0.
N14200 G1 X-1.
N14205 G2 X-9. Y-80.5 I0. J8.
N14210 G1 Y-79.5
N14215 G2 X-1. Y-71.5 I8. J0.
N14220 G1 X10.5
N14225 G3 X14.5 Y-67.5 I0. J4.
N14230 G1 Y-52.5
N14235 G3 X10.5 Y-48.5 I-4. J0.
N14240 G1 X-1.
N14245 G2 X-9. Y-40.5 I0. J8.
N14250 G1 Y-39.5
N14255 G2 X-1. Y-31.5 I8. J0.
N14260 G1 X10.5
N14265 G3 X14.5 Y-27.5 I0. J4.
N14270 G1 Y-12.5
N14275 G3 X10.5 Y-8.5 I-4. J0.
N14280 G1 X-1.
N14285 G2 X-7.317 Y-5.408 I0. J8.
N14290 X-8.167 Y-4.056 I6.317 J4.909 F#106
N14295 G3 X-8.256 Y-4. I-0.09 J-0.044
N14300 G1 X-13.144 F#100
N14305 X-14.744 F#106
N14310 G3 X-14.833 Y-4.056 I0. J-0.1
N14315 G2 X-22. Y-8.5 I-7.167 J3.556 F#100
N14320 G1 X-25.
N14325 G3 X-25.5 Y-9. I0. J-0.5
N14330 G1 Y-31.
N14335 G3 X-25. Y-31.5 I0.5 J0.
N14340 G1 X-22.
N14345 G2 X-14. Y-39.5 I0. J-8.
N14350 G1 Y-40.5
N14355 G2 X-22. Y-48.5 I-8. J0.
N14360 G1 X-25.
N14365 G3 X-25.5 Y-49. I0. J-0.5
N14370 G1 Y-71.
N14375 G3 X-25. Y-71.5 I0.5 J0.
N14380 G1 X-22.
N14385 G2 X-14. Y-79.5 I0. J-8.
N14390 G1 Y-80.5
N14395 G2 X-22. Y-88.5 I-8. J0.
N14400 G1 X-25.
N14405 G3 X-25.5 Y-89. I0. J-0.5
N14410 G1 Y-111.
N14415 G3 X-25. Y-111.5 I0.5 J0.
N14420 G1 X-22.
N14425 G2 X-14. Y-119.5 I0. J-8.
N14430 G1 Y-120.5
N14435 G2 X-22. Y-128.5 I-8. J0.
N14440 G1 X-25.
N14445 G3 X-25.5 Y-129. I0. J-0.5
N14450 G1 Y-151.
N14455 G3 X-25. Y-151.5 I0.5 J0.
N14460 G1 X-22.
N14465 G2 X-14. Y-159.5 I0. J-8.
N14470 G1 Y-160.5
N14475 G2 X-22. Y-168.5 I-8. J0.
N14480 G1 X-25.
N14485 G3 X-25.5 Y-169. I0. J-0.5
N14490 G1 Y-181.661
N14495 G3 X-24.993 Y-182.047 I0.4 J0.
N14500 G1 X-9.487 Y-177.735
N14505 G3 X-9.52 Y-176.957 I-0.107 J0.385
N14510 G1 X-9.673 Y-176.934 Z-2.108 F#107
N14515 G3 X-10.072 Y-180.703 Z-2.42 I-0.2 J-1.884
N14520 X-9.673 Y-176.934 Z-2.732 I0.2 J1.884
N14525 X-10.072 Y-180.703 Z-3.044 I-0.2 J-1.884
N14530 X-9.673 Y-176.934 Z-3.356 I0.2 J1.884
N14535 X-10.072 Y-180.703 Z-3.668 I-0.2 J-1.884
N14540 X-9.673 Y-176.934 Z-3.98 I0.2 J1.884
N14545 X-11.5 Y-179.789 Z-4.2 I-0.2 J-1.884
N14550 G1 X-11.387 Y-179.98 F#106
N14555 X-11.385 Y-179.985
N14560 X-11.386 Y-179.991
N14565 X-11.391 Y-180.
N14570 G3 X-7.324 Y-180.02 I5.232 J652.969 F#100
N14575 G1 X-6.451 Y-180.007
N14580 X-5.578
N14585 X0.322 Y-180.02
N14590 X1.922 Y-180.022 F#106
N14595 G3 X1.951 Y-179.992 I-0.001 J0.03
N14600 G1 X1.941 Y-179.979
N14605 X-5.697 Y-179.964 F#100
N14610 G3 X-7.227 Y-179.97 I-0.562 J-55.377
N14615 G2 X-9.142 I-0.962 J55.007
N14620 G1 X-10.997 Y-179.937
N14625 G2 X-11.449 Y-179.481 I0.007 J0.459
N14630 G1 X-11.455 Y-178.481
N14635 X-11.459 Y-170.132
N14640 X-11.48 Y-164.178
N14645 X-11.482 Y-159.254
N14650 X-11.473 Y-155.151
N14655 X-11.435 Y-149.618
N14660 X-11.405 Y-141.992
N14665 X-11.403 Y-141.519 F#106
N14670 X-11.382 Y-140.392
N14675 G2 X-11.109 Y-140.118 I0.279 J-0.005
N14680 G1 X-10.552 Y-140.104 F#100
N14685 X-10.516
N14690 X-3.709 Y-140.111
N14695 X0.326 Y-140.129
N14700 X1.824 Y-140.135 F#106
N14705 X1.875
N14710 X1.926 Y-140.132
N14715 G3 X2.072 Y-139.964 I-0.012 J0.158
N14720 G1 X2.071 Y-139.942
N14725 G3 X2.012 Y-139.876 I-0.071 J-0.005
N14730 G1 X1.977 Y-139.871
N14735 X1.926 Y-139.866 F#100
N14740 X1.875 Y-139.864
N14745 X-9.419 Y-139.858
N14750 X-10.505 Y-139.857 F#106
N14755 X-10.563 Y-139.855
N14760 X-11.019 Y-139.835
N14765 G2 X-11.332 Y-139.516 I0.014 J0.327
N14770 G1 X-11.355 Y-138.531 F#100
N14775 X-11.356 Y-138.43
N14780 X-11.386 Y-130.132
N14785 X-11.448 Y-124.178
N14790 X-11.458 Y-119.377
N14795 X-11.438 Y-115.151
N14800 X-11.312 Y-105.47
N14805 G2 X-11.325 Y-102.171 I48.658 J1.842
N14810 X-11.251 Y-100.573 I48.671 J-1.456 F#106
N14815 X-10.909 Y-100.229 I0.364 J-0.02
N14820 G1 X-10.559 Y-100.209 F#100
N14825 X-10.509 Y-100.207
N14830 X-3.707 Y-100.209
N14835 G3 X0.485 Y-100.271 I3.242 J77.322
N14840 X1.977 Y-100.239 I-0.95 J77.384 F#106
N14845 G1 X2.052 Y-100.232
N14850 X2.061 Y-100.231
N14855 X2.084 Y-100.227
N14860 G3 X2.191 Y-100.107 I-0.023 J0.128
N14865 Y-99.894 I-1.708 J0.105
N14870 X2.084 Y-99.773 I-0.13 J-0.008
N14875 G1 X-2.213 Y-99.752 F#100
N14880 X-6.51 Y-99.738
N14885 X-10.807 Y-99.732
N14890 G2 X-11.218 Y-99.306 I0.035 J0.446
N14895 G1 X-11.254 Y-98.516
N14900 X-11.255 Y-98.446
N14905 X-11.277 Y-92.844
N14910 X-11.416 Y-84.178
N14915 X-11.433 Y-79.377
N14920 X-11.403 Y-75.151
N14925 X-11.214 Y-65.47
N14930 X-11.201 Y-61.556
N14935 X-11.199 Y-61.483
N14940 X-11.166 Y-60.824
N14945 G2 X-10.677 Y-60.322 I0.53 J-0.027
N14950 G1 X-10.562 Y-60.313
N14955 X-10.534 Y-60.311
N14960 X-10.505 Y-60.31
N14965 X-4.75 Y-60.306
N14970 G2 X-2.668 Y-60.332 I-0.21 J-100.927
N14975 G3 X0.557 Y-60.392 I2.443 J44.71
N14980 X2.156 Y-60.335 I-0.782 J44.77 F#106
N14985 G1 X2.205 Y-60.318
N14990 X2.248 Y-60.289
N14995 X2.281 Y-60.251
N15000 X2.303 Y-60.205
N15005 X2.311 Y-60.155
N15010 G3 Y-59.845 I-2.488 J0.153
N15015 X2.155 Y-59.67 I-0.189 J-0.012
N15020 X1.739 Y-59.639 I-0.43 J-2.896 F#100
N15025 X-2.592 Y-59.651 I-1.723 J-153.12
N15030 G1 X-3.709 Y-59.669
N15035 X-4.826 Y-59.674
N15040 X-10.504 Y-59.65
N15045 X-10.534 Y-59.649
N15050 X-10.563 Y-59.647
N15055 X-10.632 Y-59.641
N15060 G2 X-11.122 Y-59.131 I0.048 J0.537
N15065 G3 X-11.239 Y-50.117 I-759.891 J-5.322
N15070 G1 X-11.385 Y-44.178
N15075 X-11.409 Y-39.439
N15080 X-11.368 Y-35.151
N15085 X-11.216 Y-29.868
N15090 G3 X-11.145 Y-26.785 I-148.394 J4.957
N15095 X-11.113 Y-24.154 I-137.625 J3.005
N15100 G1 X-11.101 Y-21.554
N15105 X-11.099 Y-21.485
N15110 X-11.07 Y-20.936
N15115 G2 X-10.579 Y-20.428 I0.538 J-0.028
N15120 G1 X-10.544 Y-20.425
N15125 X-10.502 Y-20.422
N15130 X-9.458 Y-20.399
N15135 G2 X-7.193 Y-20.395 I1.221 J-57.548
N15140 G3 X-5.719 Y-20.404 I1.11 J61.187
N15145 G1 X-4.609 Y-20.4
N15150 G2 X-3.008 Y-20.423 I0.277 J-36.485
N15155 G3 X0.63 Y-20.486 I3.197 J79.446
N15160 X1.696 Y-20.473 I-0.441 J79.509 F#106
N15165 G1 X1.875 Y-20.469
N15170 X2.053 Y-20.455
N15175 X2.16 Y-20.444
N15180 X2.185 Y-20.44
N15185 X2.228 Y-20.432
N15190 G3 X2.432 Y-20.204 I-0.044 J0.244
N15195 X2.431 Y-19.797 I-3.26 J0.2
N15200 X2.226 Y-19.568 I-0.249 J-0.016
N15205 X1.875 Y-19.526 I-0.458 J-2.376 F#100
N15210 G1 X-4.055 Y-19.493
N15215 X-4.071
N15220 X-5.582 Y-19.482
N15225 G2 X-7.828 Y-19.42 I0.375 J53.98
N15230 G3 X-9.869 Y-19.346 I-4.034 J-82.99
N15235 G1 X-10.533 Y-19.331
N15240 X-10.61 Y-19.327
N15245 G3 X-12.106 Y-20.728 I-0.089 J-1.404
N15250 G1 Y-20.848
N15255 G2 X-12.13 Y-22.191 I-41.903 J0.086
N15260 G1 X-12.199 Y-24.259
N15265 G3 X-12.15 Y-25.57 I9.596 J-0.294
N15270 G2 X-11.871 Y-29.128 I-63.181 J-6.731
N15275 X-11.896 Y-50.883 I-216.011 J-10.63
N15280 G1 X-11.953 Y-51.76
N15285 X-12.024 Y-52.636
N15290 X-12.108 Y-53.51
N15295 X-12.207 Y-54.384
N15300 G3 X-12.271 Y-55.801 I9.49 J-1.141
N15305 G1 X-12.249 Y-56.516
N15310 G2 X-12.266 Y-63.514 I-97.251 J-3.259
N15315 G1 X-12.293 Y-64.254
N15320 G3 X-12.236 Y-65.573 I8.525 J-0.294
N15325 G2 X-11.92 Y-69.13 I-55.635 J-6.734
N15330 X-11.945 Y-90.88 I-191.531 J-10.662
N15335 G1 X-12.008 Y-91.759
N15340 X-12.088 Y-92.636
N15345 X-12.183 Y-93.512
N15350 X-12.294 Y-94.386
N15355 G3 X-12.365 Y-95.799 I8.424 J-1.135
N15360 G2 X-12.273 Y-98.109 I-52.864 J-3.266
N15365 X-12.268 Y-99.709 I-52.956 J-0.957 F#106
N15370 G3 X-12.234 Y-99.863 I0.363 J-0.001
N15375 G1 X-12.215 Y-99.904
N15380 G2 X-12.229 Y-100.145 I-0.23 J-0.107
N15385 G3 X-12.27 Y-100.287 I0.229 J-0.142
N15390 G2 X-12.342 Y-103.161 I-37.209 J-0.496 F#100
N15395 G3 X-12.184 Y-106.599 I19.405 J-0.83
N15400 G2 X-12.065 Y-107.716 I-19.504 J-2.643
N15405 X-12.096 Y-132.273 I-169.599 J-12.063
N15410 G1 X-12.135 Y-132.653
N15415 X-12.181 Y-133.033
N15420 X-12.234 Y-133.411
N15425 G3 X-12.417 Y-136.851 I17.933 J-2.676
N15430 G2 X-12.359 Y-138.109 I-34.373 J-2.226
N15435 X-12.351 Y-139.709 I-34.431 J-0.968 F#106
N15440 G3 X-12.313 Y-139.861 I0.32 J-0.001
N15445 G1 X-12.307 Y-139.871
N15450 G2 X-12.312 Y-140.142 I-0.244 J-0.131
N15455 G3 X-12.352 Y-140.29 I0.257 J-0.149
N15460 G2 X-12.432 Y-143.157 I-33.822 J-0.494 F#100
N15465 G3 X-12.256 Y-146.599 I17.597 J-0.829
N15470 G2 X-12.124 Y-147.717 I-17.674 J-2.651
N15475 X-12.153 Y-172.273 I-153.889 J-12.097
N15480 G1 X-12.196 Y-172.653
N15485 X-12.247 Y-173.033
N15490 X-12.307 Y-173.41
N15495 G3 X-12.506 Y-176.855 I16.342 J-2.675
N15500 G1 X-12.459 Y-177.867
N15505 G2 X-12.432 Y-179.095 I-25.294 J-1.176
N15510 G3 Y-179.607 I17.219 J-0.262
N15515 X-12.42 Y-180.051 I17.219 J0.25 F#106
N15520 G1 X-12.407 Y-180.173
N15525 X-12.378 Y-180.293
N15530 X-12.336 Y-180.408
N15535 X-12.28 Y-180.518
N15540 X-12.211 Y-180.62
N15545 X-12.13 Y-180.712
N15550 X-12.039 Y-180.795
N15555 X-11.938 Y-180.865
N15560 X-11.83 Y-180.923
N15565 X-11.785 Y-180.943
N15570 G3 X-11.206 Y-181.065 I0.56 J1.223 F#100
N15575 X-9.76 Y-181.028 I-0.13 J32.905
N15580 X-8.05 Y-180.935 I-2.218 J57.119
N15585 G2 X-5.829 Y-180.848 I2.608 J-37.864
N15590 X1.567 Y-180.813 I5.832 J-457.499
N15595 G1 X1.772 Y-180.811
N15600 X1.977 Y-180.801
N15605 X2.182 Y-180.783
N15610 X2.332 Y-180.766
N15615 X2.371 Y-180.76
N15620 X2.449 Y-180.747
N15625 G3 X2.802 Y-180.353 I-0.074 J0.422
N15630 X2.804 Y-179.648 I-5.661 J0.366
N15635 X2.448 Y-179.247 I-0.433 J-0.026
N15640 X1.875 Y-179.173 I-0.789 J-3.878
N15645 X-3.039 Y-179.229 I-1.883 J-50.631
N15650 G1 X-3.544 Y-179.252
N15655 X-4.05 Y-179.263
N15660 X-4.555
N15665 G2 X-10.034 Y-179.215 I-1.406 J149.828
N15670 G1 X-10.135 Y-179.203
N15675 X-10.235 Y-179.178
N15680 X-10.329 Y-179.138
N15685 X-10.417 Y-179.085
N15690 X-10.495 Y-179.02
N15695 X-10.564 Y-178.944
N15700 X-10.621 Y-178.859
N15705 X-10.665 Y-178.767
N15710 X-10.695 Y-178.669
N15715 X-10.71 Y-178.568
N15720 G2 X-10.733 Y-175.739 I22.152 J1.594
N15725 G3 X-10.779 Y-173.323 I-69.633 J-0.116
N15730 G2 X-10.847 Y-171.445 I67.096 J3.382
N15735 G1 X-10.859 Y-171.031
N15740 X-10.878 Y-170.617
N15745 X-10.906 Y-170.204
N15750 G2 X-11.2 Y-155.014 I127.911 J10.071
N15755 G1 X-11.15 Y-153.944
N15760 X-11.089 Y-152.874
N15765 X-11.019 Y-151.805
N15770 X-10.938 Y-150.737
N15775 G3 X-10.791 Y-148.458 I-33.4 J3.3
N15780 G1 X-10.774 Y-147.942
N15785 X-10.747 Y-147.426
N15790 X-10.711 Y-146.76
N15795 G3 X-10.641 Y-144.178 I-59.084 J2.896
N15800 G1 X-10.613 Y-141.632
N15805 G2 X-9.921 Y-140.917 I0.724 J-0.009
N15810 G1 X-9.12 Y-140.881
N15815 X-9.035 Y-140.879
N15820 X-4.765 Y-140.889
N15825 G2 X-2.654 Y-140.962 I-0.165 J-35.396
N15830 G1 X-2.303 Y-140.985
N15835 G3 X-0.988 Y-141.029 I1.386 J21.52
N15840 G1 X1.482 Y-141.038
N15845 G3 X2.265 Y-140.994 I0.022 J6.705
N15850 G1 X2.443 Y-140.974
N15855 X2.49 Y-140.967
N15860 X2.59 Y-140.95
N15865 G3 X3.039 Y-140.448 I-0.094 J0.536
N15870 X3.041 Y-139.553 I-7.19 J0.46
N15875 X2.589 Y-139.044 I-0.55 J-0.033
N15880 X1.875 Y-138.951 I-0.996 J-4.866
N15885 G1 X-0.875 Y-138.942
N15890 G3 X-2.429 Y-138.987 I-0.081 J-24.29
N15895 G1 X-2.593 Y-138.997
N15900 G2 X-4.826 Y-139.063 I-2.194 J36.098
N15905 X-9.818 Y-138.998 I-1.895 J46.319
N15910 X-10.525 Y-138.255 I0.045 J0.75
N15915 G1 X-10.543 Y-135.733
N15920 G3 X-10.599 Y-133.329 I-51.45 J-0.012
N15925 X-10.64 Y-132.566 I-34.281 J-1.463
N15930 G2 X-10.686 Y-131.549 I24.277 J1.601
N15935 G3 X-10.767 Y-130.127 I-21.717 J-0.521
N15940 G1 X-10.842 Y-129.292
N15945 G2 X-11.243 Y-121.198 I100.781 J9.054
N15950 G1 X-11.239 Y-118.618
N15955 G2 X-10.808 Y-110.734 I90.531 J-1.003
N15960 G3 X-10.676 Y-109.382 I-75.091 J7.978
N15965 G1 X-10.651 Y-109.
N15970 X-10.635 Y-108.617
N15975 X-10.63 Y-108.458
N15980 G2 X-10.575 Y-107.427 I22.762 J-0.698
N15985 G1 X-10.531 Y-106.758
N15990 G3 X-10.447 Y-104.179 I-48.11 J2.863
N15995 G1 X-10.418 Y-101.896
N16000 G2 X-9.667 Y-101.11 I0.799 J-0.011
N16005 G1 X-9.128 Y-101.078
N16010 X-9.077 Y-101.076
N16015 X-9.026 Y-101.075
N16020 X-4.775 Y-101.084
N16025 G2 X-2.645 Y-101.172 I-0.148 J-29.397
N16030 G1 X-2.416 Y-101.19
N16035 G3 X-0.875 Y-101.252 I1.61 J20.708
N16040 G1 X1.875 Y-101.261
N16045 G3 X2.731 Y-101.152 I-0.65 J8.527
N16050 X3.276 Y-100.543 I-0.114 J0.652
N16055 X3.278 Y-99.457 I-8.716 J0.554
N16060 X2.73 Y-98.841 I-0.666 J-0.041
N16065 X1.875 Y-98.729 I-1.204 J-5.859
N16070 G1 X-0.874 Y-98.72
N16075 G3 X-2.427 Y-98.775 I-0.067 J-20.114
N16080 G1 X-2.594 Y-98.787
N16085 G2 X-4.826 Y-98.869 I-2.211 J29.84
N16090 G1 X-9.029 Y-98.847
N16095 X-9.077 Y-98.846
N16100 X-9.126 Y-98.843
N16105 X-9.566 Y-98.81
N16110 G2 X-10.283 Y-98.065 I0.057 J0.773
N16115 G1 X-10.346 Y-96.273
N16120 X-10.348 Y-96.156
N16125 X-10.349 Y-95.58
N16130 G3 X-10.41 Y-93.482 I-37.07 J-0.03
N16135 X-10.469 Y-92.566 I-35.42 J-1.81
