%
(T133  D=3.3 CR=0. TAPER=118DEG - ZMIN=-5. - DRILL)
N10 G90 G94 G17 G91.1
N15 G21
N20 G53 G0 Z0.
(DRILL M4 2)
N25 M9
N30 T133 M6
N35 S3200 M3
N40 G54
N45 M9
N55 G0 X0. Y0.
N60 G43 Z15. H0
N70 G0 Z5.
N75 G98 G83 X0. Y0. Z-5. R5. Q3. F60.
N80 X-23.
N85 X-25. Y-35.
N90 X-23. Y-40.
N95 X-2.5 Y-35.
N100 X0. Y-40.
N105 X20. Y-35.
N110 X-23. Y-80.
N115 X0.
N120 Y-120.
N125 X-23.
N130 Y-160.
N135 X0.
N140 Y-200.
N145 X-23.
N150 G80
N155 G0 Z15.
N165 M9
N170 G53 Z0.
N175 M30
%
