%
(T133  D=3.3 CR=0. TAPER=118DEG - ZMIN=-5. - DRILL)
N10 G90 G94 G17 G91.1
N15 G21
N20 G53 G0 Z0.
(DRILL M4 4)
N25 M9
N30 T133 M6
N35 S3200 M3
N40 G54
N45 M9
N55 G0 X-23. Y-400.
N60 G43 Z15. H0
N70 G0 Z5.
N75 G98 G83 X-23. Y-400. Z-5. R5. Q3. F60.
N80 X0.
N85 Y-360.
N90 X-23.
N95 X-25. Y-335.
N100 X-23. Y-320.
N105 X0.
N110 X-2.5 Y-335.
N115 X20.
N120 X0. Y-280.
N125 X-23.
N130 Y-240.
N135 X0.
N140 Y-200.
N145 X-23.
N150 G80
N155 G0 Z15.
N165 M9
N170 G53 Z0.
N175 M30
%
