%
(T133  D=3.3 CR=0. TAPER=118DEG - ZMIN=-5. - DRILL)
N10 G90 G94 G17 G91.1
N15 G21
N20 G53 G0 Z0.
(DRILL M4 4)
N25 M9
N30 T133 M6
N35 S3200 M3
N40 G54
N45 M9
N55 G0 X0. Y200.
N60 G43 Z15. H0
N70 G0 Z5.
N75 G98 G83 X0. Y200. Z-5. R5. Q3. F60.
N80 X-23.
N85 Y160.
N90 X0.
N95 X2. Y135.
N100 X0. Y120.
N105 X-23.
N110 X-20.5 Y135.
N115 X-43.
N120 X-23. Y80.
N125 X0.
N130 Y40.
N135 X-23.
N140 Y0.
N145 X0.
N150 G80
N155 G0 Z15.
N165 M9
N170 G53 Z0.
N175 M30
%
