%
(1001)
(6MM TWO FLUTE)
(T1  D=6. CR=0. - ZMIN=-4.2 - FLAT END MILL)
N10 G90 G94 G17 G91.1
N15 G21
N20 G53 G0 Z0.
(2D ADAPTIVE3)
N25 M9
N30 T1 M6
N35 S3200 M3
N40 G54
N45 M8
N55 G0 X-13.009 Y-102.168
N60 G43 Z4. H1
N65 #100=330. (CUTTING)
N70 #103=330. (ENTRY)
N75 #104=330. (EXIT)
N80 #105=4000. (DIRECT)
N85 #106=150. (REDUCED)
N90 #107=270. (RAMPING)
N95 G0 Z1.25
N100 G1 Z1.15 F#103
N105 S3000
N110 G3 X-10.528 Y-99.598 Z0.931 I0.326 J2.168 F#107
N115 X-13.74 Y-98.108 Z0.712 I-2.136 J-0.398
N120 X-14.094 Y-101.6 Z0.494 I1.066 J-1.872
N125 X-10.709 Y-100.798 Z0.275 I1.407 J1.606
N130 X-12.558 Y-97.889 Z0.056 I-1.96 J0.797
N135 X-14.683 Y-100.564 Z-0.162 I-0.11 J-2.094
N140 X-11.489 Y-101.686 Z-0.381 I1.996 J0.576
N145 X-11.474 Y-98.331 Z-0.6 I-1.187 J1.682
N150 X-14.619 Y-99.405 Z-0.819 I-1.19 J-1.656
N155 X-12.594 Y-102.001 Z-1.038 I1.936 J-0.577
N160 X-10.821 Y-99.264 Z-1.256 I-0.088 J2.
N165 X-13.957 Y-98.492 Z-1.475 I-1.843 J-0.73
N170 X-13.663 Y-101.677 Z-1.694 I1.281 J-1.488
N175 X-10.778 Y-100.369 Z-1.913 I0.977 J1.681
N180 X-12.937 Y-98.094 Z-2.131 I-1.89 J0.369
N185 X-14.366 Y-100.851 Z-2.35 I0.267 J-1.888
N190 X-11.323 Y-101.295 Z-2.569 I1.679 J0.861
N195 X-11.894 Y-98.305 Z-2.787 I-1.35 J1.292
N200 X-14.506 Y-99.808 Z-3.006 I-0.771 J-1.681
N205 X-12.254 Y-101.763 Z-3.225 I1.822 J-0.176
N210 X-11.155 Y-99.024 Z-3.444 I-0.425 J1.76
N215 X-14.072 Y-98.884 Z-3.662 I-1.508 J-0.968
N220 X-13.259 Y-101.656 Z-3.881 I1.393 J-1.097
N225 X-10.931 Y-99.998 Z-4.1 I0.574 J1.657
N230 X-14.439 I-1.754 J0.
N235 X-10.931 I1.754 J0.
N240 S3200
N245 X-14.073 Y-98.651 I-1.76 J0.235 F#100
N250 G1 X-14.191 Y-98.779
N255 X-14.296 Y-98.917
N260 X-14.389 Y-99.064
N265 X-14.468 Y-99.219
N270 X-14.534 Y-99.38
N275 X-14.584 Y-99.546
N280 X-14.62 Y-99.716
N285 X-14.641 Y-99.889
N290 X-14.646 Y-100.063
N295 X-14.636 Y-100.236
N300 X-14.611 Y-100.408
N305 X-14.57 Y-100.577
N310 X-14.515 Y-100.742
N315 X-14.445 Y-100.901
N320 X-14.361 Y-101.054
N325 X-14.264 Y-101.198
N330 X-14.155 Y-101.333
N335 X-14.034 Y-101.458
N340 X-13.903 Y-101.572
N345 X-13.762 Y-101.674
N350 X-13.613 Y-101.763
N355 X-13.456 Y-101.838
N360 X-13.293 Y-101.899
N365 X-13.126 Y-101.945
N370 X-12.955 Y-101.977
N375 X-12.782 Y-101.993
N380 X-12.608 Y-101.994
N385 X-12.435 Y-101.979
N390 X-12.263 Y-101.949
N395 X-12.096 Y-101.904
N400 X-11.932 Y-101.844
N405 X-11.775 Y-101.77
N410 X-11.625 Y-101.682
N415 X-11.483 Y-101.582
N420 X-11.351 Y-101.469
N425 X-11.229 Y-101.345
N430 X-11.119 Y-101.211
N435 X-11.021 Y-101.067
N440 X-10.936 Y-100.915
N445 X-10.865 Y-100.757
N450 X-10.808 Y-100.593
N455 X-10.766 Y-100.424
N460 X-10.739 Y-100.252
N465 G3 X-14.214 Y-98.451 I-1.951 J0.489
N470 G1 X-14.343 Y-98.586
N475 X-14.46 Y-98.732
N480 X-14.565 Y-98.887
N485 X-14.655 Y-99.05
N490 X-14.732 Y-99.221
N495 X-14.794 Y-99.397
N500 X-14.841 Y-99.578
N505 X-14.872 Y-99.762
N510 X-14.887 Y-99.948
N515 Y-100.135
N520 X-14.87 Y-100.321
N525 X-14.838 Y-100.506
N530 X-14.791 Y-100.686
N535 X-14.728 Y-100.862
N540 X-14.651 Y-101.033
N545 X-14.559 Y-101.195
N550 X-14.454 Y-101.35
N555 X-14.337 Y-101.495
N560 X-14.207 Y-101.63
N565 X-14.066 Y-101.753
N570 X-13.916 Y-101.864
N575 X-13.756 Y-101.961
N580 X-13.589 Y-102.045
N585 X-13.416 Y-102.114
N590 X-13.237 Y-102.168
N595 X-13.054 Y-102.207
N600 X-12.869 Y-102.231
N605 X-12.682 Y-102.238
N610 X-12.495 Y-102.23
N615 X-12.31 Y-102.205
N620 X-12.127 Y-102.166
N625 X-11.949 Y-102.11
N630 X-11.776 Y-102.04
N635 X-11.609 Y-101.956
N640 X-11.45 Y-101.857
N645 X-11.3 Y-101.746
N650 X-11.16 Y-101.622
N655 X-11.031 Y-101.486
N660 X-10.914 Y-101.341
N665 X-10.81 Y-101.186
N670 X-10.719 Y-101.022
N675 X-10.643 Y-100.852
N680 X-10.581 Y-100.675
N685 X-10.534 Y-100.494
N690 G3 X-14.536 Y-98.423 I-2.17 J0.708
N695 G1 X-14.659 Y-98.575
N700 X-14.769 Y-98.737
N705 X-14.866 Y-98.908
N710 X-14.949 Y-99.085
N715 X-15.018 Y-99.269
N720 X-15.072 Y-99.458
N725 X-15.11 Y-99.65
N730 X-15.134 Y-99.845
N735 X-15.141 Y-100.041
N740 X-15.133 Y-100.236
N745 X-15.109 Y-100.431
N750 X-15.07 Y-100.623
N755 X-15.016 Y-100.812
N760 X-14.947 Y-100.995
N765 X-14.863 Y-101.172
N770 X-14.766 Y-101.343
N775 X-14.655 Y-101.504
N780 X-14.531 Y-101.657
N785 X-14.396 Y-101.799
N790 X-14.25 Y-101.93
N795 X-14.094 Y-102.049
N800 X-13.929 Y-102.155
N805 X-13.757 Y-102.247
N810 X-13.577 Y-102.326
N815 X-13.392 Y-102.39
N820 X-13.202 Y-102.438
N825 X-13.008 Y-102.472
N830 X-12.813 Y-102.49
N835 X-12.617 Y-102.492
N840 X-12.422 Y-102.479
N845 X-12.228 Y-102.45
N850 X-12.037 Y-102.406
N855 X-11.85 Y-102.347
N860 X-11.668 Y-102.273
N865 X-11.493 Y-102.185
N870 X-11.325 Y-102.083
N875 X-11.167 Y-101.968
N880 X-11.017 Y-101.841
N885 X-10.879 Y-101.702
N890 X-10.752 Y-101.553
N895 X-10.637 Y-101.394
N900 X-10.535 Y-101.226
N905 X-10.448 Y-101.051
N910 X-10.374 Y-100.869
N915 X-10.315 Y-100.682
N920 G3 X-14.87 Y-98.418 I-2.402 J0.882
N925 G1 X-14.986 Y-98.587
N930 X-15.088 Y-98.764
N935 X-15.177 Y-98.949
N940 X-15.252 Y-99.14
N945 X-15.313 Y-99.335
N950 X-15.358 Y-99.535
N955 X-15.388 Y-99.738
N960 X-15.403 Y-99.942
N965 Y-100.147
N970 X-15.387 Y-100.351
N975 X-15.356 Y-100.554
N980 X-15.31 Y-100.753
N985 X-15.248 Y-100.949
N990 X-15.173 Y-101.139
N995 X-15.083 Y-101.323
N1000 X-14.979 Y-101.5
N1005 X-14.863 Y-101.669
N1010 X-14.734 Y-101.828
N1015 X-14.594 Y-101.977
N1020 X-14.443 Y-102.115
N1025 X-14.281 Y-102.242
N1030 X-14.111 Y-102.356
N1035 X-13.933 Y-102.457
N1040 X-13.748 Y-102.544
N1045 X-13.556 Y-102.617
N1050 X-13.36 Y-102.675
N1055 X-13.16 Y-102.719
N1060 X-12.957 Y-102.747
N1065 X-12.752 Y-102.76
N1070 X-12.547 Y-102.758
N1075 X-12.343 Y-102.74
N1080 X-12.141 Y-102.707
N1085 X-11.942 Y-102.658
N1090 X-11.747 Y-102.595
N1095 X-11.558 Y-102.518
N1100 X-11.374 Y-102.426
N1105 X-11.198 Y-102.321
N1110 X-11.031 Y-102.203
N1115 X-10.873 Y-102.072
N1120 X-10.725 Y-101.931
N1125 X-10.588 Y-101.778
N1130 X-10.464 Y-101.616
N1135 X-10.351 Y-101.444
N1140 X-10.252 Y-101.265
N1145 X-10.167 Y-101.079
N1150 X-10.096 Y-100.887
N1155 X-10.022 Y-100.687
N1160 X-9.964 Y-100.481
N1165 X-9.921 Y-100.273
N1170 X-9.895 Y-100.061
N1175 X-9.884 Y-99.848
N1180 X-9.889 Y-99.635
N1185 X-9.91 Y-99.423
N1190 X-9.946 Y-99.213
N1195 X-9.999 Y-99.007
N1200 X-10.067 Y-98.805
N1205 X-10.149 Y-98.608
N1210 X-10.247 Y-98.419
N1215 X-10.358 Y-98.237
N1220 X-10.482 Y-98.064
N1225 X-10.62 Y-97.901
N1230 X-10.769 Y-97.748
N1235 X-10.929 Y-97.607
N1240 X-11.099 Y-97.479
N1245 X-11.278 Y-97.364
N1250 X-11.465 Y-97.262
N1255 X-11.66 Y-97.175
N1260 X-11.86 Y-97.102
N1265 X-12.066 Y-97.045
N1270 X-12.275 Y-97.004
N1275 X-12.486 Y-96.978
N1280 X-12.699 Y-96.968
N1285 X-12.912 Y-96.974
N1290 X-13.124 Y-96.996
N1295 X-13.334 Y-97.034
N1300 X-13.54 Y-97.088
N1305 X-13.742 Y-97.157
N1310 X-13.938 Y-97.24
N1315 X-14.127 Y-97.339
N1320 X-14.308 Y-97.451
N1325 X-14.481 Y-97.576
N1330 X-14.643 Y-97.714
N1335 X-14.795 Y-97.864
N1340 X-14.935 Y-98.025
N1345 X-15.062 Y-98.195
N1350 X-15.177 Y-98.375
N1355 X-15.291 Y-98.561
N1360 X-15.392 Y-98.754
N1365 X-15.478 Y-98.954
N1370 X-15.549 Y-99.16
N1375 X-15.606 Y-99.37
N1380 X-15.647 Y-99.584
N1385 X-15.672 Y-99.801
N1390 X-15.681 Y-100.019
N1395 X-15.675 Y-100.236
N1400 X-15.653 Y-100.453
N1405 X-15.615 Y-100.668
N1410 X-15.562 Y-100.879
N1415 X-15.493 Y-101.086
N1420 X-15.41 Y-101.287
N1425 X-15.312 Y-101.482
N1430 X-15.201 Y-101.669
N1435 X-15.076 Y-101.848
N1440 X-14.938 Y-102.017
N1445 X-14.789 Y-102.175
N1450 X-14.628 Y-102.323
N1455 X-14.457 Y-102.458
N1460 X-14.277 Y-102.581
N1465 X-14.088 Y-102.69
N1470 X-13.892 Y-102.785
N1475 X-13.69 Y-102.865
N1480 X-13.482 Y-102.931
N1485 X-13.27 Y-102.981
N1490 X-13.055 Y-103.016
N1495 X-12.838 Y-103.035
N1500 X-12.62 Y-103.039
N1505 X-12.402 Y-103.026
N1510 X-12.186 Y-102.998
N1515 X-11.973 Y-102.954
N1520 X-11.763 Y-102.895
N1525 X-11.558 Y-102.821
N1530 X-11.359 Y-102.732
N1535 X-11.167 Y-102.628
N1540 X-10.983 Y-102.512
N1545 X-10.808 Y-102.382
N1550 X-10.643 Y-102.239
N1555 X-10.489 Y-102.086
N1560 X-10.346 Y-101.921
N1565 X-10.216 Y-101.746
N1570 X-10.099 Y-101.563
N1575 X-9.995 Y-101.371
N1580 X-9.905 Y-101.172
N1585 X-9.816 Y-100.968
N1590 X-9.741 Y-100.758
N1595 X-9.682 Y-100.544
N1600 X-9.638 Y-100.326
N1605 X-9.609 Y-100.105
N1610 X-9.597 Y-99.882
N1615 X-9.6 Y-99.66
N1620 X-9.619 Y-99.438
N1625 X-9.653 Y-99.218
N1630 X-9.704 Y-99.001
N1635 X-9.769 Y-98.788
N1640 X-9.85 Y-98.58
N1645 X-9.945 Y-98.379
N1650 X-10.054 Y-98.185
N1655 X-10.177 Y-97.999
N1660 X-10.312 Y-97.822
N1665 X-10.46 Y-97.656
N1670 X-10.619 Y-97.5
N1675 X-10.789 Y-97.356
N1680 X-10.969 Y-97.225
N1685 X-11.157 Y-97.106
N1690 X-11.354 Y-97.001
N1695 X-11.557 Y-96.911
N1700 X-11.767 Y-96.835
N1705 X-11.981 Y-96.774
N1710 X-12.199 Y-96.729
N1715 X-12.42 Y-96.699
N1720 X-12.642 Y-96.685
N1725 X-12.865 Y-96.687
N1730 X-13.087 Y-96.705
N1735 X-13.307 Y-96.738
N1740 X-13.524 Y-96.787
N1745 X-13.737 Y-96.852
N1750 X-13.945 Y-96.931
N1755 X-14.147 Y-97.025
N1760 X-14.342 Y-97.133
N1765 X-14.528 Y-97.255
N1770 X-14.706 Y-97.389
N1775 X-14.873 Y-97.536
N1780 X-15.03 Y-97.694
N1785 X-15.175 Y-97.863
N1790 X-15.307 Y-98.042
N1795 X-15.427 Y-98.23
N1800 X-15.545 Y-98.424
N1805 X-15.65 Y-98.626
N1810 X-15.741 Y-98.835
N1815 X-15.817 Y-99.05
N1820 X-15.878 Y-99.269
N1825 X-15.923 Y-99.492
N1830 X-15.954 Y-99.717
N1835 X-15.968 Y-99.945
N1840 X-15.967 Y-100.172
N1845 X-15.95 Y-100.399
N1850 X-15.917 Y-100.624
N1855 X-15.869 Y-100.847
N1860 X-15.805 Y-101.065
N1865 X-15.727 Y-101.279
N1870 X-15.634 Y-101.487
N1875 X-15.527 Y-101.687
N1880 X-15.406 Y-101.88
N1885 X-15.272 Y-102.064
N1890 X-15.126 Y-102.239
N1895 X-14.968 Y-102.403
N1900 X-14.799 Y-102.555
N1905 X-14.62 Y-102.696
N1910 X-14.432 Y-102.824
N1915 X-14.235 Y-102.938
N1920 X-14.031 Y-103.039
N1925 X-13.821 Y-103.125
N1930 X-13.605 Y-103.196
N1935 X-13.384 Y-103.253
N1940 X-13.16 Y-103.294
N1945 X-12.934 Y-103.319
N1950 X-12.707 Y-103.329
N1955 X-12.479 Y-103.323
N1960 X-12.253 Y-103.301
N1965 X-12.028 Y-103.264
N1970 X-11.807 Y-103.211
N1975 X-11.59 Y-103.143
N1980 X-11.378 Y-103.06
N1985 X-11.172 Y-102.963
N1990 X-10.973 Y-102.851
N1995 X-10.783 Y-102.727
N2000 X-10.602 Y-102.589
N2005 X-10.43 Y-102.439
N2010 X-10.27 Y-102.278
N2015 X-10.121 Y-102.106
N2020 X-9.984 Y-101.924
N2025 X-9.86 Y-101.733
N2030 X-9.75 Y-101.534
N2035 X-9.654 Y-101.328
N2040 X-9.559 Y-101.117
N2045 X-9.479 Y-100.901
N2050 X-9.413 Y-100.679
N2055 X-9.363 Y-100.454
N2060 X-9.328 Y-100.226
N2065 X-9.308 Y-99.995
N2070 X-9.304 Y-99.764
N2075 X-9.315 Y-99.534
N2080 X-9.342 Y-99.304
N2085 X-9.384 Y-99.077
N2090 X-9.442 Y-98.854
N2095 X-9.514 Y-98.634
N2100 X-9.601 Y-98.42
N2105 X-9.702 Y-98.213
N2110 X-9.817 Y-98.012
N2115 X-9.945 Y-97.82
N2120 X-10.086 Y-97.637
N2125 X-10.239 Y-97.464
N2130 X-10.403 Y-97.302
N2135 X-10.578 Y-97.15
N2140 X-10.762 Y-97.011
N2145 X-10.956 Y-96.885
N2150 X-11.157 Y-96.772
N2155 X-11.366 Y-96.673
N2160 X-11.58 Y-96.588
N2165 X-11.8 Y-96.518
N2170 X-12.025 Y-96.463
N2175 X-12.252 Y-96.423
N2180 X-12.482 Y-96.398
N2185 X-12.713 Y-96.389
N2190 X-12.943 Y-96.395
N2195 X-13.173 Y-96.417
N2200 X-13.401 Y-96.455
N2205 X-13.626 Y-96.508
N2210 X-13.847 Y-96.575
N2215 X-14.063 Y-96.658
N2220 X-14.272 Y-96.754
N2225 X-14.475 Y-96.865
N2230 X-14.67 Y-96.989
N2235 X-14.856 Y-97.126
N2240 X-15.032 Y-97.275
N2245 X-15.198 Y-97.435
N2250 X-15.353 Y-97.607
N2255 X-15.496 Y-97.788
N2260 X-15.626 Y-97.979
N2265 X-15.744 Y-98.178
N2270 G3 X-14.366 Y-103.207 I3.065 J-1.864
N2275 X-9.423 Y-101.547 I1.687 J3.166
N2280 G1 X-9.317 Y-101.327
N2285 X-9.226 Y-101.102
N2290 X-9.15 Y-100.871
N2295 X-9.09 Y-100.635
N2300 X-9.044 Y-100.396
N2305 X-9.015 Y-100.155
N2310 X-9.001 Y-99.912
N2315 X-9.003 Y-99.669
N2320 X-9.02 Y-99.426
N2325 X-9.054 Y-99.186
N2330 X-9.103 Y-98.947
N2335 X-9.167 Y-98.713
N2340 X-9.247 Y-98.483
N2345 X-9.341 Y-98.259
N2350 X-9.45 Y-98.041
N2355 X-9.573 Y-97.831
N2360 X-9.709 Y-97.63
N2365 X-9.858 Y-97.438
N2370 X-10.019 Y-97.255
N2375 X-10.192 Y-97.084
N2380 X-10.375 Y-96.924
N2385 X-10.568 Y-96.777
N2390 X-10.771 Y-96.642
N2395 X-10.982 Y-96.521
N2400 X-11.2 Y-96.414
N2405 X-11.425 Y-96.322
N2410 X-11.656 Y-96.244
N2415 X-11.89 Y-96.181
N2420 X-12.129 Y-96.134
N2425 X-12.37 Y-96.102
N2430 X-12.613 Y-96.087
N2435 X-12.856
N2440 X-13.099 Y-96.102
N2445 X-13.34 Y-96.134
N2450 X-13.578 Y-96.181
N2455 X-13.813 Y-96.244
N2460 X-14.044 Y-96.321
N2465 X-14.269 Y-96.414
N2470 X-14.487 Y-96.521
N2475 X-14.698 Y-96.642
N2480 X-14.901 Y-96.777
N2485 X-15.094 Y-96.924
N2490 X-15.278 Y-97.084
N2495 X-15.45 Y-97.255
N2500 X-15.611 Y-97.437
N2505 X-15.76 Y-97.629
N2510 X-15.896 Y-97.831
N2515 X-16.019 Y-98.041
N2520 G3 X-14.532 Y-103.468 I3.342 J-2.002
N2525 X-9.175 Y-101.747 I1.855 J3.425
N2530 X-16.224 Y-97.769 I-3.56 J1.928
N2535 X-14.784 Y-103.691 I3.547 J-2.273
N2540 X-8.936 Y-101.978 I2.107 J3.648
N2545 X-16.483 Y-97.572 I-3.8 J2.158
N2550 X-14.97 Y-103.959 I3.807 J-2.471
N2555 X-8.659 Y-102.155 I2.294 J3.916
N2560 X-16.77 Y-97.406 I-4.079 J2.335
N2565 X-15.198 Y-104.211 I4.094 J-2.638
N2570 X-8.441 Y-102.448 I2.522 J4.166
N2575 X-17.001 Y-97.139 I-4.296 J2.629
N2580 X-15.481 Y-104.437 I4.324 J-2.906
N2585 X-8.222 Y-102.746 I2.804 J4.391
N2590 X-17.211 Y-96.831 I-4.514 J2.927
N2595 X-15.792 Y-104.65 I4.533 J-3.216
N2600 X-8.007 Y-103.058 I3.114 J4.603
N2605 X-17.413 Y-96.505 I-4.728 J3.24
N2610 X-16.047 Y-104.907 I4.736 J-3.542
N2615 X-7.7 Y-103.241 I3.37 J4.86
N2620 X-17.715 Y-96.307 I-5.037 J3.425
N2625 X-16.315 Y-105.162 I5.037 J-3.741
N2630 X-7.491 Y-103.581 I3.637 J5.113
N2635 X-17.908 Y-95.954 I-5.244 J3.765
N2640 X-16.671 Y-105.358 I5.23 J-4.095
N2645 X-7.293 Y-103.937 I3.992 J5.309
N2650 X-18.092 Y-95.584 I-5.441 J4.122
N2655 X-17.043 Y-105.545 I5.412 J-4.466
N2660 X-7.104 Y-104.31 I4.363 J5.495
N2665 X-8.262 Y-94.166 I-5.631 J4.495
N2670 X-18.4 Y-95.364 I-4.473 J-5.648
N2675 X-17.261 Y-105.858 I5.721 J-4.688
N2680 X-6.789 Y-104.527 I4.582 J5.806
N2685 X-18.571 Y-94.968 I-5.944 J4.714
N2690 X-17.66 Y-106.032 I5.89 J-5.085
N2695 X-6.614 Y-104.926 I4.98 J5.979
N2700 X-18.728 Y-94.557 I-6.118 J5.113
N2705 X-18.074 Y-106.192 I6.046 J-5.496
N2710 X-6.452 Y-105.339 I5.392 J6.139
N2715 X-7.22 Y-93.519 I-6.28 J5.527
N2720 X-19.038 Y-94.314 I-5.513 J-6.293
N2725 X-18.41 Y-106.422 I6.355 J-5.741
N2730 X-6.304 Y-105.768 I5.727 J6.367
N2735 X-6.786 Y-93.373 I-6.427 J5.957
N2740 X-19.179 Y-93.879 I-5.945 J-6.438
N2745 X-18.753 Y-106.652 I6.496 J-6.177
N2750 X-5.989 Y-106.017 I6.07 J6.596
N2755 X-19.305 Y-93.429 I-6.74 J6.207
N2760 X-19.207 Y-106.78 I6.62 J-6.627
N2765 X-5.858 Y-106.47 I6.522 J6.724
N2770 X-6.076 Y-92.931 I-6.871 J6.661
N2775 X-19.615 Y-93.165 I-6.653 J-6.879
N2780 X-19.573 Y-106.993 I6.929 J-6.893
N2785 X-5.745 Y-106.936 I6.886 J6.935
N2790 X-5.605 Y-92.821 I-6.982 J7.127
N2795 X-19.721 Y-92.692 I-7.122 J-6.988
N2800 X-19.944 Y-107.203 I7.034 J-7.365
N2805 X-5.432 Y-107.205 I7.257 J7.145
N2810 X-19.808 Y-92.208 I-7.293 J7.398
N2815 X-20.433 Y-107.293 I7.119 J-7.851
N2820 X-5.339 Y-107.694 I7.744 J7.235
N2825 X-4.841 Y-92.419 I-7.386 J7.886
N2830 X-20.115 Y-91.924 I-7.885 J-7.388
N2835 X-20.825 Y-107.485 I7.424 J-8.135
N2840 X-5.265 Y-108.194 I8.135 J7.425
N2845 X-20.18 Y-91.419 I-7.458 J8.387
N2850 X-21.223 Y-107.673 I7.489 J-8.641
N2855 X-4.956 Y-108.482 I8.533 J7.613
N2860 X-20.225 Y-90.902 I-7.765 J8.677
N2865 X-21.745 Y-107.721 I7.533 J-9.159
N2870 X-4.905 Y-109.004 I9.052 J7.661
N2875 X-20.528 Y-90.599 I-7.816 J9.199
N2880 X-4.874 Y-109.535 I7.833 J-9.463
N2885 X-20.548 Y-90.062 I-7.845 J9.731
N2890 X-4.865 Y-110.076 I7.851 J-10.
N2895 X-20.547 Y-89.517 I-7.852 J10.272
N2900 X-23.136 Y-108.053 I7.849 J-10.545
N2905 X-4.567 Y-110.393 I10.439 J7.991
N2910 X-20.842 Y-89.196 I-8.149 J10.589
N2915 X-4.585 Y-110.951 I8.142 J-10.867
N2920 X-20.813 Y-88.634 I-8.129 J11.147
N2925 X-24.021 Y-108.325 I8.113 J-11.429
N2930 X-4.29 Y-111.275 I11.321 J8.262
N2935 X-3.797 Y-88.765 I-8.298 J11.442
N2940 G2 X-5.96 Y-87.337 I5.66 J10.921
N2945 G3 X-19.88 Y-87.563 I-6.766 J-12.078
N2950 X-26.8 Y-97.084 I6.342 J-11.884
N2955 G1 Y-102.196
N2960 G3 X-21.177 Y-111.69 I12.804 J1.172
N2965 X-19.012 Y-112.827 I4.637 J6.199
N2970 X-7.597 Y-113.558 I6.458 J11.357
N2975 G1 X-7.33 Y-113.486
N2980 X-7.067 Y-113.4
N2985 X-6.81 Y-113.3
N2990 X-6.559 Y-113.185
N2995 X-6.315 Y-113.055
N3000 X-6.079 Y-112.913
N3005 X-5.851 Y-112.757
N3010 X-5.632 Y-112.588
N3015 X-5.423 Y-112.407
N3020 X-5.225 Y-112.215
N3025 X-5.038 Y-112.012
N3030 X-4.863 Y-111.798
N3035 G3 X0.962 Y-105.083 I-4.96 J10.186
N3040 X-2.226 Y-89.595 I-13.415 J5.311
N3045 G2 X-3.816 Y-88.788 I54.568 J109.463
N3050 G3 X-3.916 Y-88.794 I-0.045 J-0.089 F#104
N3055 G2 X-4.012 Y-88.802 I-0.055 J0.083
N3060 G1 X-4.111 Y-88.757
N3065 X-4.755 Y-88.466 F#105
N3070 G2 X-4.814 Y-88.377 I0.041 J0.091
N3075 G1 Y-88.369
N3080 G3 X-4.942 Y-88.09 I-0.409 J-0.019 F#103
N3085 X-10.023 Y-85.452 I-5.996 J-5.338 F#100
N3090 X-17.171 Y-85.832 I-2.891 J-13.05
N3095 X-18.409 Y-86.796 I23.858 J-31.92
N3100 X-18.446 Y-86.874 I0.063 J-0.078 F#104
N3105 G1 X-18.346 Y-86.974
N3110 X-18.263 Y-86.981
N3115 X-5.935 Y-88.049 F#105
N3120 X-5.626 Y-87.864
N3125 X-5.566 Y-87.663
N3130 X-5.559 Y-87.641 F#103
N3135 X-5.663 Y-87.369
N3140 G3 X-9.773 Y-85.079 I-4.89 J-3.942 F#100
N3145 X-16.424 Y-85.169 I-3.153 J-12.717
N3150 X-17.881 Y-86.351 I2.455 J-4.516
N3155 G1 X-17.908 Y-86.431 F#104
N3160 X-17.796 Y-86.519
N3165 X-17.709 Y-86.526
N3170 X-6.324 Y-87.455 F#105
N3175 X-6.114 Y-87.25
N3180 X-6.121 Y-87.15
N3185 X-6.139 Y-86.861 F#103
N3190 X-6.153 Y-86.841
N3195 G3 X-9.329 Y-84.789 I-3.843 J-2.464 F#100
N3200 X-15.92 Y-84.623 I-3.592 J-11.702
N3205 X-17.295 Y-85.766 I2.708 J-4.655
N3210 X-17.322 Y-85.834 I0.073 J-0.068 F#104
N3215 G1 X-17.108 Y-85.941
N3220 X-14.319 Y-87.334 F#105
N3225 G3 X-13.092 Y-87.567 I1.052 J2.194
N3230 G1 X-6.753 Y-87.014
N3235 X-6.473 Y-86.841
N3240 X-6.44 Y-86.733
N3245 X-6.401 Y-86.609 F#103
N3250 G3 X-6.442 Y-86.431 I-0.41 J0.
N3255 X-9.011 Y-84.474 I-3.406 J-1.805 F#100
N3260 X-15.597 Y-84.138 I-3.864 J-11.058
N3265 X-16.755 Y-85.172 I1.239 J-2.555
N3270 X-16.772 Y-85.227 I0.083 J-0.056 F#104
N3275 G1 X-16.543 Y-85.34
N3280 X-13.297 Y-86.937 F#105
N3285 X-10.434 Y-87.289
N3290 X-6.753 Y-86.564
N3295 X-6.657 Y-86.359
N3300 X-6.595 Y-86.226 F#103
N3305 X-6.635 Y-86.063
N3310 G3 X-9.182 Y-84.053 I-3.227 J-1.469 F#100
N3315 X-15.354 Y-83.699 I-3.649 J-9.65
N3320 X-16.755 Y-85.172 I1.54 J-2.868
N3325 X-16.675 Y-85.32 I0.087 J-0.049 F#104
N3330 G1 X-16.562 Y-85.328
N3335 X-6.952 Y-85.99 F#105
N3340 G3 X-6.851 Y-85.926 I0.007 J0.1
N3345 G1 X-6.849 Y-85.919
N3350 G3 X-6.86 Y-85.612 I-0.385 J0.138 F#103
N3355 X-9.136 Y-83.687 I-3.025 J-1.268 F#100
N3360 X-14.795 Y-83.175 I-3.665 J-8.973
N3365 X-16.381 Y-84.521 I0.852 J-2.611
N3370 X-16.3 Y-84.663 I0.091 J-0.042 F#104
N3375 G1 X-16.178 Y-84.675
N3380 X-7.189 Y-85.54 F#105
N3385 G3 X-7.088 Y-85.483 I0.01 J0.1
N3390 G1 X-7.085 Y-85.475
N3395 G3 X-7.076 Y-85.169 I-0.375 J0.165 F#103
N3400 X-9.363 Y-83.234 I-2.952 J-1.17 F#100
N3405 X-14.614 Y-82.761 I-3.368 J-8.017
N3410 X-16.374 Y-84.524 I1.011 J-2.77
N3415 G1 X-16.384 Y-84.559 F#104
N3420 X-16.38 Y-84.596
N3425 X-16.362 Y-84.629
N3430 X-16.331 Y-84.653
N3435 X-16.294 Y-84.664
N3440 X-16.177 Y-84.667
N3445 X-7.431 Y-84.957 F#105
N3450 X-7.312 Y-84.961 F#103
N3455 G3 X-7.215 Y-84.827 I0.003 J0.1
N3460 X-9.234 Y-82.916 I-2.71 J-0.842 F#100
N3465 X-14.386 Y-82.343 I-3.414 J-7.243
N3470 X-16.168 Y-84.104 I0.97 J-2.764
N3475 X-16.083 Y-84.246 I0.091 J-0.042 F#104
N3480 G1 X-15.964 Y-84.252
N3485 X-7.532 Y-84.699 F#105
N3490 X-7.398 Y-84.706 F#103
N3495 G3 X-7.294 Y-84.589 I0.005 J0.1
N3500 X-8.913 Y-82.661 I-2.633 J-0.567 F#100
N3505 X-14.23 Y-81.934 I-3.683 J-7.132
N3510 X-16. Y-83.772 I1.043 J-2.775
N3515 G1 X-16.008 Y-83.807 F#104
N3520 X-16.003 Y-83.843
N3525 X-15.984 Y-83.875
N3530 X-15.955 Y-83.898
N3535 X-15.918 Y-83.908
N3540 X-15.796 Y-83.915
N3545 X-7.604 Y-84.357 F#105
N3550 X-7.47 Y-84.365 F#103
N3555 G3 X-7.366 Y-84.247 I0.005 J0.1
N3560 X-9.091 Y-82.255 I-2.488 J-0.411 F#100
N3565 X-14.219 Y-81.596 I-3.381 J-6.024
N3570 X-15.82 Y-83.372 I1.18 J-2.674
N3575 X-15.735 Y-83.51 I0.092 J-0.039 F#104
N3580 G1 X-15.611 Y-83.518
N3585 X-7.673 Y-84.015 F#105
N3590 X-7.535 Y-84.024 F#103
N3595 G3 X-7.429 Y-83.912 I0.006 J0.1
N3600 X-8.941 Y-81.928 I-2.598 J-0.411 F#100
N3605 X-14.072 Y-81.209 I-3.453 J-5.976
N3610 X-15.701 Y-83.004 I1.093 J-2.629
N3615 G1 X-15.703 Y-83.04 F#104
N3620 X-15.692 Y-83.074
N3625 X-15.671 Y-83.102
N3630 X-15.641 Y-83.121
N3635 X-15.607 Y-83.129
N3640 X-15.468 Y-83.139
N3645 X-7.727 Y-83.667 F#105
N3650 X-7.588 Y-83.676 F#103
N3655 G3 X-7.482 Y-83.565 I0.007 J0.1
N3660 X-9.258 Y-81.443 I-2.555 J-0.334 F#100
N3665 X-14.021 Y-80.865 I-3.053 J-5.248
N3670 X-15.661 Y-82.835 I1.06 J-2.551
N3675 G1 X-15.66 Y-82.87 F#104
N3680 X-15.649 Y-82.902
N3685 X-15.627 Y-82.928
N3690 X-15.598 Y-82.945
N3695 X-15.565 Y-82.952
N3700 X-15.419 Y-82.959
N3705 X-7.778 Y-83.322 F#105
N3710 X-7.636 Y-83.329 F#103
N3715 G3 X-7.531 Y-83.22 I0.005 J0.1
N3720 X-9.267 Y-81.07 I-2.552 J-0.285 F#100
N3725 X-14.028 Y-80.532 I-2.977 J-5.002
N3730 X-15.653 Y-82.836 I1.158 J-2.541
N3735 G1 X-15.654 Y-82.869 F#104
N3740 X-15.643 Y-82.9
N3745 X-15.623 Y-82.927
N3750 X-15.594 Y-82.945
N3755 X-15.56 Y-82.952
N3760 X-15.419
N3765 X-7.825 Y-82.976 F#105
N3770 X-7.677 F#103
N3775 G3 X-7.578 Y-82.867 I0. J0.1
N3780 X-9.182 Y-80.753 I-2.417 J-0.169 F#100
N3785 X-13.984 Y-80.183 I-3.001 J-4.769
N3790 X-15.602 Y-82.554 I1.16 J-2.529
N3795 G1 Y-82.586 F#104
N3800 X-15.591 Y-82.617
N3805 X-15.571 Y-82.643
N3810 X-15.542 Y-82.66
N3815 X-15.509 Y-82.667
N3820 X-15.365 Y-82.668
N3825 X-7.854 Y-82.703 F#105
N3830 X-7.695 F#103
N3835 G3 X-7.595 Y-82.606 I0. J0.1
N3840 X-9.156 Y-80.407 I-2.365 J-0.025 F#100
N3845 X-13.981 Y-79.845 I-2.982 J-4.605
N3850 X-15.549 Y-82.227 I1.232 J-2.518
N3855 G1 Y-82.258 F#104
N3860 X-15.538 Y-82.289
N3865 X-15.518 Y-82.314
N3870 X-15.49 Y-82.332
N3875 X-15.457 Y-82.339
N3880 X-15.311
N3885 X-7.858 Y-82.371 F#105
N3890 X-7.699 Y-82.372 F#103
N3895 G3 X-7.598 Y-82.275 I0. J0.1
N3900 X-9.144 Y-80.048 I-2.372 J0.003 F#100
N3905 X-14.315 Y-79.665 I-2.927 J-4.42
N3910 X-15.498 Y-81.866 I1.834 J-2.405
N3915 X-15.4 Y-81.978 I0.099 J-0.012 F#104
N3920 G1 X-15.254 Y-81.979
N3925 X-7.861 Y-82.023 F#105
N3930 X-7.701 Y-82.024 F#103
N3935 G3 X-7.6 Y-81.927 I0.001 J0.1
N3940 X-9.128 Y-79.69 I-2.38 J0.015 F#100
N3945 X-14.418 Y-79.392 I-2.898 J-4.332
N3950 G1 X-14.572 Y-79.526
N3955 X-14.715 Y-79.671
N3960 X-14.847 Y-79.826
N3965 X-14.968 Y-79.99
N3970 X-15.075 Y-80.163
N3975 X-15.17 Y-80.344
N3980 X-15.251 Y-80.531
N3985 X-15.319 Y-80.723
N3990 X-15.372 Y-80.92
N3995 X-15.41 Y-81.12
N4000 X-15.433 Y-81.323
N4005 X-15.441 Y-81.526
N4010 Y-81.559 F#104
N4015 X-15.43 Y-81.589
N4020 X-15.409 Y-81.614
N4025 X-15.38 Y-81.631
N4030 X-15.347 Y-81.638
N4035 X-15.201 Y-81.639
N4040 X-7.861 Y-81.678 F#105
N4045 X-7.7 F#103
N4050 G3 X-7.6 Y-81.582 I0.001 J0.1
N4055 X-9.231 Y-79.268 I-2.455 J0.002 F#100
N4060 X-14.263 Y-78.973 I-2.779 J-4.345
N4065 X-15.421 Y-81.313 I1.627 J-2.261
N4070 X-15.32 Y-81.413 I0.1 J0. F#104
N4075 G1 X-15.164 Y-81.412
N4080 X-7.861 Y-81.349 F#105
N4085 X-7.699 Y-81.348 F#103
N4090 G3 X-7.6 Y-81.251 I-0.001 J0.1
N4095 X-9.116 Y-78.967 I-2.389 J0.06 F#100
N4100 X-14.265 Y-78.638 I-2.859 J-4.292
N4105 X-15.413 Y-81.093 I1.742 J-2.31
N4110 X-15.31 Y-81.193 I0.1 J0. F#104
N4115 G1 X-15.156 Y-81.189
N4120 X-7.86 Y-80.971 F#105
N4125 X-7.697 Y-80.966 F#103
N4130 G3 X-7.6 Y-80.869 I-0.003 J0.1
N4135 X-9.22 Y-78.545 I-2.454 J0.017 F#100
N4140 X-14.103 Y-78.219 I-2.739 J-4.31
N4145 X-15.397 Y-80.791 I1.457 J-2.345
N4150 G1 X-15.393 Y-80.821 F#104
N4155 X-15.38 Y-80.849
N4160 X-15.359 Y-80.871
N4165 X-15.331 Y-80.886
N4170 X-15.299 Y-80.891
N4175 X-15.145 Y-80.886
N4180 X-7.86 Y-80.638 F#105
N4185 X-7.697 Y-80.632 F#103
N4190 G3 X-7.6 Y-80.535 I-0.003 J0.1
N4195 X-9.24 Y-78.172 I-2.456 J0.046 F#100
N4200 X-14.357 Y-78.019 I-2.688 J-4.251
N4205 X-15.4 Y-80.515 I1.856 J-2.241
N4210 X-15.295 Y-80.611 I0.1 J0.003 F#104
N4215 G1 X-15.14 Y-80.604
N4220 X-7.86 Y-80.253 F#105
N4225 X-7.695 Y-80.245 F#103
N4230 G3 X-7.6 Y-80.149 I-0.005 J0.1
N4235 X-9.249 Y-77.805 I-2.455 J0.024 F#100
N4240 X-14.358 Y-77.68 I-2.66 J-4.248
N4245 X-15.4 Y-80.188 I1.857 J-2.242
N4250 X-15.295 Y-80.284 I0.1 J0.003 F#104
N4255 G1 X-15.14 Y-80.276
N4260 X-7.86 Y-79.88 F#105
N4265 X-7.695 Y-79.871 F#103
N4270 G3 X-7.6 Y-79.775 I-0.005 J0.1
N4275 X-9.23 Y-77.454 I-2.443 J0.016 F#100
N4280 X-14.419 Y-77.376 I-2.659 J-4.237
N4285 X-15.4 Y-79.846 I1.94 J-2.2
N4290 X-15.295 Y-79.942 I0.1 J0.003 F#104
N4295 G1 X-15.14 Y-79.934
N4300 X-7.86 Y-79.542 F#105
N4305 X-7.695 Y-79.533 F#103
N4310 G3 X-7.6 Y-79.436 I-0.005 J0.1
N4315 X-9.242 Y-77.089 I-2.44 J0.041 F#100
N4320 X-14.435 Y-77.042 I-2.635 J-4.244
N4325 X-15.4 Y-79.495 I1.939 J-2.179
N4330 X-15.294 Y-79.591 I0.1 J0.003 F#104
N4335 G1 X-15.14 Y-79.582
N4340 X-7.86 Y-79.167 F#105
N4345 X-7.694 Y-79.157 F#103
N4350 G3 X-7.6 Y-79.061 I-0.006 J0.1
N4355 X-9.23 Y-76.736 I-2.431 J0.03 F#100
N4360 X-14.524 Y-76.751 I-2.635 J-4.253
N4365 X-15.396 Y-79.207 I1.901 J-2.058
N4370 G1 X-15.389 Y-79.244 F#104
N4375 X-15.368 Y-79.275
N4380 X-15.336 Y-79.296
N4385 X-15.297 Y-79.303
N4390 X-15.141 Y-79.293
N4395 X-7.86 Y-78.823 F#105
N4400 X-7.693 Y-78.812 F#103
N4405 G3 X-7.6 Y-78.716 I-0.006 J0.1
N4410 X-9.243 Y-76.372 I-2.428 J0.046 F#100
N4415 X-14.514 Y-76.393 I-2.619 J-4.278
N4420 X-15.403 Y-78.855 I1.622 J-1.978
N4425 G1 X-15.395 Y-78.89 F#104
N4430 X-15.373 Y-78.92
N4435 X-15.342 Y-78.94
N4440 X-15.304 Y-78.946
N4445 X-15.144 Y-78.936
N4450 X-7.86 Y-78.449 F#105
N4455 X-7.693 Y-78.438 F#103
N4460 G3 X-7.6 Y-78.342 I-0.007 J0.1
N4465 X-9.25 Y-76.011 I-2.424 J0.033 F#100
N4470 X-14.599 Y-76.085 I-2.616 J-4.331
N4475 X-15.423 Y-78.651 I1.863 J-2.014
N4480 X-15.316 Y-78.734 I0.099 J0.017 F#104
N4485 G1 X-15.151 Y-78.719
N4490 X-7.86 Y-78.085 F#105
N4495 X-7.691 Y-78.071 F#103
N4500 G3 X-7.6 Y-77.975 I-0.009 J0.1
N4505 X-9.24 Y-75.659 I-2.413 J0.029 F#100
N4510 X-14.374 Y-75.581 I-2.635 J-4.401
N4515 X-15.445 Y-78.445 I1.56 J-2.216
N4520 G1 X-15.434 Y-78.478 F#104
N4525 X-15.411 Y-78.506
N4530 X-15.38 Y-78.524
N4535 X-15.343 Y-78.528
N4540 X-15.179 Y-78.511
N4545 X-7.859 Y-77.741 F#105
N4550 X-7.688 Y-77.723 F#103
N4555 G3 X-7.599 Y-77.628 I-0.01 J0.099
N4560 X-9.064 Y-75.401 I-2.278 J0.096 F#100
N4565 X-14.599 Y-75.363 I-2.797 J-4.338
N4570 X-15.487 Y-78.181 I1.788 J-2.112
N4575 G1 X-15.475 Y-78.215 F#104
N4580 X-15.451 Y-78.242
N4585 X-15.418 Y-78.259
N4590 X-15.382 Y-78.263
N4595 X-15.217 Y-78.245
N4600 X-7.857 Y-77.426 F#105
N4605 X-7.679 Y-77.406 F#103
N4610 G3 X-7.59 Y-77.318 I-0.011 J0.099
N4615 X-8.971 Y-75.103 I-2.183 J0.177 F#100
N4620 X-14.542 Y-74.959 I-2.9 J-4.345
N4625 X-15.542 Y-77.836 I1.687 J-2.198
N4630 G1 X-15.53 Y-77.87 F#104
N4635 X-15.506 Y-77.897
N4640 X-15.474 Y-77.913
N4645 X-15.437 Y-77.918
N4650 X-15.272 Y-77.901
N4655 X-7.835 Y-77.161 F#105
N4660 X-7.653 Y-77.143 F#103
N4665 G3 X-7.564 Y-77.058 I-0.01 J0.1
N4670 X-8.791 Y-74.858 I-2.085 J0.28 F#100
N4675 X-14.759 Y-74.736 I-3.073 J-4.277
N4680 X-15.625 Y-77.36 I1.794 J-2.047
N4685 X-15.521 Y-77.434 I0.097 J0.025 F#104
N4690 G1 X-15.346 Y-77.421
N4695 X-7.799 Y-76.844 F#105
N4700 X-7.618 Y-76.83 F#103
N4705 G3 X-7.527 Y-76.747 I-0.008 J0.1
N4710 X-8.71 Y-74.551 I-2.066 J0.304 F#100
N4715 X-14.872 Y-74.445 I-3.155 J-4.275
N4720 X-15.621 Y-77.358 I1.859 J-2.031
N4725 G1 X-15.608 Y-77.39 F#104
N4730 X-15.584 Y-77.415
N4735 X-15.553 Y-77.43
N4740 X-15.518 Y-77.434
N4745 X-15.347 Y-77.415
N4750 X-7.76 Y-76.565 F#105
N4755 X-7.574 Y-76.544 F#103
N4760 G3 X-7.487 Y-76.464 I-0.011 J0.099
N4765 X-8.642 Y-74.234 I-2.061 J0.346 F#100
N4770 X-15.179 Y-74.303 I-3.224 J-4.274
N4775 G1 X-15.309 Y-74.445
N4780 X-15.428 Y-74.597
N4785 X-15.535 Y-74.758
N4790 X-15.629 Y-74.926
N4795 X-15.709 Y-75.102
N4800 X-15.776 Y-75.283
N4805 X-15.829 Y-75.468
N4810 X-15.866 Y-75.658
N4815 X-15.889 Y-75.849
N4820 X-15.897 Y-76.042
N4825 X-15.89 Y-76.235
N4830 X-15.868 Y-76.426
N4835 X-15.832 Y-76.616
N4840 X-15.78 Y-76.802
N4845 X-15.755 Y-76.834 F#104
N4850 X-15.722 Y-76.854
N4855 X-15.687 Y-76.863
N4860 X-15.653 Y-76.859
N4865 X-15.469 Y-76.845
N4870 X-7.714 Y-76.255 F#105
N4875 X-7.53 Y-76.241 F#103
N4880 G3 X-7.44 Y-76.161 I-0.008 J0.1
N4885 X-8.554 Y-73.93 I-2.042 J0.374 F#100
N4890 X-15.387 Y-74.081 I-3.323 J-4.302
N4895 X-15.793 Y-76.705 I1.904 J-1.638
N4900 X-15.694 Y-76.761 I0.09 J0.043 F#104
N4905 G1 X-15.502 Y-76.742
N4910 X-7.667 Y-75.973 F#105
N4915 X-7.478 Y-75.955 F#103
N4920 G3 X-7.391 Y-75.877 I-0.01 J0.1
N4925 X-8.499 Y-73.602 I-2.028 J0.42 F#100
N4930 X-15.527 Y-73.795 I-3.398 J-4.363
N4935 G1 X-15.649 Y-73.961
N4940 X-15.758 Y-74.136
N4945 X-15.853 Y-74.319
N4950 X-15.934 Y-74.509
N4955 X-15.999 Y-74.704
N4960 X-16.049 Y-74.904
N4965 X-16.084 Y-75.108
N4970 X-16.103 Y-75.313
N4975 X-16.106 Y-75.519
N4980 X-16.093 Y-75.725
N4985 X-16.064 Y-75.929
N4990 X-16.019 Y-76.13
N4995 X-15.959 Y-76.327
N5000 X-15.884 Y-76.519
N5005 X-15.794 Y-76.705
N5010 X-15.776 Y-76.731 F#104
N5015 X-15.751 Y-76.75
N5020 X-15.721 Y-76.76
N5025 X-15.69
N5030 X-15.503 Y-76.735
N5035 X-7.603 Y-75.648 F#105
N5040 X-7.41 Y-75.622 F#103
N5045 G3 X-7.327 Y-75.546 I-0.014 J0.099
N5050 X-8.337 Y-73.35 I-1.963 J0.427 F#100
N5055 X-15.701 Y-73.537 I-3.574 J-4.36
N5060 G1 X-15.815 Y-73.693
N5065 X-15.918 Y-73.858
N5070 X-16.008 Y-74.03
N5075 X-16.085 Y-74.208
N5080 X-16.148 Y-74.391
N5085 X-16.197 Y-74.579
N5090 X-16.232 Y-74.769
N5095 X-16.253 Y-74.962
N5100 X-16.259 Y-75.156
N5105 X-16.25 Y-75.349
N5110 X-16.227 Y-75.542
N5115 X-16.189 Y-75.732
N5120 X-16.138 Y-75.919
N5125 X-16.072 Y-76.101
N5130 X-15.993 Y-76.278
N5135 X-15.901 Y-76.449
N5140 X-15.885 Y-76.474 F#104
N5145 X-15.861 Y-76.493
N5150 X-15.833 Y-76.505
N5155 X-15.802 Y-76.507
N5160 X-15.614 Y-76.483
N5165 X-7.565 Y-75.433 F#105
N5170 X-7.361 Y-75.406 F#103
N5175 G3 X-7.28 Y-75.342 I-0.013 J0.099
N5180 X-7.834 Y-73.373 I-1.764 J0.565 F#100
N5185 X-15.787 Y-73.176 I-4.083 J-4.188
N5190 G1 X-15.909 Y-73.337
N5195 X-16.019 Y-73.506
N5200 X-16.115 Y-73.683
N5205 X-16.197 Y-73.867
N5210 X-16.265 Y-74.057
N5215 X-16.319 Y-74.251
N5220 X-16.357 Y-74.449
N5225 X-16.38 Y-74.649
N5230 X-16.388 Y-74.851
N5235 X-16.38 Y-75.052
N5240 X-16.357 Y-75.252
N5245 X-16.319 Y-75.45
N5250 X-16.265 Y-75.645
N5255 X-16.197 Y-75.834
N5260 X-16.115 Y-76.018
N5265 X-16.019 Y-76.195
N5270 X-15.993 Y-76.226 F#104
N5275 X-15.957 Y-76.243
N5280 X-15.918 Y-76.246
N5285 X-15.724 Y-76.222
N5290 X-7.494 Y-75.209 F#105
N5295 X-7.284 Y-75.184 F#103
N5300 G3 X-7.205 Y-75.125 I-0.012 J0.099
N5305 X-7.665 Y-73.155 I-1.689 J0.644 F#100
N5310 X-15.959 Y-72.908 I-4.274 J-4.138
N5315 G1 X-16.075 Y-73.075
N5320 X-16.178 Y-73.251
N5325 X-16.268 Y-73.433
N5330 X-16.344 Y-73.622
N5335 X-16.406 Y-73.815
N5340 X-16.455 Y-74.013
N5345 X-16.488 Y-74.214
N5350 X-16.507 Y-74.416
N5355 X-16.511 Y-74.62
N5360 X-16.5 Y-74.823
N5365 X-16.474 Y-75.025
N5370 X-16.433 Y-75.224
N5375 X-16.378 Y-75.42
N5380 X-16.309 Y-75.611
N5385 X-16.226 Y-75.797
N5390 X-16.13 Y-75.976
N5395 X-16.103 Y-76.006 F#104
N5400 X-16.068 Y-76.024
N5405 X-16.029 Y-76.026
N5410 X-15.834 Y-76.003
N5415 X-7.414 Y-75.012 F#105
N5420 X-7.2 Y-74.987 F#103
N5425 G3 X-7.122 Y-74.932 I-0.012 J0.099
N5430 X-7.433 Y-73.018 I-1.538 J0.733 F#100
N5435 X-16.177 Y-72.692 I-4.526 J-3.977
N5440 X-16.236 Y-75.764 I2.269 J-1.58
N5445 G1 X-16.21 Y-75.794 F#104
N5450 X-16.175 Y-75.812
N5455 X-16.136 Y-75.815
N5460 X-15.942 Y-75.792
N5465 X-7.301 Y-74.765 F#105
N5470 X-7.084 Y-74.74 F#103
N5475 G3 X-7.008 Y-74.688 I-0.012 J0.099
N5480 X-7.202 Y-72.896 I-1.494 J0.744 F#100
N5485 X-14.542 Y-71.182 I-4.743 J-3.74
N5490 G1 X-14.749 Y-71.249
N5495 X-14.951 Y-71.331
N5500 X-15.147 Y-71.426
N5505 X-15.336 Y-71.534
N5510 X-15.518 Y-71.655
N5515 X-15.69 Y-71.788
N5520 X-15.853 Y-71.932
N5525 X-16.006 Y-72.087
N5530 X-16.148 Y-72.253
N5535 X-16.278 Y-72.427
N5540 X-16.395 Y-72.611
N5545 X-16.5 Y-72.801
N5550 X-16.592 Y-72.999
N5555 X-16.67 Y-73.202
N5560 X-16.734 Y-73.411
N5565 X-16.783 Y-73.623
N5570 X-16.818 Y-73.838
N5575 X-16.838 Y-74.055
N5580 X-16.843 Y-74.272
N5585 X-16.833 Y-74.49
N5590 X-16.677 Y-74.889
N5595 X-16.502 Y-75.268
N5600 X-16.364 Y-75.511
N5605 G3 X-16.268 Y-75.559 I0.085 J0.052 F#104
N5610 G1 X-16.068 Y-75.536
N5615 X-7.185 Y-74.528 F#105
N5620 X-6.969 Y-74.504 F#103
N5625 G3 X-6.892 Y-74.452 I-0.011 J0.099
N5630 X-7.213 Y-72.411 I-1.694 J0.779 F#100
N5635 X-16.512 Y-72.118 I-4.784 J-4.137
N5640 G1 X-16.621 Y-72.296
N5645 X-16.717 Y-72.482
N5650 X-16.798 Y-72.674
N5655 X-16.866 Y-72.872
N5660 X-16.919 Y-73.074
N5665 X-16.956 Y-73.279
N5670 X-16.979 Y-73.487
N5675 X-16.986 Y-73.695
N5680 X-16.977 Y-73.904
N5685 X-16.954 Y-74.111
N5690 X-16.915 Y-74.316
N5695 X-16.861 Y-74.518
N5700 X-16.792 Y-74.715
N5705 X-16.71 Y-74.907
N5710 X-16.613 Y-75.092
N5715 X-16.503 Y-75.269
N5720 X-16.477 Y-75.297 F#104
N5725 X-16.443 Y-75.313
N5730 X-16.405 Y-75.316
N5735 X-16.205 Y-75.294
N5740 X-7.074 Y-74.302 F#105
N5745 X-6.858 Y-74.279 F#103
N5750 G3 X-6.781 Y-74.226 I-0.011 J0.099
N5755 X-7.131 Y-72.058 I-1.728 J0.834 F#100
N5760 X-16.637 Y-71.773 I-4.886 J-4.296
N5765 X-16.749 Y-74.888 I2.134 J-1.636
N5770 G1 X-16.712 Y-74.912 F#104
N5775 X-16.672 Y-74.92
N5780 X-16.635 Y-74.914
N5785 X-16.426 Y-74.896
N5790 X-6.964 Y-74.076 F#105
N5795 X-6.748 Y-74.057 F#103
N5800 G3 X-6.669 Y-74.007 I-0.009 J0.1
N5805 X-6.9 Y-71.906 I-1.687 J0.878 F#100
N5810 X-14.901 Y-70.141 I-5.103 J-4.117
N5815 X-17.433 Y-72.905 I1.277 J-3.712
N5820 X-16.787 Y-74.8 I2.649 J-0.155
N5825 X-16.705 Y-74.831 I0.072 J0.069 F#104
N5830 G1 X-16.483 Y-74.808
N5835 X-6.824 Y-73.811 F#105
N5840 X-6.606 Y-73.788 F#103
N5845 G3 X-6.53 Y-73.738 I-0.01 J0.099
N5850 X-6.653 Y-71.792 I-1.529 J0.88 F#100
N5855 X-12.677 Y-69.19 I-5.103 J-3.542
N5860 X-17.452 Y-71.922 I0.047 J-5.622
N5865 X-16.981 Y-74.584 I2.447 J-0.939
N5870 X-16.898 Y-74.614 I0.072 J0.069 F#104
N5875 G1 X-16.676 Y-74.591
N5880 X-6.699 Y-73.562 F#105
N5885 X-6.47 Y-73.538 F#103
N5890 G3 X-6.399 Y-73.497 I-0.01 J0.099
N5895 X-6.379 Y-71.752 I-1.354 J0.888 F#100
N5900 X-11.518 Y-68.801 I-5.113 J-2.954
N5905 X-17.551 Y-71.417 I-0.851 J-6.301
N5910 X-16.983 Y-74.586 I2.479 J-1.191
N5915 G1 X-16.957 Y-74.604 F#104
N5920 X-16.927 Y-74.614
N5925 X-16.896
N5930 X-16.676 Y-74.588
N5935 X-6.584 Y-73.392 F#105
N5940 X-6.347 Y-73.364 F#103
N5945 G3 X-6.282 Y-73.328 I-0.012 J0.099
N5950 X-6.127 Y-71.706 I-1.229 J0.936 F#100
N5955 X-10.582 Y-68.538 I-5.074 J-2.42
N5960 X-17.556 Y-70.817 I-1.655 J-6.744
N5965 G1 X-17.664 Y-70.991
N5970 X-17.758 Y-71.171
N5975 X-17.84 Y-71.358
N5980 X-17.907 Y-71.551
N5985 X-17.96 Y-71.748
N5990 X-17.998 Y-71.948
N5995 X-18.022 Y-72.151
N6000 X-18.031 Y-72.354
N6005 X-18.025 Y-72.558
N6010 X-18.004 Y-72.761
N6015 X-17.968 Y-72.962
N6020 X-17.917 Y-73.16
N6025 X-17.852 Y-73.353
N6030 X-17.774 Y-73.541
N6035 X-17.681 Y-73.723
N6040 X-17.576 Y-73.897
N6045 X-17.458 Y-74.064
N6050 X-17.328 Y-74.221
N6055 X-17.187 Y-74.369
N6060 X-17.159 Y-74.386 F#104
N6065 X-17.127 Y-74.393
N6070 X-17.096 Y-74.391
N6075 X-16.875 Y-74.366
N6080 X-6.444 Y-73.201 F#105
N6085 X-6.2 Y-73.174 F#103
N6090 G3 X-6.139 Y-73.144 I-0.011 J0.099
N6095 X-5.921 Y-71.551 I-1.167 J0.972 F#100
N6100 X-10.264 Y-68.217 I-5.152 J-2.214
N6105 X-17.712 Y-70.457 I-1.964 J-6.973
N6110 G1 X-17.828 Y-70.627
N6115 X-17.931 Y-70.806
N6120 X-18.021 Y-70.991
N6125 X-18.097 Y-71.183
N6130 X-18.159 Y-71.38
N6135 X-18.206 Y-71.58
N6140 X-18.238 Y-71.784
N6145 X-18.256 Y-71.989
N6150 X-18.258 Y-72.196
N6155 X-18.245 Y-72.401
N6160 X-18.217 Y-72.606
N6165 X-18.175 Y-72.807
N6170 X-18.118 Y-73.005
N6175 X-18.046 Y-73.199
N6180 X-17.96 Y-73.386
N6185 X-17.861 Y-73.567
N6190 X-17.749 Y-73.74
N6195 X-17.625 Y-73.904
N6200 X-17.489 Y-74.059
N6205 X-17.342 Y-74.204
N6210 X-17.314 Y-74.22 F#104
N6215 X-17.284 Y-74.227
N6220 X-17.254 Y-74.224
N6225 X-17.03 Y-74.2
N6230 X-6.303 Y-73.044 F#105
N6235 X-6.06 Y-73.018 F#103
N6240 G3 X-5.998 Y-72.988 I-0.011 J0.099
N6245 X-5.807 Y-71.116 I-1.243 J1.073 F#100
N6250 X-10.638 Y-67.745 I-5.428 J-2.633
N6255 X-18.055 Y-70.351 I-1.654 J-7.15
N6260 X-17.532 Y-74.016 I2.414 J-1.526
N6265 G1 X-17.503 Y-74.031 F#104
N6270 X-17.473 Y-74.036
N6275 X-17.444 Y-74.032
N6280 X-17.217 Y-74.009
N6285 X-6.159 Y-72.886 F#105
N6290 X-5.914 Y-72.861 F#103
N6295 G3 X-5.854 Y-72.833 I-0.01 J0.099
N6300 X-5.588 Y-70.955 I-1.291 J1.141 F#100
N6305 X-10.093 Y-67.462 I-5.47 J-2.405
N6310 X-18.157 Y-69.894 I-2.158 J-7.433
N6315 X-17.766 Y-73.795 I2.349 J-1.734
N6320 G1 X-17.735 Y-73.807 F#104
N6325 X-17.703 Y-73.81
N6330 X-17.673 Y-73.804
N6335 X-17.445 Y-73.783
N6340 X-6.005 Y-72.721 F#105
N6345 X-5.76 Y-72.698 F#103
N6350 G3 X-5.7 Y-72.67 I-0.009 J0.1
N6355 X-5.423 Y-70.63 I-1.332 J1.22 F#100
N6360 X-10.057 Y-67.068 I-5.651 J-2.557
N6365 X-18.37 Y-69.59 I-2.209 J-7.685
N6370 X-18.397 Y-73.2 I2.483 J-1.824
N6375 G1 X-18.069 Y-73.472
N6380 G3 X-18. Y-73.493 I0.062 J0.079 F#104
N6385 G1 X-17.761 Y-73.474
N6390 X-5.832 Y-72.535 F#105
N6395 X-5.588 Y-72.516 F#103
N6400 G3 X-5.526 Y-72.487 I-0.008 J0.1
N6405 X-5.167 Y-70.553 I-1.304 J1.242 F#100
N6410 X-9.596 Y-66.791 I-5.705 J-2.227
N6415 X-18.528 Y-69.202 I-2.659 J-7.898
N6420 X-18.888 Y-72.718 I2.615 J-2.045
N6425 G1 X-18.57 Y-73.038
N6430 X-18.24 Y-73.328
N6435 X-18.069 Y-73.472
N6440 G3 X-17.998 Y-73.493 I0.062 J0.079 F#104
N6445 G1 X-17.761 Y-73.47
N6450 X-5.627 Y-72.324 F#105
N6455 X-5.382 Y-72.301 F#103
N6460 G3 X-5.321 Y-72.273 I-0.009 J0.1
N6465 X-4.946 Y-70.366 I-1.234 J1.234 F#100
N6470 X-9.328 Y-66.464 I-5.817 J-2.122
N6475 X-18.771 Y-68.921 I-2.933 J-8.104
N6480 X-19.509 Y-71.666 I3.2 J-2.332
N6485 X-18.238 Y-73.324 I2.687 J0.743
N6490 G1 X-18.208 Y-73.34 F#104
N6495 X-18.174 Y-73.345
N6500 X-17.931 Y-73.322
N6505 X-5.441 Y-72.128 F#105
N6510 X-5.19 Y-72.104 F#103
N6515 G3 X-5.134 Y-72.08 I-0.01 J0.1
N6520 X-4.74 Y-70.104 I-1.282 J1.283 F#100
N6525 X-9.176 Y-66.098 I-5.982 J-2.164
N6530 X-18.973 Y-68.581 I-3.094 J-8.361
N6535 X-19.842 Y-71.312 I3.774 J-2.706
N6540 X-18.405 Y-73.195 I2.494 J0.413
N6545 G1 X-18.38 Y-73.211 F#104
N6550 X-18.349 Y-73.218
N6555 X-18.099 Y-73.194
N6560 X-5.293 Y-71.994 F#105
N6565 X-5.04 Y-71.971 F#103
N6570 X-5.02 Y-71.967
N6575 X-5.002 Y-71.959
N6580 X-4.985 Y-71.948
N6585 G3 X-4.49 Y-69.995 I-1.173 J1.337 F#100
N6590 X-8.526 Y-65.917 I-5.97 J-1.872
N6595 X-19.067 Y-68.102 I-3.732 J-8.516
N6600 X-20.156 Y-71.065 I4.145 J-3.205
N6605 X-18.614 Y-73.072 I2.635 J0.429
N6610 X-18.561 Y-73.081 I0.044 J0.09 F#104
N6615 G1 X-18.302 Y-73.058
N6620 X-5.136 Y-71.861 F#105
N6625 X-4.875 Y-71.837 F#103
N6630 X-4.858 Y-71.834
N6635 X-4.842 Y-71.828
N6640 X-4.827 Y-71.819
N6645 X-4.704 Y-71.725 F#100
N6650 X-4.591 Y-71.62
N6655 X-4.49 Y-71.504
N6660 X-4.4 Y-71.378
N6665 X-4.324 Y-71.244
N6670 X-4.262 Y-71.103
N6675 X-4.214 Y-70.956
N6680 X-4.181 Y-70.806
N6685 X-4.163 Y-70.652
N6690 X-4.161 Y-70.498
N6695 X-4.174 Y-70.344
N6700 X-4.203 Y-70.193
N6705 X-4.246 Y-70.045
N6710 G3 X-7.237 Y-66.135 I-5.396 J-1.029
N6715 X-19.399 Y-67.907 I-5.018 J-8.184
N6720 X-20.45 Y-70.842 I4.498 J-3.268
N6725 X-18.818 Y-72.963 I2.714 J0.4
N6730 X-18.765 Y-72.973 I0.044 J0.09 F#104
N6735 G1 X-18.506 Y-72.949
N6740 X-4.962 Y-71.729 F#105
N6745 G3 X-4.652 Y-71.691 I0.093 J0.522 F#103
N6750 X-3.963 Y-69.941 I-0.871 J1.353 F#100
N6755 X-7.476 Y-65.549 I-5.925 J-1.137
N6760 X-19.61 Y-67.563 I-4.798 J-8.65
N6765 X-20.713 Y-70.402 I4.204 J-3.267
N6770 X-19.02 Y-72.85 I2.607 J-0.006
N6775 G1 X-18.997 Y-72.862 F#104
N6780 X-18.972 Y-72.867
N6785 X-18.711 Y-72.844
N6790 X-4.782 Y-71.61 F#105
N6795 X-4.508 Y-71.586 F#103
N6800 X-4.489 Y-71.583
N6805 X-4.471 Y-71.575
N6810 G3 X-3.704 Y-69.986 I-0.777 J1.355 F#100
N6815 X-6.655 Y-65.585 I-5.716 J-0.642
N6820 X-19.843 Y-67.243 I-5.63 J-8.497
N6825 X-21.043 Y-70.265 I4.875 J-3.685
N6830 X-19.305 Y-72.712 I2.774 J0.13
N6835 G1 X-19.281 Y-72.721 F#104
N6840 X-19.256 Y-72.723
N6845 X-18.994 Y-72.701
N6850 X-4.576 Y-71.494 F#105
N6855 X-4.302 Y-71.471 F#103
N6860 X-4.283 Y-71.468
N6865 X-4.265 Y-71.461
N6870 G3 X-3.456 Y-69.747 I-0.881 J1.463 F#100
N6875 X-6.459 Y-65.244 I-5.922 J-0.696
N6880 X-20.07 Y-66.907 I-5.841 J-8.728
N6885 X-21.35 Y-70.301 I4.724 J-3.719
N6890 X-19.578 Y-72.572 I2.779 J0.342
N6895 G1 X-19.555 Y-72.581 F#104
N6900 X-19.529 Y-72.585
N6905 X-19.267 Y-72.564
N6910 X-4.38 Y-71.384 F#105
N6915 X-4.106 Y-71.363 F#103
N6920 X-4.087 Y-71.359
N6925 X-4.069 Y-71.352
N6930 G3 X-3.199 Y-69.614 I-0.869 J1.522 F#100
N6935 X-6.122 Y-65.001 I-6.007 J-0.574
N6940 X-18.004 Y-64.664 I-6.198 J-8.879
N6945 X-21.667 Y-69.632 I3.476 J-6.397
N6950 X-19.844 Y-72.451 I2.722 J-0.238
N6955 G1 X-19.818 Y-72.454 F#104
N6960 X-19.794 Y-72.451
N6965 X-19.529 Y-72.431
N6970 X-4.139 Y-71.249 F#105
N6975 X-3.865 Y-71.228 F#103
N6980 X-3.846 Y-71.225
N6985 X-3.827 Y-71.218
N6990 G3 X-2.939 Y-69.344 I-0.93 J1.588 F#100
N6995 X-5.984 Y-64.613 I-6.27 J-0.69
N7000 X-20.631 Y-66.347 I-6.345 J-9.133
N7005 X-21.978 Y-70.189 I4.973 J-3.9
N7010 X-20.22 Y-72.286 I2.599 J0.394
N7015 X-20.185 Y-72.29 I0.028 J0.096 F#104
N7020 G1 X-19.906 Y-72.27
N7025 X-3.905 Y-71.119 F#105
N7030 X-3.632 Y-71.1 F#103
N7035 X-3.612 Y-71.096
N7040 X-3.594 Y-71.089
N7045 G3 X-2.675 Y-69.094 I-0.958 J1.65 F#100
N7050 X-6.047 Y-64.089 I-6.602 J-0.81
N7055 X-17.282 Y-63.335 I-6.281 J-9.514
N7060 X-22.271 Y-68.947 I3.178 J-7.848
N7065 X-21.447 Y-71.765 I3.323 J-0.558
N7070 X-20.22 Y-72.286 I2.108 J3.257
N7075 X-20.184 Y-72.289 I0.028 J0.096 F#104
N7080 G1 X-19.907 Y-72.268
N7085 X-3.687 Y-71.002 F#105
N7090 X-3.412 Y-70.98 F#103
N7095 X-3.394 Y-70.977
N7100 X-3.376 Y-70.97
N7105 G3 X-2.399 Y-69.184 I-0.835 J1.616 F#100
N7110 X-5.15 Y-64.249 I-6.334 J-0.296
N7115 X-16.093 Y-62.425 I-7.121 J-8.989
N7120 X-22.439 Y-68.104 I2.471 J-9.147
N7125 X-22.391 Y-70.89 I4.889 J-1.309
N7130 X-20.454 Y-72.209 I2.257 J1.233
N7135 G1 X-20.141 Y-72.185 F#104
N7140 X-3.49 Y-70.896 F#105
N7145 X-3.177 Y-70.872 F#103
N7150 X-3.035 Y-70.81 F#100
N7155 X-2.899 Y-70.734
N7160 X-2.772 Y-70.645
N7165 X-2.655 Y-70.544
N7170 X-2.548 Y-70.432
N7175 X-2.452 Y-70.309
N7180 X-2.37 Y-70.178
N7185 X-2.3 Y-70.04
N7190 X-2.245 Y-69.895
N7195 X-2.205 Y-69.745
N7200 X-2.179 Y-69.592
N7205 X-2.169 Y-69.438
N7210 X-2.174 Y-69.283
N7215 G3 X-3.961 Y-64.831 I-5.511 J0.372
N7220 X-12.505 Y-61.41 I-7.898 J-7.347
N7225 X-22.201 Y-66.561 I-0.257 J-11.219
N7230 X-22.919 Y-70.191 I5.741 J-3.022
N7235 X-20.659 Y-72.164 I2.572 J0.666
N7240 G1 X-20.346 Y-72.138 F#104
N7245 X-3.28 Y-70.811 F#105
N7250 X-2.967 Y-70.787 F#103
N7255 G3 X-1.872 Y-69.248 I-0.551 J1.551 F#100
N7260 X-4.046 Y-64.177 I-6.089 J0.392
N7265 X-13.18 Y-61.004 I-7.933 J-8.104
N7270 X-22.587 Y-66.448 I0.307 J-11.379
N7275 X-23.211 Y-70.303 I5.654 J-2.893
N7280 X-20.866 Y-72.123 I2.592 J0.919
N7285 G1 X-20.842 Y-72.125 F#104
N7290 X-20.557 Y-72.076
N7295 G2 X-12.603 Y-71.054 I16.105 J-93.856 F#105
N7300 G1 X-11.089 Y-70.936
N7305 G2 X-3.076 Y-70.714 I6.638 J-94.996
N7310 G1 X-2.785 Y-70.719 F#103
N7315 X-2.762 Y-70.716
N7320 X-2.618 Y-70.67 F#100
N7325 X-2.478 Y-70.609
N7330 X-2.346 Y-70.535
N7335 X-2.222 Y-70.448
N7340 X-2.107 Y-70.348
N7345 X-2.003 Y-70.238
N7350 X-1.91 Y-70.117
N7355 X-1.831 Y-69.988
N7360 X-1.765 Y-69.851
N7365 X-1.713 Y-69.708
N7370 X-1.675 Y-69.561
N7375 X-1.653 Y-69.411
N7380 X-1.646 Y-69.259
N7385 G3 X-3.044 Y-64.721 I-5.358 J0.834
N7390 X-10.668 Y-60.647 I-8.435 J-6.614
N7395 X-22.463 Y-65.447 I-1.894 J-12.239
N7400 X-23.599 Y-70.07 I5.889 J-3.898
N7405 G1 X-23.538 Y-70.259
N7410 X-23.464 Y-70.442
N7415 X-23.376 Y-70.621
N7420 X-23.276 Y-70.792
N7425 X-23.164 Y-70.956
N7430 X-23.041 Y-71.111
N7435 X-22.907 Y-71.257
N7440 X-22.763 Y-71.394
N7445 X-22.609 Y-71.519
N7450 X-22.447 Y-71.634
N7455 X-22.277 Y-71.736
N7460 X-22.1 Y-71.826
N7465 X-21.917 Y-71.903
N7470 X-21.73 Y-71.967
N7475 X-21.538 Y-72.018
N7480 X-21.343 Y-72.054
N7485 X-21.146 Y-72.077
N7490 X-21.121 Y-72.076 F#104
N7495 X-20.836 Y-72.024
N7500 G2 X-13.638 Y-71.024 I15.505 J-85.211 F#105
N7505 G1 X-10.152 Y-70.759
N7510 G2 X-2.895 Y-70.659 I4.821 J-86.476
N7515 G1 X-2.597 Y-70.668 F#103
N7520 X-2.581 Y-70.667
N7525 G3 X-1.377 Y-69.381 I-0.333 J1.518 F#100
N7530 X-2.768 Y-64.439 I-5.62 J1.085
N7535 X-10.958 Y-60.181 I-8.766 J-6.856
N7540 X-22.738 Y-65.131 I-1.647 J-12.573
N7545 X-23.963 Y-69.9 I6.113 J-4.112
N7550 X-21.454 Y-72.029 I2.758 J0.707
N7555 G1 X-21.435 Y-72.028 F#104
N7560 X-21.417 Y-72.023
N7565 X-21.157 Y-71.929
N7570 G2 X-18.497 Y-71.102 I11.741 J-33.068 F#105
N7575 G1 X-18.479 Y-71.099
N7580 X-5.425 Y-70.136
N7585 X-5.406 Y-70.137
N7590 G2 X-2.662 Y-70.563 I-4.01 J-34.861
N7595 G1 X-2.383 Y-70.619 F#103
N7600 X-2.353
N7605 G3 X-1.107 Y-69.351 I-0.32 J1.562 F#100
N7610 X-2.348 Y-64.351 I-5.611 J1.261
N7615 X-10.491 Y-59.799 I-9.063 J-6.652
N7620 X-23.034 Y-64.829 I-2.094 J-12.934
N7625 X-24.326 Y-69.758 I6.401 J-4.311
N7630 G1 X-24.275 Y-69.955
N7635 X-24.21 Y-70.147
N7640 X-24.131 Y-70.334
N7645 X-24.04 Y-70.515
N7650 X-23.935 Y-70.689
N7655 X-23.819 Y-70.856
N7660 X-23.692 Y-71.014
N7665 X-23.553 Y-71.162
N7670 X-23.405 Y-71.3
N7675 X-23.247 Y-71.428
N7680 X-23.08 Y-71.544
N7685 X-22.906 Y-71.648
N7690 X-22.725 Y-71.739
N7695 X-22.537 Y-71.817
N7700 X-22.345 Y-71.882
N7705 X-22.149 Y-71.933
N7710 X-21.949 Y-71.97
N7715 X-21.922 Y-71.953 F#104
N7720 X-21.641 Y-71.885
N7725 G2 X-2.426 Y-70.54 I13.576 J-56.056 F#105
N7730 G1 X-2.135 Y-70.57 F#103
N7735 X-2.113 Y-70.569
N7740 G3 X-0.825 Y-69.302 I-0.312 J1.606 F#100
N7745 X-1.952 Y-64.237 I-5.648 J1.401
N7750 X-10.085 Y-59.418 I-9.351 J-6.509
N7755 X-23.195 Y-64.338 I-2.48 J-13.32
N7760 X-24.69 Y-69.648 I6.535 J-4.705
N7765 X-21.947 Y-71.966 I2.809 J0.541
N7770 G1 X-21.927 Y-71.96 F#104
N7775 X-21.91 Y-71.949
N7780 X-21.655 Y-71.843
N7785 G2 X-19.362 Y-71.002 I11.872 J-28.814 F#105
N7790 G1 X-19.338 Y-70.997
N7795 X-4.559 Y-69.937
N7800 X-4.535 Y-69.938
N7805 G2 X-2.15 Y-70.442 I-5.247 J-30.719
N7810 G1 X-1.878 Y-70.512 F#103
N7815 G3 X-1.845 Y-70.514 I0.02 J0.077
N7820 X-0.46 Y-69.004 I-0.422 J1.777 F#100
N7825 X-1.983 Y-63.518 I-6.261 J1.216
N7830 X-9.997 Y-58.982 I-9.37 J-7.206
N7835 X-23.487 Y-64.023 I-2.558 J-13.724
N7840 X-25.059 Y-69.521 I6.798 J-4.918
N7845 X-22.297 Y-71.937 I2.799 J0.413
N7850 G1 X-22.276 Y-71.926 F#104
N7855 X-22.26 Y-71.911
N7860 X-22.007 Y-71.8
N7865 G2 X-19.813 Y-70.945 I12.036 J-27.647 F#105
N7870 G1 X-19.788 Y-70.94
N7875 X-4.232 Y-69.848
N7880 X-4.206 Y-69.85
N7885 G2 X-1.916 Y-70.389 I-5.765 J-29.597
N7890 G1 X-1.648 Y-70.465 F#103
N7895 G3 X-1.613 Y-70.467 I0.022 J0.077
N7900 X-0.177 Y-68.997 I-0.363 J1.792 F#100
N7905 X-1.538 Y-63.448 I-6.247 J1.408
N7910 X-9.499 Y-58.625 I-9.677 J-6.991
N7915 X-23.79 Y-63.72 I-3.044 J-14.053
N7920 X-25.447 Y-69.284 I7.18 J-5.167
N7925 X-22.499 Y-71.929 I2.907 J0.276
N7930 G1 X-22.475 Y-71.896 F#104
N7935 X-22.203 Y-71.798
N7940 G2 X-15.998 Y-70.167 I12.848 J-36.248 F#105
N7945 G1 X-15.988 Y-70.165
N7950 X-8.065 Y-69.611
N7955 X-8.054 Y-69.61
N7960 G2 X-1.682 Y-70.362 I-1.3 J-38.436
N7965 G1 X-1.4 Y-70.42 F#103
N7970 X-1.374 Y-70.421
N7975 G3 X0.057 Y-69.137 I-0.22 J1.685 F#100
N7980 X-0.943 Y-63.623 I-5.957 J1.767
N7985 X-7.725 Y-58.62 I-9.77 J-6.145
N7990 X-23.693 Y-62.9 I-4.746 J-14.218
N7995 X-25.826 Y-69.209 I7.17 J-5.94
N8000 X-23.88 Y-71.807 I3.282 J0.43
N8005 G1 X-23.469 Y-71.868
N8010 X-23.063 Y-71.9
N8015 X-22.746
N8020 G3 X-22.71 Y-71.89 I-0.003 J0.08 F#104
N8025 G1 X-22.468 Y-71.758
N8030 G2 X-18.63 Y-70.078 I12.153 J-22.543 F#105
N8035 G1 X-18.605 Y-70.073
N8040 X-5.479 Y-69.155
N8045 X-5.453 Y-69.156
N8050 G2 X-1.422 Y-70.284 I-4.861 J-25.144
N8055 G1 X-1.161 Y-70.382 F#103
N8060 G3 X-1.126 Y-70.388 I0.029 J0.075
N8065 X0.392 Y-69.006 I-0.258 J1.808 F#100
N8070 X-0.642 Y-63.349 I-6.201 J1.79
N8075 X-8.023 Y-58.072 I-10.163 J-6.415
N8080 X-24.204 Y-62.852 I-4.478 J-14.619
N8085 X-26.201 Y-69.122 I7.563 J-5.862
N8090 X-23.814 Y-71.909 I3.227 J0.347
N8095 G1 X-23.389 Y-71.9
N8100 X-23.063
N8105 G3 X-23.027 Y-71.89 I-0.003 J0.08 F#104
N8110 G1 X-22.784 Y-71.758
N8115 G2 X-18.847 Y-70.034 I12.458 J-23.093 F#105
N8120 G1 X-18.821 Y-70.028
N8125 X-5.344 Y-69.093
N8130 X-5.318 Y-69.094
N8135 G2 X-1.182 Y-70.257 I-5.009 J-25.756
N8140 G1 X-0.921 Y-70.355 F#103
N8145 G3 X-0.886 Y-70.36 I0.029 J0.075
N8150 X0.625 Y-69.143 I-0.134 J1.713 F#100
N8155 X0.06 Y-63.77 I-5.813 J2.104
N8160 X-7.11 Y-57.904 I-10.519 J-5.543
N8165 X-24.541 Y-62.582 I-5.385 J-14.749
N8170 X-26.61 Y-68.728 I8.092 J-6.145
N8175 X-24.941 Y-71.666 I3.791 J0.211
N8180 X-23.389 Y-71.9 I1.327 J3.531
N8185 X-23.353 Y-71.89 I-0.003 J0.08 F#104
N8190 G1 X-23.11 Y-71.757
N8195 G2 X-19.076 Y-69.986 I12.777 J-23.621 F#105
N8200 G1 X-19.05 Y-69.981
N8205 X-5.17 Y-69.027
N8210 X-5.144 Y-69.029
N8215 G2 X-0.913 Y-70.229 I-5.189 J-26.349
N8220 G1 X-0.648 Y-70.33 F#103
N8225 G3 X-0.618 Y-70.336 I0.029 J0.075
N8230 X0.903 Y-69.172 I-0.15 J1.771 F#100
N8235 X0.507 Y-63.78 I-5.754 J2.288
N8240 X-6.532 Y-57.647 I-10.764 J-5.248
N8245 X-24.605 Y-61.976 I-5.964 J-14.987
N8250 X-26.823 Y-66.569 I9.376 J-7.359
N8255 X-26.715 Y-69.714 I17.809 J-0.964
N8260 X-24.097 Y-71.91 I2.688 J0.545
N8265 G1 X-24.057 Y-71.9 F#104
N8270 X-24.025 Y-71.876
N8275 X-24.004 Y-71.842
N8280 X-23.997 Y-71.804
N8285 X-24.004 Y-71.766
N8290 X-24.025 Y-71.734
N8295 X-24.083 Y-71.667
N8300 X-26.575 Y-68.819 F#105
N8305 X-26.625 Y-68.762 F#103
N8310 G3 X-26.8 Y-68.824 I-0.075 J-0.066
N8315 X-26.778 Y-69.974 I10.637 J-0.373 F#100
N8320 G1 X-26.765 Y-70.01 F#104
N8325 X-26.738 Y-70.039
N8330 X-26.703 Y-70.056
N8335 X-26.665 Y-70.058
N8340 X-26.628 Y-70.046
N8345 X-26.599 Y-70.021
N8350 X-26.581 Y-69.986
N8355 X-26.578 Y-69.948
N8360 X-26.579 Y-69.942
N8365 X-26.592 Y-69.796 F#105
N8370 X-26.593 Y-69.784 F#103
N8375 G3 X-26.793 Y-69.792 I-0.1 J-0.009
N8380 X-24.773 Y-71.867 I2.176 J0.097 F#100
N8385 G1 X-24.74 Y-71.864 F#104
N8390 X-24.71 Y-71.85
N8395 X-24.686 Y-71.826
N8400 X-24.672 Y-71.796
N8405 X-24.67 Y-71.762
N8410 X-24.679 Y-71.729
N8415 X-24.699 Y-71.701
N8420 X-24.75 Y-71.653
N8425 X-26.55 Y-69.979 F#105
N8430 X-26.604 Y-69.929 F#103
N8435 G3 X-26.771 Y-70.011 I-0.068 J-0.073
N8440 X-24.349 Y-71.861 I1.981 J0.082 F#100
N8445 G1 X-23.741 Y-71.9
N8450 G3 X-23.662 Y-71.743 I-0.003 J0.1 F#104
N8455 G1 X-23.691 Y-71.726 Z-4.093
N8460 X-23.716 Y-71.711 Z-4.076
N8465 X-23.735 Y-71.7 Z-4.049
N8470 X-23.744 Z-4.026
N8475 X-23.748 Z-4.
N8480 G0 Z2.15
N8485 X-26.539 Y-102.097
N8490 Z-4.
N8495 G1 Z-4.1 F#103
N8500 X-26.701 Y-102.099
N8505 G3 X-26.8 Y-102.196 I0.001 J-0.1
N8510 X-24.67 Y-108.813 I9.01 J-0.752 F#100
N8515 X-22.282 Y-111.413 I8.271 J5.204
N8520 X-21.281 Y-112.075 I5.883 J7.803 F#106
N8525 G2 X-20.249 Y-112.267 I-0.348 J-4.731 F#100
N8530 G1 X-20.215 Y-112.27 F#104
N8535 X-20.181 Y-112.26
N8540 X-20.152 Y-112.24
N8545 X-20.133 Y-112.21
N8550 X-20.125 Y-112.176
N8555 X-20.129 Y-112.141
N8560 X-20.15 Y-112.117 Z-4.094
N8565 X-20.169 Y-112.097 Z-4.079
N8570 X-20.183 Y-112.081 Z-4.056
N8575 X-20.195 Y-112.076 Z-4.029
N8580 X-20.199 Y-112.075 Z-4.
N8585 G0 Z-3.9
N8590 X-26.596 Y-103.387
N8595 G1 Z-4. F#103
N8600 X-26.602 Y-103.393 Z-4.038
N8605 X-26.618 Y-103.407 Z-4.071
N8610 X-26.641 Y-103.429 Z-4.092
N8615 X-26.669 Y-103.455 Z-4.1
N8620 G3 X-26.8 Y-103.741 I0.279 J-0.3
N8625 X-25. Y-109.083 I7.345 J-0.499 F#100
N8630 X-22.398 Y-111.806 I7.418 J4.484
N8635 G1 X-22.041 Y-111.91
N8640 X-21.686 Y-111.99
N8645 G3 X-21.584 Y-111.847 I0.012 J0.099 F#104
N8650 G1 X-21.608 Y-111.827 Z-4.094
N8655 X-21.629 Y-111.809 Z-4.079
N8660 X-21.645 Y-111.795 Z-4.056
N8665 X-21.658 Y-111.793 Z-4.029
N8670 X-21.662 Y-111.792 Z-4.
N8675 G0 Z-3.9
N8680 X-26.596 Y-104.503
N8685 G1 Z-4. F#103
N8690 X-26.602 Y-104.508 Z-4.038
N8695 X-26.618 Y-104.523 Z-4.071
N8700 X-26.641 Y-104.545 Z-4.092
N8705 X-26.669 Y-104.571 Z-4.1
N8710 G3 X-26.8 Y-104.857 I0.279 J-0.3
N8715 X-25.282 Y-109.414 I6.272 J-0.442 F#100
N8720 X-22.656 Y-111.866 I4.711 J2.412
N8725 G1 X-22.219 Y-111.918
N8730 G3 X-22.134 Y-111.758 I0.005 J0.1 F#104
N8735 G1 X-22.186 Y-111.688
N8740 X-26.579 Y-105.837 F#105
N8745 X-26.62 Y-105.783 F#103
N8750 G3 X-26.8 Y-105.839 I-0.08 J-0.06
N8755 X-25.308 Y-110.07 I5.707 J-0.366 F#100
N8760 X-22.588 Y-111.93 I3.062 J1.56
N8765 G1 X-22.548 Y-111.919 F#104
N8770 X-22.515 Y-111.897
N8775 X-22.492 Y-111.867
N8780 X-22.48 Y-111.832
N8785 Y-111.797
N8790 X-22.491 Y-111.764
N8795 X-22.51 Y-111.738
N8800 X-22.568 Y-111.666
N8805 X-26.577 Y-106.696 F#105
N8810 X-26.622 Y-106.64 F#103
N8815 G3 X-26.8 Y-106.7 I-0.078 J-0.063
N8820 X-24.265 Y-111.652 I5.577 J-0.27 F#100
N8825 G1 X-23.888 Y-111.783
N8830 X-23.503 Y-111.87
N8835 X-23.109 Y-111.9
N8840 G3 X-23.035 Y-111.736 I-0.003 J0.1 F#104
N8845 G1 X-23.094 Y-111.666
N8850 X-26.576 Y-107.514 F#105
N8855 X-26.623 Y-107.458 F#103
N8860 G3 X-26.8 Y-107.519 I-0.077 J-0.064
N8865 X-24.449 Y-111.801 I4.381 J-0.381 F#100
N8870 G1 X-24.008 Y-111.865
N8875 X-23.577 Y-111.9
N8880 G3 X-23.506 Y-111.734 I-0.003 J0.1 F#104
N8885 G1 X-23.564 Y-111.668
N8890 X-26.575 Y-108.24 F#105
N8895 X-26.625 Y-108.183 F#103
N8900 G3 X-26.8 Y-108.245 I-0.075 J-0.066
N8905 X-24.403 Y-111.911 I3.261 J-0.484 F#100
N8910 G1 X-23.972 Y-111.9
N8915 G3 X-23.903 Y-111.731 I-0.003 J0.1 F#104
N8920 G1 X-23.962 Y-111.67
N8925 X-26.573 Y-108.944 F#105
N8930 X-26.628 Y-108.886 F#103
N8935 G3 X-26.8 Y-108.952 I-0.072 J-0.069
N8940 X-24.582 Y-111.906 I2.526 J-0.414 F#100
N8945 G1 X-24.543 Y-111.9 F#104
N8950 X-24.509 Y-111.881
N8955 X-24.485 Y-111.853
N8960 X-24.471 Y-111.818
N8965 Y-111.781
N8970 X-24.482 Y-111.748
N8975 X-24.504 Y-111.72
N8980 X-24.556 Y-111.67
N8985 X-26.556 Y-109.71 F#105
N8990 X-26.611 Y-109.655 F#103
N8995 G3 X-26.781 Y-109.729 I-0.07 J-0.071
N9000 X-26.69 Y-110.528 I3.953 J0.043 F#100
N9005 G1 X-26.67 Y-110.56 F#104
N9010 X-26.639 Y-110.581
N9015 X-26.603 Y-110.591
N9020 X-26.566 Y-110.586
N9025 X-26.533 Y-110.568
N9030 X-26.509 Y-110.539
N9035 X-26.497 Y-110.504
N9040 X-26.499 Y-110.467
N9045 X-26.502 Y-110.452
N9050 X-26.523 Y-110.365 F#105
N9055 X-26.526 Y-110.352 F#103
N9060 G3 X-26.723 Y-110.385 I-0.097 J-0.023
N9065 X-26.435 Y-111.05 I1.699 J0.339 F#100
N9070 X-26.271 Y-110.938 I0.077 J0.064 F#104
N9075 G1 X-26.279 Y-110.922
N9080 X-26.401 Y-110.704 F#105
N9085 X-26.408 Y-110.691 F#103
N9090 G3 X-26.589 Y-110.775 I-0.087 J-0.049
N9095 X-26.237 Y-111.302 I1.525 J0.639 F#100
N9100 X-26.093 Y-111.163 I0.068 J0.073 F#104
N9105 G1 X-26.1 Y-111.155
N9110 X-26.122 Y-111.129 F#105
N9115 X-26.127 Y-111.123 F#103
N9120 G3 X-26.285 Y-111.246 I-0.076 J-0.065
N9125 X-24.343 Y-111.883 I1.587 J1.561 F#100
N9130 G2 X-20.923 Y-112.116 I0.819 J-13.168
N9135 G1 X-20.61 Y-112.144 F#104
N9140 X-19.636 Y-112.231 F#105
N9145 X-18.826 Y-112.892
N9150 X-18.583 Y-113.091 F#103
N9155 G3 X-13.618 Y-114.858 I4.864 J5.806 F#100
N9160 X-6.647 Y-113.653 I1.331 J13.07
N9165 X-5.53 Y-112.493 I-35.195 J35.026
N9170 G1 X-5.512 Y-112.462 F#104
N9175 X-5.506 Y-112.426
N9180 X-5.606 Y-112.326
N9185 X-5.706 Y-112.331
N9190 X-17.796 Y-112.852 F#105
N9195 X-18.057 Y-113.046
N9200 X-18.108 Y-113.238
N9205 X-18.112 Y-113.251 F#103
N9210 X-18. Y-113.531
N9215 G3 X-14.427 Y-115.178 I3.795 J3.533 F#100
N9220 X-7.268 Y-114.381 I2.199 J12.798
N9225 X-6.139 Y-113.145 I-3.464 J4.293
N9230 X-6.219 Y-112.988 I-0.083 J0.056 F#104
N9235 G1 X-6.248 Y-113. Z-4.094
N9240 X-6.274 Y-113.01 Z-4.079
N9245 X-6.294 Y-113.019 Z-4.056
N9250 X-6.302 Y-113.028 Z-4.029
N9255 X-6.304 Y-113.032 Z-4.
N9260 G0 Z-3.9
N9265 X-17.657 Y-113.583
N9270 G1 Z-4. F#103
N9275 X-17.658 Y-113.591 Z-4.038
N9280 Y-113.613 Z-4.071
N9285 X-17.66 Y-113.645 Z-4.092
N9290 X-17.661 Y-113.683 Z-4.1
N9295 G3 X-17.551 Y-113.978 I0.409 J-0.015
N9300 X-13.772 Y-115.68 I3.866 J3.538 F#100
N9305 X-7.578 Y-114.938 I1.674 J12.261
N9310 X-6.568 Y-113.796 I-1.818 J2.625
N9315 X-6.674 Y-113.656 I-0.091 J0.041 F#104
N9320 G1 X-6.7 Y-113.672 Z-4.094
N9325 X-6.724 Y-113.687 Z-4.079
N9330 X-6.742 Y-113.699 Z-4.056
N9335 X-6.748 Y-113.71 Z-4.029
N9340 X-6.75 Y-113.714 Z-4.
N9345 G0 Z-3.9
N9350 X-17.124 Y-114.078
N9355 G1 Z-4. F#103
N9360 X-17.125 Y-114.085 Z-4.038
N9365 X-17.127 Y-114.107 Z-4.071
N9370 X-17.131 Y-114.139 Z-4.092
N9375 X-17.136 Y-114.177 Z-4.1
N9380 G3 X-17.05 Y-114.479 I0.407 J-0.048
N9385 X-14.037 Y-116.01 I3.149 J2.467 F#100
N9390 X-7.815 Y-115.439 I2.143 J10.828
N9395 X-6.568 Y-113.796 I-2.081 J2.875
N9400 X-6.667 Y-113.655 I-0.091 J0.041 F#104
N9405 G1 X-6.773 Y-113.663
N9410 X-16.732 Y-114.446 F#105
N9415 G3 X-16.823 Y-114.528 I0.008 J-0.1
N9420 G1 X-16.824 Y-114.536
N9425 G3 X-16.756 Y-114.835 I0.404 J-0.064 F#103
N9430 X-14.325 Y-116.364 I2.882 J1.884 F#100
N9435 X-8.416 Y-116.089 I2.453 J10.924
N9440 X-6.831 Y-114.295 I-1.295 J2.741
N9445 G1 X-6.821 Y-114.267 F#104
N9450 Y-114.237
N9455 X-6.832 Y-114.207
N9460 X-6.852 Y-114.182
N9465 X-6.881 Y-114.165
N9470 X-6.914 Y-114.159
N9475 X-7.023 Y-114.166
N9480 X-16.497 Y-114.742 F#105
N9485 G3 X-16.585 Y-114.808 I0.006 J-0.1
N9490 G1 X-16.587 Y-114.816
N9495 G3 X-16.569 Y-115.122 I0.388 J-0.13 F#103
N9500 X-14.506 Y-116.664 I2.678 J1.431 F#100
N9505 X-8.629 Y-116.563 I2.771 J9.739
N9510 X-7.173 Y-115.041 I-1.105 J2.515
N9515 X-7.269 Y-114.909 I-0.095 J0.032 F#104
N9520 G1 X-7.392 Y-114.911
N9525 X-16.342 Y-115.031 F#105
N9530 G3 X-16.435 Y-115.097 I0.001 J-0.1
N9535 G1 X-16.437 Y-115.105
N9540 G3 X-16.419 Y-115.411 I0.388 J-0.13 F#103
N9545 X-14.115 Y-117.126 I2.842 J1.412 F#100
N9550 X-8.722 Y-116.987 I2.466 J9.001
N9555 X-7.182 Y-115.04 I-1.198 J2.53
N9560 G1 X-7.175 Y-115.003 F#104
N9565 X-7.183 Y-114.967
N9570 X-7.205 Y-114.936
N9575 X-7.237 Y-114.915
N9580 X-7.276 Y-114.909
N9585 X-7.391 Y-114.919
N9590 X-16.007 Y-115.66 F#105
N9595 X-16.129 Y-115.671 F#103
N9600 G3 X-16.211 Y-115.813 I0.009 J-0.1
N9605 X-13.786 Y-117.569 I2.948 J1.519 F#100
N9610 X-8.859 Y-117.415 I2.209 J8.248
N9615 X-7.323 Y-115.516 I-1.18 J2.525
N9620 G1 X-7.324 Y-115.479 F#104
N9625 X-7.338 Y-115.445
N9630 X-7.363 Y-115.418
N9635 X-7.396 Y-115.402
N9640 X-7.432 Y-115.398
N9645 X-7.563 Y-115.408
N9650 X-15.821 Y-116.026 F#105
N9655 X-15.942 Y-116.035 F#103
N9660 G3 X-16.025 Y-116.177 I0.007 J-0.1
N9665 X-13.867 Y-117.895 I2.754 J1.246 F#100
N9670 X-8.869 Y-117.79 I2.343 J7.456
N9675 X-7.374 Y-115.776 I-1.274 J2.507
N9680 G1 X-7.377 Y-115.74 F#104
N9685 X-7.392 Y-115.707
N9690 X-7.418 Y-115.681
N9695 X-7.45 Y-115.666
N9700 X-7.486 Y-115.664
N9705 X-7.621 Y-115.676
N9710 X-15.643 Y-116.381 F#105
N9715 X-15.773 Y-116.392 F#103
N9720 G3 X-15.858 Y-116.527 I0.009 J-0.1
N9725 X-13.857 Y-118.242 I2.609 J1.018 F#100
N9730 X-8.842 Y-118.14 I2.37 J6.814
N9735 X-7.383 Y-115.775 I-1.422 J2.509
N9740 G1 X-7.384 Y-115.741 F#104
N9745 X-7.397 Y-115.709
N9750 X-7.421 Y-115.683
N9755 X-7.454 Y-115.667
N9760 X-7.489 Y-115.664
N9765 X-7.621 Y-115.68
N9770 X-15.524 Y-116.666 F#105
N9775 X-15.667 Y-116.684 F#103
N9780 G3 X-15.751 Y-116.809 I0.012 J-0.099
N9785 X-14.059 Y-118.503 I2.411 J0.716 F#100
N9790 X-8.911 Y-118.535 I2.614 J6.326
N9795 X-7.446 Y-116.166 I-1.4 J2.503
N9800 G1 X-7.447 Y-116.131 F#104
N9805 X-7.459 Y-116.099
N9810 X-7.483 Y-116.074
N9815 X-7.515 Y-116.058
N9820 X-7.55 Y-116.054
N9825 X-7.683 Y-116.069
N9830 X-15.451 Y-116.915 F#105
N9835 X-15.6 Y-116.931 F#103
N9840 G3 X-15.687 Y-117.049 I0.011 J-0.099
N9845 X-14.182 Y-118.76 I2.206 J0.423 F#100
N9850 X-8.945 Y-118.904 I2.777 J5.709
N9855 X-7.506 Y-116.545 I-1.397 J2.47
N9860 G1 X-7.507 Y-116.511 F#104
N9865 X-7.519 Y-116.48
N9870 X-7.542 Y-116.454
N9875 X-7.573 Y-116.438
N9880 X-7.609 Y-116.434
N9885 X-7.743 Y-116.447
N9890 X-15.389 Y-117.217 F#105
N9895 X-15.541 Y-117.232 F#103
N9900 G3 X-15.63 Y-117.346 I0.01 J-0.099
N9905 X-13.884 Y-119.206 I2.275 J0.386 F#100
N9910 X-8.939 Y-119.255 I2.525 J5.33
N9915 X-7.566 Y-117.075 I-1.365 J2.383
N9920 G1 X-7.571 Y-117.041 F#104
N9925 X-7.587 Y-117.011
N9930 X-7.611 Y-116.988
N9935 X-7.642 Y-116.975
N9940 X-7.675 Y-116.972
N9945 X-7.822 Y-116.983
N9950 X-15.333 Y-117.532 F#105
N9955 X-15.484 Y-117.543 F#103
N9960 G3 X-15.575 Y-117.655 I0.007 J-0.1
N9965 X-13.844 Y-119.563 I2.289 J0.338 F#100
N9970 X-8.889 Y-119.585 I2.5 J5.121
N9975 X-7.574 Y-117.075 I-1.494 J2.383
N9980 G1 X-7.578 Y-117.043 F#104
N9985 X-7.592 Y-117.013
N9990 X-7.615 Y-116.99
N9995 X-7.646 Y-116.975
N10000 X-7.68 Y-116.972
N10005 X-7.821 Y-116.989
N10010 X-15.278 Y-117.864 F#105
N10015 X-15.433 Y-117.882 F#103
N10020 G3 X-15.521 Y-117.994 I0.012 J-0.099
N10025 X-13.837 Y-119.923 I2.366 J0.365 F#100
N10030 X-8.591 Y-119.774 I2.482 J5.017
N10035 X-7.599 Y-117.661 I-1.936 J2.198
N10040 X-7.707 Y-117.564 I-0.1 J-0.003 F#104
N10045 G1 X-7.858 Y-117.576
N10050 X-15.228 Y-118.182 F#105
N10055 X-15.382 Y-118.195 F#103
N10060 G3 X-15.473 Y-118.305 I0.008 J-0.1
N10065 X-13.842 Y-120.26 I2.33 J0.286 F#100
N10070 X-8.563 Y-120.108 I2.501 J4.877
N10075 X-7.599 Y-117.661 I-1.986 J2.195
N10080 X-7.711 Y-117.564 I-0.1 J-0.003 F#104
N10085 G1 X-7.858 Y-117.582
N10090 X-15.19 Y-118.482 F#105
N10095 X-15.351 Y-118.501 F#103
N10100 G3 X-15.438 Y-118.608 I0.012 J-0.099
N10105 X-13.81 Y-120.599 I2.252 J0.18 F#100
N10110 X-8.574 Y-120.462 I2.498 J4.678
N10115 X-7.6 Y-117.995 I-1.942 J2.192
N10120 X-7.712 Y-117.899 I-0.1 J-0.003 F#104
N10125 G1 X-7.859 Y-117.917
N10130 X-15.153 Y-118.829 F#105
N10135 X-15.316 Y-118.85 F#103
N10140 G3 X-15.403 Y-118.955 I0.012 J-0.099
N10145 X-13.894 Y-120.896 I2.142 J0.108 F#100
N10150 X-8.571 Y-120.816 I2.593 J4.567
N10155 G1 X-8.42 Y-120.669
N10160 X-8.279 Y-120.511
N10165 X-8.15 Y-120.345
N10170 X-8.033 Y-120.169
N10175 X-7.929 Y-119.985
N10180 X-7.838 Y-119.795
N10185 X-7.761 Y-119.599
N10190 X-7.697 Y-119.397
N10195 X-7.649 Y-119.192
N10200 X-7.614 Y-118.984
N10205 X-7.595 Y-118.773
N10210 X-7.591 Y-118.562
N10215 X-7.602 Y-118.352
N10220 X-7.608 Y-118.32 F#104
N10225 X-7.624 Y-118.292
N10230 X-7.648 Y-118.27
N10235 X-7.678 Y-118.258
N10240 X-7.711 Y-118.256
N10245 X-7.86 Y-118.272
N10250 X-15.141 Y-119.073 F#105
N10255 X-15.311 Y-119.092 F#103
N10260 G3 X-15.4 Y-119.188 I0.011 J-0.099
N10265 X-13.915 Y-121.226 I2.141 J0.001 F#100
N10270 X-8.597 Y-121.188 I2.628 J4.507
N10275 G1 X-8.441 Y-121.042
N10280 X-8.297 Y-120.885
N10285 X-8.165 Y-120.718
N10290 X-8.045 Y-120.542
N10295 X-7.938 Y-120.357
N10300 X-7.844 Y-120.166
N10305 X-7.765 Y-119.968
N10310 X-7.7 Y-119.765
N10315 X-7.65 Y-119.558
N10320 X-7.615 Y-119.347
N10325 X-7.595 Y-119.135
N10330 X-7.591 Y-118.922
N10335 X-7.602 Y-118.709
N10340 X-7.608 Y-118.677 F#104
N10345 X-7.624 Y-118.649
N10350 X-7.648 Y-118.628
N10355 X-7.678 Y-118.615
N10360 X-7.71 Y-118.613
N10365 X-7.86 Y-118.628
N10370 X-15.141 Y-119.384 F#105
N10375 X-15.311 Y-119.402 F#103
N10380 G3 X-15.4 Y-119.498 I0.01 J-0.099
N10385 X-13.812 Y-121.621 I2.228 J0.011 F#100
N10390 X-8.558 Y-121.516 I2.539 J4.48
N10395 G1 X-8.408 Y-121.369
N10400 X-8.269 Y-121.212
N10405 X-8.142 Y-121.046
N10410 X-8.026 Y-120.871
N10415 X-7.923 Y-120.689
N10420 X-7.834 Y-120.499
N10425 X-7.757 Y-120.304
N10430 X-7.695 Y-120.104
N10435 X-7.647 Y-119.9
N10440 X-7.614 Y-119.693
N10445 X-7.595 Y-119.484
N10450 X-7.591 Y-119.274
N10455 X-7.602 Y-119.065
N10460 X-7.608 Y-119.034 F#104
N10465 X-7.623 Y-119.006
N10470 X-7.647 Y-118.984
N10475 X-7.677 Y-118.971
N10480 X-7.71 Y-118.969
N10485 X-7.86 Y-118.984
N10490 X-15.14 Y-119.69 F#105
N10495 X-15.31 Y-119.706 F#103
N10500 G3 X-15.4 Y-119.802 I0.01 J-0.1
N10505 X-13.809 Y-121.968 I2.245 J-0.018 F#100
N10510 X-8.56 Y-121.874 I2.546 J4.454
N10515 G1 X-8.41 Y-121.728
N10520 X-8.271 Y-121.571
N10525 X-8.143 Y-121.404
N10530 X-8.027 Y-121.23
N10535 X-7.924 Y-121.047
N10540 X-7.834 Y-120.857
N10545 X-7.758 Y-120.662
N10550 X-7.695 Y-120.462
N10555 X-7.647 Y-120.258
N10560 X-7.614 Y-120.05
N10565 X-7.595 Y-119.842
N10570 X-7.591 Y-119.632
N10575 X-7.602 Y-119.422
N10580 X-7.608 Y-119.391 F#104
N10585 X-7.623 Y-119.363
N10590 X-7.647 Y-119.341
N10595 X-7.677 Y-119.329
N10600 X-7.709 Y-119.326
N10605 X-7.86 Y-119.34
N10610 X-15.14 Y-120.035 F#105
N10615 X-15.31 Y-120.052 F#103
N10620 G3 X-15.4 Y-120.148 I0.01 J-0.1
N10625 X-13.819 Y-122.31 I2.257 J-0.009 F#100
N10630 X-8.57 Y-122.238 I2.564 J4.439
N10635 G1 X-8.419 Y-122.091
N10640 X-8.278 Y-121.934
N10645 X-8.149 Y-121.768
N10650 X-8.032 Y-121.593
N10655 X-7.928 Y-121.41
N10660 X-7.837 Y-121.22
N10665 X-7.76 Y-121.024
N10670 X-7.697 Y-120.823
N10675 X-7.648 Y-120.618
N10680 X-7.614 Y-120.41
N10685 X-7.595 Y-120.2
N10690 X-7.591 Y-119.989
N10695 X-7.602 Y-119.779
N10700 X-7.608 Y-119.748 F#104
N10705 X-7.623 Y-119.72
N10710 X-7.647 Y-119.698
N10715 X-7.677 Y-119.685
N10720 X-7.709 Y-119.683
N10725 X-7.86 Y-119.697
N10730 X-15.14 Y-120.367 F#105
N10735 X-15.309 Y-120.383 F#103
N10740 G3 X-15.4 Y-120.479 I0.009 J-0.1
N10745 X-13.82 Y-122.656 I2.257 J-0.024 F#100
N10750 X-8.575 Y-122.596 I2.573 J4.417
N10755 G1 X-8.423 Y-122.45
N10760 X-8.282 Y-122.293
N10765 X-8.152 Y-122.126
N10770 X-8.034 Y-121.951
N10775 X-7.93 Y-121.768
N10780 X-7.838 Y-121.578
N10785 X-7.761 Y-121.381
N10790 X-7.697 Y-121.18
N10795 X-7.648 Y-120.975
N10800 X-7.614 Y-120.767
N10805 X-7.595 Y-120.556
N10810 X-7.591 Y-120.345
N10815 X-7.602 Y-120.135
N10820 X-7.608 Y-120.103 F#104
N10825 X-7.623 Y-120.075
N10830 X-7.647 Y-120.054
N10835 X-7.677 Y-120.041
N10840 X-7.709 Y-120.038
N10845 X-7.86 Y-120.052
N10850 X-15.137 Y-120.718 F#105
N10855 X-15.309 Y-120.733 F#103
N10860 G3 X-15.4 Y-120.826 I0.009 J-0.1
N10865 X-14.024 Y-122.893 I2.118 J-0.082 F#100
N10870 X-8.546 Y-122.934 I2.771 J4.337
N10875 X-7.6 Y-120.49 I-1.978 J2.171
N10880 X-7.708 Y-120.393 I-0.1 J-0.003 F#104
N10885 G1 X-7.86 Y-120.406
N10890 X-15.144 Y-120.991 F#105
N10895 X-15.321 Y-121.006 F#103
N10900 G3 X-15.412 Y-121.093 I0.008 J-0.1
N10905 X-14.088 Y-123.204 I2.085 J-0.163 F#100
N10910 X-8.578 Y-123.311 I2.84 J4.306
N10915 G1 X-8.425 Y-123.164
N10920 X-8.284 Y-123.007
N10925 X-8.154 Y-122.84
N10930 X-8.036 Y-122.665
N10935 X-7.932 Y-122.481
N10940 X-7.84 Y-122.291
N10945 X-7.762 Y-122.094
N10950 X-7.698 Y-121.893
N10955 X-7.649 Y-121.687
N10960 X-7.615 Y-121.479
N10965 X-7.595 Y-121.268
N10970 X-7.591 Y-121.057
N10975 X-7.602 Y-120.846
N10980 X-7.607 Y-120.815 F#104
N10985 X-7.623 Y-120.787
N10990 X-7.646 Y-120.765
N10995 X-7.675 Y-120.752
N11000 X-7.707 Y-120.749
N11005 X-7.86 Y-120.76
N11010 X-15.169 Y-121.276 F#105
N11015 X-15.344 Y-121.288 F#103
N11020 G3 X-15.437 Y-121.376 I0.007 J-0.1
N11025 X-14.144 Y-123.518 I2.05 J-0.224 F#100
N11030 X-8.609 Y-123.685 I2.899 J4.268
N11035 G1 X-8.452 Y-123.539
N11040 X-8.306 Y-123.382
N11045 X-8.172 Y-123.215
N11050 X-8.051 Y-123.039
N11055 X-7.942 Y-122.854
N11060 X-7.848 Y-122.662
N11065 X-7.768 Y-122.464
N11070 X-7.702 Y-122.26
N11075 X-7.651 Y-122.052
N11080 X-7.616 Y-121.841
N11085 X-7.596 Y-121.628
N11090 X-7.591 Y-121.414
N11095 X-7.602 Y-121.2
N11100 X-7.611 Y-121.162 F#104
N11105 X-7.633 Y-121.13
N11110 X-7.667 Y-121.109
N11115 X-7.706 Y-121.103
N11120 X-7.86 Y-121.113
N11125 X-15.195 Y-121.587 F#105
N11130 X-15.377 Y-121.598 F#103
N11135 G3 X-15.469 Y-121.679 I0.006 J-0.1
N11140 X-14.604 Y-123.597 I1.967 J-0.267 F#100
N11145 X-8.924 Y-124.231 I3.352 J4.273
N11150 X-7.606 Y-121.554 I-1.461 J2.382
N11155 G1 X-7.613 Y-121.517 F#104
N11160 X-7.634 Y-121.485
N11165 X-7.667 Y-121.464
N11170 X-7.705 Y-121.457
N11175 X-7.86 Y-121.465
N11180 X-15.238 Y-121.864 F#105
N11185 X-15.42 Y-121.874 F#103
N11190 G3 X-15.513 Y-121.955 I0.005 J-0.1
N11195 X-14.693 Y-123.884 I1.963 J-0.304 F#100
N11200 X-8.893 Y-124.571 I3.441 J4.22
N11205 X-7.605 Y-121.908 I-1.516 J2.376
N11210 G1 X-7.612 Y-121.871 F#104
N11215 X-7.634 Y-121.839
N11220 X-7.666 Y-121.818
N11225 X-7.704 Y-121.811
N11230 X-7.86 Y-121.817
N11235 X-15.28 Y-122.13 F#105
N11240 X-15.46 Y-122.137 F#103
N11245 G3 X-15.554 Y-122.218 I0.004 J-0.1
N11250 X-14.753 Y-124.199 I1.975 J-0.354 F#100
N11255 X-8.91 Y-124.933 I3.495 J4.2
N11260 X-7.603 Y-122.259 I-1.45 J2.365
N11265 G1 X-7.612 Y-122.223 F#104
N11270 X-7.634 Y-122.193
N11275 X-7.666 Y-122.172
N11280 X-7.703 Y-122.166
N11285 X-7.863 Y-122.171
N11290 X-15.331 Y-122.44 F#105
N11295 X-15.512 Y-122.446 F#103
N11300 G3 X-15.606 Y-122.526 I0.004 J-0.1
N11305 X-14.722 Y-124.597 I2.102 J-0.327 F#100
N11310 X-8.751 Y-125.206 I3.453 J4.277
N11315 X-7.597 Y-122.497 I-1.656 J2.307
N11320 G1 X-7.605 Y-122.461 F#104
N11325 X-7.627 Y-122.431
N11330 X-7.659 Y-122.411
N11335 X-7.697 Y-122.404
N11340 X-7.857 Y-122.411
N11345 X-15.379 Y-122.722 F#105
N11350 X-15.56 Y-122.729 F#103
N11355 G3 X-15.654 Y-122.809 I0.004 J-0.1
N11360 G1 X-15.685 Y-122.972 F#100
N11365 X-15.702 Y-123.137
N11370 X-15.704 Y-123.303
N11375 X-15.692 Y-123.468
N11380 X-15.665 Y-123.632
N11385 X-15.623 Y-123.793
N11390 X-15.568 Y-123.949
N11395 X-15.499 Y-124.1
N11400 X-15.417 Y-124.244
N11405 X-15.322 Y-124.38
N11410 X-15.216 Y-124.508
N11415 X-15.1 Y-124.625
N11420 X-14.973 Y-124.732
N11425 X-14.837 Y-124.827
N11430 G3 X-8.478 Y-125.378 I3.547 J3.97
N11435 X-7.566 Y-122.981 I-1.779 J2.048
N11440 G1 X-7.578 Y-122.945 F#104
N11445 X-7.602 Y-122.916
N11450 X-7.635 Y-122.897
N11455 X-7.671 Y-122.892
N11460 X-7.837 Y-122.893
N11465 X-15.425 Y-122.963 F#105
N11470 X-15.611 Y-122.965 F#103
N11475 G3 X-15.706 Y-123.037 I0.001 J-0.1
N11480 X-14.877 Y-125.16 I1.784 J-0.527 F#100
N11485 X-8.497 Y-125.76 I3.594 J3.994
N11490 X-7.574 Y-122.983 I-1.753 J2.125
N11495 G1 X-7.585 Y-122.95 F#104
N11500 X-7.607 Y-122.924
N11505 X-7.638 Y-122.906
N11510 X-7.673 Y-122.9
N11515 X-7.845 Y-122.907
N11520 X-15.479 Y-123.178 F#105
N11525 X-15.679 Y-123.185 F#103
N11530 G3 X-15.768 Y-123.246 I0.004 J-0.1
N11535 X-15.439 Y-125.012 I1.529 J-0.629 F#100
N11540 X-8.463 Y-126.11 I4.142 J3.611
N11545 X-7.529 Y-123.281 I-1.767 J2.152
N11550 G1 X-7.54 Y-123.249 F#104
N11555 X-7.562 Y-123.222
N11560 X-7.592 Y-123.205
N11565 X-7.627 Y-123.199
N11570 X-7.799 Y-123.204
N11575 X-15.567 Y-123.429 F#105
N11580 X-15.776 Y-123.435 F#103
N11585 G3 X-15.861 Y-123.488 I0.003 J-0.1
N11590 X-15.603 Y-125.221 I1.461 J-0.668 F#100
N11595 G1 X-15.411 Y-125.442
N11600 X-15.209 Y-125.654
N11605 X-14.995 Y-125.854
N11610 X-14.772 Y-126.043
N11615 X-14.538 Y-126.22
N11620 X-14.296 Y-126.384
N11625 X-14.045 Y-126.535
N11630 X-13.787 Y-126.673
N11635 X-13.522 Y-126.797
N11640 X-13.25 Y-126.906
N11645 X-12.973 Y-127.002
N11650 X-12.692 Y-127.082
N11655 X-12.406 Y-127.148
N11660 X-12.118 Y-127.198
N11665 X-11.827 Y-127.234
N11670 X-11.535 Y-127.253
N11675 X-11.243 Y-127.258
N11680 X-10.95 Y-127.247
N11685 X-10.658 Y-127.22
N11690 X-10.369 Y-127.178
N11695 X-10.082 Y-127.121
N11700 X-9.798 Y-127.049
N11705 X-9.518 Y-126.962
N11710 X-9.244 Y-126.861
N11715 X-8.975 Y-126.745
N11720 X-8.712 Y-126.615
N11725 X-8.457 Y-126.471
N11730 G3 X-7.481 Y-123.603 I-1.717 J2.185
N11735 G1 X-7.492 Y-123.571 F#104
N11740 X-7.513 Y-123.545
N11745 X-7.542 Y-123.527
N11750 X-7.576 Y-123.52
N11755 X-7.751 Y-123.523
N11760 X-15.661 Y-123.625 F#105
N11765 X-15.869 Y-123.627 F#103
N11770 G3 X-15.955 Y-123.679 I0.001 J-0.1
N11775 X-15.67 Y-125.573 I1.593 J-0.728 F#100
N11780 X-8.321 Y-126.761 I4.355 J3.616
N11785 X-7.432 Y-123.914 I-1.855 J2.141
N11790 G1 X-7.443 Y-123.883 F#104
N11795 X-7.464 Y-123.856
N11800 X-7.493 Y-123.839
N11805 X-7.527 Y-123.832
N11810 X-7.703
N11815 X-15.769 Y-123.845 F#105
N11820 X-15.976 F#103
N11825 G3 X-16.064 Y-123.897 I0. J-0.1
N11830 X-15.817 Y-125.821 I1.606 J-0.772 F#100
N11835 X-8.155 Y-127.024 I4.487 J3.579
N11840 X-7.338 Y-124.432 I-1.872 J2.015
N11845 X-7.432 Y-124.357 I-0.097 J-0.025 F#104
N11850 G1 X-7.618 Y-124.352
N11855 X-15.89 Y-124.091 F#105
N11860 X-16.094 Y-124.084 F#103
N11865 G3 X-16.185 Y-124.136 I-0.003 J-0.1
N11870 X-15.892 Y-126.182 I1.672 J-0.805 F#100
N11875 X-7.994 Y-127.294 I4.548 J3.697
N11880 X-7.293 Y-124.606 I-1.968 J1.949
N11885 X-7.385 Y-124.537 I-0.095 J-0.031 F#104
N11890 G1 X-7.577 Y-124.532
N11895 X-16.005 Y-124.316 F#105
N11900 X-16.21 Y-124.31 F#103
N11905 G3 X-16.3 Y-124.362 I-0.003 J-0.1
N11910 X-16.041 Y-126.444 I1.687 J-0.847 F#100
N11915 X-7.917 Y-127.629 I4.689 J3.707
N11920 G1 X-7.778 Y-127.479
N11925 X-7.65 Y-127.319
N11930 X-7.534 Y-127.15
N11935 X-7.43 Y-126.973
N11940 X-7.34 Y-126.788
N11945 X-7.263 Y-126.598
N11950 X-7.2 Y-126.403
N11955 X-7.152 Y-126.204
N11960 X-7.118 Y-126.001
N11965 X-7.099 Y-125.797
N11970 X-7.095 Y-125.592
N11975 X-7.106 Y-125.387
N11980 X-7.132 Y-125.184
N11985 X-7.172 Y-124.983
N11990 X-7.227 Y-124.785
N11995 X-7.245 Y-124.759 F#104
N12000 X-7.269 Y-124.739
N12005 X-7.297 Y-124.727
N12010 X-7.327 Y-124.724
N12015 X-7.523 Y-124.721
N12020 X-16.135 Y-124.569 F#105
N12025 X-16.341 Y-124.565 F#103
N12030 G3 X-16.43 Y-124.616 I-0.002 J-0.1
N12035 X-16.127 Y-126.803 I1.73 J-0.874 F#100
N12040 X-7.855 Y-127.984 I4.77 J3.85
N12045 G1 X-7.711 Y-127.839
N12050 X-7.577 Y-127.684
N12055 X-7.456 Y-127.519
N12060 X-7.347 Y-127.346
N12065 X-7.251 Y-127.165
N12070 X-7.168 Y-126.978
N12075 X-7.1 Y-126.785
N12080 X-7.046 Y-126.587
N12085 X-7.007 Y-126.386
N12090 X-6.983 Y-126.183
N12095 X-6.974 Y-125.978
N12100 X-6.98 Y-125.773
N12105 X-7.002 Y-125.57
N12110 X-7.038 Y-125.368
N12115 X-7.089 Y-125.17
N12120 X-7.155 Y-124.976
N12125 X-7.235 Y-124.787
N12130 X-7.25 Y-124.761 F#104
N12135 X-7.272 Y-124.741
N12140 X-7.299 Y-124.728
N12145 X-7.329 Y-124.724
N12150 X-7.523 Y-124.726
N12155 X-16.254 Y-124.792 F#105
N12160 X-16.466 Y-124.794 F#103
N12165 G3 X-16.551 Y-124.843 I0.001 J-0.1
N12170 X-16.327 Y-127.005 I1.656 J-0.921 F#100
N12175 X-7.696 Y-128.264 I4.96 J3.789
N12180 X-7.076 Y-125.144 I-1.927 J2.005
N12185 G1 X-7.103 Y-125.115 F#104
N12190 X-7.137 Y-125.098
N12195 X-7.174 Y-125.094
N12200 X-7.38 Y-125.092
N12205 X-16.368 Y-124.992 F#105
N12210 X-16.584 Y-124.989 F#103
N12215 G3 X-16.668 Y-125.033 I-0.001 J-0.1
N12220 X-16.424 Y-127.283 I1.495 J-0.976 F#100
N12225 X-11.675 Y-129.763 I4.693 J3.199
N12230 X-7.223 Y-128.187 I0.653 J5.232
N12235 X-7.092 Y-125.152 I-2.206 J1.616
N12240 G1 X-7.111 Y-125.123 F#104
N12245 X-7.14 Y-125.103
N12250 X-7.176 Y-125.094
N12255 X-7.38 Y-125.096
N12260 X-16.488 Y-125.178 F#105
N12265 X-16.717 Y-125.18 F#103
N12270 G3 X-16.792 Y-125.215 I0.001 J-0.1
N12275 X-16.888 Y-127.104 I1.295 J-1.013 F#100
N12280 X-10.91 Y-130.132 I5.267 J2.983
N12285 X-6.976 Y-128.348 I0.108 J4.992
N12290 X-6.962 Y-125.418 I-2.292 J1.476
N12295 G1 X-6.982 Y-125.39 F#104
N12300 X-7.011 Y-125.371
N12305 X-7.045 Y-125.363
N12310 X-7.252 Y-125.362
N12315 X-16.627 Y-125.355 F#105
N12320 X-16.858 Y-125.354 F#103
N12325 G3 X-16.932 Y-125.387 I0. J-0.1
N12330 X-17.11 Y-127.248 I1.217 J-1.055 F#100
N12335 X-11.826 Y-130.503 I5.293 J2.676
N12340 X-6.898 Y-128.767 I0.792 J5.614
N12345 X-6.804 Y-125.73 I-2.333 J1.592
N12350 G1 X-6.825 Y-125.703 F#104
N12355 X-6.855 Y-125.684
N12360 X-6.889 Y-125.677
N12365 X-7.097 Y-125.673
N12370 X-16.762 Y-125.511 F#105
N12375 X-16.999 Y-125.507 F#103
N12380 G3 X-17.069 Y-125.535 I-0.002 J-0.1
N12385 X-17.368 Y-127.286 I1.141 J-1.096 F#100
N12390 X-12.726 Y-130.768 I5.279 J2.202
N12395 X-6.784 Y-129.139 I1.545 J6.016
N12400 G1 X-6.667 Y-128.966
N12405 X-6.563 Y-128.785
N12410 X-6.473 Y-128.596
N12415 X-6.397 Y-128.401
N12420 X-6.336 Y-128.201
N12425 X-6.29 Y-127.997
N12430 X-6.26 Y-127.79
N12435 X-6.245 Y-127.582
N12440 X-6.246 Y-127.373
N12445 X-6.262 Y-127.164
N12450 X-6.294 Y-126.958
N12455 X-6.342 Y-126.754
N12460 X-6.404 Y-126.555
N12465 X-6.481 Y-126.361
N12470 X-6.573 Y-126.173
N12475 X-6.678 Y-125.992
N12480 X-6.698 Y-125.965 F#104
N12485 X-6.726 Y-125.945
N12490 X-6.76 Y-125.937
N12495 X-6.969 Y-125.932
N12500 X-16.936 Y-125.69 F#105
N12505 X-17.171 Y-125.684 F#103
N12510 G3 X-17.243 Y-125.711 I-0.002 J-0.1
N12515 X-17.58 Y-127.456 I1.149 J-1.128 F#100
N12520 X-13.225 Y-131.049 I5.328 J2.024
N12525 X-6.674 Y-129.511 I1.981 J6.287
N12530 X-6.463 Y-126.392 I-2.159 J1.712
N12535 X-6.542 Y-126.347 I-0.083 J-0.055 F#104
N12540 G1 X-6.762 Y-126.337
N12545 X-17.106 Y-125.868 F#105
N12550 X-17.34 Y-125.857 F#103
N12555 G3 X-17.413 Y-125.884 I-0.005 J-0.1
N12560 X-17.754 Y-127.777 I1.273 J-1.207 F#100
N12565 X-13.052 Y-131.483 I5.558 J2.216
N12570 X-6.444 Y-129.741 I1.836 J6.441
N12575 G1 X-6.326 Y-129.566
N12580 X-6.221 Y-129.383
N12585 X-6.131 Y-129.193
N12590 X-6.054 Y-128.996
N12595 X-5.993 Y-128.794
N12600 X-5.947 Y-128.588
N12605 X-5.917 Y-128.379
N12610 X-5.902 Y-128.168
N12615 X-5.903 Y-127.957
N12620 X-5.92 Y-127.747
N12625 X-5.952 Y-127.538
N12630 X-6. Y-127.333
N12635 X-6.063 Y-127.131
N12640 X-6.141 Y-126.935
N12645 X-6.234 Y-126.745
N12650 X-6.34 Y-126.563
N12655 X-6.46 Y-126.389
N12660 X-6.483 Y-126.366 F#104
N12665 X-6.512 Y-126.352
N12670 X-6.544 Y-126.347
N12675 X-6.762 Y-126.341
N12680 X-17.284 Y-126.043 F#105
N12685 X-17.52 Y-126.036 F#103
N12690 G3 X-17.591 Y-126.062 I-0.003 J-0.1
N12695 X-17.932 Y-128.098 I1.323 J-1.267 F#100
N12700 X-13.09 Y-131.873 I5.738 J2.368
N12705 X-6.307 Y-130.089 I1.87 J6.678
N12710 X-6.352 Y-126.551 I-2.121 J1.743
N12715 G1 X-6.378 Y-126.531 F#104
N12720 X-6.407 Y-126.521
N12725 X-6.438 Y-126.519
N12730 X-6.662 Y-126.513
N12735 X-17.465 Y-126.222 F#105
N12740 X-17.701 Y-126.216 F#103
N12745 G3 X-17.772 Y-126.242 I-0.003 J-0.1
N12750 X-18.151 Y-128.305 I1.334 J-1.311 F#100
N12755 X-13.314 Y-132.22 I5.873 J2.311
N12760 X-6.129 Y-130.4 I2.074 J6.902
N12765 G1 X-6.006 Y-130.24
N12770 X-5.894 Y-130.072
N12775 X-5.795 Y-129.897
N12780 X-5.708 Y-129.714
N12785 X-5.635 Y-129.526
N12790 X-5.576 Y-129.333
N12795 X-5.531 Y-129.137
N12800 X-5.5 Y-128.937
N12805 X-5.484 Y-128.736
N12810 X-5.482 Y-128.535
N12815 X-5.495 Y-128.333
N12820 X-5.522 Y-128.133
N12825 X-5.564 Y-127.936
N12830 X-5.62 Y-127.742
N12835 X-5.689 Y-127.553
N12840 X-5.772 Y-127.369
N12845 X-5.869 Y-127.192
N12850 X-5.978 Y-127.022
N12855 X-6.098 Y-126.86
N12860 X-6.128 Y-126.847 F#104
N12865 X-6.158 Y-126.843
N12870 X-6.187 Y-126.847
N12875 X-6.425 Y-126.838
N12880 X-17.67 Y-126.428 F#105
N12885 X-17.905 Y-126.419 F#103
N12890 G3 X-17.977 Y-126.446 I-0.004 J-0.1
N12895 X-18.271 Y-128.688 I1.26 J-1.306 F#100
N12900 X-14.376 Y-132.299 I5.533 J2.062
N12905 X-6.084 Y-130.875 I3.048 J7.11
N12910 X-5.645 Y-127.397 I-2.213 J2.046
N12915 G1 X-5.934 Y-127.079
N12920 X-6.119 Y-126.877
N12925 G3 X-6.188 Y-126.847 I-0.071 J-0.07 F#104
N12930 G1 X-6.425 Y-126.841
N12935 X-17.824 Y-126.569 F#105
N12940 X-18.069 Y-126.563 F#103
N12945 G3 X-18.133 Y-126.585 I-0.002 J-0.1
N12950 X-18.65 Y-128.53 I1.159 J-1.35 F#100
N12955 X-14.307 Y-132.739 I5.98 J1.826
N12960 X-5.836 Y-131.124 I2.99 J7.34
N12965 X-5.257 Y-127.912 I-2.38 J2.088
N12970 X-5.934 Y-127.079 I-4.88 J-3.272
N12975 X-6.002 Y-127.049 I-0.071 J-0.07 F#104
N12980 G1 X-6.24 Y-127.042
N12985 X-17.982 Y-126.699 F#105
N12990 X-18.232 Y-126.692 F#103
N12995 G3 X-18.292 Y-126.71 I-0.003 J-0.1
N13000 G1 X-18.416 Y-126.802 F#100
N13005 X-18.53 Y-126.906
N13010 X-18.633 Y-127.021
N13015 X-18.724 Y-127.146
N13020 X-18.802 Y-127.279
N13025 X-18.866 Y-127.419
N13030 X-18.916 Y-127.565
N13035 X-18.951 Y-127.716
N13040 X-18.97 Y-127.869
N13045 X-18.974 Y-128.023
N13050 X-18.962 Y-128.177
N13055 X-18.935 Y-128.329
N13060 X-18.893 Y-128.477
N13065 G3 X-16.007 Y-132.355 I5.302 J0.933
N13070 X-5.886 Y-131.699 I4.62 J7.119
N13075 X-4.868 Y-128.554 I-2.509 J2.55
N13080 X-5.73 Y-127.298 I-3.322 J-1.358
N13085 X-5.797 Y-127.27 I-0.07 J-0.071 F#104
N13090 G1 X-6.037 Y-127.261
N13095 X-18.16 Y-126.829 F#105
N13100 X-18.416 Y-126.82 F#103
N13105 X-18.435 Y-126.821
N13110 X-18.454 Y-126.826
N13115 X-18.471 Y-126.834
N13120 G3 X-19.178 Y-128.579 I0.861 J-1.364 F#100
N13125 X-15.783 Y-132.934 I5.825 J1.04
N13130 X-5.737 Y-132.059 I4.405 J7.538
N13135 X-4.635 Y-128.783 I-2.534 J2.676
N13140 X-5.526 Y-127.512 I-3.477 J-1.492
N13145 X-5.591 Y-127.484 I-0.07 J-0.072 F#104
N13150 G1 X-5.832 Y-127.474
N13155 X-18.343 Y-126.951 F#105
N13160 X-18.608 Y-126.94 F#103
N13165 X-18.624 Y-126.941
N13170 X-18.64 Y-126.944
N13175 X-18.656 Y-126.95
N13180 G3 X-19.437 Y-128.515 I0.749 J-1.352 F#100
N13185 X-16.398 Y-133.016 I5.699 J0.571
N13190 X-5.577 Y-132.418 I5.012 J7.518
N13195 X-4.331 Y-129.426 I-2.658 J2.862
N13200 X-5.297 Y-127.752 I-2.766 J-0.481
N13205 X-5.361 Y-127.724 I-0.07 J-0.072 F#104
N13210 G1 X-5.603 Y-127.712
N13215 X-18.54 Y-127.056 F#105
N13220 X-18.805 Y-127.042 F#103
N13225 X-18.821 Y-127.043
N13230 X-18.837 Y-127.046
N13235 X-18.852 Y-127.052
N13240 G3 X-19.688 Y-128.605 I0.734 J-1.397 F#100
N13245 X-16.994 Y-133.081 I5.649 J0.352
N13250 X-5.406 Y-132.772 I5.599 J7.488
N13255 X-4.067 Y-130.256 I-3.284 J3.361
N13260 X-4.964 Y-128.073 I-2.604 J0.206
N13265 X-5.02 Y-128.051 I-0.063 J-0.078 F#104
N13270 G1 X-5.272 Y-128.035
N13275 X-18.746 Y-127.165 F#105
N13280 X-19.009 Y-127.149 F#103
N13285 X-19.026
N13290 X-19.042 Y-127.152
N13295 X-19.058 Y-127.158
N13300 G3 X-19.944 Y-128.718 I0.728 J-1.445 F#100
N13305 X-17.352 Y-133.295 I5.713 J0.213
N13310 X-5.205 Y-133.102 I5.955 J7.576
N13315 X-3.794 Y-130.249 I-3.163 J3.339
N13320 X-4.876 Y-128.144 I-2.604 J-0.007
N13325 X-4.925 Y-128.127 I-0.056 J-0.083 F#104
N13330 G1 X-5.186 Y-128.111
N13335 X-18.977 Y-127.284 F#105
N13340 X-19.241 Y-127.268 F#103
N13345 X-19.258
N13350 X-19.274 Y-127.271
N13355 X-19.29 Y-127.277
N13360 G3 X-20.21 Y-128.965 I0.834 J-1.55 F#100
N13365 X-17.323 Y-133.803 I6.043 J0.326
N13370 X-5.005 Y-133.438 I5.929 J7.952
N13375 X-3.524 Y-130.403 I-3.3 J3.488
N13380 X-4.881 Y-128.152 I-2.661 J-0.069
N13385 G1 X-4.901 Y-128.137 F#104
N13390 X-4.926 Y-128.127
N13395 X-5.186 Y-128.114
N13400 X-19.199 Y-127.395 F#105
N13405 X-19.464 Y-127.381 F#103
N13410 X-19.48
N13415 X-19.496 Y-127.384
N13420 X-19.511 Y-127.39
N13425 G3 X-20.481 Y-129.217 I0.859 J-1.626 F#100
N13430 X-17.484 Y-134.176 I6.295 J0.42
N13435 X-4.785 Y-133.762 I6.088 J8.212
N13440 X-3.237 Y-130.645 I-3.491 J3.678
N13445 X-4.512 Y-128.401 I-2.489 J0.069
N13450 X-4.559 Y-128.387 I-0.052 J-0.085 F#104
N13455 G1 X-4.823 Y-128.371
N13460 X-19.429 Y-127.513 F#105
N13465 X-19.693 Y-127.497 F#103
N13470 X-19.71 Y-127.498
N13475 X-19.726 Y-127.501
N13480 X-19.741 Y-127.506
N13485 G3 X-20.754 Y-129.306 I0.822 J-1.647 F#100
N13490 X-17.875 Y-134.377 I6.354 J0.254
N13495 X-4.57 Y-134.093 I6.478 J8.298
N13500 X-2.949 Y-130.924 I-3.777 J3.931
N13505 X-4.515 Y-128.407 I-2.624 J0.113
N13510 G1 X-4.533 Y-128.397 F#104
N13515 X-4.553 Y-128.39
N13520 X-4.824 Y-128.376
N13525 X-19.657 Y-127.624 F#105
N13530 G3 X-19.97 Y-127.617 I-0.168 J-0.537 F#103
N13535 X-21.014 Y-129.216 I0.653 J-1.567 F#100
N13540 X-18.708 Y-134.191 I6.075 J-0.206
N13545 X-6.954 Y-136.08 I7.316 J8.014
N13550 G1 X-6.653 Y-135.959
N13555 X-6.358 Y-135.823
N13560 X-6.069 Y-135.675
N13565 X-5.787 Y-135.513
N13570 X-5.513 Y-135.339
N13575 X-5.247 Y-135.153
N13580 X-4.99 Y-134.954
N13585 X-4.742 Y-134.744
N13590 X-4.504 Y-134.523
N13595 X-4.276 Y-134.291
N13600 X-4.06 Y-134.05
N13605 X-3.854 Y-133.798
N13610 X-3.66 Y-133.538
N13615 X-3.478 Y-133.268
N13620 X-3.309 Y-132.991
N13625 X-3.152 Y-132.707
N13630 X-3.009 Y-132.415
N13635 X-2.879 Y-132.118
N13640 X-2.762 Y-131.815
N13645 X-2.66 Y-131.506
N13650 X-2.638 Y-131.306
N13655 X-2.631 Y-131.104
N13660 X-2.637 Y-130.902
N13665 X-2.659 Y-130.701
N13670 X-2.694 Y-130.503
N13675 X-2.744 Y-130.307
N13680 X-2.807 Y-130.115
N13685 X-2.884 Y-129.928
N13690 X-2.974 Y-129.748
N13695 X-3.077 Y-129.574
N13700 X-3.191 Y-129.408
N13705 X-3.318 Y-129.25
N13710 X-3.455 Y-129.102
N13715 X-3.602 Y-128.964
N13720 X-3.759 Y-128.837
N13725 X-3.925 Y-128.722
N13730 X-4.098 Y-128.618
N13735 X-4.279 Y-128.527
N13740 X-4.299 Y-128.521 F#104
N13745 X-4.321 Y-128.52
N13750 X-4.592 Y-128.506
N13755 X-19.873 Y-127.714 F#105
N13760 X-20.146 Y-127.7 F#103
N13765 X-20.166 Y-127.701
N13770 X-20.186 Y-127.706
N13775 G3 X-21.283 Y-129.247 I0.559 J-1.56 F#100
N13780 X-19.162 Y-134.299 I6.055 J-0.429
N13785 X-8.358 Y-137.006 I7.707 J7.848
N13790 X-2.545 Y-132.378 I-1.735 J8.143
N13795 X-3.995 Y-128.672 I-2.747 J1.062
N13800 G1 X-4.019 Y-128.671 F#104
N13805 X-4.042 Y-128.675
N13810 X-4.314 Y-128.66
N13815 X-20.083 Y-127.788 F#105
N13820 X-20.366 Y-127.773 F#103
N13825 X-20.381
N13830 X-20.396 Y-127.776
N13835 X-20.54 Y-127.822 F#100
N13840 X-20.677 Y-127.882
N13845 X-20.808 Y-127.956
N13850 X-20.931 Y-128.042
N13855 X-21.045 Y-128.141
N13860 X-21.148 Y-128.25
N13865 X-21.24 Y-128.369
N13870 X-21.319 Y-128.497
N13875 X-21.385 Y-128.632
N13880 X-21.438 Y-128.772
N13885 X-21.476 Y-128.918
N13890 X-21.499 Y-129.066
N13895 X-21.507 Y-129.217
N13900 G3 X-20.166 Y-133.738 I5.311 J-0.885
N13905 X-11.908 Y-137.803 I8.287 J6.416
N13910 X-2.928 Y-133.933 I0.914 J10.233
N13915 X-2.096 Y-130.837 I-3.978 J2.728
N13920 X-3.744 Y-128.837 I-2.658 J-0.511
N13925 G1 X-3.76 Y-128.826 F#104
N13930 X-3.779 Y-128.819
N13935 X-4.053 Y-128.802
N13940 X-20.246 Y-127.834 F#105
N13945 X-20.559 Y-127.816 F#103
N13950 X-20.709 Y-127.852 F#100
N13955 X-20.853 Y-127.903
N13960 X-20.992 Y-127.969
N13965 X-21.123 Y-128.049
N13970 X-21.245 Y-128.142
N13975 X-21.357 Y-128.247
N13980 X-21.457 Y-128.363
N13985 X-21.545 Y-128.489
N13990 X-21.62 Y-128.623
N13995 X-21.68 Y-128.764
N14000 X-21.726 Y-128.911
N14005 X-21.756 Y-129.061
N14010 X-21.771 Y-129.214
N14015 G3 X-20.614 Y-133.775 I5.237 J-1.099
N14020 X-12.784 Y-138.161 I8.552 J6.086
N14025 X-2.822 Y-134.457 I1.672 J10.75
N14030 X-1.747 Y-131.366 I-4.531 J3.308
N14035 X-3.275 Y-129.083 I-2.577 J-0.073
N14040 G1 X-3.305 Y-129.076 F#104
N14045 X-3.587 Y-129.056
N14050 X-20.45 Y-127.878 F#105
N14055 X-20.764 Y-127.856 F#103
N14060 G3 X-22.037 Y-129.091 I0.268 J-1.55 F#100
N14065 X-20.739 Y-134.263 I5.613 J-1.34
N14070 X-13.232 Y-138.54 I8.615 J6.395
N14075 X-2.705 Y-134.951 I2.058 J11.198
N14080 X-1.429 Y-131.604 I-4.659 J3.692
N14085 X-3.051 Y-129.183 I-2.655 J-0.025
N14090 G1 X-3.364 Y-129.16 F#104
N14095 X-20.69 Y-127.921 F#105
N14100 X-21.004 Y-127.898 F#103
N14105 G3 X-22.353 Y-129.238 I0.328 J-1.679 F#100
N14110 X-21.034 Y-134.528 I5.841 J-1.353
N14115 X-12.97 Y-139.008 I8.951 J6.613
N14120 X-2.468 Y-135.287 I1.832 J11.507
N14125 X-1.113 Y-131.694 I-4.727 J3.835
N14130 X-2.915 Y-129.237 I-2.626 J-0.036
N14135 G1 X-2.94 Y-129.233 F#104
N14140 X-3.229 Y-129.24
N14145 G2 X-11.109 Y-129.098 I-2.254 J93.629 F#105
N14150 G1 X-13.1 Y-128.957
N14155 G2 X-20.921 Y-127.986 I7.618 J93.346
N14160 G1 X-21.207 Y-127.938 F#103
N14165 X-21.231 Y-127.937
N14170 G3 X-22.678 Y-129.394 I0.316 J-1.761 F#100
N14175 X-21.307 Y-134.826 I6.1 J-1.349
N14180 X-12.632 Y-139.479 I9.275 J6.879
N14185 X-2.056 Y-135.409 I1.552 J11.745
N14190 X-0.79 Y-131.761 I-4.902 J3.745
N14195 X-2.916 Y-129.242 I-2.542 J0.01
N14200 G1 X-2.933 Y-129.236 F#104
N14205 X-2.952 Y-129.234
N14210 X-3.224 Y-129.283
N14215 G2 X-6.163 Y-129.688 I-6.537 J36.591 F#105
N14220 G1 X-6.179 Y-129.689
N14225 X-18.306 Y-128.866
N14230 X-18.322 Y-128.864
N14235 G2 X-21.177 Y-128.067 I8.56 J36.171
N14240 G1 X-21.442 Y-127.98 F#103
N14245 G3 X-21.477 Y-127.976 I-0.025 J-0.076
N14250 X-22.968 Y-129.42 I0.296 J-1.798 F#100
N14255 X-21.721 Y-134.93 I6.134 J-1.508
N14260 X-13.427 Y-139.821 I9.526 J6.676
N14265 X-1.913 Y-135.889 I2.261 J12.202
N14270 X-0.457 Y-132.237 I-5.344 J4.247
N14275 X-2.661 Y-129.307 I-2.627 J0.318
N14280 G1 X-2.688 Y-129.314 F#104
N14285 X-2.975 Y-129.349
N14290 G2 X-7.091 Y-129.658 I-5.852 J50.292 F#105
N14295 G1 X-7.102
N14300 X-17.388 Y-128.958
N14305 X-17.398 Y-128.957
N14310 G2 X-21.439 Y-128.092 I8.572 J49.901
N14315 G1 X-21.715 Y-128.02 F#103
N14320 X-21.744 Y-128.018
N14325 G3 X-23.253 Y-129.417 I0.27 J-1.805 F#100
N14330 X-22.164 Y-134.983 I6.123 J-1.692
N14335 X-13.901 Y-140.183 I9.845 J6.479
N14340 X-1.809 Y-136.404 I2.698 J12.602
N14345 X-0.118 Y-132.401 I-5.534 J4.696
N14350 X-2.457 Y-129.353 I-2.688 J0.359
N14355 G1 X-2.483 Y-129.362 F#104
N14360 X-2.769 Y-129.405
N14365 G2 X-6.418 Y-129.782 I-6.481 J44.889 F#105
N14370 G1 X-6.431
N14375 X-18.107 Y-128.996
N14380 X-18.12 Y-128.994
N14385 G2 X-21.688 Y-128.131 I8.869 J44.479
N14390 G1 X-21.963 Y-128.052 F#103
N14395 X-21.991 Y-128.049
N14400 G3 X-23.492 Y-129.294 I0.213 J-1.784 F#100
N14405 X-22.717 Y-134.838 I5.879 J-2.004
N14410 X-15.537 Y-140.245 I9.981 J5.784
N14415 X-2.091 Y-137.323 I4.22 J12.978
N14420 X0.219 Y-132.673 I-5.512 J5.637
N14425 X-2.163 Y-129.407 I-2.786 J0.469
N14430 G1 X-2.19 Y-129.422 F#104
N14435 X-2.476 Y-129.464
N14440 G2 X-10.326 Y-129.931 I-6.692 J46.284 F#105
N14445 G1 X-14.238 Y-129.669
N14450 X-14.242
N14455 G2 X-21.963 Y-128.161 I5.074 J46.489
N14460 G1 X-22.238 Y-128.082 F#103
N14465 X-22.266 Y-128.079
N14470 G3 X-23.828 Y-129.402 I0.206 J-1.828 F#100
N14475 X-23.04 Y-135.079 I6.106 J-2.045
N14480 X-15.273 Y-140.772 I10.366 J5.997
N14485 X-1.645 Y-137.466 I3.984 J13.322
N14490 X0.552 Y-132.991 I-6.008 J5.727
N14495 X-1.882 Y-129.451 I-2.89 J0.619
N14500 G1 X-1.906 Y-129.464 F#104
N14505 X-1.923 Y-129.481
N14510 X-2.187 Y-129.563
N14515 G2 X-4.298 Y-130.121 I-8.257 J26.957 F#105
N14520 G1 X-4.326 Y-130.123
N14525 X-20.172 Y-129.064
N14530 X-20.2 Y-129.058
N14535 G2 X-22.213 Y-128.226 I9.755 J26.452
N14540 G1 X-22.468 Y-128.107 F#103
N14545 G3 X-22.499 Y-128.099 I-0.034 J-0.072
N14550 X-24.027 Y-129.198 I0.086 J-1.732 F#100
N14555 X-23.653 Y-134.764 I5.69 J-2.413
N14560 X-17.15 Y-140.602 I10.406 J5.05
N14565 X-1.668 Y-138.096 I5.784 J13.346
N14570 X0.876 Y-133.371 I-6.237 J6.405
N14575 X-0.538 Y-129.797 I-3.246 J0.783
N14580 G1 X-0.952 Y-129.676
N14585 X-1.36 Y-129.581
N14590 G3 X-1.397 Y-129.585 I-0.009 J-0.079 F#104
N14595 G1 X-1.657 Y-129.679
N14600 G2 X-5.759 Y-130.778 I-8.739 J24.425 F#105
N14605 G1 X-5.783 Y-130.779
N14610 X-18.489 Y-129.898
N14615 X-18.514 Y-129.893
N14620 G2 X-22.424 Y-128.239 I8.118 J24.638
N14625 G1 X-22.669 Y-128.109 F#103
N14630 G3 X-22.704 Y-128.1 I-0.038 J-0.07
N14635 X-24.385 Y-129.312 I0.039 J-1.825 F#100
N14640 X-23.959 Y-135.051 I5.978 J-2.442
N14645 X-17.248 Y-141.037 I10.71 J5.252
N14650 X-1.383 Y-138.413 I5.883 J13.705
N14655 X1.204 Y-133.702 I-6.547 J6.661
N14660 X0.372 Y-130.225 I-3.758 J0.939
N14665 X-1.36 Y-129.581 I-1.949 J-2.592
N14670 X-1.397 Y-129.585 I-0.009 J-0.079 F#104
N14675 G1 X-1.657 Y-129.679
N14680 G2 X-5.822 Y-130.795 I-8.869 J24.776 F#105
N14685 G1 X-5.846 Y-130.797
N14690 X-18.693 Y-129.916
N14695 X-18.718 Y-129.912
N14700 G2 X-22.69 Y-128.239 I8.192 J25.008
N14705 G1 X-22.936 Y-128.109 F#103
N14710 G3 X-22.971 Y-128.1 I-0.038 J-0.071
N14715 X-24.671 Y-129.277 I0.024 J-1.852 F#100
N14720 X-24.402 Y-135.05 I5.944 J-2.616
N14725 X-17.786 Y-141.287 I10.965 J5.005
N14730 X-1.106 Y-138.742 I6.412 J13.908
N14735 X1.526 Y-134.058 I-6.995 J7.012
N14740 X0.96 Y-130.498 I-4.311 J1.139
N14745 X-1.116 Y-129.613 I-2.15 J-2.168
N14750 X-1.153 Y-129.619 I-0.006 J-0.08 F#104
N14755 G1 X-1.409 Y-129.724
N14760 G2 X-5.27 Y-130.922 I-9.247 J22.982 F#105
N14765 G1 X-5.298 Y-130.924
N14770 X-19.258 Y-129.968
N14775 X-19.287 Y-129.962
N14780 G2 X-22.95 Y-128.249 I8.631 J23.221
N14785 G1 X-23.188 Y-128.111 F#103
N14790 G3 X-23.225 Y-128.1 I-0.04 J-0.069
N14795 X-24.978 Y-129.271 I-0.001 J-1.896 F#100
N14800 X-24.812 Y-135.117 I5.99 J-2.755
N14805 X-18.632 Y-141.379 I11.102 J4.776
N14810 X-1.013 Y-139.249 I7.243 J14.02
N14815 X1.856 Y-134.373 I-7.173 J7.503
N14820 X1.543 Y-130.863 I-4.949 J1.328
N14825 X-0.603 Y-129.665 I-2.325 J-1.644
N14830 G1 X-0.874 Y-129.824 F#104
N14835 X-4.094 Y-131.722 F#105
N14840 G2 X-5.73 Y-132.108 I-1.358 J2.099
N14845 G1 X-19.636 Y-130.936
N14850 G2 X-21.189 Y-130.244 I0.182 J2.493
N14855 G1 X-23.246 Y-128.233
N14860 X-23.317 Y-128.163 F#103
N14865 X-23.522 Y-128.1
N14870 G3 X-25.272 Y-129.237 I-0.001 J-1.914 F#100
N14875 X-25.248 Y-135.12 I5.97 J-2.916
N14880 X-19.146 Y-141.61 I11.348 J4.555
N14885 X-0.974 Y-139.797 I7.757 J14.223
N14890 X2.419 Y-133.517 I-7.096 J7.891
N14895 X1.594 Y-130.485 I-4.748 J0.335
N14900 X-0.603 Y-129.665 I-2.092 J-2.251
N14905 G1 X-0.874 Y-129.824 F#104
N14910 X-4.094 Y-131.722 F#105
N14915 G2 X-5.73 Y-132.108 I-1.358 J2.099
N14920 G1 X-20.045 Y-131.052
N14925 G2 X-21.721 Y-130.244 I0.17 J2.494
N14930 G1 X-23.508 Y-128.231
N14935 X-23.538 Y-128.196 F#103
N14940 X-23.788 Y-128.1
N14945 G3 X-25.587 Y-129.231 I-0.028 J-1.952 F#100
N14950 X-25.759 Y-134.914 I5.911 J-3.023
N14955 X-19.16 Y-142.097 I11.819 J4.236
N14960 X-0.599 Y-140.044 I7.779 J14.603
N14965 X2.799 Y-133.569 I-7.353 J7.988
N14970 X1.939 Y-130.495 I-4.923 J0.28
N14975 X-0.258 Y-129.681 I-2.088 J-2.263
N14980 X-0.345 Y-129.834 I-0.001 J-0.1 F#104
N14985 G1 X-0.319 Y-129.851 Z-4.094
N14990 X-0.296 Y-129.867 Z-4.079
N14995 X-0.278 Y-129.879 Z-4.056
N15000 X-0.265 Y-129.881 Z-4.029
N15005 X-0.261 Z-4.
N15010 G0 Z2.15
N15015 X-23.74 Y-128.304
N15020 Z-3.9
N15025 G1 Z-4. F#103
N15030 X-23.745 Y-128.298 Z-4.038
N15035 X-23.76 Y-128.282 Z-4.071
N15040 X-23.782 Y-128.259 Z-4.092
N15045 X-23.808 Y-128.231 Z-4.1
N15050 G3 X-24.094 Y-128.1 I-0.3 J-0.279
N15055 X-25.982 Y-129.353 I-0.002 J-2.046 F#100
N15060 X-26.067 Y-135.259 I6.276 J-3.044
N15065 X-19.147 Y-142.604 I12.187 J4.549
N15070 X-0.201 Y-140.272 I7.767 J15.03
N15075 X3.193 Y-133.41 I-7.531 J7.995
N15080 X1.962 Y-130.14 I-4.741 J0.083
N15085 X0.093 Y-129.698 I-1.561 J-2.429
N15090 X0.006 Y-129.851 I-0.001 J-0.1 F#104
N15095 G1 X0.032 Y-129.868 Z-4.094
N15100 X0.055 Y-129.884 Z-4.079
N15105 X0.073 Y-129.896 Z-4.056
N15110 X0.086 Y-129.897 Z-4.029
N15115 X0.09 Y-129.898 Z-4.
N15120 G0 Z2.15
N15125 X-4.093 Y-111.129
N15130 Z-3.9
N15135 G1 Z-4. F#103
N15140 X-4.086 Y-111.132 Z-4.038
N15145 X-4.066 Y-111.139 Z-4.071
N15150 X-4.035 Y-111.149 Z-4.092
N15155 X-3.999 Y-111.161 Z-4.1
N15160 G3 X-3.685 Y-111.14 I0.131 J0.388
N15165 X-1.715 Y-110.026 I-3.666 J8.786 F#100
N15170 X0.621 Y-92.786 I-10.4 J10.188
N15175 X-1.713 Y-89.623 I-8.161 J-3.58
N15180 G1 X-2.104 Y-89.471
N15185 X-2.495 Y-89.351
N15190 G3 X-2.613 Y-89.447 I-0.018 J-0.098 F#104
N15195 G1 X-2.616 Y-89.587
N15200 X-3.053 Y-110.547 F#105
N15205 X-3.055 Y-110.672 F#103
N15210 G3 X-2.925 Y-110.769 I0.1 J-0.002
N15215 X0.097 Y-108.479 I-1.147 J4.653 F#100
N15220 X2.289 Y-95.786 I-11.811 J8.575
N15225 X-0.742 Y-89.966 I-13.223 J-3.185
N15230 X-2.495 Y-89.351 I-2.421 J-4.093
N15235 X-2.613 Y-89.449 I-0.018 J-0.098 F#104
N15240 G1 Y-89.587
N15245 X-2.617 Y-110.412 F#105
N15250 Y-110.551 F#103
N15255 G3 X-2.5 Y-110.65 I0.1 J0.
N15260 G1 X-2.264 Y-110.606 F#100
N15265 X-2.031 Y-110.549
N15270 X-1.802 Y-110.479
N15275 X-1.577 Y-110.395
N15280 X-1.357 Y-110.298
N15285 X-1.144 Y-110.189
N15290 X-0.937 Y-110.068
N15295 X-0.738 Y-109.934
N15300 X-0.547 Y-109.79
N15305 X-0.364 Y-109.634
N15310 X-0.191 Y-109.468
N15315 X-0.028 Y-109.293
N15320 X0.125 Y-109.108
N15325 X0.267 Y-108.914
N15330 X0.397 Y-108.713
N15335 G3 X3.247 Y-98.96 I-11.038 J8.518
N15340 X-0.01 Y-90.169 I-14.883 J-0.515
N15345 X-1.888 Y-89.478 I-2.252 J-3.219
N15350 X-2.004 Y-89.576 I-0.017 J-0.099 F#104
N15355 G1 X-2.005 Y-89.717
N15360 X-2.053 Y-110.293 F#105
N15365 Y-110.433 F#103
N15370 G3 X-1.937 Y-110.532 I0.1 J0.
N15375 X1.045 Y-108.482 I-0.591 J4.052 F#100
N15380 X3.72 Y-99.941 I-10.953 J8.12
N15385 X0.755 Y-90.465 I-15.355 J0.398
N15390 X-1.395 Y-89.587 I-2.171 J-2.244
N15395 G1 X-1.425 Y-89.586 F#104
N15400 X-1.455 Y-89.595
N15405 X-1.481 Y-89.615
N15410 X-1.498 Y-89.642
N15415 X-1.506 Y-89.675
N15420 Y-89.82
N15425 X-1.513 Y-110.181 F#105
N15430 Y-110.327 F#103
N15435 G3 X-1.402 Y-110.426 I0.1 J0.
N15440 X1.373 Y-108.733 I-0.442 J3.845 F#100
N15445 X3.642 Y-95.711 I-12.218 J8.837
N15450 X1.294 Y-90.528 I-12.385 J-2.486
N15455 X-0.569 Y-89.667 I-2.01 J-1.902
N15460 X-0.67 Y-89.765 I-0.001 J-0.1 F#104
N15465 G1 X-0.673 Y-89.922
N15470 X-1.027 Y-110.116 F#105
N15475 X-1.029 Y-110.263 F#103
N15480 G3 X-0.922 Y-110.365 I0.1 J-0.002
N15485 X1.725 Y-108.795 I-0.178 J3.317 F#100
N15490 X4.49 Y-101.858 I-9.438 J7.78
N15495 X1.946 Y-90.673 I-15.977 J2.248
N15500 X-0.569 Y-89.667 I-2.291 J-2.08
N15505 X-0.67 Y-89.767 I-0.001 J-0.1 F#104
N15510 G1 Y-89.922
N15515 X-0.614 Y-110.075 F#105
N15520 Y-110.231 F#103
N15525 G3 X-0.513 Y-110.331 I0.1 J0.
N15530 X2.194 Y-108.854 I-0.149 J3.492 F#100
N15535 X5.037 Y-99.015 I-11.156 J8.554
N15540 X2.275 Y-90.487 I-14.773 J-0.074
N15545 X-0.056 Y-89.691 I-2.114 J-2.377
N15550 X-0.157 Y-89.791 I-0.001 J-0.1 F#104
N15555 G1 Y-89.947
N15560 X-0.17 Y-110.054 F#105
N15565 Y-110.21 F#103
N15570 G3 X-0.068 Y-110.31 I0.1 J0.
N15575 X2.664 Y-108.842 I-0.114 J3.488 F#100
N15580 X5.505 Y-99.522 I-10.969 J8.438
N15585 X2.897 Y-90.63 I-15.324 J0.333
N15590 X0.457 Y-89.715 I-2.216 J-2.199
N15595 X0.356 Y-89.815 I-0.001 J-0.1 F#104
N15600 G1 X0.355 Y-89.971
N15605 X0.304 Y-110.032 F#105
N15610 Y-110.187 F#103
N15615 G3 X0.405 Y-110.288 I0.1 J0.
N15620 X3.13 Y-108.831 I-0.103 J3.472 F#100
N15625 X5.96 Y-100.046 I-10.755 J8.312
N15630 X3.495 Y-90.766 I-15.767 J0.78
N15635 X0.967 Y-89.739 I-2.307 J-2.057
N15640 X0.866 Y-89.839 I-0.001 J-0.1 F#104
N15645 G1 Y-89.995
N15650 X0.775 Y-110.009 F#105
N15655 X0.774 Y-110.165 F#103
N15660 G3 X0.876 Y-110.265 I0.1 J0.
N15665 X3.614 Y-108.8 I-0.097 J3.473 F#100
N15670 X6.413 Y-99.979 I-10.817 J8.287
N15675 X4.079 Y-90.9 I-15.847 J0.766
N15680 X1.475 Y-89.764 I-2.38 J-1.901
N15685 X1.373 Y-89.863 I-0.001 J-0.1 F#104
N15690 G1 Y-90.019
N15695 X1.263 Y-109.986 F#105
N15700 X1.262 Y-110.141 F#103
N15705 G3 X1.363 Y-110.242 I0.1 J-0.001
N15710 X4.082 Y-108.786 I-0.101 J3.453 F#100
N15715 X6.865 Y-99.954 I-10.827 J8.267
N15720 X4.568 Y-90.904 I-15.794 J0.807
N15725 X1.976 Y-89.787 I-2.373 J-1.941
N15730 X1.875 Y-89.887 I-0.001 J-0.1 F#104
N15735 G1 X1.874 Y-90.043
N15740 X1.736 Y-109.964 F#105
N15745 X1.735 Y-110.119 F#103
N15750 G3 X1.836 Y-110.219 I0.1 J-0.001
N15755 X4.548 Y-108.771 I-0.092 J3.434 F#100
N15760 X7.309 Y-100.473 I-10.6 J8.136
N15765 X5.168 Y-91.072 I-16.273 J1.239
N15770 G1 X5.029 Y-90.899
N15775 X4.879 Y-90.737
N15780 X4.718 Y-90.586
N15785 X4.546 Y-90.447
N15790 X4.365 Y-90.319
N15795 X4.176 Y-90.205
N15800 X3.979 Y-90.104
N15805 X3.776 Y-90.017
N15810 X3.567 Y-89.945
N15815 X3.354 Y-89.887
N15820 X3.137 Y-89.844
N15825 X2.918 Y-89.817
N15830 X2.697 Y-89.804
N15835 X2.476 Y-89.808
N15840 X2.436 Y-89.816 F#104
N15845 X2.403 Y-89.838
N15850 X2.382 Y-89.872
N15855 X2.375 Y-89.91
N15860 X2.373 Y-90.067
N15865 X2.207 Y-109.941 F#105
N15870 X2.206 Y-110.096 F#103
N15875 G3 X2.307 Y-110.197 I0.1 J-0.001
N15880 X5.051 Y-108.712 I-0.099 J3.461 F#100
N15885 X7.77 Y-100.28 I-10.789 J8.133
N15890 X5.624 Y-91.038 I-16.06 J1.142
N15895 X2.973 Y-89.835 I-2.429 J-1.83
N15900 X2.872 Y-89.934 I-0.001 J-0.1 F#104
N15905 G1 X2.871 Y-90.09
N15910 X2.72 Y-109.917 F#105
N15915 X2.719 Y-110.072 F#103
N15920 G3 X2.82 Y-110.173 I0.1 J-0.001
N15925 X5.498 Y-108.718 I-0.122 J3.416 F#100
N15930 X8.222 Y-100.327 I-10.716 J8.116
N15935 X6.126 Y-91.073 I-16.062 J1.227
N15940 G1 X5.987 Y-90.907
N15945 X5.837 Y-90.75
N15950 X5.676 Y-90.604
N15955 X5.506 Y-90.47
N15960 X5.327 Y-90.347
N15965 X5.14 Y-90.237
N15970 X4.946 Y-90.14
N15975 X4.746 Y-90.056
N15980 X4.541 Y-89.987
N15985 X4.331 Y-89.931
N15990 X4.118 Y-89.89
N15995 X3.903 Y-89.864
N16000 X3.686 Y-89.852
N16005 X3.47 Y-89.855
N16010 X3.43 Y-89.863 F#104
N16015 X3.397 Y-89.886
N16020 X3.376 Y-89.919
N16025 X3.368 Y-89.957
N16030 X3.367 Y-90.114
N16035 X3.168 Y-109.896 F#105
N16040 X3.167 Y-110.05 F#103
N16045 G3 X3.268 Y-110.151 I0.1 J-0.001
N16050 X5.966 Y-108.697 I-0.096 J3.407 F#100
N16055 X8.678 Y-100.288 I-10.745 J8.107
N16060 X6.605 Y-91.077 I-15.982 J1.243
N16065 X3.959 Y-89.881 I-2.421 J-1.831
N16070 X3.857 Y-89.98 I-0.001 J-0.1 F#104
N16075 G1 X3.856 Y-90.137
N16080 X3.639 Y-109.873 F#105
N16085 X3.637 Y-110.028 F#103
N16090 G3 X3.739 Y-110.129 I0.1 J-0.001
N16095 X6.424 Y-108.687 I-0.086 J3.381 F#100
N16100 X9.11 Y-100.848 I-10.457 J7.962
N16105 X7.183 Y-91.227 I-16.504 J1.698
N16110 X4.437 Y-89.901 I-2.533 J-1.74
N16115 X4.336 Y-90. I-0.001 J-0.1 F#104
N16120 G1 X4.334 Y-90.158
N16125 X4.099 Y-109.852 F#105
N16130 X4.098 Y-110.007 F#103
N16135 G3 X4.198 Y-110.108 I0.1 J-0.001
N16140 X6.65 Y-108.934 I0.016 J3.113 F#100
N16145 X9.48 Y-101.766 I-9.319 J7.822
N16150 X7.727 Y-91.33 I-16.936 J2.521
N16155 G1 X7.604 Y-91.156
N16160 X7.469 Y-90.991
N16165 X7.323 Y-90.835
N16170 X7.168 Y-90.69
N16175 X7.003 Y-90.555
N16180 X6.83 Y-90.431
N16185 X6.649 Y-90.318
N16190 X6.461 Y-90.218
N16195 X6.266 Y-90.131
N16200 X6.067 Y-90.057
N16205 X5.863 Y-89.996
N16210 X5.655 Y-89.949
N16215 X5.444 Y-89.916
N16220 X5.232 Y-89.896
N16225 X5.019 Y-89.891
N16230 X4.806 Y-89.9
N16235 X4.774 Y-89.909 F#104
N16240 X4.746 Y-89.926
N16245 X4.725 Y-89.951
N16250 X4.713 Y-89.981
N16255 X4.711 Y-90.011
N16260 X4.71 Y-90.172
N16265 X4.604 Y-109.827 F#105
N16270 X4.603 Y-109.988 F#103
N16275 G3 X4.699 Y-110.088 I0.1 J-0.001
N16280 X7.29 Y-108.724 I-0.049 J3.236 F#100
N16285 X10.01 Y-100.983 I-10.239 J7.946
N16290 X8.166 Y-91.284 I-16.484 J1.89
N16295 X5.276 Y-89.912 I-2.57 J-1.683
N16300 X5.18 Y-90.011 I0.003 J-0.1 F#104
N16305 G1 X5.178 Y-90.172
N16310 X4.972 Y-109.827 F#105
