%
(SETUP1-TOP-Z-HEAD-BASEPLATE-JIG-2.5MM-DRILL)
(T125  D=2.5 CR=0. TAPER=118DEG - ZMIN=-7. - DRILL)
N10 G90 G94 G17 G91.1
N15 G21
N20 G53 G0 Z0.
(JIG 2.5MM DRILLING)
N25 M9
N30 T125 M6
N35 S3200 M3
N40 G54
N45 M9
N55 G0 X-112.5 Y-15.
N60 G43 Z4. H0
N70 G0 Z2.
N75 G98 G83 X-112.5 Y-15. Z-7. R2. Q0.625 F50.
N80 Y-35.
N85 X-67.5
N90 Y-15.
N95 X-111.5 Y-42.7
N100 X-117.25 Y-29.5
N105 Y-20.5
N110 X-111.5 Y-7.3
N115 X-71.5
N120 Y-42.7
N125 G80
N130 G0 Z4.
N140 M9
N145 G53 Z0.
N150 M30
%
