%
(SETUP1-TOP-Z-HEAD-BASEPLATE-6MM)
(T1  D=6. CR=0. - ZMIN=-8.4 - FLAT END MILL)
N10 G90 G94 G17 G91.1
N15 G21
N20 G53 G0 Z0.
(2D ADAPTIVE1)
N25 M9
N30 T1 M6
N35 S3200 M3
N40 G54
N45 M8
N55 G0 X-48.22 Y-25.962
N60 G43 Z4. H1
N65 #100=330. (CUTTING)
N70 #103=200. (ENTRY)
N75 #104=200. (EXIT)
N80 #105=4000. (DIRECT)
N85 #106=200. (REDUCED)
N90 #107=270. (RAMPING)
N95 G0 Z1.5
N100 G1 Z1. F#103
N105 S3000
N110 G3 X-44.899 Y-26.58 Z0.795 I1.897 J0.962 F#107
N115 X-45.168 Y-23.241 Z0.591 I-1.412 J1.566
N120 X-48.294 Y-24.363 Z0.386 I-1.134 J-1.757
N125 X-46.411 Y-27.064 Z0.182 I1.976 J-0.63
N130 X-44.313 Y-24.562 Z-0.023 I0.091 J2.054
N135 X-47.251 Y-23.203 Z-0.227 I-1.989 J-0.445
N140 X-47.791 Y-26.366 Z-0.432 I0.94 J-1.788
N145 X-44.625 Y-26.063 Z-0.636 I1.467 J1.363
N150 X-45.734 Y-23.113 Z-0.841 I-1.683 J1.051
N155 X-48.269 Y-24.937 Z-1.045 I-0.57 J-1.882
N160 X-45.868 Y-26.89 Z-1.25 I1.948 J-0.058
N165 X-44.621 Y-24.088 Z-1.455 I-0.449 J1.878
N170 X-47.624 Y-23.621 Z-1.659 I-1.68 J-0.916
N175 X-47.294 Y-26.613 Z-1.864 I1.31 J-1.37
N180 X-44.518 Y-25.523 Z-2.068 I0.971 J1.607
N185 X-46.278 Y-23.151 Z-2.273 I-1.788 J0.512
N190 X-48.09 Y-25.448 Z-2.477 I-0.027 J-1.842
N195 X-45.426 Y-26.586 Z-2.682 I1.768 J0.45
N200 X-45.027 Y-23.745 Z-2.886 I-0.888 J1.573
N205 X-47.846 Y-24.099 Z-3.091 I-1.274 J-1.255
N210 X-46.779 Y-26.701 Z-3.295 I1.529 J-0.893
N215 X-44.568 Y-25.009 Z-3.5 I0.458 J1.692
N220 X-48.074 I-1.753 J0.
N225 X-44.568 I1.753 J0.
N230 S3200
N235 X-47.711 Y-23.664 I-1.759 J0.234 F#100
N240 G1 X-47.828 Y-23.792
N245 X-47.933 Y-23.931
N250 X-48.026 Y-24.078
N255 X-48.105 Y-24.232
N260 X-48.17 Y-24.394
N265 X-48.221 Y-24.56
N270 X-48.256 Y-24.73
N275 X-48.277 Y-24.903
N280 X-48.282 Y-25.076
N285 X-48.271 Y-25.25
N290 X-48.245 Y-25.422
N295 X-48.205 Y-25.591
N300 X-48.149 Y-25.755
N305 X-48.079 Y-25.915
N310 X-47.995 Y-26.067
N315 X-47.898 Y-26.211
N320 X-47.788 Y-26.346
N325 X-47.667 Y-26.471
N330 X-47.536 Y-26.584
N335 X-47.394 Y-26.686
N340 X-47.245 Y-26.774
N345 X-47.088 Y-26.849
N350 X-46.925 Y-26.91
N355 X-46.758 Y-26.956
N360 X-46.586 Y-26.987
N365 X-46.413 Y-27.003
N370 X-46.24
N375 X-46.066 Y-26.988
N380 X-45.895 Y-26.957
N385 X-45.727 Y-26.912
N390 X-45.564 Y-26.852
N395 X-45.407 Y-26.777
N400 X-45.257 Y-26.689
N405 X-45.116 Y-26.588
N410 X-44.984 Y-26.475
N415 X-44.863 Y-26.351
N420 X-44.753 Y-26.216
N425 X-44.655 Y-26.072
N430 X-44.571 Y-25.92
N435 X-44.5 Y-25.761
N440 X-44.444 Y-25.597
N445 X-44.402 Y-25.428
N450 X-44.376 Y-25.256
N455 G3 X-47.856 Y-23.468 I-1.951 J0.483
N460 G1 X-47.985 Y-23.604
N465 X-48.101 Y-23.75
N470 X-48.205 Y-23.906
N475 X-48.295 Y-24.07
N480 X-48.371 Y-24.24
N485 X-48.432 Y-24.417
N490 X-48.478 Y-24.598
N495 X-48.508 Y-24.783
N500 X-48.523 Y-24.969
N505 X-48.521 Y-25.156
N510 X-48.504 Y-25.342
N515 X-48.471 Y-25.526
N520 X-48.423 Y-25.706
N525 X-48.36 Y-25.882
N530 X-48.281 Y-26.052
N535 X-48.189 Y-26.214
N540 X-48.083 Y-26.368
N545 X-47.965 Y-26.513
N550 X-47.835 Y-26.647
N555 X-47.693 Y-26.769
N560 X-47.542 Y-26.879
N565 X-47.382 Y-26.976
N570 X-47.215 Y-27.059
N575 X-47.041 Y-27.127
N580 X-46.862 Y-27.181
N585 X-46.679 Y-27.219
N590 X-46.493 Y-27.241
N595 X-46.307 Y-27.248
N600 X-46.12 Y-27.238
N605 X-45.935 Y-27.213
N610 X-45.752 Y-27.172
N615 X-45.574 Y-27.116
N620 X-45.401 Y-27.045
N625 X-45.235 Y-26.959
N630 X-45.077 Y-26.86
N635 X-44.928 Y-26.748
N640 X-44.788 Y-26.623
N645 X-44.66 Y-26.487
N650 X-44.544 Y-26.341
N655 X-44.441 Y-26.185
N660 X-44.351 Y-26.021
N665 X-44.275 Y-25.85
N670 X-44.215 Y-25.673
N675 X-44.169 Y-25.492
N680 X-44.119 Y-25.31
N685 X-44.084 Y-25.124
N690 X-44.065 Y-24.936
N695 X-44.061 Y-24.747
N700 X-44.073 Y-24.558
N705 X-44.1 Y-24.371
N710 X-44.143 Y-24.187
N715 X-44.201 Y-24.007
N720 X-44.274 Y-23.832
N725 X-44.361 Y-23.664
N730 X-44.462 Y-23.504
N735 X-44.575 Y-23.353
N740 X-44.701 Y-23.212
N745 X-44.837 Y-23.081
N750 X-44.985 Y-22.962
N755 X-45.141 Y-22.856
N760 X-45.306 Y-22.763
N765 X-45.478 Y-22.685
N770 X-45.655 Y-22.62
N775 X-45.838 Y-22.571
N780 X-46.024 Y-22.537
N785 X-46.212 Y-22.518
N790 X-46.401 Y-22.515
N795 X-46.59 Y-22.528
N800 X-46.777 Y-22.556
N805 X-46.961 Y-22.6
N810 X-47.14 Y-22.659
N815 X-47.315 Y-22.732
N820 X-47.482 Y-22.82
N825 X-47.642 Y-22.921
N830 X-47.793 Y-23.035
N835 X-47.933 Y-23.161
N840 X-48.063 Y-23.299
N845 X-48.181 Y-23.446
N850 X-48.303 Y-23.6
N855 X-48.413 Y-23.763
N860 X-48.508 Y-23.934
N865 X-48.59 Y-24.112
N870 X-48.658 Y-24.296
N875 X-48.71 Y-24.485
N880 X-48.748 Y-24.678
N885 X-48.77 Y-24.872
N890 X-48.776 Y-25.068
N895 X-48.766 Y-25.264
N900 X-48.741 Y-25.459
N905 X-48.701 Y-25.65
N910 X-48.645 Y-25.838
N915 X-48.575 Y-26.021
N920 X-48.49 Y-26.198
N925 X-48.391 Y-26.368
N930 X-48.279 Y-26.529
N935 X-48.155 Y-26.68
N940 X-48.019 Y-26.821
N945 X-47.872 Y-26.951
N950 X-47.715 Y-27.069
N955 X-47.549 Y-27.174
N960 X-47.376 Y-27.265
N965 X-47.196 Y-27.342
N970 X-47.01 Y-27.404
N975 X-46.819 Y-27.452
N980 X-46.626 Y-27.484
N985 X-46.431 Y-27.501
N990 X-46.235
N995 X-46.039 Y-27.487
N1000 X-45.845 Y-27.456
N1005 X-45.655 Y-27.411
N1010 X-45.468 Y-27.35
N1015 X-45.287 Y-27.275
N1020 X-45.113 Y-27.185
N1025 X-44.946 Y-27.082
N1030 X-44.788 Y-26.966
N1035 X-44.64 Y-26.837
N1040 X-44.503 Y-26.697
N1045 X-44.377 Y-26.547
N1050 X-44.264 Y-26.387
N1055 X-44.163 Y-26.219
N1060 X-44.077 Y-26.043
N1065 X-44.005 Y-25.86
N1070 X-43.947 Y-25.673
N1075 X-43.887 Y-25.484
N1080 X-43.842 Y-25.291
N1085 X-43.812 Y-25.095
N1090 X-43.797 Y-24.898
N1095 X-43.798 Y-24.7
N1100 X-43.814 Y-24.503
N1105 X-43.845 Y-24.307
N1110 X-43.892 Y-24.114
N1115 X-43.953 Y-23.926
N1120 X-44.028 Y-23.743
N1125 X-44.118 Y-23.566
N1130 X-44.22 Y-23.397
N1135 X-44.336 Y-23.236
N1140 X-44.464 Y-23.085
N1145 X-44.603 Y-22.944
N1150 X-44.753 Y-22.814
N1155 X-44.912 Y-22.696
N1160 X-45.08 Y-22.591
N1165 X-45.255 Y-22.5
N1170 X-45.438 Y-22.422
N1175 X-45.625 Y-22.358
N1180 X-45.817 Y-22.31
N1185 X-46.012 Y-22.276
N1190 X-46.21 Y-22.258
N1195 X-46.408 Y-22.254
N1200 X-46.605 Y-22.267
N1205 X-46.801 Y-22.294
N1210 X-46.995 Y-22.337
N1215 X-47.184 Y-22.394
N1220 X-47.369 Y-22.466
N1225 X-47.547 Y-22.552
N1230 X-47.718 Y-22.652
N1235 X-47.881 Y-22.764
N1240 X-48.035 Y-22.889
N1245 X-48.178 Y-23.026
N1250 X-48.311 Y-23.173
N1255 X-48.432 Y-23.33
N1260 X-48.557 Y-23.496
N1265 X-48.669 Y-23.672
N1270 X-48.767 Y-23.855
N1275 X-48.851 Y-24.046
N1280 X-48.92 Y-24.242
N1285 X-48.974 Y-24.443
N1290 X-49.012 Y-24.648
N1295 X-49.035 Y-24.854
N1300 X-49.042 Y-25.062
N1305 X-49.033 Y-25.27
N1310 X-49.008 Y-25.477
N1315 X-48.967 Y-25.681
N1320 X-48.911 Y-25.881
N1325 X-48.84 Y-26.077
N1330 X-48.754 Y-26.267
N1335 X-48.654 Y-26.449
N1340 X-48.54 Y-26.623
N1345 X-48.413 Y-26.788
N1350 X-48.274 Y-26.943
N1355 X-48.123 Y-27.087
N1360 X-47.962 Y-27.219
N1365 X-47.792 Y-27.338
N1370 X-47.613 Y-27.443
N1375 X-47.426 Y-27.535
N1380 X-47.232 Y-27.612
N1385 X-47.034 Y-27.675
N1390 X-46.831 Y-27.722
N1395 X-46.625 Y-27.753
N1400 X-46.418 Y-27.768
N1405 X-46.21
N1410 X-46.002 Y-27.752
N1415 X-45.797 Y-27.719
N1420 X-45.594 Y-27.672
N1425 X-45.396 Y-27.609
N1430 X-45.203 Y-27.531
N1435 X-45.016 Y-27.438
N1440 X-44.838 Y-27.332
N1445 X-44.668 Y-27.212
N1450 X-44.507 Y-27.079
N1455 X-44.357 Y-26.935
N1460 X-44.219 Y-26.779
N1465 X-44.093 Y-26.614
N1470 X-43.979 Y-26.439
N1475 X-43.88 Y-26.256
N1480 X-43.795 Y-26.067
N1485 X-43.724 Y-25.871
N1490 X-43.654 Y-25.674
N1495 X-43.598 Y-25.472
N1500 X-43.557 Y-25.266
N1505 X-43.532 Y-25.059
N1510 X-43.521 Y-24.849
N1515 X-43.527 Y-24.64
N1520 X-43.547 Y-24.432
N1525 X-43.584 Y-24.225
N1530 X-43.635 Y-24.022
N1535 X-43.701 Y-23.824
N1540 X-43.781 Y-23.63
N1545 X-43.876 Y-23.443
N1550 X-43.984 Y-23.264
N1555 X-44.105 Y-23.093
N1560 X-44.238 Y-22.932
N1565 X-44.383 Y-22.78
N1570 X-44.539 Y-22.64
N1575 X-44.704 Y-22.512
N1580 X-44.879 Y-22.396
N1585 X-45.061 Y-22.294
N1590 X-45.251 Y-22.205
N1595 X-45.447 Y-22.13
N1600 X-45.647 Y-22.071
N1605 X-45.852 Y-22.026
N1610 X-46.059 Y-21.996
N1615 X-46.268 Y-21.982
N1620 X-46.477 Y-21.983
N1625 X-46.686 Y-21.999
N1630 X-46.893 Y-22.031
N1635 X-47.097 Y-22.078
N1640 X-47.297 Y-22.14
N1645 X-47.492 Y-22.217
N1650 X-47.681 Y-22.308
N1655 X-47.862 Y-22.412
N1660 X-48.036 Y-22.53
N1665 X-48.2 Y-22.66
N1670 X-48.354 Y-22.802
N1675 X-48.497 Y-22.954
N1680 X-48.629 Y-23.117
N1685 X-48.748 Y-23.29
N1690 X-48.868 Y-23.469
N1695 X-48.976 Y-23.657
N1700 X-49.069 Y-23.853
N1705 X-49.148 Y-24.054
N1710 X-49.213 Y-24.261
N1715 X-49.262 Y-24.471
N1720 X-49.296 Y-24.685
N1725 X-49.315 Y-24.901
N1730 X-49.318 Y-25.117
N1735 X-49.305 Y-25.333
N1740 X-49.277 Y-25.548
N1745 X-49.233 Y-25.76
N1750 X-49.174 Y-25.968
N1755 X-49.1 Y-26.172
N1760 X-49.012 Y-26.37
N1765 X-48.91 Y-26.56
N1770 X-48.794 Y-26.743
N1775 X-48.665 Y-26.917
N1780 X-48.525 Y-27.082
N1785 X-48.372 Y-27.236
N1790 X-48.209 Y-27.378
N1795 X-48.036 Y-27.508
N1800 X-47.854 Y-27.626
N1805 X-47.665 Y-27.73
N1810 X-47.468 Y-27.82
N1815 X-47.265 Y-27.896
N1820 X-47.057 Y-27.956
N1825 X-46.846 Y-28.002
N1830 X-46.631 Y-28.032
N1835 X-46.415 Y-28.047
N1840 X-46.199 Y-28.046
N1845 X-45.983 Y-28.03
N1850 X-45.769 Y-27.998
N1855 X-45.558 Y-27.95
N1860 X-45.35 Y-27.888
N1865 X-45.148 Y-27.811
N1870 X-44.952 Y-27.719
N1875 X-44.763 Y-27.613
N1880 X-44.582 Y-27.495
N1885 X-44.41 Y-27.363
N1890 X-44.249 Y-27.219
N1895 X-44.097 Y-27.064
N1900 X-43.958 Y-26.899
N1905 X-43.831 Y-26.724
N1910 X-43.716 Y-26.54
N1915 X-43.616 Y-26.348
N1920 X-43.529 Y-26.15
N1925 X-43.442 Y-25.945
N1930 X-43.37 Y-25.734
N1935 X-43.313 Y-25.519
N1940 X-43.271 Y-25.3
N1945 X-43.245 Y-25.079
N1950 X-43.235 Y-24.857
N1955 X-43.241 Y-24.634
N1960 X-43.262 Y-24.412
N1965 X-43.3 Y-24.193
N1970 X-43.352 Y-23.976
N1975 X-43.42 Y-23.764
N1980 X-43.503 Y-23.558
N1985 X-43.601 Y-23.357
N1990 X-43.712 Y-23.165
N1995 X-43.837 Y-22.98
N2000 X-43.974 Y-22.805
N2005 X-44.124 Y-22.64
N2010 X-44.285 Y-22.487
N2015 X-44.457 Y-22.345
N2020 X-44.638 Y-22.215
N2025 X-44.828 Y-22.099
N2030 X-45.026 Y-21.997
N2035 X-45.23 Y-21.909
N2040 X-45.44 Y-21.835
N2045 X-45.655 Y-21.777
N2050 X-45.874 Y-21.734
N2055 X-46.095 Y-21.707
N2060 X-46.317 Y-21.696
N2065 X-46.54 Y-21.701
N2070 X-46.762 Y-21.721
N2075 X-46.981 Y-21.757
N2080 X-47.198 Y-21.809
N2085 X-47.41 Y-21.876
N2090 X-47.618 Y-21.958
N2095 X-47.818 Y-22.054
N2100 X-48.012 Y-22.164
N2105 X-48.197 Y-22.288
N2110 X-48.373 Y-22.425
N2115 X-48.538 Y-22.574
N2120 X-48.693 Y-22.734
N2125 X-48.836 Y-22.905
N2130 X-48.966 Y-23.085
N2135 X-49.083 Y-23.275
N2140 X-49.199 Y-23.47
N2145 X-49.302 Y-23.674
N2150 X-49.39 Y-23.883
N2155 X-49.463 Y-24.099
N2160 X-49.521 Y-24.319
N2165 X-49.564 Y-24.542
N2170 X-49.592 Y-24.768
N2175 X-49.603 Y-24.996
N2180 X-49.599 Y-25.223
N2185 X-49.579 Y-25.45
N2190 X-49.544 Y-25.675
N2195 X-49.493 Y-25.896
N2200 X-49.427 Y-26.114
N2205 X-49.346 Y-26.327
N2210 X-49.25 Y-26.533
N2215 X-49.141 Y-26.733
N2220 X-49.018 Y-26.924
N2225 X-48.882 Y-27.107
N2230 X-48.733 Y-27.279
N2235 X-48.573 Y-27.441
N2240 X-48.402 Y-27.591
N2245 X-48.222 Y-27.73
N2250 X-48.032 Y-27.855
N2255 X-47.834 Y-27.967
N2260 X-47.628 Y-28.065
N2265 X-47.417 Y-28.149
N2270 X-47.2 Y-28.217
N2275 X-46.979 Y-28.271
N2280 X-46.754 Y-28.309
N2285 X-46.528 Y-28.332
N2290 X-46.3 Y-28.338
N2295 X-46.073 Y-28.329
N2300 X-45.847 Y-28.305
N2305 X-45.623 Y-28.265
N2310 X-45.402 Y-28.209
N2315 X-45.186 Y-28.138
N2320 X-44.975 Y-28.053
N2325 X-44.77 Y-27.953
N2330 X-44.573 Y-27.839
N2335 X-44.385 Y-27.712
N2340 X-44.205 Y-27.572
N2345 X-44.036 Y-27.42
N2350 X-43.877 Y-27.256
N2355 X-43.731 Y-27.082
N2360 X-43.596 Y-26.899
N2365 X-43.475 Y-26.706
N2370 X-43.367 Y-26.506
N2375 X-43.274 Y-26.298
N2380 X-43.181 Y-26.085
N2385 X-43.103 Y-25.865
N2390 X-43.04 Y-25.641
N2395 X-42.992 Y-25.413
N2400 X-42.96 Y-25.183
N2405 X-42.944 Y-24.951
N2410 X-42.943 Y-24.718
N2415 X-42.959 Y-24.486
N2420 X-42.99 Y-24.255
N2425 X-43.036 Y-24.027
N2430 X-43.098 Y-23.803
N2435 X-43.175 Y-23.583
N2440 X-43.267 Y-23.369
N2445 X-43.373 Y-23.162
N2450 X-43.493 Y-22.962
N2455 X-43.626 Y-22.772
N2460 X-43.772 Y-22.59
N2465 X-43.93 Y-22.419
N2470 X-44.099 Y-22.259
N2475 X-44.279 Y-22.111
N2480 X-44.468 Y-21.976
N2485 X-44.666 Y-21.853
N2490 X-44.872 Y-21.745
N2495 X-45.085 Y-21.65
N2500 X-45.304 Y-21.57
N2505 X-45.527 Y-21.506
N2510 X-45.755 Y-21.456
N2515 X-45.985 Y-21.423
N2520 X-46.217 Y-21.404
N2525 X-46.45 Y-21.402
N2530 X-46.682 Y-21.416
N2535 X-46.913 Y-21.445
N2540 X-47.141 Y-21.49
N2545 X-47.366 Y-21.55
N2550 X-47.586 Y-21.626
N2555 X-47.801 Y-21.716
N2560 X-48.009 Y-21.82
N2565 X-48.209 Y-21.939
N2570 X-48.401 Y-22.071
N2575 X-48.584 Y-22.215
N2580 X-48.756 Y-22.372
N2585 X-48.917 Y-22.54
N2590 X-49.066 Y-22.718
N2595 X-49.203 Y-22.906
N2600 X-49.327 Y-23.103
N2605 G3 X-48.023 Y-28.205 I3.012 J-1.948
N2610 X-43.038 Y-26.51 I1.708 J3.154
N2615 G1 X-42.937 Y-26.292
N2620 X-42.85 Y-26.068
N2625 X-42.777 Y-25.839
N2630 X-42.72 Y-25.606
N2635 X-42.677 Y-25.37
N2640 X-42.65 Y-25.131
N2645 X-42.638 Y-24.892
N2650 X-42.642 Y-24.651
N2655 X-42.661 Y-24.412
N2660 X-42.696 Y-24.175
N2665 X-42.745 Y-23.94
N2670 X-42.81 Y-23.708
N2675 X-42.889 Y-23.482
N2680 X-42.983 Y-23.261
N2685 X-43.091 Y-23.046
N2690 X-43.212 Y-22.839
N2695 X-43.347 Y-22.64
N2700 X-43.494 Y-22.45
N2705 X-43.653 Y-22.27
N2710 X-43.823 Y-22.101
N2715 X-44.003 Y-21.943
N2720 X-44.194 Y-21.797
N2725 X-44.393 Y-21.663
N2730 X-44.601 Y-21.543
N2735 X-44.816 Y-21.436
N2740 X-45.037 Y-21.343
N2745 X-45.264 Y-21.264
N2750 X-45.496 Y-21.201
N2755 X-45.731 Y-21.152
N2760 X-45.968 Y-21.118
N2765 X-46.208 Y-21.1
N2770 X-46.448 Y-21.098
N2775 X-46.688 Y-21.11
N2780 X-46.926 Y-21.138
N2785 X-47.162 Y-21.182
N2790 X-47.395 Y-21.24
N2795 X-47.624 Y-21.314
N2800 X-47.847 Y-21.402
N2805 X-48.064 Y-21.504
N2810 X-48.275 Y-21.619
N2815 X-48.477 Y-21.749
N2820 X-48.671 Y-21.89
N2825 X-48.855 Y-22.044
N2830 X-49.029 Y-22.21
N2835 X-49.192 Y-22.386
N2840 X-49.343 Y-22.573
N2845 X-49.482 Y-22.769
N2850 X-49.608 Y-22.973
N2855 G3 X-48.182 Y-28.47 I3.294 J-2.079
N2860 X-42.785 Y-26.703 I1.868 J3.418
N2865 X-49.894 Y-22.836 I-3.587 J1.873
N2870 X-48.36 Y-28.733 I3.581 J-2.217
N2875 X-42.541 Y-26.926 I2.048 J3.681
N2880 X-50.157 Y-22.646 I-3.833 J2.096
N2885 X-48.604 Y-28.969 I3.844 J-2.408
N2890 X-42.331 Y-27.225 I2.291 J3.915
N2895 X-50.371 Y-22.362 I-4.042 J2.395
N2900 X-48.824 Y-29.226 I4.059 J-2.691
N2905 X-42.034 Y-27.382 I2.512 J4.172
N2910 X-50.605 Y-22.103 I-4.339 J2.553
N2915 X-49.1 Y-29.456 I4.292 J-2.953
N2920 X-41.809 Y-27.673 I2.787 J4.401
N2925 X-50.811 Y-21.792 I-4.563 J2.846
N2930 X-49.41 Y-29.671 I4.497 J-3.264
N2935 X-41.589 Y-27.982 I3.097 J4.614
N2940 X-51.11 Y-21.602 I-4.785 J3.154
N2945 X-49.667 Y-29.927 I4.796 J-3.456
N2950 X-41.375 Y-28.307 I3.353 J4.868
N2955 X-51.309 Y-21.263 I-4.997 J3.48
N2960 X-50.009 Y-30.129 I4.994 J-3.796
N2965 X-41.171 Y-28.649 I3.694 J5.07
N2970 X-51.499 Y-20.908 I-5.2 J3.822
N2975 X-50.367 Y-30.322 I5.182 J-4.152
N2980 X-40.976 Y-29.007 I4.051 J5.262
N2985 X-42.215 Y-19.412 I-5.396 J4.181
N2990 X-51.805 Y-20.694 I-4.157 J-5.414
N2995 X-50.577 Y-30.633 I5.49 J-4.367
N3000 X-40.663 Y-29.217 I4.262 J5.572
N3005 X-51.984 Y-20.312 I-5.707 J4.393
N3010 X-50.963 Y-30.815 I5.667 J-4.75
N3015 X-40.48 Y-29.603 I4.646 J5.753
N3020 X-52.15 Y-19.914 I-5.889 J4.779
N3025 X-51.364 Y-30.984 I5.832 J-5.149
N3030 X-40.309 Y-30.003 I5.045 J5.921
N3035 X-41.207 Y-18.748 I-6.061 J5.18
N3040 X-52.46 Y-19.678 I-5.162 J-6.075
N3045 X-51.596 Y-31.298 I6.142 J-5.386
N3050 X-39.993 Y-30.235 I5.279 J6.234
N3055 X-52.61 Y-19.255 I-6.375 J5.413
N3060 X-52.022 Y-31.452 I6.291 J-5.809
N3065 X-39.837 Y-30.661 I5.703 J6.388
N3070 X-52.746 Y-18.818 I-6.53 J5.84
N3075 X-52.463 Y-31.592 I6.426 J-6.247
N3080 X-39.696 Y-31.101 I6.142 J6.526
N3085 X-40.096 Y-18.14 I-6.671 J6.281
N3090 X-53.057 Y-18.561 I-6.27 J-6.681
N3095 X-52.82 Y-31.811 I6.735 J-6.507
N3100 X-39.57 Y-31.556 I6.498 J6.743
N3105 X-39.637 Y-18.018 I-6.794 J6.736
N3110 X-53.174 Y-18.1 I-6.728 J-6.802
N3115 X-53.183 Y-32.027 I6.852 J-6.968
N3120 X-39.257 Y-31.819 I6.86 J6.96
N3125 X-53.274 Y-17.626 I-7.106 J7.
N3130 X-53.66 Y-32.13 I6.95 J-7.442
N3135 X-39.152 Y-32.296 I7.336 J7.062
N3140 X-38.89 Y-17.603 I-7.211 J7.477
N3145 X-53.582 Y-17.349 I-7.473 J-7.215
N3150 X-54.044 Y-32.328 I7.256 J-7.72
N3155 X-39.065 Y-32.785 I7.718 J7.259
N3160 X-38.395 Y-17.52 I-7.296 J7.967
N3165 X-53.66 Y-16.854 I-7.965 J-7.298
N3170 X-54.434 Y-32.523 I7.334 J-8.216
N3175 X-38.755 Y-33.067 I8.107 J7.453
N3180 X-53.719 Y-16.347 I-7.604 J8.251
N3185 X-54.944 Y-32.585 I7.391 J-8.723
N3190 X-38.69 Y-33.578 I8.616 J7.515
N3195 X-54.023 Y-16.051 I-7.669 J8.761
N3200 X-38.645 Y-34.099 I7.693 J-9.021
N3205 X-54.058 Y-15.524 I-7.712 J9.284
N3210 X-38.62 Y-34.631 I7.726 J-9.548
N3215 X-54.072 Y-14.987 I-7.734 J9.816
N3220 X-56.311 Y-32.949 I7.739 J-10.085
N3225 X-38.32 Y-34.942 I9.978 J7.877
N3230 X-54.37 Y-14.672 I-8.034 J10.128
N3235 X-38.323 Y-35.492 I8.035 J-10.401
N3240 X-54.356 Y-14.118 I-8.03 J10.677
N3245 X-57.182 Y-33.24 I8.022 J-10.955
N3250 X-38.025 Y-35.811 I10.848 J8.166
N3255 X-54.651 Y-13.794 I-8.327 J10.998
N3260 X-38.055 Y-36.378 I8.315 J-11.28
N3265 X-54.61 Y-13.225 I-8.295 J11.564
N3270 X-58.078 Y-33.5 I8.273 J-11.85
N3275 X-37.76 Y-36.705 I11.741 J8.426
N3280 X-54.902 Y-12.892 I-8.59 J11.892
N3285 X-37.819 Y-37.287 I8.563 J-12.182
N3290 X-54.831 Y-12.307 I-8.529 J12.474
N3295 X-37.902 Y-37.875 I8.49 J-12.767
N3300 X-54.737 Y-11.717 I-8.444 J13.062
N3305 X-59.594 Y-33.636 I8.395 J-13.359
N3310 X-37.616 Y-38.22 I13.253 J8.561
N3315 X-55.02 Y-11.368 I-8.73 J13.408
N3320 X-37.728 Y-38.822 I8.676 J-13.708
N3325 X-54.894 Y-10.763 I-8.614 J14.01
N3330 X-37.866 Y-39.428 I8.548 J-14.312
N3335 X-54.744 Y-10.155 I-8.474 J14.617
N3340 X-41.623 Y-41.497 I8.368 J-14.915
N3345 X-43.032 Y-7.834 I-4.652 J16.666
N3350 X-50.851 Y-8.11 I-1.878 J-57.771
N3355 X-51.355 Y-41.865 I4.418 J-16.947
N3360 X-47.689 Y-42.133 I5.365 J48.117
N3365 G1 X-47.492 Y-42.131 F#104
N3370 X-45.921 Y-42.141 F#103
N3375 G3 X-42.214 Y-42.058 I1.403 J20.111 F#100
N3380 X-28.581 Y-25.648 I-3.72 J16.958
N3385 X-41.095 Y-7.843 I-17.668 J0.883
N3390 G1 X-41.409 Y-7.859
N3395 X-43.036
N3400 X-44.107 Y-7.88 F#104
N3405 X-44.194 Y-7.882 Z-3.492
N3410 X-44.278 Y-7.884 Z-3.47
N3415 X-44.357 Y-7.885 Z-3.433
N3420 X-44.428 Y-7.887 Z-3.383
N3425 X-44.49 Y-7.888 Z-3.321
N3430 X-44.54 Y-7.889 Z-3.25
N3435 X-44.577 Y-7.89 Z-3.171
N3440 X-44.599 Z-3.087
N3445 X-44.607 Y-7.891 Z-3.
N3450 G0 X-44.765 Y-42.086
N3455 G1 Z-3.5 F#103
N3460 X-43.195 Y-42.141
N3465 G3 X-36.472 Y-40.155 I0.717 J9.944 F#100
N3470 X-38.097 Y-8.578 I-9.769 J15.328
N3475 X-40.156 Y-7.847 I-2.438 J-3.605
N3480 G1 X-41.409 Y-7.859
N3485 G3 X-41.688 Y-7.986 I0.014 J-0.4 F#104
N3490 G2 X-42.232 Y-8.511 I-5.264 J4.909
N3495 G1 X-42.299 Y-8.566 Z-3.492
N3500 X-42.365 Y-8.619 Z-3.47
N3505 X-42.426 Y-8.668 Z-3.433
N3510 X-42.482 Y-8.713 Z-3.383
N3515 X-42.53 Y-8.752 Z-3.321
N3520 X-42.569 Y-8.783 Z-3.25
N3525 X-42.597 Y-8.806 Z-3.171
N3530 X-42.615 Y-8.821 Z-3.087
N3535 X-42.621 Y-8.825 Z-3.
N3540 G0 X-42.952 Y-41.225
N3545 G1 Z-3.5 F#103
N3550 G2 X-41.957 Y-42.032 I-4.868 J-7.016
N3555 G3 X-41.697 Y-42.141 I0.275 J0.291
N3560 X-36.305 Y-40.574 I0.585 J8.048 F#100
N3565 X-35.31 Y-9.761 I-9.892 J15.742
N3570 X-38.686 Y-7.853 I-6.956 J-8.37
N3575 G1 X-39.089 Y-7.859
N3580 X-40.157
N3585 G3 X-40.39 Y-7.943 I0.014 J-0.4 F#104
N3590 G2 X-41.053 Y-8.424 I-7.008 J8.97
N3595 G1 X-41.126 Y-8.471 Z-3.492
N3600 X-41.197 Y-8.516 Z-3.47
N3605 X-41.263 Y-8.559 Z-3.433
N3610 X-41.324 Y-8.597 Z-3.383
N3615 X-41.375 Y-8.631 Z-3.321
N3620 X-41.418 Y-8.658 Z-3.25
N3625 X-41.449 Y-8.677 Z-3.171
N3630 X-41.468 Y-8.69 Z-3.087
N3635 X-41.474 Y-8.694 Z-3.
N3640 G0 X-41.742 Y-41.221
N3645 G1 Z-3.5 F#103
N3650 G2 X-40.747 Y-42.036 I-6.434 J-8.881
N3655 G3 X-40.49 Y-42.141 I0.271 J0.294
N3660 X-35.631 Y-40.652 I0.497 J7.05 F#100
N3665 X-27.552 Y-21.154 I-10.265 J15.675
N3670 X-37.274 Y-7.967 I-18.593 J-3.531
N3675 G1 X-37.707 Y-7.893
N3680 X-38.136 Y-7.859
N3685 X-39.089
N3690 G3 X-39.322 Y-7.943 I0.014 J-0.4 F#104
N3695 G2 X-39.982 Y-8.428 I-8.422 J10.779
N3700 G1 X-40.054 Y-8.476 Z-3.492
N3705 X-40.125 Y-8.523 Z-3.47
N3710 X-40.19 Y-8.566 Z-3.433
N3715 X-40.25 Y-8.606 Z-3.383
N3720 X-40.301 Y-8.64 Z-3.321
N3725 X-40.343 Y-8.667 Z-3.25
N3730 X-40.374 Y-8.688 Z-3.171
N3735 X-40.393 Y-8.7 Z-3.087
N3740 X-40.399 Y-8.704 Z-3.
N3745 G0 X-40.679 Y-41.225
N3750 G1 Z-3.5 F#103
N3755 G2 X-39.676 Y-42.039 I-7.842 J-10.684
N3760 G3 X-39.423 Y-42.141 I0.267 J0.298
N3765 X-34.952 Y-40.707 I0.427 J6.356 F#100
N3770 X-26.799 Y-26.465 I-10.522 J15.479
N3775 X-36.219 Y-8.041 I-19.4 J1.701
N3780 X-38.136 Y-7.86 I-1.424 J-4.847
N3785 G1 X-38.198 Y-7.867 F#104
N3790 X-38.258 Y-7.883
N3795 X-38.316 Y-7.909
N3800 X-38.368 Y-7.943
N3805 G2 X-39.027 Y-8.431 I-9.776 J12.513
N3810 G1 X-39.099 Y-8.48 Z-3.492
N3815 X-39.168 Y-8.527 Z-3.47
N3820 X-39.234 Y-8.571 Z-3.433
N3825 X-39.293 Y-8.611 Z-3.383
N3830 X-39.344 Y-8.646 Z-3.321
N3835 X-39.385 Y-8.674 Z-3.25
N3840 X-39.416 Y-8.695 Z-3.171
N3845 X-39.434 Y-8.707 Z-3.087
N3850 X-39.441 Y-8.712 Z-3.
N3855 G0 X-39.741 Y-41.233
N3860 G1 Z-3.5 F#103
N3865 G2 X-38.727 Y-42.043 I-9.146 J-12.48
N3870 G3 X-38.478 Y-42.141 I0.263 J0.302
N3875 X-34.283 Y-40.752 I0.387 J5.86 F#100
N3880 X-26.615 Y-28.542 I-10.752 J15.265
N3885 X-35.36 Y-8.043 I-19.567 J3.768
N3890 X-37.26 Y-7.86 I-1.447 J-5.061
N3895 G1 X-37.322 Y-7.866 F#104
N3900 X-37.383 Y-7.883
N3905 X-37.44 Y-7.909
N3910 X-37.492 Y-7.943
N3915 G2 X-38.149 Y-8.433 I-11.017 J14.101
N3920 G1 X-38.221 Y-8.482 Z-3.492
N3925 X-38.29 Y-8.53 Z-3.47
N3930 X-38.355 Y-8.575 Z-3.433
N3935 X-38.414 Y-8.615 Z-3.383
N3940 X-38.465 Y-8.65 Z-3.321
N3945 X-38.506 Y-8.679 Z-3.25
N3950 X-38.536 Y-8.699 Z-3.171
N3955 X-38.555 Y-8.712 Z-3.087
N3960 X-38.561 Y-8.717 Z-3.
N3965 G0 X-38.884 Y-41.244
N3970 G1 Z-3.5 F#103
N3975 G2 X-37.857 Y-42.047 I-10.396 J-14.344
N3980 G3 X-37.613 Y-42.141 I0.258 J0.306
N3985 X-33.562 Y-40.74 I0.358 J5.519 F#100
N3990 X-26.625 Y-30.572 I-10.837 J14.843
N3995 X-34.504 Y-8.07 I-19.554 J5.783
N4000 X-36.435 Y-7.859 I-1.502 J-4.815
N4005 G1 X-36.497 Y-7.866 F#104
N4010 X-36.558 Y-7.883
N4015 X-36.615 Y-7.909
N4020 X-36.668 Y-7.943
N4025 G2 X-37.324 Y-8.434 I-12.191 J15.604
N4030 G1 X-37.395 Y-8.484 Z-3.492
N4035 X-37.464 Y-8.532 Z-3.47
N4040 X-37.529 Y-8.577 Z-3.433
N4045 X-37.587 Y-8.618 Z-3.383
N4050 X-37.638 Y-8.653 Z-3.321
N4055 X-37.679 Y-8.682 Z-3.25
N4060 X-37.709 Y-8.703 Z-3.171
N4065 X-37.727 Y-8.716 Z-3.087
N4070 X-37.734 Y-8.72 Z-3.
N4075 G0 X-38.043 Y-41.262
N4080 G1 Z-3.5 F#103
N4085 G2 X-36.995 Y-42.053 I-11.661 J-16.535
N4090 G3 X-36.758 Y-42.141 I0.251 J0.311
N4095 X-32.926 Y-40.775 I0.307 J5.196 F#100
N4100 X-26.49 Y-31.67 I-10.808 J14.468
N4105 X-33.457 Y-8.267 I-19.693 J6.876
N4110 X-35.656 Y-7.864 I-1.718 J-3.177
N4115 G1 X-35.718 Y-7.869 F#104
N4120 X-35.778 Y-7.884
N4125 X-35.836 Y-7.909
N4130 G2 X-36.614 Y-8.325 I-14.118 J25.47
N4135 G1 X-36.692 Y-8.364 Z-3.492
N4140 X-36.767 Y-8.402 Z-3.47
N4145 X-36.837 Y-8.437 Z-3.433
N4150 X-36.901 Y-8.469 Z-3.383
N4155 X-36.956 Y-8.497 Z-3.321
N4160 X-37.001 Y-8.52 Z-3.25
N4165 X-37.034 Y-8.536 Z-3.171
N4170 X-37.054 Y-8.546 Z-3.087
N4175 X-37.061 Y-8.55 Z-3.
N4180 G0 X-37.283 Y-41.255
N4185 G1 Z-3.5 F#103
N4190 G2 X-36.242 Y-42.052 I-12.774 J-17.764
N4195 G3 X-36.003 Y-42.141 I0.253 J0.31
N4200 X-32.27 Y-40.782 I0.301 J4.978 F#100
N4205 X-26.167 Y-32.146 I-10.88 J14.162
N4210 X-32.698 Y-8.286 I-19.989 J7.352
N4215 X-34.91 Y-7.864 I-1.75 J-3.164
N4220 G1 X-34.972 Y-7.869 F#104
N4225 X-35.033 Y-7.884
N4230 X-35.091 Y-7.909
N4235 G2 X-35.868 Y-8.326 I-15.406 J27.792
N4240 G1 X-35.946 Y-8.365 Z-3.492
N4245 X-36.021 Y-8.403 Z-3.47
N4250 X-36.091 Y-8.439 Z-3.433
N4255 X-36.155 Y-8.471 Z-3.383
N4260 X-36.21 Y-8.499 Z-3.321
N4265 X-36.254 Y-8.522 Z-3.25
N4270 X-36.287 Y-8.539 Z-3.171
N4275 X-36.307 Y-8.549 Z-3.087
N4280 X-36.314 Y-8.552 Z-3.
N4285 G0 X-36.558 Y-41.279
N4290 G1 Z-3.5 F#103
N4295 G2 X-35.49 Y-42.058 I-14.062 J-20.396
N4300 G3 X-35.259 Y-42.141 I0.244 J0.317
N4305 X-31.621 Y-40.781 I0.28 J4.795 F#100
N4310 X-25.861 Y-32.65 I-10.861 J13.8
N4315 X-31.961 Y-8.307 I-20.271 J7.856
N4320 X-34.192 Y-7.863 I-1.787 J-3.152
N4325 G1 X-34.254 Y-7.869 F#104
N4330 X-34.315 Y-7.884
N4335 X-34.373 Y-7.909
N4340 G2 X-35.15 Y-8.326 I-16.726 J30.175
N4345 G1 X-35.227 Y-8.366 Z-3.492
N4350 X-35.302 Y-8.404 Z-3.47
N4355 X-35.372 Y-8.44 Z-3.433
N4360 X-35.436 Y-8.473 Z-3.383
N4365 X-35.491 Y-8.501 Z-3.321
N4370 X-35.535 Y-8.524 Z-3.25
N4375 X-35.568 Y-8.541 Z-3.171
N4380 X-35.588 Y-8.551 Z-3.087
N4385 X-35.595 Y-8.554 Z-3.
N4390 G0 Z-2.5
N4395 X-36.482 Y-41.443
N4400 G1 Z-3. F#103
N4405 X-36.476 Y-41.447 Z-3.087
N4410 X-36.456 Y-41.459 Z-3.171
N4415 X-36.425 Y-41.477 Z-3.25
N4420 X-36.382 Y-41.503 Z-3.321
N4425 X-36.329 Y-41.534 Z-3.383
N4430 X-36.267 Y-41.571 Z-3.433
N4435 X-36.199 Y-41.611 Z-3.47
N4440 X-36.127 Y-41.654 Z-3.492
N4445 X-36.052 Y-41.699 Z-3.5
N4450 G3 X-34.545 Y-42.141 I1.618 J2.721
N4455 X-30.981 Y-40.775 I0.263 J4.646 F#100
N4460 X-25.338 Y-32.569 I-11.025 J13.626
N4465 X-31.247 Y-8.333 I-20.736 J7.782
N4470 G1 X-31.453 Y-8.221
N4475 X-31.665 Y-8.122
N4480 X-31.883 Y-8.038
N4485 X-32.107 Y-7.968
N4490 X-32.334 Y-7.912
N4495 X-32.565 Y-7.872
N4500 X-32.798 Y-7.847
N4505 X-33.032 Y-7.837
N4510 X-33.266 Y-7.842
N4515 X-33.499 Y-7.863
N4520 X-33.582 Y-7.873 F#104
N4525 X-33.663 Y-7.896
N4530 X-33.739 Y-7.933
N4535 X-33.807 Y-7.982
N4540 X-33.866 Y-8.042
N4545 X-33.915 Y-8.111
N4550 X-33.951 Y-8.187
N4555 X-33.973 Y-8.269
N4560 X-33.982 Y-8.353
N4565 X-33.99 Y-9.161
N4570 X-34.325 Y-40.839 F#105
N4575 X-34.334 Y-41.636 F#103
N4580 G3 X-33.851 Y-42.141 I0.5 J-0.005
N4585 X-30.37 Y-40.782 I0.247 J4.507 F#100
N4590 X-25.062 Y-33.153 I-10.839 J13.201
N4595 X-30.542 Y-8.362 I-20.987 J8.363
N4600 X-32.826 Y-7.859 I-1.853 J-2.978
N4605 X-33.309 Y-8.353 I0.017 J-0.5 F#104
N4610 G1 X-33.317 Y-9.161
N4615 X-33.661 Y-40.839 F#105
N4620 X-33.67 Y-41.636 F#103
N4625 G3 X-33.187 Y-42.141 I0.5 J-0.005
N4630 X-29.761 Y-40.782 I0.24 J4.395 F#100
N4635 X-24.556 Y-33.125 I-10.915 J13.017
N4640 X-29.798 Y-8.437 I-21.467 J8.342
N4645 X-32.17 Y-7.859 I-1.929 J-2.759
N4650 X-32.653 Y-8.353 I0.017 J-0.5 F#104
N4655 G1 X-32.662 Y-9.161
N4660 X-33.008 Y-40.839 F#105
N4665 X-33.016 Y-41.636 F#103
N4670 G3 X-32.534 Y-42.141 I0.5 J-0.005
N4675 X-29.135 Y-40.759 I0.227 J4.311 F#100
N4680 X-24.266 Y-33.666 I-10.682 J12.55
N4685 X-29.109 Y-8.482 I-21.731 J8.879
N4690 X-31.527 Y-7.859 I-1.985 J-2.698
N4695 X-32.009 Y-8.353 I0.017 J-0.5 F#104
N4700 G1 X-32.018 Y-9.161
N4705 X-32.354 Y-40.839 F#105
N4710 X-32.363 Y-41.636 F#103
N4715 G3 X-31.88 Y-42.141 I0.5 J-0.005
N4720 X-28.578 Y-40.789 I0.208 J4.201 F#100
N4725 X-23.796 Y-33.737 I-10.642 J12.364
N4730 X-28.391 Y-8.57 I-22.154 J8.957
N4735 X-30.898 Y-7.859 I-2.083 J-2.57
N4740 X-31.38 Y-8.353 I0.017 J-0.5 F#104
N4745 G1 X-31.39 Y-9.161
N4750 X-31.75 Y-40.839 F#105
N4755 X-31.759 Y-41.636 F#103
N4760 G3 X-31.277 Y-42.141 I0.5 J-0.006
N4765 X-28.005 Y-40.798 I0.219 J4.123 F#100
N4770 X-23.31 Y-33.772 I-10.629 J12.185
N4775 X-27.703 Y-8.643 I-22.587 J9.
N4780 X-30.281 Y-7.859 I-2.183 J-2.548
N4785 X-30.763 Y-8.353 I0.017 J-0.5 F#104
N4790 G1 X-30.773 Y-9.161
N4795 X-31.147 Y-40.839 F#105
N4800 X-31.156 Y-41.636 F#103
N4805 G3 X-30.673 Y-42.141 I0.5 J-0.006
N4810 X-27.426 Y-40.794 I0.219 J4.059 F#100
N4815 X-22.81 Y-33.767 I-10.651 J12.027
N4820 X-26.99 Y-8.76 I-23.033 J9.003
N4825 X-29.672 Y-7.859 I-2.275 J-2.329
N4830 X-30.155 Y-8.352 I0.017 J-0.5 F#104
N4835 G1 X-30.164 Y-9.161
N4840 X-30.543 Y-40.839 F#105
N4845 X-30.552 Y-41.636 F#103
N4850 G3 X-30.07 Y-42.141 I0.5 J-0.006
N4855 X-26.844 Y-40.782 I0.212 J4.005 F#100
N4860 X-22.545 Y-34.371 I-10.253 J11.52
N4865 X-26.336 Y-8.821 I-23.26 J9.606
N4870 X-29.071 Y-7.859 I-2.357 J-2.33
N4875 X-29.553 Y-8.352 I0.017 J-0.5 F#104
N4880 G1 X-29.563 Y-9.161
N4885 X-29.94 Y-40.839 F#105
N4890 X-29.949 Y-41.636 F#103
N4895 G3 X-29.466 Y-42.141 I0.5 J-0.006
N4900 X-26.258 Y-40.761 I0.197 J3.961 F#100
N4905 X-22.017 Y-34.303 I-10.33 J11.407
N4910 X-25.675 Y-8.902 I-23.725 J9.546
N4915 X-28.48 Y-7.859 I-2.421 J-2.217
N4920 X-28.962 Y-8.353 I0.017 J-0.5 F#104
N4925 G1 X-28.972 Y-9.161
N4930 X-29.336 Y-40.839 F#105
N4935 X-29.346 Y-41.636 F#103
N4940 G3 X-28.863 Y-42.141 I0.5 J-0.006
N4945 X-25.732 Y-40.791 I0.18 J3.887 F#100
N4950 X-21.558 Y-34.41 I-10.222 J11.242
N4955 X-24.993 Y-9.022 I-24.107 J9.665
N4960 X-27.894 Y-7.859 I-2.533 J-2.119
N4965 X-28.376 Y-8.352 I0.017 J-0.5 F#104
N4970 G1 X-28.386 Y-9.161
N4975 X-28.782 Y-40.839 F#105
N4980 X-28.792 Y-41.635 F#103
N4985 G3 X-28.309 Y-42.141 I0.5 J-0.006
N4990 X-25.153 Y-40.766 I0.195 J3.861 F#100
N4995 X-21.024 Y-34.322 I-10.314 J11.155
N5000 X-24.336 Y-9.123 I-24.57 J9.588
N5005 G1 X-24.484 Y-8.953
N5010 X-24.641 Y-8.792
N5015 X-24.809 Y-8.643
N5020 X-24.986 Y-8.504
N5025 X-25.172 Y-8.377
N5030 X-25.365 Y-8.263
N5035 X-25.566 Y-8.161
N5040 X-25.772 Y-8.072
N5045 X-25.984 Y-7.997
N5050 X-26.201 Y-7.936
N5055 X-26.421 Y-7.889
N5060 X-26.643 Y-7.856
N5065 X-26.867 Y-7.838
N5070 X-27.092 Y-7.834
N5075 X-27.317 Y-7.844
N5080 X-27.402 Y-7.856 F#104
N5085 X-27.485 Y-7.883
N5090 X-27.562 Y-7.922
N5095 X-27.63 Y-7.974
N5100 X-27.689 Y-8.037
N5105 X-27.736 Y-8.108
N5110 X-27.771 Y-8.186
N5115 X-27.791 Y-8.268
N5120 X-27.798 Y-8.352
N5125 X-27.808 Y-9.161
N5130 X-28.186 Y-40.839 F#105
N5135 X-28.196 Y-41.636 F#103
N5140 G3 X-27.713 Y-42.141 I0.5 J-0.006
N5145 X-24.604 Y-40.764 I0.17 J3.815 F#100
N5150 X-20.532 Y-34.341 I-10.292 J11.027
N5155 X-23.648 Y-9.278 I-24.977 J9.62
N5160 X-26.743 Y-7.839 I-2.851 J-2.083
N5165 G1 X-26.83 Y-7.851 F#104
N5170 X-26.913 Y-7.879
N5175 X-26.99 Y-7.919
N5180 X-27.059 Y-7.972
N5185 X-27.117 Y-8.035
N5190 X-27.164 Y-8.107
N5195 X-27.198 Y-8.185
N5200 X-27.219 Y-8.268
N5205 X-27.225 Y-8.352
N5210 X-27.235 Y-9.161
N5215 X-27.625 Y-40.839 F#105
N5220 X-27.635 Y-41.635 F#103
N5225 G3 X-27.152 Y-42.141 I0.5 J-0.006
N5230 X-24.082 Y-40.786 I0.172 J3.764 F#100
N5235 X-20.065 Y-34.425 I-10.206 J10.895
N5240 X-23.114 Y-9.237 I-25.317 J9.714
N5245 G1 X-23.261 Y-9.055
N5250 X-23.419 Y-8.884
N5255 X-23.589 Y-8.723
N5260 X-23.769 Y-8.574
N5265 X-23.958 Y-8.437
N5270 X-24.156 Y-8.313
N5275 X-24.362 Y-8.202
N5280 X-24.574 Y-8.105
N5285 X-24.793 Y-8.022
N5290 X-25.016 Y-7.953
N5295 X-25.244 Y-7.9
N5300 X-25.474 Y-7.862
N5305 X-25.707 Y-7.839
N5310 X-25.94 Y-7.831
N5315 X-26.174 Y-7.839
N5320 X-26.261 Y-7.851 F#104
N5325 X-26.344 Y-7.878
N5330 X-26.421 Y-7.919
N5335 X-26.489 Y-7.972
N5340 X-26.548 Y-8.035
N5345 X-26.595 Y-8.107
N5350 X-26.629 Y-8.185
N5355 X-26.649 Y-8.267
N5360 X-26.655 Y-8.352
N5365 X-26.666 Y-9.161
N5370 X-27.082 Y-40.839 F#105
N5375 X-27.092 Y-41.635 F#103
N5380 G3 X-26.609 Y-42.141 I0.5 J-0.007
N5385 X-23.538 Y-40.782 I0.183 J3.735 F#100
N5390 X-19.56 Y-34.407 I-10.22 J10.806
N5395 X-22.439 Y-9.394 I-25.727 J9.71
N5400 X-25.046 Y-7.821 I-3.1 J-2.191
N5405 G1 X-25.61 Y-7.859
N5410 G3 X-26.092 Y-8.352 I0.017 J-0.5 F#104
N5415 G1 X-26.103 Y-9.161
N5420 X-26.519 Y-40.839 F#105
N5425 X-26.529 Y-41.635 F#103
N5430 G3 X-26.047 Y-42.141 I0.5 J-0.007
N5435 X-22.976 Y-40.787 I0.112 J3.906 F#100
N5440 X-18.81 Y-33.706 I-11.308 J11.418
N5445 X-21.758 Y-9.574 I-26.406 J9.021
N5450 X-24.108 Y-7.85 I-3.557 J-2.386
N5455 G1 X-24.495 Y-7.859
N5460 X-25.051
N5465 G3 X-25.534 Y-8.352 I0.017 J-0.5 F#104
N5470 G1 X-25.544 Y-9.161
N5475 X-25.965 Y-40.839 F#105
N5480 X-25.976 Y-41.635 F#103
N5485 G3 X-25.493 Y-42.141 I0.5 J-0.007
N5490 X-22.481 Y-40.795 I0.169 J3.663 F#100
N5495 X-18.592 Y-34.484 I-10.133 J10.598
N5500 X-21.23 Y-9.542 I-26.458 J9.813
N5505 X-23.556 Y-7.85 I-3.546 J-2.43
N5510 G1 X-23.942 Y-7.859
N5515 X-24.495
N5520 G3 X-24.978 Y-8.351 I0.017 J-0.5 F#104
N5525 G1 X-24.989 Y-9.161
N5530 X-25.438 Y-40.839 F#105
N5535 X-25.449 Y-41.635 F#103
N5540 G3 X-24.967 Y-42.141 I0.5 J-0.007
N5545 X-21.921 Y-40.766 I0.181 J3.659 F#100
N5550 X-18.055 Y-34.372 I-10.262 J10.572
N5555 X-20.584 Y-9.69 I-26.889 J9.715
N5560 X-22.995 Y-7.848 I-3.715 J-2.365
N5565 G1 X-23.395 Y-7.859
N5570 X-23.942
N5575 G3 X-24.425 Y-8.352 I0.017 J-0.5 F#104
N5580 G1 X-24.436 Y-9.161
N5585 X-24.868 Y-40.839 F#105
N5590 X-24.879 Y-41.635 F#103
N5595 G3 X-24.397 Y-42.141 I0.5 J-0.007
N5600 X-21.401 Y-40.803 I0.098 J3.801 F#100
N5605 X-17.354 Y-33.791 I-11.208 J11.142
N5610 X-20.05 Y-9.669 I-27.499 J9.139
N5615 X-22.449 Y-7.848 I-3.726 J-2.417
N5620 G1 X-22.85 Y-7.859
N5625 X-23.395
N5630 G3 X-23.877 Y-8.351 I0.017 J-0.5 F#104
N5635 G1 X-23.889 Y-9.161
N5640 X-24.355 Y-40.839 F#105
N5645 X-24.366 Y-41.634 F#103
N5650 G3 X-23.884 Y-42.141 I0.5 J-0.007
N5655 X-20.874 Y-40.771 I0.174 J3.608 F#100
N5660 X-17.078 Y-34.419 I-10.209 J10.411
N5665 X-19.547 Y-9.611 I-27.554 J9.785
N5670 X-21.176 Y-8.101 I-4.478 J-3.196
N5675 X-22.85 Y-7.859 I-1.312 J-3.164
N5680 X-23.333 Y-8.351 I0.017 J-0.5 F#104
N5685 G1 X-23.344 Y-9.161
N5690 X-23.801 Y-40.839 F#105
N5695 X-23.813 Y-41.634 F#103
N5700 G3 X-23.33 Y-42.141 I0.5 J-0.007
N5705 X-20.366 Y-40.814 I0.104 J3.743 F#100
N5710 X-16.392 Y-33.869 I-11.11 J10.966
N5715 X-18.804 Y-9.936 I-28.237 J9.242
N5720 X-20.976 Y-7.937 I-4.534 J-2.749
N5725 G1 X-21.377 Y-7.888
N5730 X-21.768 Y-7.859
N5735 X-22.308
N5740 G3 X-22.79 Y-8.351 I0.017 J-0.5 F#104
N5745 G1 X-22.803 Y-9.161
N5750 X-23.298 Y-40.839 F#105
N5755 X-23.311 Y-41.634 F#103
N5760 G3 X-22.828 Y-42.141 I0.5 J-0.008
N5765 X-19.836 Y-40.777 I0.181 J3.566 F#100
N5770 X-16.106 Y-34.474 I-10.142 J10.257
N5775 X-18.308 Y-9.875 I-28.283 J9.867
N5780 X-20.443 Y-7.937 I-4.44 J-2.748
N5785 G1 X-20.842 Y-7.887
N5790 X-21.231 Y-7.859
N5795 X-21.768
N5800 G3 X-22.25 Y-8.351 I0.017 J-0.5 F#104
N5805 G1 X-22.263 Y-9.161
N5810 X-22.745 Y-40.839 F#105
N5815 X-22.757 Y-41.634 F#103
N5820 G3 X-22.274 Y-42.141 I0.5 J-0.008
N5825 X-19.315 Y-40.774 I0.158 J3.545 F#100
N5830 X-15.613 Y-34.478 I-10.12 J10.187
N5835 X-16.109 Y-13.379 I-28.633 J9.881
N5840 X-18.886 Y-8.533 I-13.196 J-4.342
N5845 X-21.23 Y-7.865 I-1.959 J-2.43
N5850 G1 X-21.313 Y-7.874 F#104
N5855 X-21.393 Y-7.897
N5860 X-21.469 Y-7.933
N5865 X-21.537 Y-7.982
N5870 X-21.596 Y-8.041
N5875 X-21.645 Y-8.11
N5880 X-21.681 Y-8.186
N5885 X-21.704 Y-8.267
N5890 X-21.713 Y-8.351
N5895 X-21.726 Y-9.161
N5900 X-22.218 Y-40.839 F#105
N5905 X-22.231 Y-41.634 F#103
N5910 G3 X-21.748 Y-42.141 I0.5 J-0.008
N5915 X-18.791 Y-40.767 I0.155 J3.533 F#100
N5920 X-15.111 Y-34.457 I-10.136 J10.14
N5925 X-15.069 Y-14.893 I-28.741 J9.844
N5930 X-18.339 Y-8.528 I-15.9 J-4.146
N5935 X-20.696 Y-7.859 I-1.974 J-2.467
N5940 X-21.178 Y-8.351 I0.017 J-0.5 F#104
N5945 G1 X-21.191 Y-9.161
N5950 X-21.689 Y-40.839 F#105
N5955 X-21.701 Y-41.634 F#103
N5960 G3 X-21.219 Y-42.141 I0.5 J-0.008
N5965 X-18.295 Y-40.786 I0.152 J3.504 F#100
N5970 X-14.644 Y-34.538 I-10.035 J10.054
N5975 X-14.286 Y-15.831 I-28.858 J9.91
N5980 X-17.785 Y-8.538 I-17.493 J-3.906
N5985 X-20.163 Y-7.859 I-2.002 J-2.504
N5990 X-20.646 Y-8.35 I0.017 J-0.5 F#104
N5995 G1 X-20.659 Y-9.161
N6000 X-21.184 Y-40.839 F#105
N6005 X-21.197 Y-41.633 F#103
N6010 G3 X-20.715 Y-42.141 I0.5 J-0.008
N6015 X-17.758 Y-40.761 I0.163 J3.509 F#100
N6020 X-14.122 Y-34.456 I-10.131 J10.041
N6025 X-13.832 Y-15.674 I-29.234 J9.846
N6030 X-17.263 Y-8.534 I-17.07 J-3.808
N6035 X-19.633 Y-7.859 I-1.994 J-2.505
N6040 X-20.115 Y-8.35 I0.017 J-0.5 F#104
N6045 G1 X-20.129 Y-9.161
N6050 X-20.642 Y-40.839 F#105
N6055 X-20.655 Y-41.634 F#103
N6060 G3 X-20.172 Y-42.141 I0.5 J-0.008
N6065 X-17.25 Y-40.765 I0.142 J3.489 F#100
N6070 X-13.637 Y-34.481 I-10.094 J9.982
N6075 X-13.101 Y-16.549 I-29.317 J9.851
N6080 X-16.481 Y-8.795 I-19.568 J-3.917
N6085 X-19.104 Y-7.859 I-2.244 J-2.144
N6090 X-19.587 Y-8.35 I0.017 J-0.5 F#104
N6095 G1 X-19.6 Y-9.161
N6100 X-20.129 Y-40.839 F#105
N6105 X-20.142 Y-41.633 F#103
N6110 G3 X-19.659 Y-42.141 I0.5 J-0.008
N6115 X-16.763 Y-40.791 I0.149 J3.461 F#100
N6120 X-13.179 Y-34.587 I-9.971 J9.898
N6125 X-12.374 Y-17.549 I-29.307 J9.922
N6130 X-15.801 Y-8.976 I-21.63 J-3.674
N6135 X-18.578 Y-7.854 I-2.469 J-2.112
N6140 G1 X-18.663 Y-7.864 F#104
N6145 X-18.744 Y-7.889
N6150 X-18.82 Y-7.927
N6155 X-18.888 Y-7.977
N6160 X-18.947 Y-8.038
N6165 X-18.995 Y-8.108
N6170 X-19.03 Y-8.184
N6175 X-19.052 Y-8.266
N6180 X-19.06 Y-8.35
N6185 X-19.075 Y-9.161
N6190 X-19.635 Y-40.839 F#105
N6195 X-19.649 Y-41.633 F#103
N6200 G3 X-19.166 Y-42.141 I0.5 J-0.009
N6205 X-16.258 Y-40.794 I0.168 J3.452 F#100
N6210 X-12.697 Y-34.622 I-9.931 J9.841
N6215 X-11.88 Y-17.568 I-29.564 J9.964
N6220 X-15.267 Y-8.99 I-21.6 J-3.57
N6225 X-18.054 Y-7.853 I-2.482 J-2.099
N6230 G1 X-18.138 Y-7.864 F#104
N6235 X-18.22 Y-7.889
N6240 X-18.296 Y-7.927
N6245 X-18.364 Y-7.977
N6250 X-18.423 Y-8.038
N6255 X-18.471 Y-8.107
N6260 X-18.506 Y-8.184
N6265 X-18.528 Y-8.266
N6270 X-18.536 Y-8.349
N6275 X-18.551 Y-9.161
N6280 X-19.122 Y-40.839 F#105
N6285 X-19.136 Y-41.633 F#103
N6290 G3 X-18.653 Y-42.141 I0.5 J-0.009
N6295 X-15.735 Y-40.779 I0.166 J3.452 F#100
N6300 X-12.188 Y-34.573 I-9.978 J9.818
N6305 X-11.407 Y-17.483 I-29.871 J9.929
N6310 X-14.748 Y-8.987 I-21.358 J-3.496
N6315 X-17.531 Y-7.853 I-2.477 J-2.098
N6320 G1 X-17.616 Y-7.864 F#104
N6325 X-17.697 Y-7.889
N6330 X-17.773 Y-7.927
N6335 X-17.841 Y-7.977
N6340 X-17.9 Y-8.038
N6345 X-17.948 Y-8.108
N6350 X-17.983 Y-8.184
N6355 X-18.005 Y-8.266
N6360 X-18.013 Y-8.349
N6365 X-18.028 Y-9.161
N6370 X-18.595 Y-40.839 F#105
N6375 X-18.61 Y-41.633 F#103
N6380 G3 X-18.127 Y-42.141 I0.5 J-0.009
N6385 X-15.208 Y-40.757 I0.151 J3.452 F#100
N6390 X-11.672 Y-34.5 I-10.055 J9.81
N6395 X-10.766 Y-18.227 I-29.895 J9.826
N6400 X-14.126 Y-9.112 I-22.883 J-3.258
N6405 X-17.01 Y-7.848 I-2.61 J-2.035
N6410 G1 X-17.096 Y-7.86 F#104
N6415 X-17.177 Y-7.885
N6420 X-17.253 Y-7.924
N6425 X-17.322 Y-7.975
N6430 X-17.381 Y-8.036
N6435 X-17.428 Y-8.107
N6440 X-17.463 Y-8.184
N6445 X-17.485 Y-8.266
N6450 X-17.492 Y-8.35
N6455 X-17.506 Y-9.161
N6460 X-18.066 Y-40.839 F#105
N6465 X-18.08 Y-41.633 F#103
N6470 G3 X-17.598 Y-42.141 I0.5 J-0.009
N6475 X-14.707 Y-40.763 I0.135 J3.436 F#100
N6480 X-11.187 Y-34.523 I-10.02 J9.765
N6485 X-10.119 Y-19.141 I-29.771 J9.796
N6490 X-13.48 Y-9.276 I-24.719 J-2.917
N6495 X-16.491 Y-7.841 I-2.787 J-1.97
N6500 G1 X-16.577 Y-7.853 F#104
N6505 X-16.66 Y-7.88
N6510 X-16.736 Y-7.92
N6515 X-16.805 Y-7.972
N6520 X-16.863 Y-8.034
N6525 X-16.911 Y-8.105
N6530 X-16.945 Y-8.183
N6535 X-16.966 Y-8.265
N6540 X-16.972 Y-8.349
N6545 X-16.987 Y-9.161
N6550 X-17.562 Y-40.839 F#105
N6555 X-17.576 Y-41.633 F#103
N6560 G3 X-17.094 Y-42.141 I0.5 J-0.009
N6565 X-14.209 Y-40.77 I0.141 J3.423 F#100
N6570 X-10.707 Y-34.559 I-9.974 J9.717
N6575 X-9.625 Y-19.191 I-29.98 J9.833
N6580 X-12.949 Y-9.295 I-24.792 J-2.823
N6585 X-15.972 Y-7.84 I-2.797 J-1.943
N6590 G1 X-16.059 Y-7.853 F#104
N6595 X-16.141 Y-7.879
N6600 X-16.218 Y-7.919
N6605 X-16.286 Y-7.971
N6610 X-16.345 Y-8.034
N6615 X-16.392 Y-8.105
N6620 X-16.426 Y-8.183
N6625 X-16.447 Y-8.265
N6630 X-16.454 Y-8.349
N6635 X-16.469 Y-9.161
N6640 X-17.06 Y-40.839 F#105
N6645 X-17.075 Y-41.632 F#103
N6650 G3 X-16.592 Y-42.141 I0.5 J-0.009
N6655 X-13.709 Y-40.774 I0.146 J3.413 F#100
N6660 X-10.225 Y-34.589 I-9.936 J9.672
N6665 X-9.133 Y-19.223 I-30.19 J9.866
N6670 X-12.422 Y-9.313 I-24.834 J-2.739
N6675 X-15.454 Y-7.84 I-2.81 J-1.927
N6680 G1 X-15.54 Y-7.852 F#104
N6685 X-15.622 Y-7.879
N6690 X-15.699 Y-7.919
N6695 X-15.768 Y-7.971
N6700 X-15.826 Y-8.034
N6705 X-15.873 Y-8.105
N6710 X-15.907 Y-8.183
N6715 X-15.928 Y-8.265
N6720 X-15.935 Y-8.349
N6725 X-15.95 Y-9.161
N6730 X-16.555 Y-40.839 F#105
N6735 X-16.571 Y-41.632 F#103
N6740 G3 X-16.088 Y-42.141 I0.5 J-0.01
N6745 X-13.211 Y-40.779 I0.149 J3.403 F#100
N6750 X-9.744 Y-34.621 I-9.895 J9.628
N6755 X-8.519 Y-20.137 I-29.96 J9.827
N6760 X-11.753 Y-9.535 I-26.72 J-2.357
N6765 X-14.014 Y-7.854 I-3.414 J-2.232
N6770 G1 X-14.419 Y-7.859
N6775 X-14.935
N6780 G3 X-15.417 Y-8.349 I0.017 J-0.5 F#104
N6785 G1 X-15.433 Y-9.161
N6790 X-16.053 Y-40.839 F#105
N6795 X-16.069 Y-41.632 F#103
N6800 G3 X-15.586 Y-42.141 I0.5 J-0.01
N6805 X-12.711 Y-40.781 I0.153 J3.396 F#100
N6810 X-9.259 Y-34.642 I-9.867 J9.589
N6815 X-8.031 Y-20.156 I-30.152 J9.85
N6820 X-11.232 Y-9.547 I-26.763 J-2.286
N6825 X-13.498 Y-7.855 I-3.401 J-2.191
N6830 G1 X-13.905 Y-7.859
N6835 X-14.419
N6840 G3 X-14.902 Y-8.348 I0.017 J-0.5 F#104
N6845 G1 X-14.918 Y-9.161
N6850 X-15.549 Y-40.839 F#105
N6855 X-15.565 Y-41.632 F#103
N6860 G3 X-15.082 Y-42.141 I0.5 J-0.01
N6865 X-12.213 Y-40.784 I0.153 J3.387 F#100
N6870 X-8.775 Y-34.665 I-9.835 J9.55
N6875 X-7.543 Y-20.181 I-30.331 J9.875
N6880 X-10.71 Y-9.562 I-26.816 J-2.216
N6885 X-12.983 Y-7.855 I-3.42 J-2.186
N6890 G1 X-13.393 Y-7.859
N6895 X-13.905
N6900 G3 X-14.388 Y-8.348 I0.017 J-0.5 F#104
N6905 G1 X-14.404 Y-9.161
N6910 X-15.047 Y-40.839 F#105
N6915 X-15.063 Y-41.631 F#103
N6920 G3 X-14.58 Y-42.141 I0.5 J-0.01
N6925 X-11.712 Y-40.783 I0.155 J3.382 F#100
N6930 X-8.288 Y-34.676 I-9.817 J9.516
N6935 X-6.92 Y-22.01 I-28.589 J9.494
N6940 X-10.021 Y-9.845 I-28.743 J-0.849
N6945 X-12.066 Y-7.948 I-4.23 J-2.511
N6950 G1 X-12.478 Y-7.89
N6955 X-12.881 Y-7.859
N6960 X-13.393
N6965 G3 X-13.841 Y-8.54 I0.017 J-0.5 F#104
N6970 G1 X-13.617 Y-9.115
N6975 X-7.839 Y-23.969 F#105
N6980 X-7.765 Y-24.158 F#103
N6985 G3 X-6.8 Y-23.994 I0.466 J0.181
N6990 G1 Y-19.569 F#100
N6995 G3 X-9.984 Y-9.151 I-21.86 J-0.986
N7000 X-12.882 Y-7.849 I-2.625 J-1.965
N7005 G1 X-12.966 Y-7.859 F#104
N7010 X-13.047 Y-7.884
N7015 X-13.123 Y-7.922
N7020 X-13.191 Y-7.971
N7025 X-13.25 Y-8.031
N7030 X-13.298 Y-8.1
N7035 X-13.334 Y-8.176
N7040 X-13.357 Y-8.256
N7045 X-13.366 Y-8.339
N7050 X-13.362 Y-8.423
N7055 X-13.343 Y-8.504
N7060 X-13.312 Y-8.581
N7065 X-13.057 Y-9.093
N7070 X-7.858 Y-19.552 F#105
N7075 X-7.747 Y-19.774 F#103
N7080 G3 X-6.8 Y-19.569 I0.448 J0.223
N7085 X-6.97 Y-15.531 I-17.731 J1.277 F#100
N7090 X-9.902 Y-8.646 I-15.83 J-2.676
N7095 X-12.37 Y-7.861 I-2.129 J-2.422
N7100 G1 X-12.455 Y-7.871 F#104
N7105 X-12.536 Y-7.895
N7110 X-12.613 Y-7.933
N7115 X-12.682 Y-7.984
N7120 X-12.741 Y-8.045
N7125 X-12.789 Y-8.116
N7130 X-12.824 Y-8.194
N7135 X-12.845 Y-8.277
N7140 X-12.852 Y-8.362
N7145 X-12.844 Y-8.448
N7150 X-12.822 Y-8.53
N7155 X-12.786 Y-8.608
N7160 X-12.516 Y-9.077
N7165 X-7.872 Y-17.145 F#105
N7170 X-7.733 Y-17.387 F#103
N7175 G3 X-6.8 Y-17.155 I0.433 J0.249
N7180 X-9.459 Y-8.616 I-11.97 J0.956 F#100
N7185 X-11.859 Y-7.865 I-2.031 J-2.278
N7190 G1 X-11.946 Y-7.875 F#104
N7195 X-12.029 Y-7.9
N7200 X-12.107 Y-7.94
N7205 X-12.176 Y-7.992
N7210 X-12.236 Y-8.056
N7215 X-12.283 Y-8.129
N7220 X-12.317 Y-8.21
N7225 X-12.337 Y-8.295
N7230 X-12.34 Y-8.383
N7235 X-12.329 Y-8.47
N7240 X-12.302 Y-8.554
N7245 X-12.261 Y-8.632
N7250 X-11.981 Y-9.062
N7255 X-7.886 Y-15.343 F#105
N7260 X-7.718 Y-15.6 F#103
N7265 G3 X-6.8 Y-15.344 I0.419 J0.273
N7270 X-8.993 Y-8.605 I-9.004 J0.796 F#100
N7275 X-11.355 Y-7.867 I-1.98 J-2.188
N7280 G1 X-11.437 Y-7.876 F#104
N7285 X-11.516 Y-7.898
N7290 X-11.591 Y-7.934
N7295 X-11.659 Y-7.981
N7300 X-11.717 Y-8.039
N7305 X-11.766 Y-8.106
N7310 X-11.802 Y-8.181
N7315 X-11.826 Y-8.26
N7320 X-11.836 Y-8.343
N7325 X-11.833 Y-8.426
N7330 X-11.815 Y-8.507
N7335 X-11.784 Y-8.585
N7340 X-11.741 Y-8.656
N7345 X-11.453 Y-9.045
N7350 X-7.901 Y-13.836 F#105
N7355 X-7.701 Y-14.106 F#103
N7360 G3 X-6.8 Y-13.825 I0.402 J0.298
N7365 X-8.744 Y-8.384 I-6.719 J0.667 F#100
N7370 X-10.385 Y-7.859 I-1.693 J-2.464
N7375 X-10.772 Y-8.651 I0.017 J-0.5 F#104
N7380 G1 X-10.485 Y-9.048
N7385 X-7.898 Y-12.626 F#105
N7390 X-7.705 Y-12.894 F#103
N7395 G3 X-6.8 Y-12.618 I0.405 J0.293
N7400 X-8.485 Y-8.245 I-4.933 J0.611 F#100
N7405 X-9.945 Y-7.855 I-1.621 J-3.14
N7410 G1 X-10.03 Y-7.865 F#104
N7415 X-10.112 Y-7.89
N7420 X-10.189 Y-7.929
N7425 X-10.258 Y-7.979
N7430 X-10.317 Y-8.041
N7435 X-10.365 Y-8.112
N7440 X-10.401 Y-8.19
N7445 X-10.422 Y-8.273
N7450 X-10.429 Y-8.358
N7455 X-10.421 Y-8.443
N7460 X-10.4 Y-8.526
N7465 X-10.364 Y-8.603
N7470 X-10.316 Y-8.674
N7475 X-10.025 Y-9.032
N7480 X-7.914 Y-11.632 F#105
N7485 X-7.688 Y-11.91 F#103
N7490 G3 X-6.8 Y-11.613 I0.388 J0.315
N7495 X-8.289 Y-8.15 I-3.464 J0.562 F#100
N7500 G1 X-8.711 Y-8.003
N7505 X-9.137 Y-7.895
N7510 X-9.574 Y-7.859
N7515 G3 X-9.92 Y-8.702 I0.017 J-0.5 F#104
N7520 G1 X-9.629 Y-9.01
N7525 X-7.935 Y-10.797 F#105
N7530 X-7.662 Y-11.085 F#103
N7535 G3 X-6.8 Y-10.758 I0.363 J0.344
N7540 X-9.147 Y-7.848 I-2.385 J0.477 F#100
N7545 G1 X-9.232 Y-7.859 F#104
N7550 X-9.315 Y-7.884
N7555 X-9.391 Y-7.923
N7560 X-9.46 Y-7.974
N7565 X-9.52 Y-8.035
N7570 X-9.568 Y-8.106
N7575 X-9.604 Y-8.183
N7580 X-9.626 Y-8.266
N7585 X-9.633 Y-8.35
N7590 X-9.627 Y-8.435
N7595 X-9.606 Y-8.517
N7600 X-9.572 Y-8.595
N7605 X-9.525 Y-8.665
N7610 X-9.468 Y-8.727
N7615 X-9.181 Y-8.989
N7620 X-7.956 Y-10.113 F#105
N7625 X-7.637 Y-10.404 F#103
N7630 G3 X-6.8 Y-10.053 I0.338 J0.369
N7635 X-8.689 Y-7.867 I-1.828 J0.329 F#100
N7640 G1 X-8.773 Y-7.877 F#104
N7645 X-8.854 Y-7.901
N7650 X-8.93 Y-7.939
N7655 X-8.999 Y-7.989
N7660 X-9.058 Y-8.05
N7665 X-9.106 Y-8.121
N7670 X-9.141 Y-8.199
N7675 X-9.162 Y-8.282
N7680 X-9.168 Y-8.367
N7685 X-9.16 Y-8.452
N7690 X-9.137 Y-8.535
N7695 X-9.101 Y-8.613
N7700 X-9.051 Y-8.683
N7705 X-8.99 Y-8.744
N7710 X-8.71 Y-8.975
N7715 X-7.971 Y-9.587 F#105
N7720 X-7.618 Y-9.878 F#103
N7725 G3 X-6.8 Y-9.511 I0.319 J0.385
N7730 X-8.271 Y-7.869 I-1.396 J0.229 F#100
N7735 G1 X-8.355 Y-7.879 F#104
N7740 X-8.437 Y-7.903
N7745 X-8.513 Y-7.94
N7750 X-8.582 Y-7.991
N7755 X-8.641 Y-8.052
N7760 X-8.689 Y-8.123
N7765 X-8.723 Y-8.201
N7770 X-8.744 Y-8.285
N7775 X-8.75 Y-8.37
N7780 X-8.742 Y-8.456
N7785 X-8.718 Y-8.539
N7790 X-8.681 Y-8.616
N7795 X-8.631 Y-8.686
N7800 X-8.569 Y-8.747
N7805 X-8.291 Y-8.972
N7810 X-7.974 Y-9.229 F#105
N7815 X-7.614 Y-9.52 F#103
N7820 G3 X-6.8 Y-9.149 I0.315 J0.389
N7825 X-7.924 Y-7.868 I-1.058 J0.205 F#100
N7830 G1 X-8.044 Y-7.879 F#104
N7835 X-8.16 Y-7.906
N7840 X-8.273 Y-7.946
N7845 X-8.379 Y-8.001
N7850 X-8.478 Y-8.07
N7855 X-8.567 Y-8.15
N7860 X-8.646 Y-8.241
N7865 X-8.712 Y-8.342
N7870 X-8.764 Y-8.45
N7875 X-8.803 Y-8.564
N7880 X-8.827 Y-8.682
N7885 X-8.835 Y-8.802
N7890 X-8.828 Y-8.923
N7895 G3 X-8.745 Y-9.206 I0.936 J0.121 F#105
N7900 X-7.822 Y-9.79 I0.924 J0.438
N7905 X-6.8 Y-8.804 I0.001 J1.022 F#103
N7910 X-7.627 Y-7.859 I-0.779 J0.153 F#100
N7915 X-8.221 Y-8.848 I0.024 J-0.687 F#104
N7920 X-8.108 Y-9.015 I0.673 J0.328
N7925 X-7.947 Y-9.152 I0.561 J0.496 F#105
N7930 X-6.8 Y-8.545 I0.399 J0.633 F#103
N7935 X-6.831 Y-8.203 I-0.917 J0.089 F#100
N7940 X-7.194 Y-8.019 I-0.3 J-0.143 F#104
N7945 X-7.071 Y-8.664 I0.061 J-0.322 F#103
N7950 X-6.804 Y-8.344 I-0.061 J0.322
N7955 G1 X-6.805 Y-8.304 F#100
N7960 X-6.815 Y-8.253
N7965 X-6.831 Y-8.203
N7970 X-6.843 Y-8.175
N7975 X-6.87 Y-8.124
N7980 X-6.881 Y-8.102
N7985 G3 X-7.357 Y-7.985 I-0.304 J-0.208 F#104
N7990 X-7.014 Y-8.635 I0.172 J-0.325
N7995 X-6.843 Y-8.175 I-0.172 J0.325
N8000 X-6.996 Y-7.97 I-0.504 J-0.216 F#100
N8005 X-7.409 Y-8.003 I-0.186 J-0.281 F#104
N8010 X-6.958 Y-8.496 I0.225 J-0.247 F#103
N8015 X-6.896 Y-8.08 I-0.225 J0.247
N8020 G1 X-6.938 Y-8.025 F#100
N8025 X-6.996 Y-7.97
N8030 G3 X-7.298 Y-7.859 I-0.315 J-0.389
N8035 G1 X-10.86
N8040 G3 X-11.341 Y-8.31 I0.017 J-0.5 F#104
N8045 G1 X-11.374 Y-8.66
N8050 X-11.383 Y-8.746 Z-3.492
N8055 X-11.391 Y-8.83 Z-3.47
N8060 X-11.398 Y-8.909 Z-3.433
N8065 X-11.405 Y-8.98 Z-3.383
N8070 X-11.411 Y-9.041 Z-3.321
N8075 X-11.416 Y-9.091 Z-3.25
N8080 X-11.419 Y-9.127 Z-3.171
N8085 X-11.422 Y-9.15 Z-3.087
N8090 Y-9.157 Z-3.
N8095 G0 Z2.
N8100 X-48.374 Y-7.967
N8105 Z-3.
N8110 G1 Z-3.5 F#103
N8115 X-49.944 Y-7.999
N8120 G3 X-58.328 Y-11.61 I0.311 J-12.26 F#100
N8125 X-53.594 Y-41.535 I11.899 J-13.455
N8130 X-51.382 Y-41.851 I10.059 J62.406
N8135 G1 X-51.353 Y-41.853 F#104
N8140 X-50.312 Y-41.89
N8145 X-50.226 Y-41.893 Z-3.492
N8150 X-50.142 Y-41.896 Z-3.47
N8155 X-50.063 Y-41.899 Z-3.433
N8160 X-49.991 Y-41.901 Z-3.383
N8165 X-49.93 Y-41.904 Z-3.321
N8170 X-49.88 Y-41.905 Z-3.25
N8175 X-49.843 Y-41.907 Z-3.171
N8180 X-49.82 Z-3.087
N8185 X-49.813 Y-41.908 Z-3.
N8190 G0 X-50.875 Y-9.112
N8195 G1 Z-3.5 F#103
N8200 G2 X-51.846 Y-8.356 I3.923 J6.035
N8205 G3 X-52.157 Y-8.251 I-0.272 J-0.293
N8210 X-58.354 Y-11.033 I0.701 J-9.856 F#100
N8215 X-55.204 Y-41.244 I11.904 J-14.029
N8220 X-53.344 Y-41.571 I41.935 J233.318
N8225 G1 X-53.266 Y-41.573 F#104
N8230 X-53.188 Y-41.56
N8235 X-53.115 Y-41.531
N8240 X-53.049 Y-41.489
N8245 G2 X-52.431 Y-41.053 I5.228 J-6.752
N8250 G1 X-52.356 Y-41.009 Z-3.492
N8255 X-52.284 Y-40.965 Z-3.47
N8260 X-52.216 Y-40.925 Z-3.433
N8265 X-52.155 Y-40.888 Z-3.383
N8270 X-52.102 Y-40.856 Z-3.321
N8275 X-52.059 Y-40.83 Z-3.25
N8280 X-52.028 Y-40.811 Z-3.171
N8285 X-52.009 Y-40.8 Z-3.087
N8290 X-52.002 Y-40.796 Z-3.
N8295 G0 X-52.402 Y-9.197
N8300 G1 Z-3.5 F#103
N8305 G2 X-53.528 Y-8.564 I5.005 J10.223
N8310 G3 X-53.795 Y-8.505 I-0.215 J-0.337
N8315 X-59.261 Y-11.25 I0.952 J-8.711 F#100
N8320 X-56.598 Y-40.939 I12.766 J-13.819
N8325 X-54.902 Y-41.287 I83.039 J400.632
N8330 G1 X-54.824 Y-41.292 F#104
N8335 X-54.746 Y-41.281
N8340 X-54.672 Y-41.256
N8345 X-54.604 Y-41.216
N8350 G2 X-53.976 Y-40.794 I6.427 J-8.886
N8355 G1 X-53.902 Y-40.75 Z-3.492
N8360 X-53.829 Y-40.707 Z-3.47
N8365 X-53.761 Y-40.667 Z-3.433
N8370 X-53.7 Y-40.631 Z-3.383
N8375 X-53.647 Y-40.599 Z-3.321
N8380 X-53.604 Y-40.574 Z-3.25
N8385 X-53.572 Y-40.555 Z-3.171
N8390 X-53.553 Y-40.544 Z-3.087
N8395 X-53.546 Y-40.54 Z-3.
N8400 G0 X-53.775 Y-9.441
N8405 G1 Z-3.5 F#103
N8410 G2 X-54.902 Y-8.82 I6.032 J12.277
N8415 G3 X-55.175 Y-8.766 I-0.209 J-0.341
N8420 X-60.174 Y-11.522 I1.108 J-7.923 F#100
N8425 X-60.823 Y-37.922 I13.579 J-13.542
N8430 X-57.807 Y-40.585 I8.285 J6.346
N8435 G1 X-57.471 Y-40.696
N8440 X-56.784 Y-40.874
N8445 X-56.251 Y-40.997
N8450 G3 X-55.951 Y-40.935 I0.076 J0.393 F#104
N8455 G2 X-55.313 Y-40.529 I7.431 J-10.974
N8460 G1 X-55.238 Y-40.486 Z-3.492
N8465 X-55.165 Y-40.444 Z-3.47
N8470 X-55.096 Y-40.405 Z-3.433
N8475 X-55.034 Y-40.37 Z-3.383
N8480 X-54.98 Y-40.339 Z-3.321
N8485 X-54.937 Y-40.314 Z-3.25
N8490 X-54.905 Y-40.296 Z-3.171
N8495 X-54.886 Y-40.285 Z-3.087
N8500 X-54.879 Y-40.281 Z-3.
N8505 G0 X-55.085 Y-9.713
N8510 G1 Z-3.5 F#103
N8515 G2 X-56.213 Y-9.107 I6.94 J14.282
N8520 G3 X-56.492 Y-9.058 I-0.203 J-0.345
N8525 X-61.095 Y-11.856 I1.305 J-7.332 F#100
N8530 X-65.314 Y-30.859 I14.166 J-13.115
N8535 X-59.288 Y-40.095 I18.454 J5.458
N8540 X-57.47 Y-40.691 I3.412 J7.333
N8545 G1 X-57.393 Y-40.702 F#104
N8550 X-57.315 Y-40.698
N8555 X-57.24 Y-40.678
N8560 X-57.169 Y-40.644
N8565 G2 X-56.521 Y-40.255 I8.283 J-13.069
N8570 G1 X-56.444 Y-40.213 Z-3.492
N8575 X-56.37 Y-40.173 Z-3.47
N8580 X-56.301 Y-40.135 Z-3.433
N8585 X-56.238 Y-40.101 Z-3.383
N8590 X-56.184 Y-40.071 Z-3.321
N8595 X-56.141 Y-40.047 Z-3.25
N8600 X-56.108 Y-40.03 Z-3.171
N8605 X-56.088 Y-40.019 Z-3.087
N8610 X-56.082 Y-40.015 Z-3.
N8615 G0 X-56.234 Y-9.984
N8620 G1 Z-3.5 F#103
N8625 G2 X-57.363 Y-9.393 I7.725 J16.142
N8630 G3 X-57.649 Y-9.351 I-0.198 J-0.348
N8635 X-61.971 Y-12.191 I1.452 J-6.917 F#100
N8640 X-66.396 Y-28.225 I14.717 J-12.689
N8645 X-60.376 Y-39.727 I19.619 J2.941
N8650 X-58.601 Y-40.378 I3.273 J6.18
N8655 G1 X-58.525 Y-40.391 F#104
N8660 X-58.447 Y-40.389
N8665 X-58.371 Y-40.372
N8670 X-58.299 Y-40.34
N8675 G2 X-57.64 Y-39.969 I9.019 J-15.247
N8680 G1 X-57.563 Y-39.929 Z-3.492
N8685 X-57.488 Y-39.89 Z-3.47
N8690 X-57.418 Y-39.854 Z-3.433
N8695 X-57.355 Y-39.821 Z-3.383
N8700 X-57.3 Y-39.793 Z-3.321
N8705 X-57.255 Y-39.77 Z-3.25
N8710 X-57.223 Y-39.753 Z-3.171
N8715 X-57.203 Y-39.743 Z-3.087
N8720 X-57.196 Y-39.739 Z-3.
N8725 G0 X-57.282 Y-10.26
N8730 G1 Z-3.5 F#103
N8735 G2 X-58.413 Y-9.684 I8.424 J17.921
N8740 G3 X-58.705 Y-9.647 I-0.193 J-0.35
N8745 X-62.858 Y-12.591 I1.593 J-6.649 F#100
N8750 X-67.107 Y-25.447 I15.048 J-12.103
N8755 X-61.395 Y-39.356 I20.401 J0.251
N8760 X-59.676 Y-40.055 I3.534 J6.231
N8765 X-59.371 Y-40.022 I0.113 J0.384 F#104
N8770 G2 X-58.7 Y-39.673 I9.667 J-17.774
N8775 G1 X-58.622 Y-39.636 Z-3.492
N8780 X-58.546 Y-39.599 Z-3.47
N8785 X-58.475 Y-39.565 Z-3.433
N8790 X-58.41 Y-39.534 Z-3.383
N8795 X-58.355 Y-39.507 Z-3.321
N8800 X-58.31 Y-39.486 Z-3.25
N8805 X-58.277 Y-39.47 Z-3.171
N8810 X-58.256 Y-39.46 Z-3.087
N8815 X-58.249 Y-39.457 Z-3.
N8820 G0 X-58.207 Y-10.366
N8825 G1 Z-3.5 F#103
N8830 G2 X-59.467 Y-9.963 I8.252 J27.928
N8835 G3 X-59.711 Y-9.957 I-0.131 J-0.378
N8840 X-63.619 Y-12.874 I1.675 J-6.321 F#100
N8845 X-67.55 Y-25.979 I15.64 J-11.834
N8850 X-62.376 Y-38.96 I20.71 J0.733
N8855 X-60.634 Y-39.725 I3.769 J6.218
N8860 G1 X-60.558 Y-39.742 F#104
N8865 X-60.48 Y-39.743
N8870 X-60.403 Y-39.729
N8875 X-60.33 Y-39.7
N8880 G2 X-59.656 Y-39.357 I10.273 J-19.318
N8885 G1 X-59.578 Y-39.319 Z-3.492
N8890 X-59.502 Y-39.283 Z-3.47
N8895 X-59.43 Y-39.249 Z-3.433
N8900 X-59.366 Y-39.219 Z-3.383
N8905 X-59.31 Y-39.192 Z-3.321
N8910 X-59.265 Y-39.171 Z-3.25
N8915 X-59.232 Y-39.155 Z-3.171
N8920 X-59.211 Y-39.146 Z-3.087
N8925 X-59.204 Y-39.142 Z-3.
N8930 G0 X-59.185 Y-10.682
N8935 G1 Z-3.5 F#103
N8940 G2 X-60.451 Y-10.293 I8.689 J30.566
N8945 G3 X-60.693 Y-10.291 I-0.125 J-0.38
N8950 X-64.486 Y-13.346 I1.864 J-6.196 F#100
N8955 X-68.028 Y-25.577 I16.148 J-11.304
N8960 X-63.335 Y-38.529 I21.131 J0.331
N8965 X-61.639 Y-39.355 I3.687 J5.417
N8970 X-61.334 Y-39.338 I0.133 J0.377 F#104
N8975 G2 X-60.646 Y-39.021 I10.714 J-22.337
N8980 G1 X-60.567 Y-38.987 Z-3.492
N8985 X-60.489 Y-38.954 Z-3.47
N8990 X-60.417 Y-38.922 Z-3.433
N8995 X-60.351 Y-38.894 Z-3.383
N9000 X-60.295 Y-38.87 Z-3.321
N9005 X-60.249 Y-38.85 Z-3.25
N9010 X-60.215 Y-38.835 Z-3.171
N9015 X-60.194 Y-38.826 Z-3.087
N9020 X-60.187 Y-38.823 Z-3.
N9025 G0 X-60.159 Y-11.023
N9030 G1 Z-3.5 F#103
N9035 G2 X-61.42 Y-10.654 I9.06 J33.289
N9040 G3 X-61.673 Y-10.658 I-0.12 J-0.382
N9045 X-65.296 Y-13.792 I2.034 J-6.013 F#100
N9050 X-68.499 Y-25.04 I16.459 J-10.768
N9055 X-64.226 Y-38.12 I21.531 J-0.204
N9060 X-62.593 Y-38.958 I4.096 J5.968
N9065 G1 X-62.509 Y-38.983 F#104
N9070 X-62.422 Y-38.994
N9075 X-62.335 Y-38.988
N9080 X-62.25 Y-38.968
N9085 X-62.17 Y-38.932
N9090 X-62.097 Y-38.883
N9095 X-62.034 Y-38.822
N9100 X-61.983 Y-38.751
N9105 X-61.944 Y-38.672
N9110 X-61.921 Y-38.587
N9115 X-61.912 Y-38.499
N9120 Y-37.9
N9125 X-61.895 Y-12.092 F#105
N9130 X-61.894 Y-11.494 F#103
N9135 G3 X-62.577 Y-11.028 I-0.5 J0.
N9140 X-66.05 Y-14.195 I2.152 J-5.847 F#100
N9145 X-68.955 Y-25.65 I17.035 J-10.417
N9150 X-65.126 Y-37.642 I21.764 J0.342
N9155 X-63.481 Y-38.572 I4.473 J5.989
N9160 G1 X-63.396 Y-38.599 F#104
N9165 X-63.308 Y-38.61
N9170 X-63.219 Y-38.605
N9175 X-63.132 Y-38.585
N9180 X-63.051 Y-38.55
N9185 X-62.976 Y-38.5
N9190 X-62.912 Y-38.439
N9195 X-62.86 Y-38.366
N9200 X-62.822 Y-38.286
N9205 X-62.798 Y-38.2
N9210 X-62.79 Y-38.112
N9215 X-62.788 Y-37.522
N9220 X-62.736 Y-12.458 F#105
N9225 X-62.735 Y-11.865 F#103
N9230 G3 X-63.422 Y-11.401 I-0.5 J0.001
N9235 X-66.698 Y-14.454 I2.193 J-5.637 F#100
N9240 X-69.238 Y-27.962 I17.972 J-10.371
N9245 X-66.013 Y-37.118 I21.258 J2.341
N9250 X-64.44 Y-38.101 I4.536 J5.508
N9255 G1 X-64.362 Y-38.131 F#104
N9260 X-64.281 Y-38.148
N9265 X-64.197 Y-38.151
N9270 X-64.115 Y-38.14
N9275 X-64.035 Y-38.115
N9280 X-63.96 Y-38.077
N9285 X-63.893 Y-38.027
N9290 X-63.835 Y-37.966
N9295 X-63.788 Y-37.897
N9300 X-63.753 Y-37.821
N9305 X-63.732 Y-37.739
N9310 X-63.724 Y-37.656
N9315 X-63.723 Y-37.094
N9320 X-63.675 Y-12.884 F#105
N9325 X-63.674 Y-12.32 F#103
N9330 G3 X-64.387 Y-11.867 I-0.5 J0.001
N9335 X-67.687 Y-15.396 I2.672 J-5.805 F#100
N9340 X-69.826 Y-26.86 I18.321 J-9.35
N9345 X-66.894 Y-36.544 I22.039 J1.386
N9350 X-65.325 Y-37.62 I4.555 J4.959
N9355 G1 X-65.247 Y-37.653 F#104
N9360 X-65.164 Y-37.672
N9365 X-65.08 Y-37.677
N9370 X-64.996 Y-37.668
N9375 X-64.914 Y-37.644
N9380 X-64.838 Y-37.606
N9385 X-64.769 Y-37.557
N9390 X-64.71 Y-37.496
N9395 X-64.661 Y-37.426
N9400 X-64.626 Y-37.349
N9405 X-64.603 Y-37.266
N9410 X-64.596 Y-37.182
N9415 X-64.594 Y-36.635
N9420 X-64.542 Y-13.334 F#105
N9425 X-64.541 Y-12.79 F#103
N9430 G3 X-65.272 Y-12.345 I-0.5 J0.001
N9435 X-68.471 Y-16.041 I2.941 J-5.779 F#100
N9440 X-70.276 Y-27.101 I18.809 J-8.747
N9445 X-67.707 Y-36.01 I22.055 J1.536
N9450 X-66.21 Y-37.091 I6.435 J7.332
N9455 G1 X-66.131 Y-37.127 F#104
N9460 X-66.048 Y-37.149
N9465 X-65.962 Y-37.156
N9470 X-65.876 Y-37.149
N9475 X-65.792 Y-37.126
N9480 X-65.714 Y-37.09
N9485 X-65.643 Y-37.04
N9490 X-65.582 Y-36.979
N9495 X-65.532 Y-36.908
N9500 X-65.495 Y-36.83
N9505 X-65.472 Y-36.746
N9510 X-65.464 Y-36.66
N9515 X-65.463 Y-36.131
N9520 X-65.403 Y-13.83 F#105
N9525 X-65.401 Y-13.304 F#103
N9530 G3 X-66.148 Y-12.868 I-0.5 J0.001
N9535 X-69.088 Y-16.362 I3.015 J-5.521 F#100
N9540 X-70.27 Y-30.232 I20.127 J-8.7
N9545 X-68.54 Y-35.36 I18.372 J3.341
N9550 X-67.043 Y-36.546 I3.846 J3.316
N9555 X-66.296 Y-36.111 I0.247 J0.434 F#104
N9560 G1 Y-35.585
N9565 Y-14.415 F#105
N9570 Y-13.889 F#103
N9575 G3 X-67.043 Y-13.454 I-0.5 J0.
N9580 X-69.568 Y-16.443 I2.515 J-4.686 F#100
N9585 X-71.125 Y-27.95 I19.002 J-8.43
N9590 X-69.283 Y-34.848 I20.946 J1.898
N9595 X-67.645 Y-36.17 I2.758 J1.744
N9600 G1 X-67.567 Y-36.199 F#104
N9605 X-67.486 Y-36.215
N9610 X-67.403 Y-36.217
N9615 X-67.321 Y-36.206
N9620 X-67.242 Y-36.18
N9625 X-67.168 Y-36.142
N9630 X-67.101 Y-36.092
N9635 X-67.044 Y-36.032
N9640 X-66.997 Y-35.963
N9645 X-66.963 Y-35.887
N9650 X-66.942 Y-35.806
N9655 X-66.934 Y-35.723
N9660 Y-35.156
N9665 Y-14.844 F#105
N9670 Y-14.277 F#103
N9675 G3 X-67.647 Y-13.825 I-0.5 J0.
N9680 X-70.001 Y-16.448 I1.917 J-4.089 F#100
N9685 X-71.744 Y-26.04 I17.273 J-8.093
N9690 X-69.924 Y-34.511 I22.176 J0.333
N9695 X-68.16 Y-35.901 I2.763 J1.692
N9700 G1 X-68.083 Y-35.93 F#104
N9705 X-68.003 Y-35.947
N9710 X-67.92 Y-35.949
N9715 X-67.839 Y-35.938
N9720 X-67.76 Y-35.914
N9725 X-67.686 Y-35.876
N9730 X-67.619 Y-35.827
N9735 X-67.562 Y-35.767
N9740 X-67.515 Y-35.698
N9745 X-67.48 Y-35.622
N9750 X-67.459 Y-35.542
N9755 X-67.451 Y-35.458
N9760 X-67.45 Y-34.892
N9765 X-67.44 Y-15.103 F#105
N9770 Y-14.537 F#103
N9775 G3 X-68.152 Y-14.084 I-0.5 J0.
N9780 X-70.595 Y-16.806 I1.776 J-4.05 F#100
N9785 X-72.235 Y-24.969 I16.12 J-7.485
N9790 X-70.429 Y-34.425 I22.213 J-0.658
N9795 X-68.954 Y-35.54 I2.317 J1.532
N9800 X-68.29 Y-35.076 I0.164 J0.472 F#104
N9805 G1 X-68.28 Y-34.45
N9810 X-67.966 Y-15.367 F#105
N9815 X-67.957 Y-14.792 F#103
N9820 G3 X-68.652 Y-14.324 I-0.5 J0.008
N9825 X-70.95 Y-16.662 I1.358 J-3.632 F#100
N9830 X-72.698 Y-24.809 I15.145 J-7.511
N9835 X-70.949 Y-34.307 I21.663 J-0.921
N9840 G1 X-70.812 Y-34.477
N9845 X-70.664 Y-34.637
N9850 X-70.506 Y-34.787
N9855 X-70.337 Y-34.925
N9860 X-70.16 Y-35.052
N9865 X-69.974 Y-35.166
N9870 X-69.781 Y-35.268
N9875 X-69.581 Y-35.356
N9880 X-69.376 Y-35.43
N9885 X-69.167 Y-35.49
N9890 X-68.953 Y-35.536
N9895 X-68.872 Y-35.551 F#104
N9900 X-68.79 Y-35.552
N9905 X-68.708 Y-35.54
N9910 X-68.629 Y-35.514
N9915 X-68.556 Y-35.475
N9920 X-68.49 Y-35.425
N9925 X-68.433 Y-35.365
N9930 X-68.387 Y-35.295
N9935 X-68.353 Y-35.219
N9940 X-68.332 Y-35.139
N9945 X-68.325 Y-35.056
N9950 X-68.327 Y-34.402
N9955 X-68.379 Y-15.615 F#105
N9960 X-68.381 Y-14.958 F#103
N9965 G3 X-69.01 Y-14.477 I-0.5 J-0.001
N9970 X-71.192 Y-16.361 I0.749 J-3.073 F#100
N9975 X-73.101 Y-23.362 I12.518 J-7.174
N9980 X-71.57 Y-33.985 I22.332 J-2.203
N9985 X-69.299 Y-35.448 I2.629 J1.586
N9990 X-68.695 Y-34.958 I0.105 J0.489 F#104
N9995 G1 X-68.697 Y-34.279
N10000 X-68.76 Y-15.738 F#105
N10005 X-68.762 Y-15.056 F#103
N10010 G3 X-69.367 Y-14.569 I-0.5 J-0.002
N10015 X-71.723 Y-16.576 I0.68 J-3.184 F#100
N10020 X-73.534 Y-22.926 I11.766 J-6.79
N10025 X-72.144 Y-33.742 I22.449 J-2.613
N10030 X-69.746 Y-35.342 I2.698 J1.448
N10035 X-69.152 Y-34.85 I0.094 J0.491 F#104
N10040 G1 X-69.153 Y-34.159
N10045 X-69.174 Y-15.846 F#105
N10050 X-69.175 Y-15.154 F#103
N10055 G3 X-69.769 Y-14.664 I-0.5 J-0.001
N10060 X-72.159 Y-16.619 I0.587 J-3.156 F#100
N10065 X-73.975 Y-22.673 I11.12 J-6.634
N10070 X-72.694 Y-33.541 I22.332 J-2.879
N10075 X-70.175 Y-35.246 I2.774 J1.384
N10080 X-69.595 Y-34.752 I0.08 J0.494 F#104
N10085 G1 X-69.596 Y-34.047
N10090 X-69.613 Y-15.956 F#105
N10095 Y-15.25 F#103
N10100 G3 X-70.193 Y-14.757 I-0.5 J0.
N10105 X-72.579 Y-16.634 I0.49 J-3.078 F#100
N10110 X-74.408 Y-22.406 I10.462 J-6.49
N10115 X-73.227 Y-33.378 I22.183 J-3.163
N10120 X-70.616 Y-35.166 I2.811 J1.306
N10125 X-70.045 Y-34.671 I0.07 J0.495 F#104
N10130 G1 Y-33.956
N10135 X-70.031 Y-16.041 F#105
N10140 X-70.03 Y-15.327 F#103
N10145 G3 X-70.601 Y-14.831 I-0.5 J0.
N10150 X-72.801 Y-16.346 I0.245 J-2.711 F#100
N10155 X-74.856 Y-22.37 I9.655 J-6.656
N10160 X-73.75 Y-33.222 I21.622 J-3.279
N10165 X-71.08 Y-35.17 I3.041 J1.365
N10170 G1 X-70.989 Y-35.156 F#104
N10175 X-70.903 Y-35.128
N10180 X-70.823 Y-35.085
N10185 X-70.753 Y-35.03
N10190 X-70.693 Y-34.964
N10195 X-70.646 Y-34.89
N10200 X-70.612 Y-34.809
N10205 X-70.593 Y-34.724
N10210 X-70.589 Y-34.638
N10215 X-70.582 Y-33.834
N10220 X-70.42 Y-16.164 F#105
N10225 X-70.412 Y-15.37 F#103
N10230 G3 X-70.899 Y-14.865 I-0.5 J0.005
N10235 X-73.152 Y-16.271 I0.037 J-2.568 F#100
N10240 X-75.248 Y-21.889 I8.751 J-6.466
N10245 X-74.221 Y-33.195 I21.331 J-3.762
N10250 X-71.888 Y-35.137 I3.303 J1.598
N10255 G1 X-71.469 Y-35.132
N10260 X-71.268
N10265 X-71.076 Y-35.133
N10270 G3 X-70.589 Y-34.63 I-0.014 J0.5 F#104
N10275 G1 X-70.596 Y-33.834
N10280 X-70.734 Y-16.167 F#105
N10285 X-70.741 Y-15.364 F#103
N10290 G3 X-71.227 Y-14.868 I-0.5 J-0.004
N10295 X-73.521 Y-16.212 I-0.044 J-2.555 F#100
N10300 X-75.651 Y-21.545 I8.193 J-6.364
N10305 X-74.766 Y-32.996 I21.233 J-4.118
N10310 X-72.254 Y-35.171 I3.479 J1.48
N10315 G1 X-71.86 Y-35.143
N10320 X-71.469 Y-35.132
N10325 G3 X-71. Y-34.631 I-0.031 J0.499 F#104
N10330 G1 X-71.004 Y-33.817
N10335 X-71.099 Y-16.18 F#105
N10340 X-71.103 Y-15.361 F#103
N10345 G3 X-71.572 Y-14.865 I-0.5 J-0.003
N10350 X-73.884 Y-16.138 I-0.101 J-2.551 F#100
N10355 X-76.138 Y-21.733 I8.176 J-6.545
N10360 X-75.221 Y-33.001 I20.733 J-3.985
N10365 X-72.818 Y-35.159 I3.593 J1.584
N10370 G1 X-72.362 Y-35.151
N10375 X-72.072 Y-35.149
N10380 X-71.86 Y-35.143
N10385 G3 X-71.391 Y-34.643 I-0.031 J0.499 F#104
N10390 G1 X-71.393 Y-33.828
N10395 X-71.434 Y-16.171 F#105
N10400 X-71.435 Y-15.354 F#103
N10405 G3 X-71.905 Y-14.856 I-0.5 J-0.001
N10410 X-74.411 Y-16.275 I-0.112 J-2.726 F#100
N10415 X-76.579 Y-21.623 I8.157 J-6.419
N10420 X-75.719 Y-32.91 I20.534 J-4.113
N10425 X-73.72 Y-35.04 I4.052 J1.799
N10430 G1 X-73.27 Y-35.117
N10435 X-72.825 Y-35.153
N10440 X-72.362 Y-35.151
N10445 G3 X-71.883 Y-34.652 I-0.021 J0.5 F#104
N10450 G1 X-71.881 Y-33.845
N10455 X-71.83 Y-16.155 F#105
N10460 X-71.828 Y-15.351 F#103
N10465 G3 X-72.307 Y-14.85 I-0.5 J0.001
N10470 X-74.848 Y-16.285 I-0.102 J-2.788 F#100
N10475 X-77.04 Y-21.64 I8.163 J-6.466
N10480 X-76.195 Y-32.871 I20.243 J-4.125
N10485 X-74.185 Y-35.038 I4.119 J1.805
N10490 G1 X-73.733 Y-35.115
N10495 X-73.287 Y-35.153
N10500 X-72.825
N10505 G3 X-72.344 Y-34.656 I-0.019 J0.5 F#104
N10510 G1 X-72.34 Y-33.849
N10515 X-72.259 Y-16.151 F#105
N10520 X-72.255 Y-15.349 F#103
N10525 G3 X-72.737 Y-14.847 I-0.5 J0.002
N10530 X-75.265 Y-16.265 I-0.083 J-2.816 F#100
N10535 X-77.573 Y-22.111 I8.525 J-6.744
N10540 X-76.593 Y-33.006 I19.556 J-3.732
N10545 X-74.192 Y-35.16 I3.594 J1.591
N10550 G1 X-73.745 Y-35.153
N10555 X-73.287
N10560 G3 X-72.804 Y-34.657 I-0.017 J0.5 F#104
N10565 G1 X-72.798 Y-33.85
N10570 X-72.663 Y-16.15 F#105
N10575 X-72.656 Y-15.351 F#103
N10580 G3 X-73.139 Y-14.847 I-0.5 J0.004
N10585 X-75.712 Y-16.284 I-0.096 J-2.849 F#100
N10590 X-77.949 Y-21.611 I8.105 J-6.538
N10595 X-77.063 Y-32.992 I19.589 J-4.2
N10600 X-75.075 Y-35.046 I3.995 J1.878
N10605 G1 X-74.637 Y-35.118
N10610 X-74.205 Y-35.153
N10615 X-73.745
N10620 G3 X-73.263 Y-34.657 I-0.017 J0.5 F#104
N10625 G1 X-73.256 Y-33.85
N10630 X-73.108 Y-16.15 F#105
N10635 X-73.101 Y-15.351 F#103
N10640 G3 X-73.584 Y-14.847 I-0.5 J0.004
N10645 X-76.133 Y-16.266 I-0.078 J-2.86 F#100
N10650 X-78.488 Y-22.09 I8.473 J-6.813
N10655 X-77.451 Y-33.143 I18.969 J-3.796
N10660 X-75.114 Y-35.155 I3.497 J1.698
N10665 G1 X-74.664 Y-35.153
N10670 X-74.205
N10675 G3 X-73.722 Y-34.659 I-0.017 J0.5 F#104
N10680 G1 X-73.714 Y-33.851
N10685 X-73.52 Y-16.149 F#105
N10690 X-73.511 Y-15.352 F#103
N10695 G3 X-73.993 Y-14.847 I-0.5 J0.005
N10700 X-76.585 Y-16.286 I-0.093 J-2.886 F#100
N10705 X-78.865 Y-21.614 I8.09 J-6.613
N10710 X-78.011 Y-32.934 I19.237 J-4.241
N10715 X-76.004 Y-35.044 I4.065 J1.858
N10720 G1 X-75.561 Y-35.117
N10725 X-75.125 Y-35.153
N10730 X-74.664
N10735 G3 X-74.182 Y-34.659 I-0.017 J0.5 F#104
N10740 G1 X-74.173 Y-33.851
N10745 X-73.972 Y-16.149 F#105
N10750 X-73.963 Y-15.352 F#103
N10755 G3 X-74.445 Y-14.847 I-0.5 J0.006
N10760 X-76.999 Y-16.253 I-0.075 J-2.886 F#100
N10765 X-79.398 Y-22.046 I8.416 J-6.879
N10770 X-78.406 Y-33.074 I18.72 J-3.873
N10775 X-76.025 Y-35.16 I3.558 J1.66
N10780 G1 X-75.587 Y-35.153
N10785 X-75.125
N10790 G3 X-74.642 Y-34.66 I-0.017 J0.5 F#104
N10795 G1 X-74.631 Y-33.851
N10800 X-74.377 Y-16.149 F#105
N10805 X-74.365 Y-15.354 F#103
N10810 G3 X-74.848 Y-14.847 I-0.5 J0.007
N10815 X-77.446 Y-16.262 I-0.102 J-2.906 F#100
N10820 X-79.864 Y-22.081 I8.447 J-6.921
N10825 X-78.874 Y-33.062 I18.601 J-3.858
N10830 X-76.488 Y-35.16 I3.563 J1.645
N10835 G1 X-76.051 Y-35.153
N10840 X-75.587
N10845 G3 X-75.105 Y-34.661 I-0.017 J0.5 F#104
N10850 G1 X-75.092 Y-33.851
N10855 X-74.821 Y-16.149 F#105
N10860 X-74.808 Y-15.354 F#103
N10865 G3 X-75.291 Y-14.847 I-0.5 J0.008
N10870 X-77.888 Y-16.262 I-0.094 J-2.918 F#100
N10875 X-80.322 Y-22.074 I8.439 J-6.95
N10880 X-79.344 Y-33.045 I18.513 J-3.879
N10885 X-76.952 Y-35.161 I3.577 J1.635
N10890 G1 X-76.514 Y-35.153
N10895 X-76.051
N10900 G3 X-75.568 Y-34.662 I-0.017 J0.5 F#104
N10905 G1 X-75.555 Y-33.851
N10910 X-75.258 Y-16.149 F#105
N10915 X-75.244 Y-15.355 F#103
N10920 G3 X-75.727 Y-14.847 I-0.5 J0.008
N10925 X-78.324 Y-16.252 I-0.096 J-2.925 F#100
N10930 X-80.775 Y-22.039 I8.403 J-6.972
N10935 X-79.723 Y-33.221 I18.263 J-3.923
N10940 X-77.415 Y-35.155 I3.44 J1.761
N10945 G1 X-76.976 Y-35.153
N10950 X-76.514
N10955 G3 X-76.031 Y-34.663 I-0.017 J0.5 F#104
N10960 G1 X-76.016 Y-33.851
N10965 X-75.689 Y-16.149 F#105
N10970 X-75.674 Y-15.356 F#103
N10975 G3 X-76.156 Y-14.847 I-0.5 J0.009
N10980 X-78.771 Y-16.256 I-0.103 J-2.939 F#100
N10985 X-81.238 Y-22.058 I8.421 J-7.005
N10990 X-80.191 Y-33.213 I18.189 J-3.92
N10995 X-77.879 Y-35.155 I3.423 J1.729
N11000 G1 X-77.439 Y-35.153
N11005 X-76.976
N11010 G3 X-76.494 Y-34.663 I-0.017 J0.5 F#104
N11015 G1 X-76.478 Y-33.851
N11020 X-76.134 Y-16.149 F#105
N11025 X-76.119 Y-15.356 F#103
N11030 G3 X-76.601 Y-14.847 I-0.5 J0.01
N11035 X-79.23 Y-16.274 I-0.098 J-2.955 F#100
N11040 X-81.709 Y-22.124 I8.486 J-7.046
N11045 X-80.649 Y-33.223 I18.089 J-3.871
N11050 X-78.34 Y-35.154 I3.411 J1.732
N11055 G1 X-77.902 Y-35.153
N11060 X-77.439
N11065 G3 X-76.956 Y-34.663 I-0.017 J0.5 F#104
N11070 G1 X-76.94 Y-33.851
N11075 X-76.594 Y-16.149 F#105
N11080 X-76.578 Y-15.356 F#103
N11085 G3 X-77.061 Y-14.847 I-0.5 J0.01
N11090 X-79.641 Y-16.228 I-0.085 J-2.942 F#100
N11095 X-82.14 Y-21.97 I8.332 J-7.041
N11100 X-81.147 Y-33.153 I18.112 J-4.027
N11105 X-78.811 Y-35.155 I3.483 J1.701
N11110 G1 X-78.364 Y-35.153
N11115 X-77.902
N11120 G3 X-77.419 Y-34.665 I-0.017 J0.5 F#104
N11125 G1 X-77.401 Y-33.851
N11130 X-76.998 Y-16.149 F#105
N11135 X-76.981 Y-15.358 F#103
N11140 G3 X-77.463 Y-14.847 I-0.5 J0.011
N11145 X-80.09 Y-16.231 I-0.122 J-2.955 F#100
N11150 X-82.6 Y-21.974 I8.334 J-7.063
N11155 X-81.616 Y-33.141 I18.071 J-4.034
N11160 X-79.274 Y-35.155 I3.499 J1.701
N11165 G1 X-78.827 Y-35.153
N11170 X-78.364
N11175 G3 X-77.882 Y-34.665 I-0.017 J0.5 F#104
N11180 G1 X-77.862 Y-33.851
N11185 X-77.442 Y-16.149 F#105
N11190 X-77.424 Y-15.359 F#103
N11195 G3 X-77.906 Y-14.847 I-0.5 J0.012
N11200 X-80.552 Y-16.248 I-0.121 J-2.972 F#100
N11205 X-83.072 Y-22.041 I8.401 J-7.099
N11210 X-82.074 Y-33.152 I17.994 J-3.984
N11215 X-79.736 Y-35.155 I3.488 J1.705
N11220 G1 X-79.29 Y-35.153
N11225 X-78.827
N11230 G3 X-78.344 Y-34.665 I-0.017 J0.5 F#104
N11235 G1 X-78.325 Y-33.851
N11240 X-77.905 Y-16.149 F#105
N11245 X-77.887 Y-15.359 F#103
N11250 G3 X-78.369 Y-14.847 I-0.5 J0.012
N11255 X-81.001 Y-16.248 I-0.104 J-2.978 F#100
N11260 X-83.53 Y-22.031 I8.391 J-7.113
N11265 X-82.544 Y-33.139 I17.964 J-4.004
N11270 X-80.201 Y-35.155 I3.504 J1.702
N11275 G1 X-79.753 Y-35.153
N11280 X-79.29
N11285 G3 X-78.807 Y-34.666 I-0.017 J0.5 F#104
N11290 G1 X-78.787 Y-33.851
N11295 X-78.351 Y-16.149 F#105
N11300 X-78.332 Y-15.359 F#103
N11305 G3 X-78.814 Y-14.847 I-0.5 J0.012
N11310 X-81.46 Y-16.259 I-0.105 J-2.989 F#100
N11315 X-83.998 Y-22.077 I8.436 J-7.142
N11320 X-83.004 Y-33.147 I17.903 J-3.972
N11325 X-80.663 Y-35.155 I3.494 J1.704
N11330 G1 X-80.216 Y-35.153
N11335 X-79.753
N11340 G3 X-79.271 Y-34.666 I-0.017 J0.5 F#104
N11345 G1 X-79.25 Y-33.851
N11350 X-78.811 Y-16.149 F#105
N11355 X-78.791 Y-15.359 F#103
N11360 G3 X-79.273 Y-14.847 I-0.5 J0.012
N11365 X-81.907 Y-16.254 I-0.094 J-2.992 F#100
N11370 X-84.453 Y-22.055 I8.416 J-7.153
N11375 X-83.475 Y-33.131 I17.885 J-4.002
N11380 X-81.128 Y-35.155 I3.513 J1.7
N11385 G1 X-80.68 Y-35.153
N11390 X-80.216
N11395 G3 X-79.734 Y-34.666 I-0.017 J0.5 F#104
N11400 G1 X-79.713 Y-33.851
N11405 X-79.255 Y-16.149 F#105
N11410 X-79.234 Y-15.36 F#103
N11415 G3 X-79.716 Y-14.847 I-0.5 J0.013
N11420 X-82.347 Y-16.239 I-0.101 J-2.991 F#100
N11425 X-84.998 Y-22.559 I8.772 J-7.396
N11430 X-83.847 Y-33.307 I17.454 J-3.567
N11435 X-81.592 Y-35.149 I3.354 J1.805
N11440 G1 X-81.143 Y-35.153
N11445 X-80.68
N11450 G3 X-80.197 Y-34.667 I-0.017 J0.5 F#104
N11455 G1 X-80.175 Y-33.851
N11460 X-79.691 Y-16.149 F#105
N11465 X-79.67 Y-15.36 F#103
N11470 G3 X-80.152 Y-14.847 I-0.5 J0.014
N11475 X-82.782 Y-16.219 I-0.115 J-2.987 F#100
N11480 X-85.446 Y-22.484 I8.695 J-7.396
N11485 X-84.328 Y-33.274 I17.481 J-3.642
N11490 X-82.042 Y-35.154 I3.377 J1.776
N11495 G1 X-81.608 Y-35.153
N11500 X-81.143
N11505 G3 X-80.66 Y-34.668 I-0.017 J0.5 F#104
N11510 G1 X-80.637 Y-33.851
N11515 X-80.123 Y-16.149 F#105
N11520 X-80.1 Y-15.361 F#103
N11525 G3 X-80.582 Y-14.847 I-0.5 J0.015
N11530 X-83.236 Y-16.221 I-0.132 J-2.996 F#100
N11535 X-85.907 Y-22.491 I8.7 J-7.41
N11540 X-84.794 Y-33.271 I17.458 J-3.644
N11545 X-82.507 Y-35.154 I3.371 J1.763
N11550 G1 X-82.074 Y-35.153
N11555 X-81.608
N11560 G3 X-81.126 Y-34.668 I-0.017 J0.5 F#104
N11565 G1 X-81.101 Y-33.851
N11570 X-80.575 Y-16.149 F#105
N11575 X-80.552 Y-15.362 F#103
N11580 G3 X-81.034 Y-14.847 I-0.5 J0.015
N11585 X-83.69 Y-16.222 I-0.13 J-3.001 F#100
N11590 X-86.367 Y-22.492 I8.701 J-7.422
N11595 X-85.259 Y-33.268 I17.436 J-3.651
N11600 X-82.991 Y-35.149 I3.385 J1.773
N11605 G1 X-82.535 Y-35.153
N11610 X-82.074
N11615 G3 X-81.591 Y-34.669 I-0.017 J0.5 F#104
N11620 G1 X-81.566 Y-33.851
N11625 X-81.028 Y-16.149 F#105
N11630 X-81.004 Y-15.362 F#103
N11635 G3 X-81.486 Y-14.847 I-0.5 J0.015
N11640 X-84.163 Y-16.245 I-0.128 J-3.016 F#100
N11645 X-86.748 Y-22.044 I8.396 J-7.22
N11650 X-85.809 Y-33.097 I17.76 J-4.058
N11655 X-83.449 Y-35.156 I3.544 J1.681
N11660 G1 X-82.998 Y-35.153
N11665 X-82.535
N11670 G3 X-82.053 Y-34.668 I-0.017 J0.5 F#104
N11675 G1 X-82.029 Y-33.851
N11680 X-81.504 Y-16.149 F#105
N11685 X-81.48 Y-15.362 F#103
N11690 G3 X-81.963 Y-14.847 I-0.5 J0.015
N11695 X-84.597 Y-16.221 I-0.108 J-3.007 F#100
N11700 X-87.288 Y-22.498 I8.707 J-7.447
N11705 X-86.19 Y-33.26 I17.393 J-3.662
N11710 X-83.898 Y-35.154 I3.388 J1.766
N11715 G1 X-83.463 Y-35.153
N11720 X-82.998
N11725 G3 X-82.515 Y-34.669 I-0.017 J0.5 F#104
N11730 G1 X-82.49 Y-33.851
N11735 X-81.935 Y-16.149 F#105
N11740 X-81.91 Y-15.362 F#103
N11745 G3 X-82.392 Y-14.847 I-0.5 J0.016
N11750 X-85.052 Y-16.222 I-0.128 J-3.012 F#100
N11755 X-87.748 Y-22.498 I8.707 J-7.457
N11760 X-86.656 Y-33.255 I17.381 J-3.669
N11765 X-84.362 Y-35.154 I3.384 J1.752
N11770 G1 X-83.928 Y-35.153
N11775 X-83.463
N11780 G3 X-82.98 Y-34.669 I-0.017 J0.5 F#104
N11785 G1 X-82.954 Y-33.851
N11790 X-82.387 Y-16.149 F#105
N11795 X-82.362 Y-15.363 F#103
N11800 G3 X-82.845 Y-14.847 I-0.5 J0.016
N11805 X-85.506 Y-16.221 I-0.129 J-3.016 F#100
N11810 X-88.207 Y-22.493 I8.703 J-7.465
N11815 X-87.121 Y-33.251 I17.37 J-3.68
N11820 X-84.827 Y-35.154 I3.383 J1.744
N11825 G1 X-84.392 Y-35.153
N11830 X-83.928
N11835 G3 X-83.445 Y-34.67 I-0.017 J0.5 F#104
N11840 G1 X-83.419 Y-33.851
N11845 X-82.84 Y-16.149 F#105
N11850 X-82.814 Y-15.363 F#103
N11855 G3 X-83.297 Y-14.847 I-0.5 J0.016
N11860 X-85.979 Y-16.242 I-0.128 J-3.029 F#100
N11865 X-88.586 Y-22.041 I8.395 J-7.261
N11870 X-87.574 Y-33.282 I17.525 J-4.087
N11875 X-85.308 Y-35.15 I3.398 J1.814
N11880 G1 X-84.854 Y-35.153
N11885 X-84.392
N11890 G3 X-83.91 Y-34.669 I-0.017 J0.5 F#104
N11895 G1 X-83.884 Y-33.851
N11900 X-83.316 Y-16.149 F#105
N11905 X-83.291 Y-15.363 F#103
N11910 G3 X-83.773 Y-14.847 I-0.5 J0.016
N11915 X-86.413 Y-16.216 I-0.111 J-3.017 F#100
N11920 X-89.126 Y-22.486 I8.695 J-7.484
N11925 X-88.051 Y-33.244 I17.343 J-3.701
N11930 X-85.323 Y-35.196 I3.179 J1.561
N11935 G1 X-84.854 Y-35.153
N11940 G3 X-84.371 Y-34.67 I-0.017 J0.5 F#104
N11945 G1 X-84.344 Y-33.851
N11950 X-83.747 Y-16.149 F#105
N11955 X-83.721 Y-15.364 F#103
N11960 G3 X-84.203 Y-14.847 I-0.5 J0.017
N11965 X-86.868 Y-16.215 I-0.133 J-3.021 F#100
N11970 X-89.606 Y-22.53 I8.866 J-7.596
N11975 X-89.52 Y-23.994 I4.413 J-0.475
N11980 G2 X-89.803 Y-27.492 I-10.845 J-0.883
N11985 G3 X-87.967 Y-34.09 I12.412 J-0.1
N11990 X-85.317 Y-35.153 I2.306 J1.915
N11995 X-84.883 Y-34.439 I-0.017 J0.5 F#104
N12000 G1 X-85.132 Y-33.914
N12005 X-88.531 Y-26.74 F#105
N12010 X-88.69 Y-26.403 F#103
N12015 G3 X-89.619 Y-26.469 I-0.452 J-0.214
N12020 X-87.9 Y-34.632 I7.973 J-2.584 F#100
N12025 X-85.78 Y-35.153 I1.804 J2.764
N12030 X-85.353 Y-34.423 I-0.017 J0.5 F#104
N12035 G1 X-85.613 Y-33.923
N12040 X-88.804 Y-27.759 F#105
N12045 X-88.988 Y-27.403 F#103
N12050 G3 X-89.906 Y-27.475 I-0.444 J-0.23
N12055 X-89.649 Y-32.496 I5.685 J-2.226 F#100
N12060 X-86.238 Y-35.194 I3.324 J0.697
N12065 G1 X-86.148 Y-35.18 F#104
N12070 X-86.062 Y-35.151
N12075 X-85.983 Y-35.108
N12080 X-85.913 Y-35.053
N12085 X-85.853 Y-34.988
N12090 X-85.806 Y-34.913
N12095 X-85.771 Y-34.833
N12100 X-85.752 Y-34.748
N12105 X-85.746 Y-34.662
N12110 X-85.756 Y-34.576
N12115 X-85.779 Y-34.494
N12120 X-85.815 Y-34.418
N12125 X-86.078 Y-33.926
N12130 X-88.989 Y-28.468 F#105
N12135 X-89.216 Y-28.042 F#103
N12140 G3 X-90.102 Y-28.049 I-0.441 J-0.235
N12145 X-90.321 Y-31.704 I3.717 J-2.056 F#100
N12150 X-88.434 Y-34.859 I4.833 J0.748
N12155 X-86.692 Y-35.153 I1.445 J3.258
N12160 X-86.268 Y-34.419 I-0.017 J0.5 F#104
N12165 G1 X-86.53 Y-33.925
N12170 X-89.188 Y-28.914 F#105
N12175 X-89.434 Y-28.451 F#103
N12180 G3 X-90.299 Y-28.42 I-0.442 J-0.234
N12185 X-90.636 Y-31.944 I3.203 J-2.085 F#100
N12190 X-88.709 Y-34.939 I4.224 J0.601
N12195 X-87.137 Y-35.153 I1.294 J3.626
N12200 X-86.716 Y-34.415 I-0.017 J0.5 F#104
N12205 G1 X-86.98 Y-33.928
N12210 X-89.446 Y-29.39 F#105
N12215 X-89.71 Y-28.905 F#103
N12220 G3 X-90.56 Y-28.859 I-0.439 J-0.239
N12225 X-91.014 Y-32.064 I3.126 J-2.078 F#100
N12230 X-89.148 Y-34.935 I4.284 J0.742
N12235 X-87.569 Y-35.153 I1.312 J3.682
N12240 X-87.15 Y-34.409 I-0.017 J0.5 F#104
N12245 G1 X-87.417 Y-33.931
N12250 X-89.715 Y-29.817 F#105
N12255 X-89.988 Y-29.328 F#103
N12260 G3 X-90.835 Y-29.285 I-0.437 J-0.244
N12265 X-91.255 Y-32.498 I2.918 J-2.015 F#100
N12270 X-87.987 Y-35.191 I3.17 J0.518
N12275 G1 X-87.896 Y-35.177 F#104
N12280 X-87.81 Y-35.147
N12285 X-87.73 Y-35.104
N12290 X-87.659 Y-35.048
N12295 X-87.599 Y-34.981
N12300 X-87.552 Y-34.906
N12305 X-87.519 Y-34.824
N12310 X-87.5 Y-34.738
N12315 X-87.496 Y-34.651
N12320 X-87.507 Y-34.565
N12325 X-87.532 Y-34.482
N12330 X-87.571 Y-34.405
N12335 X-87.841 Y-33.933
N12340 X-89.964 Y-30.214 F#105
N12345 X-90.253 Y-29.708 F#103
N12350 G3 X-91.086 Y-29.654 I-0.434 J-0.248
N12355 G1 X-91.215 Y-29.826 F#100
N12360 X-91.331 Y-30.007
N12365 X-91.433 Y-30.196
N12370 X-91.522 Y-30.391
N12375 X-91.596 Y-30.593
N12380 X-91.655 Y-30.799
N12385 X-91.7 Y-31.009
N12390 X-91.728 Y-31.222
N12395 X-91.742 Y-31.436
N12400 X-91.74 Y-31.651
N12405 X-91.722 Y-31.865
N12410 X-91.689 Y-32.077
N12415 X-91.641 Y-32.286
N12420 X-91.577 Y-32.491
N12425 X-91.499 Y-32.691
N12430 G3 X-88.388 Y-35.155 I2.834 J0.382
N12435 G1 X-88.302 Y-35.145 F#104
N12440 X-88.22 Y-35.119
N12445 X-88.143 Y-35.081
N12450 X-88.074 Y-35.029
N12455 X-88.014 Y-34.966
N12460 X-87.967 Y-34.895
N12465 X-87.932 Y-34.816
N12470 X-87.911 Y-34.732
N12475 X-87.905 Y-34.646
N12480 X-87.914 Y-34.56
N12485 X-87.938 Y-34.478
N12490 X-87.975 Y-34.4
N12495 X-88.247 Y-33.937
N12500 X-90.192 Y-30.626 F#105
N12505 X-90.525 Y-30.059 F#103
N12510 G3 X-91.31 Y-29.959 I-0.431 J-0.253
N12515 X-91.931 Y-32.406 I1.845 J-1.77 F#100
N12520 G1 X-91.907 Y-32.616
N12525 X-91.869 Y-32.823
N12530 X-91.816 Y-33.028
N12535 X-91.748 Y-33.229
N12540 X-91.667 Y-33.424
N12545 X-91.573 Y-33.613
N12550 X-91.465 Y-33.795
N12555 X-91.345 Y-33.969
N12560 X-91.213 Y-34.134
N12565 X-91.069 Y-34.289
N12570 X-90.915 Y-34.434
N12575 X-90.752 Y-34.568
N12580 X-90.579 Y-34.69
N12585 X-90.398 Y-34.799
N12590 X-90.21 Y-34.896
N12595 X-90.016 Y-34.979
N12600 X-89.816 Y-35.048
N12605 X-89.612 Y-35.103
N12610 X-89.404 Y-35.144
N12615 X-89.195 Y-35.17
N12620 X-88.984 Y-35.181
N12625 X-88.772 Y-35.177
N12630 X-88.684 Y-35.164 F#104
N12635 X-88.599 Y-35.137
N12640 X-88.52 Y-35.095
N12645 X-88.45 Y-35.041
N12650 X-88.391 Y-34.976
N12655 X-88.343 Y-34.902
N12660 X-88.309 Y-34.822
N12665 X-88.29 Y-34.737
N12670 X-88.285 Y-34.65
N12675 X-88.295 Y-34.564
N12680 X-88.319 Y-34.482
N12685 X-88.357 Y-34.405
N12690 X-88.627 Y-33.934
N12695 X-90.385 Y-30.864 F#105
N12700 X-90.728 Y-30.263 F#103
N12705 G3 X-91.487 Y-30.132 I-0.434 J-0.248
N12710 X-92.219 Y-32.508 I1.65 J-1.809 F#100
N12715 X-89.138 Y-35.163 I2.861 J0.205
N12720 G1 X-89.051 Y-35.152 F#104
N12725 X-88.967 Y-35.126
N12730 X-88.89 Y-35.086
N12735 X-88.82 Y-35.033
N12740 X-88.761 Y-34.969
N12745 X-88.713 Y-34.897
N12750 X-88.679 Y-34.817
N12755 X-88.659 Y-34.733
N12760 X-88.653 Y-34.647
N12765 X-88.663 Y-34.561
N12770 X-88.687 Y-34.478
N12775 X-88.724 Y-34.401
N12780 X-88.996 Y-33.936
N12785 X-90.651 Y-31.11 F#105
N12790 X-91.003 Y-30.509 F#103
N12795 G3 X-91.759 Y-30.381 I-0.432 J-0.253
N12800 X-92.462 Y-32.843 I1.61 J-1.791 F#100
N12805 X-89.483 Y-35.147 I2.69 J0.401
N12810 G1 X-89.399 Y-35.137 F#104
N12815 X-89.317 Y-35.113
N12820 X-89.24 Y-35.075
N12825 X-89.171 Y-35.025
N12830 X-89.112 Y-34.963
N12835 X-89.064 Y-34.892
N12840 X-89.029 Y-34.814
N12845 X-89.008 Y-34.731
N12850 X-89.002 Y-34.645
N12855 X-89.01 Y-34.56
N12860 X-89.033 Y-34.477
N12865 X-89.069 Y-34.399
N12870 X-89.342 Y-33.937
N12875 X-90.88 Y-31.334 F#105
N12880 X-91.243 Y-30.72 F#103
N12885 G3 X-91.987 Y-30.585 I-0.43 J-0.254
N12890 X-92.737 Y-32.929 I1.468 J-1.761 F#100
N12895 X-89.81 Y-35.143 I2.596 J0.39
N12900 G1 X-89.726 Y-35.134 F#104
N12905 X-89.644 Y-35.11
N12910 X-89.567 Y-35.072
N12915 X-89.498 Y-35.021
N12920 X-89.439 Y-34.959
N12925 X-89.391 Y-34.888
N12930 X-89.356 Y-34.809
N12935 X-89.335 Y-34.725
N12940 X-89.329 Y-34.639
N12945 X-89.339 Y-34.553
N12950 X-89.363 Y-34.47
N12955 X-89.401 Y-34.392
N12960 X-89.677 Y-33.942
N12965 X-91.139 Y-31.561 F#105
N12970 X-91.517 Y-30.946 F#103
N12975 G3 X-92.257 Y-30.819 I-0.426 J-0.262
N12980 X-92.935 Y-33.312 I1.43 J-1.728 F#100
N12985 X-90.18 Y-35.141 I2.439 J0.684
N12990 G1 X-90.095 Y-35.132 F#104
N12995 X-90.013 Y-35.108
N13000 X-89.936 Y-35.07
N13005 X-89.866 Y-35.019
N13010 X-89.807 Y-34.956
N13015 X-89.759 Y-34.884
N13020 X-89.725 Y-34.805
N13025 X-89.705 Y-34.72
N13030 X-89.699 Y-34.633
N13035 X-89.71 Y-34.547
N13040 X-89.735 Y-34.463
N13045 X-89.774 Y-34.385
N13050 X-90.053 Y-33.946
N13055 X-91.408 Y-31.813 F#105
N13060 X-91.807 Y-31.186 F#103
N13065 G3 X-92.532 Y-31.056 I-0.422 J-0.268
N13070 G1 X-92.667 Y-31.174 F#100
N13075 X-92.792 Y-31.304
N13080 X-92.905 Y-31.444
N13085 X-93.006 Y-31.593
N13090 X-93.093 Y-31.75
N13095 X-93.167 Y-31.914
N13100 X-93.227 Y-32.084
N13105 X-93.271 Y-32.259
N13110 X-93.301 Y-32.436
N13115 X-93.315 Y-32.616
N13120 X-93.314 Y-32.796
N13125 X-93.298 Y-32.975
N13130 X-93.266 Y-33.152
N13135 X-93.219 Y-33.325
N13140 X-93.157 Y-33.495
N13145 X-93.081 Y-33.658
N13150 X-92.992 Y-33.814
N13155 X-92.889 Y-33.961
N13160 G3 X-90.511 Y-35.153 I2.1 J1.223
N13165 X-90.107 Y-34.383 I-0.017 J0.5 F#104
N13170 G1 X-90.387 Y-33.948
N13175 X-91.634 Y-32.004 F#105
N13180 X-92.042 Y-31.369 F#103
N13185 G3 X-92.758 Y-31.236 I-0.421 J-0.27
N13190 X-93.479 Y-33.298 I1.037 J-1.519 F#100
N13195 X-90.825 Y-35.14 I2.322 J0.514
N13200 G1 X-90.74 Y-35.13 F#104
N13205 X-90.657 Y-35.106
N13210 X-90.58 Y-35.068
N13215 X-90.51 Y-35.016
N13220 X-90.451 Y-34.953
N13225 X-90.403 Y-34.881
N13230 X-90.369 Y-34.801
N13235 X-90.349 Y-34.715
N13240 X-90.345 Y-34.628
N13245 X-90.356 Y-34.541
N13250 X-90.382 Y-34.457
N13255 X-90.423 Y-34.379
N13260 X-90.704 Y-33.951
N13265 X-91.849 Y-32.206 F#105
N13270 X-92.293 Y-31.529 F#103
N13275 G3 X-92.965 Y-31.373 I-0.418 J-0.274
N13280 G1 X-93.094 Y-31.454 F#100
N13285 X-93.214 Y-31.548
N13290 X-93.326 Y-31.652
N13295 X-93.427 Y-31.766
N13300 X-93.517 Y-31.889
N13305 X-93.596 Y-32.021
N13310 X-93.661 Y-32.158
N13315 X-93.714 Y-32.302
N13320 X-93.753 Y-32.449
N13325 X-93.778 Y-32.6
N13330 X-93.789 Y-32.752
N13335 X-93.785 Y-32.905
N13340 X-93.767 Y-33.056
N13345 X-93.736 Y-33.205
N13350 X-93.69 Y-33.351
N13355 G3 X-91.178 Y-35.134 I2.182 J0.414
N13360 G1 X-91.094 Y-35.125 F#104
N13365 X-91.012 Y-35.103
N13370 X-90.936 Y-35.066
N13375 X-90.867 Y-35.016
N13380 X-90.807 Y-34.954
N13385 X-90.759 Y-34.883
N13390 X-90.724 Y-34.805
N13395 X-90.703 Y-34.721
N13400 X-90.697 Y-34.635
N13405 X-90.707 Y-34.548
N13410 X-90.731 Y-34.465
N13415 X-90.77 Y-34.386
N13420 X-91.048 Y-33.946
N13425 X-92.046 Y-32.365 F#105
N13430 X-92.494 Y-31.656 F#103
N13435 G3 X-93.138 Y-31.474 I-0.423 J-0.267
N13440 X-93.955 Y-33.432 I0.74 J-1.458 F#100
N13445 X-91.474 Y-35.143 I2.206 J0.544
N13450 G1 X-91.389 Y-35.134 F#104
N13455 X-91.307 Y-35.11
N13460 X-91.23 Y-35.071
N13465 X-91.161 Y-35.02
N13470 X-91.101 Y-34.958
N13475 X-91.053 Y-34.886
N13480 X-91.019 Y-34.806
N13485 X-90.999 Y-34.722
N13490 X-90.993 Y-34.636
N13495 X-91.003 Y-34.549
N13500 X-91.028 Y-34.466
N13505 X-91.067 Y-34.388
N13510 X-91.345 Y-33.945
N13515 X-92.254 Y-32.496 F#105
N13520 X-92.713 Y-31.764 F#103
N13525 G3 X-93.332 Y-31.569 I-0.424 J-0.266
N13530 X-94.2 Y-33.401 I0.649 J-1.429 F#100
N13535 X-91.763 Y-35.143 I2.169 J0.458
N13540 G1 X-91.677 Y-35.134 F#104
N13545 X-91.595 Y-35.11
N13550 X-91.517 Y-35.071
N13555 X-91.448 Y-35.02
N13560 X-91.389 Y-34.957
N13565 X-91.341 Y-34.884
N13570 X-91.307 Y-34.805
N13575 X-91.287 Y-34.72
N13580 X-91.282 Y-34.633
N13585 X-91.292 Y-34.546
N13590 X-91.318 Y-34.463
N13595 X-91.357 Y-34.385
N13600 X-91.636 Y-33.947
N13605 X-92.49 Y-32.605 F#105
N13610 X-92.955 Y-31.873 F#103
N13615 G3 X-93.573 Y-31.682 I-0.422 J-0.268
N13620 X-94.097 Y-34.131 I0.66 J-1.422 F#100
N13625 X-92.043 Y-35.153 I1.813 J1.067
N13630 X-91.64 Y-34.383 I-0.017 J0.5 F#104
N13635 G1 X-91.919 Y-33.948
N13640 X-92.713 Y-32.714 F#105
N13645 X-93.186 Y-31.978 F#103
N13650 G3 X-93.798 Y-31.787 I-0.421 J-0.27
N13655 X-94.545 Y-33.811 I0.596 J-1.37 F#100
N13660 X-92.314 Y-35.145 I1.977 J0.773
N13665 G1 X-92.228 Y-35.135 F#104
N13670 X-92.144 Y-35.11
N13675 X-92.067 Y-35.071
N13680 X-91.997 Y-35.019
N13685 X-91.937 Y-34.955
N13690 X-91.89 Y-34.881
N13695 X-91.856 Y-34.801
N13700 X-91.837 Y-34.715
N13705 X-91.833 Y-34.628
N13710 X-91.845 Y-34.54
N13715 X-91.872 Y-34.457
N13720 X-91.913 Y-34.379
N13725 X-92.194 Y-33.951
N13730 X-92.94 Y-32.816 F#105
N13735 X-93.423 Y-32.081 F#103
N13740 G3 X-94.032 Y-31.894 I-0.418 J-0.275
N13745 G1 X-94.169 Y-31.962 F#100
N13750 X-94.297 Y-32.044
N13755 X-94.416 Y-32.139
N13760 X-94.524 Y-32.246
N13765 X-94.621 Y-32.363
N13770 X-94.705 Y-32.49
N13775 X-94.776 Y-32.625
N13780 X-94.832 Y-32.767
N13785 X-94.873 Y-32.913
N13790 X-94.899 Y-33.063
N13795 X-94.909 Y-33.215
N13800 X-94.903 Y-33.367
N13805 X-94.881 Y-33.518
N13810 X-94.844 Y-33.665
N13815 X-94.791 Y-33.808
N13820 X-94.724 Y-33.945
N13825 X-94.644 Y-34.074
N13830 X-94.55 Y-34.194
N13835 X-94.444 Y-34.304
N13840 G3 X-92.591 Y-35.153 I1.616 J1.079
N13845 X-92.195 Y-34.373 I-0.017 J0.5 F#104
N13850 G1 X-92.478 Y-33.955
N13855 X-93.177 Y-32.922 F#105
N13860 X-93.673 Y-32.188 F#103
N13865 G3 X-94.279 Y-32.007 I-0.414 J-0.28
N13870 X-94.913 Y-33.899 I0.475 J-1.212 F#100
N13875 X-92.845 Y-35.153 I1.84 J0.702
N13880 X-92.454 Y-34.365 I-0.017 J0.5 F#104
N13885 G1 X-92.74 Y-33.96
N13890 X-93.394 Y-33.032 F#105
N13895 X-93.921 Y-32.285 F#103
N13900 G3 X-94.505 Y-32.105 I-0.409 J-0.288
N13905 X-95.029 Y-34.102 I0.475 J-1.192 F#100
N13910 X-93.098 Y-35.153 I1.71 J0.843
N13915 X-92.709 Y-34.361 I-0.017 J0.5 F#104
N13920 G1 X-92.996 Y-33.963
N13925 X-93.596 Y-33.129 F#105
N13930 X-94.144 Y-32.367 F#103
N13935 G3 X-94.706 Y-32.183 I-0.406 J-0.292
N13940 X-95.279 Y-34.026 I0.398 J-1.134 F#100
N13945 X-93.343 Y-35.153 I1.719 J0.727
N13950 X-92.955 Y-34.36 I-0.017 J0.5 F#104
N13955 G1 X-93.242 Y-33.964
N13960 X-93.78 Y-33.222 F#105
N13965 X-94.352 Y-32.433 F#103
N13970 G3 X-94.88 Y-32.242 I-0.405 J-0.293
N13975 X-95.644 Y-33.504 I0.214 J-0.991 F#100
N13980 G1 X-95.623 Y-33.666
N13985 X-95.588 Y-33.826
N13990 X-95.538 Y-33.982
N13995 X-95.474 Y-34.133
N14000 X-95.397 Y-34.277
N14005 X-95.307 Y-34.413
N14010 X-95.206 Y-34.541
N14015 X-95.092 Y-34.66
N14020 X-94.969 Y-34.767
N14025 X-94.837 Y-34.863
N14030 X-94.696 Y-34.946
N14035 X-94.548 Y-35.016
N14040 X-94.395 Y-35.073
N14045 X-94.237 Y-35.115
N14050 X-94.076 Y-35.143
N14055 X-93.912 Y-35.156
N14060 X-93.749 Y-35.155
N14065 X-93.586 Y-35.138
N14070 X-93.506 Y-35.13 F#104
N14075 X-93.427 Y-35.108
N14080 X-93.354 Y-35.074
N14085 X-93.286 Y-35.028
N14090 X-93.228 Y-34.971
N14095 X-93.179 Y-34.905
N14100 X-93.142 Y-34.832
N14105 X-93.117 Y-34.753
N14110 X-93.106 Y-34.672
N14115 X-93.109 Y-34.589
N14120 X-93.126 Y-34.508
N14125 X-93.155 Y-34.43
N14130 X-93.198 Y-34.358
N14135 X-93.485 Y-33.965
N14140 X-93.957 Y-33.318 F#105
N14145 X-94.567 Y-32.484 F#103
N14150 G3 X-95.038 Y-32.284 I-0.404 J-0.295
N14155 X-95.873 Y-33.373 I0.167 J-0.992 F#100
N14160 X-93.826 Y-35.143 I1.811 J0.026
N14165 G1 X-93.746 Y-35.135 F#104
N14170 X-93.668 Y-35.113
N14175 X-93.594 Y-35.078
N14180 X-93.527 Y-35.032
N14185 X-93.468 Y-34.975
N14190 X-93.42 Y-34.91
N14195 X-93.382 Y-34.837
N14200 X-93.358 Y-34.759
N14205 X-93.346 Y-34.677
N14210 X-93.348 Y-34.595
N14215 X-93.364 Y-34.514
N14220 X-93.393 Y-34.437
N14225 X-93.434 Y-34.365
N14230 X-93.719 Y-33.96
N14235 X-94.141 Y-33.361 F#105
N14240 X-94.732 Y-32.521 F#103
N14245 G3 X-95.206 Y-32.313 I-0.409 J-0.288
N14250 X-96.068 Y-33.412 I0.146 J-1.002 F#100
N14255 X-94.067 Y-35.146 I1.796 J0.051
N14260 G1 X-93.979 Y-35.136 F#104
N14265 X-93.895 Y-35.11
N14270 X-93.817 Y-35.07
N14275 X-93.746 Y-35.016
N14280 X-93.687 Y-34.951
N14285 X-93.64 Y-34.876
N14290 X-93.607 Y-34.794
N14295 X-93.589 Y-34.707
N14300 X-93.587 Y-34.618
N14305 X-93.6 Y-34.53
N14310 X-93.629 Y-34.446
N14315 X-93.673 Y-34.368
N14320 X-93.958 Y-33.958
N14325 X-94.347 Y-33.398 F#105
N14330 X-94.932 Y-32.557 F#103
N14335 G3 X-95.407 Y-32.346 I-0.411 J-0.285
N14340 X-96.253 Y-33.574 I0.202 J-1.045 F#100
N14345 X-94.285 Y-35.144 I1.747 J0.17
N14350 G1 X-94.198 Y-35.134 F#104
N14355 X-94.114 Y-35.109
N14360 X-94.036 Y-35.07
N14365 X-93.966 Y-35.017
N14370 X-93.906 Y-34.952
N14375 X-93.859 Y-34.878
N14380 X-93.826 Y-34.797
N14385 X-93.807 Y-34.711
N14390 X-93.804 Y-34.622
N14395 X-93.817 Y-34.535
N14400 X-93.845 Y-34.451
N14405 X-93.887 Y-34.373
N14410 X-94.17 Y-33.955
N14415 X-94.524 Y-33.432 F#105
N14420 X-95.096 Y-32.589 F#103
N14425 G3 X-95.574 Y-32.374 I-0.414 J-0.281
N14430 G1 X-95.698 Y-32.402 F#100
N14435 X-95.817 Y-32.443
N14440 X-95.93 Y-32.499
N14445 X-96.036 Y-32.568
N14450 X-96.133 Y-32.648
N14455 X-96.219 Y-32.74
N14460 X-96.295 Y-32.841
N14465 X-96.357 Y-32.951
N14470 X-96.407 Y-33.067
N14475 X-96.442 Y-33.188
N14480 X-96.463 Y-33.312
N14485 X-96.468 Y-33.438
N14490 X-96.459 Y-33.564
N14495 X-96.435 Y-33.688
N14500 X-96.397 Y-33.808
N14505 X-96.344 Y-33.923
N14510 G3 X-94.513 Y-35.153 I1.628 J0.446
N14515 X-94.113 Y-34.378 I-0.017 J0.5 F#104
N14520 G1 X-94.395 Y-33.951
N14525 X-94.71 Y-33.474 F#105
N14530 X-95.273 Y-32.622 F#103
N14535 G3 X-95.746 Y-32.4 I-0.417 J-0.276
N14540 X-96.641 Y-33.471 I0.103 J-0.995 F#100
N14545 X-94.736 Y-35.147 I1.71 J0.024
N14550 G1 X-94.649 Y-35.137 F#104
N14555 X-94.565 Y-35.111
N14560 X-94.487 Y-35.072
N14565 X-94.418 Y-35.019
N14570 X-94.358 Y-34.955
N14575 X-94.311 Y-34.881
N14580 X-94.277 Y-34.8
N14585 X-94.258 Y-34.714
N14590 X-94.255 Y-34.626
N14595 X-94.267 Y-34.539
N14600 X-94.294 Y-34.455
N14605 X-94.335 Y-34.378
N14610 X-94.617 Y-33.951
N14615 X-94.912 Y-33.505 F#105
N14620 X-95.477 Y-32.651 F#103
N14625 G3 X-95.947 Y-32.43 I-0.417 J-0.276
N14630 X-96.718 Y-33.967 I0.149 J-1.036 F#100
N14635 X-94.941 Y-35.153 I1.582 J0.447
N14640 X-94.541 Y-34.379 I-0.017 J0.5 F#104
N14645 G1 X-94.822 Y-33.951
N14650 X-95.096 Y-33.533 F#105
N14655 X-95.657 Y-32.678 F#103
N14660 G3 X-96.129 Y-32.456 I-0.418 J-0.274
N14665 X-96.85 Y-34.12 I0.156 J-1.056 F#100
N14670 X-95.153 Y-35.153 I1.51 J0.57
N14675 X-94.752 Y-34.38 I-0.017 J0.5 F#104
N14680 G1 X-95.033 Y-33.95
N14685 X-95.286 Y-33.562 F#105
N14690 X-95.844 Y-32.706 F#103
N14695 G3 X-96.315 Y-32.482 I-0.419 J-0.273
N14700 X-97.2 Y-33.552 I0.087 J-0.973 F#100
N14705 X-95.358 Y-35.145 I1.642 J0.037
N14710 G1 X-95.271 Y-35.135 F#104
N14715 X-95.188 Y-35.11
N14720 X-95.11 Y-35.071
N14725 X-95.04 Y-35.018
N14730 X-94.98 Y-34.954
N14735 X-94.933 Y-34.881
N14740 X-94.899 Y-34.8
N14745 X-94.88 Y-34.714
N14750 X-94.877 Y-34.626
N14755 X-94.889 Y-34.539
N14760 X-94.916 Y-34.455
N14765 X-94.957 Y-34.377
N14770 X-95.239 Y-33.952
N14775 X-95.481 Y-33.587 F#105
N14780 X-96.049 Y-32.731 F#103
N14785 G3 X-96.516 Y-32.51 I-0.417 J-0.276
N14790 G1 X-96.638 Y-32.533 F#100
N14795 X-96.756 Y-32.571
N14800 X-96.868 Y-32.623
N14805 X-96.973 Y-32.688
N14810 X-97.07 Y-32.765
N14815 X-97.157 Y-32.853
N14820 X-97.232 Y-32.951
N14825 X-97.295 Y-33.058
N14830 X-97.344 Y-33.172
N14835 X-97.379 Y-33.29
N14840 X-97.4 Y-33.412
N14845 X-97.406 Y-33.536
N14850 X-97.397 Y-33.659
N14855 X-97.372 Y-33.78
N14860 X-97.334 Y-33.898
N14865 X-97.281 Y-34.01
N14870 G3 X-95.56 Y-35.153 I1.529 J0.435
N14875 X-95.159 Y-34.378 I-0.017 J0.5 F#104
N14880 G1 X-95.441 Y-33.951
N14885 X-95.653 Y-33.629 F#105
N14890 X-96.229 Y-32.753 F#103
N14895 G3 X-96.675 Y-32.529 I-0.418 J-0.275
N14900 X-97.546 Y-33.686 I0.031 J-0.93 F#100
N14905 G1 X-97.53 Y-33.837
N14910 X-97.5 Y-33.986
N14915 X-97.455 Y-34.131
N14920 X-97.397 Y-34.271
N14925 X-97.325 Y-34.405
N14930 X-97.24 Y-34.531
N14935 X-97.144 Y-34.648
N14940 X-97.037 Y-34.755
N14945 X-96.919 Y-34.851
N14950 X-96.793 Y-34.936
N14955 X-96.659 Y-35.007
N14960 X-96.519 Y-35.066
N14965 X-96.374 Y-35.11
N14970 X-96.225 Y-35.14
N14975 X-96.074 Y-35.155
N14980 X-95.922
N14985 X-95.771 Y-35.141
N14990 X-95.685 Y-35.132 F#104
N14995 X-95.602 Y-35.107
N15000 X-95.525 Y-35.068
N15005 X-95.455 Y-35.016
N15010 X-95.395 Y-34.953
N15015 X-95.348 Y-34.88
N15020 X-95.314 Y-34.799
N15025 X-95.295 Y-34.713
N15030 X-95.291 Y-34.626
N15035 X-95.302 Y-34.538
N15040 X-95.329 Y-34.455
N15045 X-95.371 Y-34.376
N15050 X-95.653 Y-33.952
N15055 X-95.839 Y-33.672 F#105
N15060 X-96.442 Y-32.765 F#103
N15065 G3 X-96.849 Y-32.542 I-0.416 J-0.277
N15070 X-97.709 Y-33.234 I-0.05 J-0.818 F#100
N15075 X-95.976 Y-35.14 I1.518 J-0.361
N15080 G1 X-95.89 Y-35.131 F#104
N15085 X-95.808 Y-35.107
N15090 X-95.73 Y-35.068
N15095 X-95.661 Y-35.016
N15100 X-95.601 Y-34.953
N15105 X-95.553 Y-34.88
N15110 X-95.519 Y-34.8
N15115 X-95.5 Y-34.715
N15120 X-95.496 Y-34.627
N15125 X-95.507 Y-34.54
N15130 X-95.533 Y-34.456
N15135 X-95.574 Y-34.378
N15140 X-95.856 Y-33.951
N15145 X-96.023 Y-33.698 F#105
N15150 X-96.636 Y-32.768 F#103
N15155 G3 X-97.016 Y-32.545 I-0.417 J-0.275
N15160 X-97.889 Y-33.216 I-0.072 J-0.809 F#100
N15165 X-96.172 Y-35.14 I1.505 J-0.385
N15170 G1 X-96.087 Y-35.131 F#104
N15175 X-96.005 Y-35.107
N15180 X-95.928 Y-35.069
N15185 X-95.859 Y-35.018
N15190 X-95.799 Y-34.956
N15195 X-95.751 Y-34.883
N15200 X-95.717 Y-34.804
N15205 X-95.697 Y-34.72
N15210 X-95.692 Y-34.633
N15215 X-95.702 Y-34.546
N15220 X-95.727 Y-34.462
N15225 X-95.767 Y-34.384
N15230 X-96.046 Y-33.947
N15235 X-96.204 Y-33.7 F#105
N15240 X-96.799 Y-32.768 F#103
N15245 G3 X-97.184 Y-32.538 I-0.421 J-0.269
N15250 X-98.107 Y-33.602 I-0.042 J-0.896 F#100
N15255 G1 X-98.1 Y-33.757
N15260 X-98.078 Y-33.911
N15265 X-98.041 Y-34.061
N15270 X-97.989 Y-34.207
N15275 X-97.922 Y-34.347
N15280 X-97.842 Y-34.48
N15285 X-97.749 Y-34.604
N15290 X-97.643 Y-34.717
N15295 X-97.527 Y-34.82
N15300 X-97.401 Y-34.91
N15305 X-97.267 Y-34.988
N15310 X-97.125 Y-35.051
N15315 X-96.978 Y-35.1
N15320 X-96.827 Y-35.134
N15325 X-96.673 Y-35.152
N15330 X-96.518 Y-35.155
N15335 X-96.364 Y-35.142
N15340 X-96.279 Y-35.133 F#104
N15345 X-96.197 Y-35.109
N15350 X-96.12 Y-35.071
N15355 X-96.051 Y-35.021
N15360 X-95.992 Y-34.959
N15365 X-95.944 Y-34.887
N15370 X-95.909 Y-34.809
N15375 X-95.889 Y-34.725
N15380 X-95.883 Y-34.639
N15385 X-95.892 Y-34.553
N15390 X-95.916 Y-34.469
N15395 X-95.954 Y-34.391
N15400 X-96.23 Y-33.943
N15405 X-96.368 Y-33.718 F#105
N15410 X-96.958 Y-32.761 F#103
N15415 G3 X-97.321 Y-32.528 I-0.426 J-0.262
N15420 X-98.258 Y-33.809 I-0.056 J-0.943 F#100
N15425 G1 X-98.235 Y-33.958
N15430 X-98.196 Y-34.104
N15435 X-98.143 Y-34.246
N15440 X-98.076 Y-34.381
N15445 X-97.996 Y-34.51
N15450 X-97.903 Y-34.629
N15455 X-97.799 Y-34.739
N15460 X-97.684 Y-34.838
N15465 X-97.56 Y-34.924
N15470 X-97.428 Y-34.998
N15475 X-97.29 Y-35.059
N15480 X-97.146 Y-35.105
N15485 X-96.998 Y-35.136
N15490 X-96.847 Y-35.153
N15495 X-96.696 Y-35.154
N15500 X-96.546 Y-35.141
N15505 X-96.461 Y-35.132 F#104
N15510 X-96.379 Y-35.108
N15515 X-96.303 Y-35.071
N15520 X-96.234 Y-35.02
N15525 X-96.174 Y-34.959
N15530 X-96.127 Y-34.887
N15535 X-96.092 Y-34.809
N15540 X-96.071 Y-34.725
N15545 X-96.065 Y-34.639
N15550 X-96.074 Y-34.553
N15555 X-96.097 Y-34.47
N15560 X-96.135 Y-34.392
N15565 X-96.411 Y-33.942
N15570 X-96.545 Y-33.725 F#105
N15575 X-97.151 Y-32.738 F#103
N15580 G3 X-97.48 Y-32.509 I-0.426 J-0.262
N15585 X-98.396 Y-33.074 I-0.154 J-0.776 F#100
N15590 X-96.726 Y-35.139 I1.455 J-0.531
N15595 G1 X-96.643 Y-35.13 F#104
N15600 X-96.562 Y-35.107
N15605 X-96.486 Y-35.071
N15610 X-96.418 Y-35.021
N15615 X-96.359 Y-34.961
N15620 X-96.31 Y-34.891
N15625 X-96.275 Y-34.814
N15630 X-96.253 Y-34.732
N15635 X-96.245 Y-34.647
N15640 X-96.253 Y-34.561
N15645 X-96.275 Y-34.478
N15650 X-96.311 Y-34.4
N15655 X-96.583 Y-33.937
N15660 X-96.709 Y-33.721 F#105
N15665 X-97.296 Y-32.721 F#103
N15670 G3 X-97.62 Y-32.486 I-0.431 J-0.253
N15675 X-98.57 Y-33.036 I-0.187 J-0.773 F#100
N15680 X-96.915 Y-35.138 I1.442 J-0.567
N15685 G1 X-96.833 Y-35.129 F#104
N15690 X-96.753 Y-35.107
N15695 X-96.677 Y-35.071
N15700 X-96.609 Y-35.023
N15705 X-96.55 Y-34.964
N15710 X-96.501 Y-34.895
N15715 X-96.465 Y-34.819
N15720 X-96.443 Y-34.737
N15725 X-96.434 Y-34.653
N15730 X-96.44 Y-34.568
N15735 X-96.461 Y-34.486
N15740 X-96.495 Y-34.408
N15745 X-96.763 Y-33.932
N15750 X-96.894 Y-33.7 F#105
N15755 X-97.459 Y-32.698 F#103
N15760 G3 X-97.787 Y-32.455 I-0.436 J-0.246
N15765 X-98.802 Y-33.125 I-0.15 J-0.876 F#100
N15770 X-97.094 Y-35.14 I1.508 J-0.453
N15775 G1 X-97.011 Y-35.132 F#104
N15780 X-96.932 Y-35.109
N15785 X-96.857 Y-35.074
N15790 X-96.789 Y-35.026
N15795 X-96.73 Y-34.967
N15800 X-96.681 Y-34.899
N15805 X-96.645 Y-34.824
N15810 X-96.622 Y-34.743
N15815 X-96.613 Y-34.66
N15820 X-96.618 Y-34.576
N15825 X-96.637 Y-34.494
N15830 X-96.67 Y-34.416
N15835 X-96.933 Y-33.927
N15840 X-97.066 Y-33.682 F#105
N15845 X-97.608 Y-32.678 F#103
N15850 G3 X-97.941 Y-32.427 I-0.44 J-0.238
N15855 X-98.965 Y-33.101 I-0.203 J-0.807 F#100
N15860 G1 X-99.006 Y-33.246
N15865 X-99.032 Y-33.395
N15870 X-99.044 Y-33.545
N15875 X-99.041 Y-33.696
N15880 X-99.024 Y-33.845
N15885 X-98.992 Y-33.993
N15890 X-98.946 Y-34.136
N15895 X-98.887 Y-34.275
N15900 X-98.815 Y-34.407
N15905 X-98.73 Y-34.531
N15910 X-98.633 Y-34.647
N15915 X-98.526 Y-34.753
N15920 X-98.409 Y-34.848
N15925 X-98.284 Y-34.932
N15930 X-98.151 Y-35.003
N15935 X-98.012 Y-35.06
N15940 X-97.868 Y-35.104
N15945 X-97.72 Y-35.134
N15950 X-97.57 Y-35.15
N15955 X-97.419 Y-35.151
N15960 X-97.269 Y-35.137
N15965 X-97.188 Y-35.129 F#104
N15970 X-97.109 Y-35.107
N15975 X-97.034 Y-35.072
N15980 X-96.966 Y-35.025
N15985 X-96.907 Y-34.967
N15990 X-96.859 Y-34.9
N15995 X-96.822 Y-34.825
N16000 X-96.798 Y-34.745
N16005 X-96.789 Y-34.662
N16010 X-96.793 Y-34.578
N16015 X-96.811 Y-34.496
N16020 X-96.843 Y-34.418
N16025 X-97.105 Y-33.926
N16030 X-97.253 Y-33.648 F#105
N16035 X-97.784 Y-32.65 F#103
N16040 G3 X-98.126 Y-32.395 I-0.441 J-0.235
N16045 G1 X-98.246 Y-32.384 F#100
N16050 X-98.367 Y-32.388
N16055 X-98.486 Y-32.407
N16060 X-98.601 Y-32.442
N16065 X-98.712 Y-32.491
N16070 X-98.815 Y-32.553
N16075 X-98.91 Y-32.628
N16080 X-98.994 Y-32.715
N16085 X-99.066 Y-32.812
N16090 X-99.125 Y-32.917
N16095 X-99.171 Y-33.029
N16100 X-99.202 Y-33.146
N16105 X-99.217 Y-33.265
N16110 X-99.218 Y-33.386
N16115 X-99.231 Y-33.537
N16120 X-99.229 Y-33.689
N16125 X-99.213 Y-33.84
N16130 X-99.182 Y-33.988
N16135 X-99.136 Y-34.133
N16140 X-99.077 Y-34.273
N16145 X-99.005 Y-34.406
N16150 X-98.919 Y-34.532
N16155 X-98.823 Y-34.648
N16160 X-98.715 Y-34.755
N16165 X-98.597 Y-34.851
N16170 X-98.471 Y-34.935
N16175 X-98.337 Y-35.006
N16180 X-98.196 Y-35.064
N16185 X-98.051 Y-35.107
N16190 X-97.902 Y-35.137
N16195 X-97.751 Y-35.152
N16200 X-97.599
N16205 X-97.448 Y-35.137
N16210 X-97.368 Y-35.129 F#104
N16215 X-97.289 Y-35.108
N16220 X-97.215 Y-35.073
N16225 X-97.147 Y-35.027
N16230 X-97.088 Y-34.97
N16235 X-97.04 Y-34.903
N16240 X-97.003 Y-34.829
N16245 X-96.978 Y-34.75
N16250 X-96.968 Y-34.668
N16255 X-96.971 Y-34.584
N16260 X-96.988 Y-34.503
N16265 X-97.019 Y-34.425
N16270 X-97.277 Y-33.922
N16275 X-97.444 Y-33.597 F#105
N16280 X-97.936 Y-32.64 F#103
N16285 G3 X-98.327 Y-32.371 I-0.445 J-0.228
N16290 X-99.382 Y-33.835 I-0.064 J-1.066 F#100
N16295 X-97.633 Y-35.153 I1.561 J0.253
N16300 X-97.206 Y-34.425 I-0.017 J0.5 F#104
N16305 G1 X-97.464 Y-33.921
N16310 X-97.64 Y-33.577 F#105
N16315 X-98.126 Y-32.629 F#103
N16320 G3 X-98.528 Y-32.359 I-0.445 J-0.228
N16325 X-99.643 Y-33.446 I-0.063 J-1.052 F#100
N16330 X-97.821 Y-35.148 I1.654 J-0.056
N16335 G1 X-97.738 Y-35.139 F#104
N16340 X-97.658 Y-35.115
N16345 X-97.582 Y-35.079
N16350 X-97.514 Y-35.03
N16355 X-97.455 Y-34.971
N16360 X-97.407 Y-34.903
N16365 X-97.371 Y-34.827
N16370 X-97.348 Y-34.746
N16375 X-97.339 Y-34.663
N16380 X-97.344 Y-34.579
N16385 X-97.363 Y-34.497
N16390 X-97.396 Y-34.419
N16395 X-97.657 Y-33.925
N16400 X-97.864 Y-33.535 F#105
N16405 X-98.345 Y-32.625 F#103
N16410 G3 X-98.786 Y-32.359 I-0.442 J-0.234
N16415 X-99.57 Y-34.286 I0.082 J-1.157 F#100
N16420 X-97.997 Y-35.153 I1.399 J0.678
N16425 X-97.574 Y-34.416 I-0.017 J0.5 F#104
N16430 G1 X-97.838 Y-33.927
N16435 X-98.051 Y-33.531 F#105
N16440 X-98.535 Y-32.633 F#103
N16445 G3 X-98.987 Y-32.37 I-0.44 J-0.237
N16450 X-99.844 Y-34.135 I0.08 J-1.129 F#100
N16455 X-98.17 Y-35.153 I1.503 J0.586
N16460 X-97.752 Y-34.407 I-0.017 J0.5 F#104
N16465 G1 X-98.021 Y-33.933
N16470 X-98.257 Y-33.517 F#105
N16475 X-98.75 Y-32.649 F#103
N16480 G3 X-99.229 Y-32.397 I-0.435 J-0.247
N16485 X-99.93 Y-34.317 I0.145 J-1.141 F#100
N16490 X-98.352 Y-35.153 I1.39 J0.717
N16495 X-97.944 Y-34.39 I-0.017 J0.5 F#104
N16500 G1 X-98.221 Y-33.943
N16505 X-98.495 Y-33.5 F#105
N16510 X-99.002 Y-32.681 F#103
N16515 G3 X-99.526 Y-32.454 I-0.425 J-0.263
N16520 X-100.05 Y-34.427 I0.273 J-1.129 F#100
N16525 X-98.545 Y-35.153 I1.32 J0.814
N16530 X-98.141 Y-34.384 I-0.017 J0.5 F#104
N16535 G1 X-98.42 Y-33.947
N16540 X-98.686 Y-33.53 F#105
N16545 X-99.2 Y-32.725 F#103
N16550 G3 X-99.735 Y-32.507 I-0.421 J-0.269
N16555 X-100.115 Y-34.593 I0.316 J-1.135 F#100
N16560 X-98.736 Y-35.153 I1.2 J0.976
N16565 X-98.343 Y-34.368 I-0.017 J0.5 F#104
N16570 G1 X-98.628 Y-33.958
N16575 X-98.909 Y-33.552 F#105
N16580 X-99.441 Y-32.787 F#103
N16585 G3 X-100.005 Y-32.596 I-0.411 J-0.285
N16590 X-100.323 Y-34.589 I0.378 J-1.082 F#100
N16595 X-98.937 Y-35.154 I1.202 J0.967
N16600 X-98.556 Y-34.358 I-0.021 J0.5 F#104
N16605 G1 X-98.846 Y-33.964
N16610 X-99.11 Y-33.606 F#105
N16615 X-99.657 Y-32.862 F#103
N16620 G3 X-100.235 Y-32.69 I-0.403 J-0.296
N16625 X-100.532 Y-34.571 I0.387 J-1.025 F#100
N16630 X-99.129 Y-35.156 I1.211 J0.93
N16635 X-98.76 Y-34.349 I-0.025 J0.499 F#104
