%
(SETUP1-TOP-Z-HEAD-BASEPLATE-OUTER-CONTOUR-6MM)
(T1  D=6. CR=0. - ZMIN=-8.2 - FLAT END MILL)
N10 G90 G94 G17 G91.1
N15 G21
N20 G53 G0 Z0.
(2D CONTOUR2)
N25 M9
N30 T1 M6
N35 S3200 M3
N40 G54
N45 M8
N55 G0 X-112.386 Y-53.
N60 G43 Z15. H1
N65 #102=330. (FINISH)
N70 #103=200. (ENTRY)
N75 #107=270. (RAMPING)
N80 G0 Z5.
N85 G1 Z2.5 F#103
N90 S3000
N95 X-118. Z2.468 F#107
N100 G2 X-120.121 Y-52.121 Z2.455 I0. J3.
N105 G1 X-122.121 Y-50.121 Z2.439
N110 G2 X-123. Y-48. Z2.426 I2.121 J2.121
N115 G1 Y-2. Z2.168
N120 G2 X-122.121 Y0.121 Z2.155 I3. J0.
N125 G1 X-120.121 Y2.121 Z2.139
N130 G2 X-118. Y3. Z2.126 I2.121 J-2.121
N135 G1 X-0.2 Z1.464
N140 G2 X1.921 Y2.121 Z1.451 I0. J-3.
N145 G1 X2.121 Y1.921 Z1.449
N150 G2 X3. Y-0.2 Z1.436 I-2.121 J-2.121
N155 G1 Y-49.8 Z1.158
N160 G2 X2.121 Y-51.921 Z1.145 I-3. J0.
N165 G1 X1.921 Y-52.121 Z1.143
N170 G2 X-0.2 Y-53. Z1.13 I-2.121 J2.121
N175 G1 X-118. Z0.468
N180 G2 X-120.121 Y-52.121 Z0.455 I0. J3.
N185 G1 X-122.121 Y-50.121 Z0.439
N190 G2 X-123. Y-48. Z0.426 I2.121 J2.121
N195 G1 Y-2. Z0.168
N200 G2 X-122.121 Y0.121 Z0.155 I3. J0.
N205 G1 X-120.121 Y2.121 Z0.139
N210 G2 X-118. Y3. Z0.126 I2.121 J-2.121
N215 G1 X-0.2 Z-0.536
N220 G2 X1.921 Y2.121 Z-0.549 I0. J-3.
N225 G1 X2.121 Y1.921 Z-0.551
N230 G2 X3. Y-0.2 Z-0.564 I-2.121 J-2.121
N235 G1 Y-49.8 Z-0.842
N240 G2 X2.121 Y-51.921 Z-0.855 I-3. J0.
N245 G1 X1.921 Y-52.121 Z-0.857
N250 G2 X-0.2 Y-53. Z-0.87 I-2.121 J2.121
N255 G1 X-118. Z-1.532
N260 G2 X-120.121 Y-52.121 Z-1.545 I0. J3.
N265 G1 X-122.121 Y-50.121 Z-1.561
N270 G2 X-123. Y-48. Z-1.574 I2.121 J2.121
N275 G1 Y-2. Z-1.832
N280 G2 X-122.121 Y0.121 Z-1.845 I3. J0.
N285 G1 X-120.121 Y2.121 Z-1.861
N290 G2 X-118. Y3. Z-1.874 I2.121 J-2.121
N295 G1 X-0.2 Z-2.536
N300 G2 X1.921 Y2.121 Z-2.549 I0. J-3.
N305 G1 X2.121 Y1.921 Z-2.551
N310 G2 X3. Y-0.2 Z-2.564 I-2.121 J-2.121
N315 G1 Y-49.8 Z-2.842
N320 G2 X2.121 Y-51.921 Z-2.855 I-3. J0.
N325 G1 X1.921 Y-52.121 Z-2.857
N330 G2 X-0.2 Y-53. Z-2.87 I-2.121 J2.121
N335 G1 X-118. Z-3.532
N340 G2 X-120.121 Y-52.121 Z-3.545 I0. J3.
N345 G1 X-122.121 Y-50.121 Z-3.561
N350 G2 X-123. Y-48. Z-3.574 I2.121 J2.121
N355 G1 Y-2. Z-3.832
N360 G2 X-122.121 Y0.121 Z-3.845 I3. J0.
N365 G1 X-120.121 Y2.121 Z-3.861
N370 G2 X-118. Y3. Z-3.874 I2.121 J-2.121
N375 G1 X-0.2 Z-4.536
N380 G2 X1.921 Y2.121 Z-4.549 I0. J-3.
N385 G1 X2.121 Y1.921 Z-4.551
N390 G2 X3. Y-0.2 Z-4.564 I-2.121 J-2.121
N395 G1 Y-49.8 Z-4.842
N400 G2 X2.121 Y-51.921 Z-4.855 I-3. J0.
N405 G1 X1.921 Y-52.121 Z-4.857
N410 G2 X-0.2 Y-53. Z-4.87 I-2.121 J2.121
N415 G1 X-118. Z-5.532
N420 G2 X-120.121 Y-52.121 Z-5.545 I0. J3.
N425 G1 X-122.121 Y-50.121 Z-5.561
N430 G2 X-123. Y-48. Z-5.574 I2.121 J2.121
N435 G1 Y-2. Z-5.832
N440 G2 X-122.121 Y0.121 Z-5.845 I3. J0.
N445 G1 X-120.121 Y2.121 Z-5.861
N450 G2 X-118. Y3. Z-5.874 I2.121 J-2.121
N455 G1 X-0.2 Z-6.536
N460 G2 X1.921 Y2.121 Z-6.549 I0. J-3.
N465 G1 X2.121 Y1.921 Z-6.551
N470 G2 X3. Y-0.2 Z-6.564 I-2.121 J-2.121
N475 G1 Y-49.8 Z-6.842
N480 G2 X2.121 Y-51.921 Z-6.855 I-3. J0.
N485 G1 X1.921 Y-52.121 Z-6.857
N490 G2 X-0.2 Y-53. Z-6.87 I-2.121 J2.121
N495 G1 X-118. Z-7.532
N500 G2 X-120.121 Y-52.121 Z-7.545 I0. J3.
N505 G1 X-122.121 Y-50.121 Z-7.561
N510 G2 X-123. Y-48. Z-7.574 I2.121 J2.121
N515 G1 Y-2. Z-7.832
N520 G2 X-122.121 Y0.121 Z-7.845 I3. J0.
N525 G1 X-120.121 Y2.121 Z-7.861
N530 G2 X-118. Y3. Z-7.874 I2.121 J-2.121
N535 G1 X-60. Z-8.2
N540 S3200
N545 X-0.2 F#102
N550 G2 X1.921 Y2.121 I0. J-3.
N555 G1 X2.121 Y1.921
N560 G2 X3. Y-0.2 I-2.121 J-2.121
N565 G1 Y-49.8
N570 G2 X2.121 Y-51.921 I-3. J0.
N575 G1 X1.921 Y-52.121
N580 G2 X-0.2 Y-53. I-2.121 J2.121
N585 G1 X-118.
N590 G2 X-120.121 Y-52.121 I0. J3.
N595 G1 X-122.121 Y-50.121
N600 G2 X-123. Y-48. I2.121 J2.121
N605 G1 Y-2.
N610 G2 X-122.121 Y0.121 I3. J0.
N615 G1 X-120.121 Y2.121
N620 G2 X-118. Y3. I2.121 J-2.121
N625 G1 X-60.
N630 G0 Z15.
N640 M9
N645 G53 Z0.
N650 M30
%
