%
(SETUP2-TOP-Z-HEAD-BASEPLATE-BEARING-SEAT-FINISH-ADJUST)
(T1  D=6. CR=0. - ZMIN=-4. - FLAT END MILL)
N10 G90 G94 G17 G91.1
N15 G21
N20 G53 G0 Z0.
(BEARING FINISH PASS 2)
N25 M9
N30 T1 M6
N35 S3200 M3
N40 G54
N45 M8
N55 G0 X-24.7 Y-13.
N60 G43 Z4. H1
N65 #102=330. (FINISH)
N70 #103=200. (ENTRY)
N75 #104=200. (EXIT)
N80 #108=100. (PLUNGE)
N85 G0 Z2.
N90 G1 Z1. F#103
N95 Z-3. F#108
N100 G18 G2 X-23.7 Z-4. I1. K0.
N105 G17
N110 G1 G41 X-23.1 Y-13.1 D1 F#103
N115 G3 X-22. Y-12. I0. J1.1
N120 X-28. I-3. J0. F#102
N125 X-22. I3. J0.
N130 X-23.1 Y-10.9 I-1.1 J0. F#104
N140 G1 G40 X-23.7 Y-11.
N145 G18 G3 X-24.7 Z-3. I0. K1.
N150 G0 Z4.
N155 G17
N160 M9
N165 G53 G0 Z0.
N170 M30
%
