%
(SETUP2-TOP-Z-HEAD-BASEPLATE-POCKETS-6MM)
(T1  D=6. CR=0. - ZMIN=-8.4 - FLAT END MILL)
N10 G90 G94 G17 G91.1
N15 G21
N20 G53 G0 Z0.
(2D ADAPTIVE1 2)
N25 M9
N30 T1 M6
N35 S3200 M3
N40 G54
N45 M8
N55 G0 X-26.897 Y-74.639
N60 G43 Z4. H1
N65 #100=330. (CUTTING)
N70 #103=200. (ENTRY)
N75 #104=200. (EXIT)
N80 #105=4000. (DIRECT)
N85 #106=200. (REDUCED)
N90 #107=270. (RAMPING)
N95 G0 Z1.5
N100 G1 Z1. F#103
N105 S3000
N110 G3 X-23.576 Y-75.256 Z0.795 I1.897 J0.962 F#107
N115 X-23.845 Y-71.918 Z0.591 I-1.412 J1.566
N120 X-26.971 Y-73.04 Z0.386 I-1.134 J-1.757
N125 X-25.087 Y-75.741 Z0.182 I1.976 J-0.63
N130 X-22.99 Y-73.239 Z-0.023 I0.091 J2.054
N135 X-25.927 Y-71.88 Z-0.227 I-1.989 J-0.445
N140 X-26.467 Y-75.042 Z-0.432 I0.94 J-1.788
N145 X-23.302 Y-74.74 Z-0.636 I1.467 J1.363
N150 X-24.41 Y-71.79 Z-0.841 I-1.683 J1.051
N155 X-26.946 Y-73.614 Z-1.045 I-0.57 J-1.882
N160 X-24.544 Y-75.567 Z-1.25 I1.948 J-0.058
N165 X-23.298 Y-72.765 Z-1.455 I-0.449 J1.878
N170 X-26.3 Y-72.298 Z-1.659 I-1.68 J-0.916
N175 X-25.97 Y-75.29 Z-1.864 I1.31 J-1.37
N180 X-23.194 Y-74.2 Z-2.068 I0.971 J1.607
N185 X-24.955 Y-71.828 Z-2.273 I-1.788 J0.512
N190 X-26.767 Y-74.125 Z-2.477 I-0.027 J-1.842
N195 X-24.103 Y-75.263 Z-2.682 I1.768 J0.45
N200 X-23.704 Y-72.422 Z-2.886 I-0.888 J1.573
N205 X-26.522 Y-72.775 Z-3.091 I-1.274 J-1.255
N210 X-25.456 Y-75.378 Z-3.295 I1.529 J-0.893
N215 X-23.245 Y-73.686 Z-3.5 I0.458 J1.692
N220 X-26.751 I-1.753 J0.
N225 X-23.263 Y-73.937 I1.753 J0.
N230 X-23.245 Y-73.686 I-1.735 J0.252
N235 S3200
N240 X-26.388 Y-72.34 I-1.759 J0.234 F#100
N245 G1 X-26.505 Y-72.469
N250 X-26.61 Y-72.607
N255 X-26.702 Y-72.754
N260 X-26.782 Y-72.909
N265 X-26.847 Y-73.07
N270 X-26.897 Y-73.237
N275 X-26.933 Y-73.407
N280 X-26.953 Y-73.579
N285 X-26.958 Y-73.753
N290 X-26.948 Y-73.927
N295 X-26.922 Y-74.099
N300 X-26.881 Y-74.268
N305 X-26.825 Y-74.432
N310 X-26.755 Y-74.591
N315 X-26.671 Y-74.743
N320 X-26.574 Y-74.888
N325 X-26.465 Y-75.023
N330 X-26.344 Y-75.147
N335 X-26.212 Y-75.261
N340 X-26.071 Y-75.362
N345 X-25.921 Y-75.451
N350 X-25.765 Y-75.526
N355 X-25.602 Y-75.587
N360 X-25.434 Y-75.633
N365 X-25.263 Y-75.664
N370 X-25.09 Y-75.679
N375 X-24.916
N380 X-24.743 Y-75.664
N385 X-24.572 Y-75.634
N390 X-24.404 Y-75.588
N395 X-24.241 Y-75.528
N400 X-24.084 Y-75.454
N405 X-23.934 Y-75.366
N410 X-23.793 Y-75.265
N415 X-23.661 Y-75.152
N420 X-23.539 Y-75.027
N425 X-23.429 Y-74.893
N430 X-23.332 Y-74.749
N435 X-23.247 Y-74.597
N440 X-23.177 Y-74.438
N445 X-23.12 Y-74.274
N450 X-23.079 Y-74.105
N455 X-23.053 Y-73.933
N460 G3 X-26.533 Y-72.145 I-1.951 J0.483
N465 G1 X-26.661 Y-72.281
N470 X-26.778 Y-72.427
N475 X-26.881 Y-72.582
N480 X-26.971 Y-72.746
N485 X-27.047 Y-72.917
N490 X-27.108 Y-73.094
N495 X-27.154 Y-73.275
N500 X-27.185 Y-73.459
N505 X-27.199 Y-73.646
N510 X-27.198 Y-73.832
N515 X-27.181 Y-74.019
N520 X-27.148 Y-74.202
N525 X-27.1 Y-74.383
N530 X-27.036 Y-74.559
N535 X-26.958 Y-74.729
N540 X-26.866 Y-74.891
N545 X-26.76 Y-75.045
N550 X-26.642 Y-75.19
N555 X-26.511 Y-75.324
N560 X-26.37 Y-75.446
N565 X-26.219 Y-75.556
N570 X-26.059 Y-75.653
N575 X-25.892 Y-75.736
N580 X-25.718 Y-75.804
N585 X-25.539 Y-75.857
N590 X-25.356 Y-75.895
N595 X-25.17 Y-75.918
N600 X-24.983 Y-75.924
N605 X-24.797 Y-75.915
N610 X-24.611 Y-75.89
N615 X-24.429 Y-75.849
N620 X-24.251 Y-75.793
N625 X-24.078 Y-75.721
N630 X-23.912 Y-75.636
N635 X-23.754 Y-75.537
N640 X-23.604 Y-75.424
N645 X-23.465 Y-75.3
N650 X-23.337 Y-75.164
N655 X-23.221 Y-75.017
N660 X-23.117 Y-74.862
N665 X-23.028 Y-74.698
N670 X-22.952 Y-74.527
N675 X-22.891 Y-74.35
N680 X-22.846 Y-74.169
N685 G3 X-26.858 Y-72.123 I-2.173 J0.696
N690 G1 X-26.98 Y-72.277
N695 X-27.089 Y-72.439
N700 X-27.185 Y-72.61
N705 X-27.267 Y-72.789
N710 X-27.335 Y-72.973
N715 X-27.387 Y-73.162
N720 X-27.425 Y-73.354
N725 X-27.446 Y-73.549
N730 X-27.453 Y-73.745
N735 X-27.443 Y-73.941
N740 X-27.418 Y-74.135
N745 X-27.378 Y-74.327
N750 X-27.322 Y-74.515
N755 X-27.251 Y-74.698
N760 X-27.167 Y-74.875
N765 X-27.068 Y-75.044
N770 X-26.956 Y-75.205
N775 X-26.832 Y-75.357
N780 X-26.695 Y-75.498
N785 X-26.549 Y-75.628
N790 X-26.392 Y-75.745
N795 X-26.226 Y-75.85
N800 X-26.052 Y-75.941
N805 X-25.872 Y-76.019
N810 X-25.686 Y-76.081
N815 X-25.496 Y-76.128
N820 X-25.303 Y-76.161
N825 X-25.107 Y-76.177
N830 X-24.911 Y-76.178
N835 X-24.716 Y-76.163
N840 X-24.522 Y-76.133
N845 X-24.331 Y-76.087
N850 X-24.145 Y-76.027
N855 X-23.964 Y-75.951
N860 X-23.789 Y-75.862
N865 X-23.623 Y-75.759
N870 X-23.465 Y-75.642
N875 X-23.317 Y-75.514
N880 X-23.179 Y-75.374
N885 X-23.053 Y-75.224
N890 X-22.94 Y-75.064
N895 X-22.84 Y-74.895
N900 X-22.753 Y-74.719
N905 X-22.681 Y-74.537
N910 X-22.624 Y-74.35
N915 G3 X-27.196 Y-72.125 I-2.407 J0.863
N920 G1 X-27.31 Y-72.295
N925 X-27.411 Y-72.473
N930 X-27.498 Y-72.659
N935 X-27.571 Y-72.85
N940 X-27.63 Y-73.046
N945 X-27.674 Y-73.247
N950 X-27.702 Y-73.449
N955 X-27.715 Y-73.654
N960 X-27.713 Y-73.859
N965 X-27.695 Y-74.063
N970 X-27.662 Y-74.265
N975 X-27.614 Y-74.464
N980 X-27.551 Y-74.659
N985 X-27.474 Y-74.849
N990 X-27.382 Y-75.032
N995 X-27.277 Y-75.208
N1000 X-27.159 Y-75.375
N1005 X-27.029 Y-75.534
N1010 X-26.887 Y-75.681
N1015 X-26.735 Y-75.818
N1020 X-26.573 Y-75.943
N1025 X-26.401 Y-76.056
N1030 X-26.222 Y-76.155
N1035 X-26.036 Y-76.24
N1040 X-25.844 Y-76.311
N1045 X-25.647 Y-76.368
N1050 X-25.446 Y-76.409
N1055 X-25.243 Y-76.436
N1060 X-25.039 Y-76.447
N1065 X-24.834 Y-76.442
N1070 X-24.63 Y-76.422
N1075 X-24.428 Y-76.387
N1080 X-24.229 Y-76.337
N1085 X-24.035 Y-76.272
N1090 X-23.846 Y-76.193
N1095 X-23.664 Y-76.099
N1100 X-23.489 Y-75.992
N1105 X-23.323 Y-75.873
N1110 X-23.166 Y-75.741
N1115 X-23.02 Y-75.598
N1120 X-22.885 Y-75.444
N1125 X-22.761 Y-75.28
N1130 X-22.651 Y-75.108
N1135 X-22.554 Y-74.927
N1140 X-22.47 Y-74.74
N1145 X-22.401 Y-74.547
N1150 G3 X-27.424 Y-71.966 I-2.633 J1.054
N1155 G1 X-27.545 Y-72.146
N1160 X-27.652 Y-72.334
N1165 X-27.746 Y-72.529
N1170 X-27.825 Y-72.731
N1175 X-27.889 Y-72.937
N1180 X-27.939 Y-73.148
N1185 X-27.973 Y-73.362
N1190 X-27.991 Y-73.578
N1195 X-27.994 Y-73.794
N1200 X-27.981 Y-74.01
N1205 X-27.953 Y-74.225
N1210 X-27.909 Y-74.437
N1215 X-27.851 Y-74.645
N1220 X-27.777 Y-74.849
N1225 X-27.689 Y-75.046
N1230 X-27.586 Y-75.237
N1235 X-27.471 Y-75.42
N1240 X-27.342 Y-75.594
N1245 X-27.201 Y-75.758
N1250 X-27.049 Y-75.912
N1255 X-26.886 Y-76.055
N1260 X-26.713 Y-76.185
N1265 X-26.531 Y-76.302
N1270 X-26.341 Y-76.406
N1275 X-26.144 Y-76.497
N1280 X-25.942 Y-76.572
N1285 X-25.734 Y-76.633
N1290 X-25.522 Y-76.679
N1295 X-25.308 Y-76.709
N1300 X-25.092 Y-76.724
N1305 X-24.875 Y-76.723
N1310 X-24.66 Y-76.706
N1315 X-24.446 Y-76.674
N1320 X-24.234 Y-76.627
N1325 X-24.027 Y-76.565
N1330 X-23.825 Y-76.487
N1335 X-23.629 Y-76.396
N1340 X-23.44 Y-76.29
N1345 X-23.259 Y-76.171
N1350 X-23.087 Y-76.04
N1355 X-22.925 Y-75.896
N1360 X-22.774 Y-75.741
N1365 X-22.634 Y-75.575
N1370 X-22.507 Y-75.4
N1375 X-22.393 Y-75.217
N1380 X-22.292 Y-75.025
N1385 X-22.206 Y-74.827
N1390 X-22.119 Y-74.622
N1395 X-22.046 Y-74.411
N1400 X-21.989 Y-74.196
N1405 X-21.948 Y-73.977
N1410 X-21.922 Y-73.756
N1415 X-21.912 Y-73.533
N1420 X-21.917 Y-73.311
N1425 X-21.939 Y-73.089
N1430 X-21.976 Y-72.869
N1435 X-22.029 Y-72.653
N1440 X-22.097 Y-72.441
N1445 X-22.18 Y-72.234
N1450 X-22.277 Y-72.034
N1455 X-22.389 Y-71.841
N1460 X-22.513 Y-71.657
N1465 X-22.651 Y-71.482
N1470 X-22.801 Y-71.317
N1475 X-22.962 Y-71.163
N1480 X-23.133 Y-71.021
N1485 X-23.315 Y-70.892
N1490 X-23.504 Y-70.776
N1495 X-23.702 Y-70.673
N1500 X-23.907 Y-70.585
N1505 X-24.117 Y-70.512
N1510 X-24.332 Y-70.454
N1515 X-24.551 Y-70.411
N1520 X-24.772 Y-70.384
N1525 X-24.994 Y-70.373
N1530 X-25.217 Y-70.377
N1535 X-25.438 Y-70.398
N1540 X-25.658 Y-70.434
N1545 X-25.875 Y-70.486
N1550 X-26.087 Y-70.552
N1555 X-26.294 Y-70.634
N1560 X-26.495 Y-70.731
N1565 X-26.688 Y-70.841
N1570 X-26.873 Y-70.965
N1575 X-27.049 Y-71.102
N1580 X-27.215 Y-71.25
N1585 X-27.369 Y-71.411
N1590 X-27.512 Y-71.581
N1595 X-27.642 Y-71.762
N1600 X-27.76 Y-71.951
N1605 X-27.876 Y-72.147
N1610 X-27.978 Y-72.35
N1615 X-28.066 Y-72.56
N1620 X-28.14 Y-72.776
N1625 X-28.198 Y-72.996
N1630 X-28.241 Y-73.219
N1635 X-28.268 Y-73.445
N1640 X-28.28 Y-73.672
N1645 X-28.276 Y-73.9
N1650 X-28.256 Y-74.126
N1655 X-28.221 Y-74.351
N1660 X-28.17 Y-74.573
N1665 X-28.104 Y-74.791
N1670 X-28.023 Y-75.003
N1675 X-27.927 Y-75.21
N1680 X-27.817 Y-75.409
N1685 X-27.694 Y-75.601
N1690 X-27.558 Y-75.783
N1695 X-27.41 Y-75.956
N1700 X-27.25 Y-76.118
N1705 X-27.079 Y-76.268
N1710 X-26.898 Y-76.406
N1715 X-26.708 Y-76.532
N1720 X-26.51 Y-76.644
N1725 X-26.305 Y-76.742
N1730 X-26.093 Y-76.825
N1735 X-25.876 Y-76.894
N1740 X-25.655 Y-76.948
N1745 X-25.431 Y-76.986
N1750 X-25.204 Y-77.008
N1755 X-24.977 Y-77.015
N1760 X-24.749 Y-77.006
N1765 X-24.523 Y-76.981
N1770 X-24.299 Y-76.941
N1775 X-24.079 Y-76.886
N1780 X-23.862 Y-76.815
N1785 X-23.651 Y-76.729
N1790 X-23.447 Y-76.629
N1795 X-23.25 Y-76.515
N1800 X-23.061 Y-76.388
N1805 X-22.882 Y-76.248
N1810 X-22.712 Y-76.096
N1815 X-22.554 Y-75.933
N1820 X-22.407 Y-75.759
N1825 X-22.273 Y-75.575
N1830 X-22.152 Y-75.383
N1835 X-22.044 Y-75.182
N1840 X-21.95 Y-74.975
N1845 X-21.858 Y-74.761
N1850 X-21.779 Y-74.542
N1855 X-21.716 Y-74.318
N1860 X-21.669 Y-74.09
N1865 X-21.637 Y-73.86
N1870 X-21.62 Y-73.627
N1875 Y-73.395
N1880 X-21.635 Y-73.162
N1885 X-21.666 Y-72.932
N1890 X-21.713 Y-72.704
N1895 X-21.775 Y-72.479
N1900 X-21.852 Y-72.26
N1905 X-21.944 Y-72.046
N1910 X-22.05 Y-71.839
N1915 X-22.17 Y-71.639
N1920 X-22.303 Y-71.448
N1925 X-22.449 Y-71.267
N1930 X-22.607 Y-71.096
N1935 X-22.776 Y-70.936
N1940 X-22.956 Y-70.788
N1945 X-23.145 Y-70.652
N1950 X-23.343 Y-70.53
N1955 X-23.549 Y-70.421
N1960 X-23.761 Y-70.327
N1965 X-23.98 Y-70.247
N1970 X-24.204 Y-70.182
N1975 X-24.431 Y-70.133
N1980 X-24.661 Y-70.099
N1985 X-24.894 Y-70.081
N1990 X-25.126 Y-70.079
N1995 X-25.359 Y-70.092
N2000 X-25.59 Y-70.122
N2005 X-25.818 Y-70.167
N2010 X-26.043 Y-70.227
N2015 X-26.263 Y-70.302
N2020 X-26.478 Y-70.392
N2025 X-26.686 Y-70.497
N2030 X-26.886 Y-70.616
N2035 X-27.078 Y-70.747
N2040 X-27.26 Y-70.892
N2045 X-27.432 Y-71.048
N2050 X-27.594 Y-71.216
N2055 X-27.743 Y-71.395
N2060 X-27.88 Y-71.583
N2065 X-28.004 Y-71.78
N2070 G3 X-26.7 Y-76.882 I3.012 J-1.948
N2075 X-21.714 Y-75.186 I1.708 J3.154
N2080 G1 X-21.613 Y-74.969
N2085 X-21.526 Y-74.745
N2090 X-21.454 Y-74.516
N2095 X-21.396 Y-74.283
N2100 X-21.354 Y-74.047
N2105 X-21.327 Y-73.808
N2110 X-21.315 Y-73.568
N2115 X-21.319 Y-73.328
N2120 X-21.338 Y-73.089
N2125 X-21.372 Y-72.851
N2130 X-21.422 Y-72.616
N2135 X-21.487 Y-72.385
N2140 X-21.566 Y-72.159
N2145 X-21.66 Y-71.938
N2150 X-21.768 Y-71.723
N2155 X-21.889 Y-71.516
N2160 X-22.023 Y-71.317
N2165 X-22.17 Y-71.127
N2170 X-22.329 Y-70.947
N2175 X-22.499 Y-70.778
N2180 X-22.68 Y-70.62
N2185 X-22.87 Y-70.473
N2190 X-23.07 Y-70.34
N2195 X-23.278 Y-70.219
N2200 X-23.492 Y-70.112
N2205 X-23.714 Y-70.019
N2210 X-23.941 Y-69.941
N2215 X-24.172 Y-69.877
N2220 X-24.407 Y-69.829
N2225 X-24.645 Y-69.795
N2230 X-24.884 Y-69.777
N2235 X-25.124 Y-69.774
N2240 X-25.364 Y-69.787
N2245 X-25.603 Y-69.815
N2250 X-25.839 Y-69.858
N2255 X-26.072 Y-69.917
N2260 X-26.3 Y-69.99
N2265 X-26.524 Y-70.078
N2270 X-26.741 Y-70.18
N2275 X-26.951 Y-70.296
N2280 X-27.154 Y-70.425
N2285 X-27.347 Y-70.567
N2290 X-27.531 Y-70.721
N2295 X-27.705 Y-70.887
N2300 X-27.868 Y-71.063
N2305 X-28.019 Y-71.25
N2310 X-28.158 Y-71.445
N2315 X-28.284 Y-71.65
N2320 G3 X-26.859 Y-77.146 I3.294 J-2.079
N2325 X-21.462 Y-75.379 I1.868 J3.418
N2330 X-28.57 Y-71.512 I-3.587 J1.873
N2335 X-27.037 Y-77.41 I3.581 J-2.217
N2340 X-21.217 Y-75.603 I2.048 J3.681
N2345 X-28.834 Y-71.323 I-3.833 J2.096
N2350 X-27.28 Y-77.646 I3.844 J-2.408
N2355 X-21.007 Y-75.902 I2.291 J3.915
N2360 X-29.047 Y-71.039 I-4.042 J2.395
N2365 X-27.501 Y-77.903 I4.059 J-2.691
N2370 X-20.711 Y-76.058 I2.512 J4.172
N2375 X-29.281 Y-70.779 I-4.339 J2.553
N2380 X-27.777 Y-78.133 I4.292 J-2.953
N2385 X-20.485 Y-76.35 I2.787 J4.401
N2390 X-29.487 Y-70.469 I-4.563 J2.846
N2395 X-28.087 Y-78.347 I4.497 J-3.264
N2400 X-20.265 Y-76.658 I3.097 J4.614
N2405 X-29.786 Y-70.279 I-4.785 J3.154
N2410 X-28.344 Y-78.603 I4.796 J-3.456
N2415 X-20.052 Y-76.984 I3.353 J4.868
N2420 X-29.986 Y-69.94 I-4.997 J3.48
N2425 X-28.685 Y-78.806 I4.994 J-3.796
N2430 X-19.848 Y-77.326 I3.694 J5.07
N2435 X-30.175 Y-69.584 I-5.2 J3.822
N2440 X-29.043 Y-78.999 I5.182 J-4.152
N2445 X-19.653 Y-77.684 I4.051 J5.262
N2450 X-20.892 Y-68.088 I-5.396 J4.181
N2455 X-30.482 Y-69.371 I-4.157 J-5.414
N2460 X-29.254 Y-79.31 I5.49 J-4.367
N2465 X-19.34 Y-77.894 I4.262 J5.572
N2470 X-30.66 Y-68.988 I-5.707 J4.393
N2475 X-29.639 Y-79.492 I5.667 J-4.75
N2480 X-19.156 Y-78.279 I4.646 J5.753
N2485 X-30.826 Y-68.591 I-5.889 J4.779
N2490 X-30.04 Y-79.661 I5.832 J-5.149
N2495 X-18.985 Y-78.68 I5.045 J5.921
N2500 X-19.884 Y-67.425 I-6.061 J5.18
N2505 X-31.136 Y-68.355 I-5.162 J-6.075
N2510 X-30.273 Y-79.975 I6.142 J-5.386
N2515 X-18.669 Y-78.911 I5.279 J6.234
N2520 X-31.287 Y-67.932 I-6.375 J5.413
N2525 X-30.699 Y-80.129 I6.291 J-5.809
N2530 X-18.514 Y-79.337 I5.703 J6.388
N2535 X-31.423 Y-67.495 I-6.53 J5.84
N2540 X-31.14 Y-80.269 I6.426 J-6.247
N2545 X-18.372 Y-79.778 I6.142 J6.526
N2550 X-18.773 Y-66.817 I-6.671 J6.281
N2555 X-31.734 Y-67.237 I-6.27 J-6.681
N2560 X-31.497 Y-80.487 I6.735 J-6.507
N2565 X-18.247 Y-80.232 I6.498 J6.743
N2570 X-18.313 Y-66.695 I-6.794 J6.736
N2575 X-31.851 Y-66.776 I-6.728 J-6.802
N2580 X-31.859 Y-80.704 I6.852 J-6.968
N2585 X-17.933 Y-80.495 I6.86 J6.96
N2590 X-31.951 Y-66.303 I-7.106 J7.
N2595 X-32.336 Y-80.807 I6.95 J-7.442
N2600 X-17.828 Y-80.972 I7.336 J7.062
N2605 X-17.566 Y-66.28 I-7.211 J7.477
N2610 X-32.259 Y-66.026 I-7.473 J-7.215
N2615 X-32.721 Y-81.005 I7.256 J-7.72
N2620 X-17.741 Y-81.461 I7.718 J7.259
N2625 X-17.072 Y-66.197 I-7.296 J7.967
N2630 X-32.337 Y-65.531 I-7.965 J-7.298
N2635 X-33.11 Y-81.2 I7.334 J-8.216
N2640 X-17.431 Y-81.744 I8.107 J7.453
N2645 X-32.396 Y-65.024 I-7.604 J8.251
N2650 X-33.621 Y-81.262 I7.391 J-8.723
N2655 X-17.367 Y-82.254 I8.616 J7.515
N2660 X-32.7 Y-64.727 I-7.669 J8.761
N2665 X-17.322 Y-82.776 I7.693 J-9.021
N2670 X-32.735 Y-64.2 I-7.712 J9.284
N2675 X-17.297 Y-83.308 I7.726 J-9.548
N2680 X-32.749 Y-63.664 I-7.734 J9.816
N2685 X-34.988 Y-81.626 I7.739 J-10.085
N2690 X-16.997 Y-83.619 I9.978 J7.877
N2695 X-33.046 Y-63.348 I-8.034 J10.128
N2700 X-16.999 Y-84.169 I8.035 J-10.401
N2705 X-33.033 Y-62.795 I-8.03 J10.677
N2710 X-35.859 Y-81.916 I8.022 J-10.955
N2715 X-16.701 Y-84.488 I10.848 J8.166
N2720 X-33.328 Y-62.471 I-8.327 J10.998
N2725 X-16.732 Y-85.054 I8.315 J-11.28
N2730 X-33.286 Y-61.901 I-8.295 J11.564
N2735 X-36.755 Y-82.176 I8.273 J-11.85
N2740 X-16.436 Y-85.382 I11.741 J8.426
N2745 X-33.579 Y-61.569 I-8.59 J11.892
N2750 X-16.495 Y-85.964 I8.563 J-12.182
N2755 X-33.508 Y-60.984 I-8.529 J12.474
N2760 X-16.578 Y-86.552 I8.49 J-12.767
N2765 X-33.413 Y-60.393 I-8.444 J13.062
N2770 X-38.271 Y-82.313 I8.395 J-13.359
N2775 X-16.292 Y-86.896 I13.253 J8.561
N2780 X-33.696 Y-60.044 I-8.73 J13.408
N2785 X-16.405 Y-87.499 I8.676 J-13.708
N2790 X-33.571 Y-59.44 I-8.614 J14.01
N2795 X-16.543 Y-88.105 I8.548 J-14.312
N2800 X-33.421 Y-58.832 I-8.474 J14.617
N2805 X-39.707 Y-82.553 I8.404 J-14.92
N2810 X-15.826 Y-88.201 I14.69 J8.801
N2815 X-7.846 Y-75.963 I-8.78 J14.445
N2820 X-8.177 Y-69.299 I-35.068 J1.6
N2825 X-41.906 Y-68.848 I-16.925 J-4.31
N2830 X-42.144 Y-73.022 I56.91 J-5.343
N2835 G1 X-42.141 Y-73.677 F#103
N2840 G3 X-42.085 Y-77.413 I25.45 J-1.486 F#100
N2845 X-29.306 Y-90.744 I16.712 J3.231
N2850 X-7.845 Y-78.196 I4.415 J17.076
N2855 G1 X-7.859 Y-77.936
N2860 Y-75.961
N2865 X-7.869 Y-74.891 F#104
N2870 X-7.87 Y-74.804 Z-3.492
N2875 X-7.871 Y-74.72 Z-3.47
N2880 Y-74.641 Z-3.433
N2885 X-7.872 Y-74.569 Z-3.383
N2890 X-7.873 Y-74.508 Z-3.321
N2895 Y-74.458 Z-3.25
N2900 Y-74.421 Z-3.171
N2905 X-7.874 Y-74.398 Z-3.087
N2910 Y-74.391 Z-3.
N2915 G0 X-42.088 Y-75.034
N2920 G1 Z-3.5 F#103
N2925 X-42.141 Y-76.604
N2930 G3 X-40.152 Y-83.423 I10.053 J-0.768 F#100
N2935 X-8.537 Y-81.343 I15.238 J9.699
N2940 X-7.848 Y-79.311 I-3.775 J2.412
N2945 G1 X-7.859 Y-77.936
N2950 G3 X-7.986 Y-77.658 I-0.4 J-0.014 F#104
N2955 G2 X-8.506 Y-77.109 I4.183 J4.485
N2960 G1 X-8.559 Y-77.04 Z-3.492
N2965 X-8.61 Y-76.973 Z-3.47
N2970 X-8.658 Y-76.911 Z-3.433
N2975 X-8.702 Y-76.854 Z-3.383
N2980 X-8.739 Y-76.805 Z-3.321
N2985 X-8.77 Y-76.766 Z-3.25
N2990 X-8.792 Y-76.737 Z-3.171
N2995 X-8.806 Y-76.719 Z-3.087
N3000 X-8.811 Y-76.713 Z-3.
N3005 G0 X-41.229 Y-76.955
N3010 G1 Z-3.5 F#103
N3015 G2 X-42.033 Y-77.953 I-6.905 J4.741
N3020 G3 X-42.141 Y-78.213 I0.291 J-0.274
N3025 X-40.571 Y-83.589 I8.053 J-0.565 F#100
N3030 X-11.335 Y-86.27 I15.639 J9.791
N3035 X-7.844 Y-80.855 I-11.139 J11.014
N3040 G1 X-7.859 Y-80.446
N3045 Y-79.311
N3050 G3 X-7.986 Y-79.032 I-0.4 J-0.014 F#104
N3055 G2 X-8.516 Y-78.492 I5.892 J6.318
N3060 G1 X-8.572 Y-78.426 Z-3.492
N3065 X-8.626 Y-78.362 Z-3.47
N3070 X-8.678 Y-78.302 Z-3.433
N3075 X-8.724 Y-78.247 Z-3.383
N3080 X-8.764 Y-78.2 Z-3.321
N3085 X-8.796 Y-78.162 Z-3.25
N3090 X-8.82 Y-78.134 Z-3.171
N3095 X-8.834 Y-78.117 Z-3.087
N3100 X-8.839 Y-78.111 Z-3.
N3105 G0 X-41.224 Y-78.165
N3110 G1 Z-3.5 F#103
N3115 G2 X-42.036 Y-79.163 I-8.776 J6.316
N3120 G3 X-42.141 Y-79.42 I0.295 J-0.271
N3125 X-40.652 Y-84.259 I7.05 J-0.479 F#100
N3130 X-21.286 Y-92.304 I15.579 J10.173
N3135 X-7.975 Y-82.301 I-3.508 J18.524
N3140 G1 X-7.894 Y-81.872
N3145 X-7.859 Y-81.443
N3150 Y-80.446
N3155 G3 X-7.943 Y-80.213 I-0.4 J-0.014 F#104
N3160 G2 X-8.427 Y-79.552 I10.149 J7.929
N3165 G1 X-8.475 Y-79.479 Z-3.492
N3170 X-8.521 Y-79.409 Z-3.47
N3175 X-8.564 Y-79.343 Z-3.433
N3180 X-8.603 Y-79.283 Z-3.383
N3185 X-8.637 Y-79.232 Z-3.321
N3190 X-8.664 Y-79.19 Z-3.25
N3195 X-8.684 Y-79.159 Z-3.171
N3200 X-8.697 Y-79.14 Z-3.087
N3205 X-8.701 Y-79.134 Z-3.
N3210 G0 X-41.225 Y-79.219
N3215 G1 Z-3.5 F#103
N3220 G2 X-42.039 Y-80.222 I-10.538 J7.718
N3225 G3 X-42.141 Y-80.475 I0.298 J-0.267
N3230 X-40.71 Y-84.935 I6.35 J-0.422 F#100
N3235 X-26.564 Y-93.051 I15.385 J10.43
N3240 X-7.97 Y-83.243 I1.704 J19.3
N3245 G1 X-7.895 Y-82.795
N3250 X-7.859 Y-82.354
N3255 Y-81.443
N3260 G3 X-7.943 Y-81.21 I-0.4 J-0.014 F#104
N3265 G2 X-8.43 Y-80.551 I11.895 J9.293
N3270 G1 X-8.479 Y-80.479 Z-3.492
N3275 X-8.526 Y-80.409 Z-3.47
N3280 X-8.57 Y-80.344 Z-3.433
N3285 X-8.609 Y-80.285 Z-3.383
N3290 X-8.644 Y-80.233 Z-3.321
N3295 X-8.672 Y-80.192 Z-3.25
N3300 X-8.692 Y-80.161 Z-3.171
N3305 X-8.705 Y-80.143 Z-3.087
N3310 X-8.709 Y-80.136 Z-3.
N3315 G0 X-41.232 Y-80.169
N3320 G1 Z-3.5 F#103
N3325 G2 X-42.043 Y-81.183 I-12.319 J9.025
N3330 G3 X-42.141 Y-81.432 I0.301 J-0.263
N3335 X-40.754 Y-85.606 I5.85 J-0.373 F#100
N3340 X-28.623 Y-93.235 I15.173 J10.667
N3345 X-8.049 Y-84.27 I3.751 J19.482
N3350 X-7.859 Y-82.354 I-4.436 J1.408
N3355 X-7.943 Y-82.122 I-0.4 J-0.014 F#104
N3360 G2 X-8.432 Y-81.464 I13.536 J10.576
N3365 G1 X-8.481 Y-81.393 Z-3.492
N3370 X-8.529 Y-81.323 Z-3.47
N3375 X-8.574 Y-81.258 Z-3.433
N3380 X-8.614 Y-81.199 Z-3.383
N3385 X-8.649 Y-81.148 Z-3.321
N3390 X-8.677 Y-81.107 Z-3.25
N3395 X-8.698 Y-81.077 Z-3.171
N3400 X-8.711 Y-81.058 Z-3.087
N3405 X-8.715 Y-81.052 Z-3.
N3410 G0 X-41.245 Y-81.014
N3415 G1 Z-3.5 F#103
N3420 G2 X-42.048 Y-82.042 I-14.233 J10.273
N3425 G3 X-42.141 Y-82.286 I0.306 J-0.258
N3430 X-40.744 Y-86.325 I5.516 J-0.353 F#100
N3435 X-30.643 Y-93.226 I14.757 J10.755
N3440 X-8.046 Y-85.098 I5.76 J19.46
N3445 X-7.859 Y-83.198 I-4.678 J1.421
N3450 X-7.943 Y-82.966 I-0.4 J-0.014 F#104
N3455 G2 X-8.434 Y-82.31 I15.075 J11.778
N3460 G1 X-8.483 Y-82.238 Z-3.492
N3465 X-8.531 Y-82.169 Z-3.47
N3470 X-8.576 Y-82.104 Z-3.433
N3475 X-8.617 Y-82.046 Z-3.383
N3480 X-8.652 Y-81.995 Z-3.321
N3485 X-8.681 Y-81.954 Z-3.25
N3490 X-8.702 Y-81.924 Z-3.171
N3495 X-8.715 Y-81.905 Z-3.087
N3500 X-8.719 Y-81.899 Z-3.
N3505 G0 X-41.25 Y-81.855
N3510 G1 Z-3.5 F#103
N3515 G2 X-42.05 Y-82.89 I-15.94 J11.478
N3520 G3 X-42.141 Y-83.131 I0.308 J-0.255
N3525 X-40.769 Y-86.974 I5.203 J-0.308 F#100
N3530 X-31.702 Y-93.375 I14.387 J10.758
N3535 X-8.27 Y-86.208 I6.815 J19.61
N3540 X-7.865 Y-84. I-3.118 J1.713
N3545 G1 X-7.87 Y-83.938 F#104
N3550 X-7.884 Y-83.877
N3555 X-7.909 Y-83.819
N3560 G2 X-8.324 Y-83.041 I24.67 J13.675
N3565 G1 X-8.363 Y-82.963 Z-3.492
N3570 X-8.401 Y-82.888 Z-3.47
N3575 X-8.437 Y-82.818 Z-3.433
N3580 X-8.469 Y-82.754 Z-3.383
N3585 X-8.496 Y-82.699 Z-3.321
N3590 X-8.519 Y-82.654 Z-3.25
N3595 X-8.535 Y-82.621 Z-3.171
N3600 X-8.546 Y-82.601 Z-3.087
N3605 X-8.549 Y-82.594 Z-3.
N3610 G0 X-41.256 Y-82.614
N3615 G1 Z-3.5 F#103
N3620 G2 X-42.052 Y-83.657 I-17.653 J12.654
N3625 G3 X-42.141 Y-83.895 I0.31 J-0.252
N3630 X-40.759 Y-87.65 I4.994 J-0.294 F#100
N3635 X-32.128 Y-93.716 I14.089 J10.876
N3640 X-8.284 Y-86.976 I7.242 J19.928
N3645 X-7.864 Y-84.762 I-3.14 J1.742
N3650 G1 X-7.869 Y-84.699 F#104
N3655 X-7.884 Y-84.639
N3660 X-7.909 Y-84.581
N3665 G2 X-8.325 Y-83.803 I27.01 J14.972
N3670 G1 X-8.365 Y-83.726 Z-3.492
N3675 X-8.403 Y-83.651 Z-3.47
N3680 X-8.438 Y-83.58 Z-3.433
N3685 X-8.471 Y-83.517 Z-3.383
N3690 X-8.499 Y-83.462 Z-3.321
N3695 X-8.521 Y-83.417 Z-3.25
N3700 X-8.538 Y-83.384 Z-3.171
N3705 X-8.548 Y-83.364 Z-3.087
N3710 X-8.552 Y-83.357 Z-3.
N3715 G0 X-41.281 Y-83.351
N3720 G1 Z-3.5 F#103
N3725 G2 X-42.059 Y-84.42 I-20.294 J13.941
N3730 G3 X-42.141 Y-84.65 I0.317 J-0.244
N3735 X-40.785 Y-88.265 I4.782 J-0.268 F#100
N3740 X-32.7 Y-93.996 I13.725 J10.793
N3745 X-8.313 Y-87.73 I7.814 J20.176
N3750 X-7.864 Y-85.493 I-3.065 J1.779
N3755 G1 X-7.869 Y-85.43 F#104
N3760 X-7.884 Y-85.37
N3765 X-7.909 Y-85.312
N3770 G2 X-8.326 Y-84.535 I29.412 J16.304
N3775 G1 X-8.366 Y-84.457 Z-3.492
N3780 X-8.404 Y-84.382 Z-3.47
N3785 X-8.44 Y-84.312 Z-3.433
N3790 X-8.472 Y-84.248 Z-3.383
N3795 X-8.501 Y-84.194 Z-3.321
N3800 X-8.523 Y-84.149 Z-3.25
N3805 X-8.54 Y-84.116 Z-3.171
N3810 X-8.55 Y-84.096 Z-3.087
N3815 X-8.554 Y-84.089 Z-3.
N3820 G0 X-41.3 Y-84.031
N3825 G1 Z-3.5 F#103
N3830 G2 X-42.064 Y-85.121 I-22.897 J15.221
N3835 G3 X-42.141 Y-85.344 I0.322 J-0.237
N3840 X-40.764 Y-88.923 I4.65 J-0.265 F#100
N3845 X-32.578 Y-94.535 I13.56 J11.001
N3850 X-8.333 Y-88.451 I7.699 J20.67
N3855 X-7.864 Y-86.197 I-3.057 J1.812
N3860 G1 X-7.869 Y-86.135 F#104
N3865 X-7.884 Y-86.074
N3870 X-7.909 Y-86.016
N3875 G2 X-8.327 Y-85.24 I31.733 J17.59
N3880 G1 X-8.367 Y-85.162 Z-3.492
N3885 X-8.405 Y-85.087 Z-3.47
N3890 X-8.441 Y-85.017 Z-3.433
N3895 X-8.474 Y-84.954 Z-3.383
N3900 X-8.502 Y-84.899 Z-3.321
N3905 X-8.525 Y-84.854 Z-3.25
N3910 X-8.542 Y-84.822 Z-3.171
N3915 X-8.552 Y-84.802 Z-3.087
N3920 X-8.556 Y-84.795 Z-3.
N3925 G0 Z-2.5
N3930 X-41.443 Y-84.114
N3935 G1 Z-3. F#103
N3940 X-41.447 Y-84.121 Z-3.087
N3945 X-41.459 Y-84.14 Z-3.171
N3950 X-41.477 Y-84.172 Z-3.25
N3955 X-41.503 Y-84.215 Z-3.321
N3960 X-41.534 Y-84.268 Z-3.383
N3965 X-41.571 Y-84.329 Z-3.433
N3970 X-41.611 Y-84.397 Z-3.47
N3975 X-41.654 Y-84.469 Z-3.492
N3980 X-41.699 Y-84.544 Z-3.5
N3985 G3 X-42.141 Y-86.051 I2.721 J-1.618
N3990 X-40.774 Y-89.53 I4.505 J-0.238 F#100
N3995 X-33.163 Y-94.811 I13.139 J10.814
N4000 X-8.362 Y-89.166 I8.282 J20.92
N4005 G1 X-8.254 Y-88.978
N4010 X-8.158 Y-88.784
N4015 X-8.074 Y-88.584
N4020 X-8.002 Y-88.379
N4025 X-7.943 Y-88.171
N4030 X-7.897 Y-87.959
N4035 X-7.864 Y-87.745
N4040 X-7.844 Y-87.529
N4045 X-7.837 Y-87.312
N4050 X-7.844 Y-87.096
N4055 X-7.863 Y-86.88
N4060 X-7.873 Y-86.796 F#104
N4065 X-7.896 Y-86.715
N4070 X-7.933 Y-86.639
N4075 X-7.983 Y-86.571
N4080 X-8.043 Y-86.511
N4085 X-8.113 Y-86.463
N4090 X-8.189 Y-86.427
N4095 X-8.271 Y-86.405
N4100 X-8.356 Y-86.397
N4105 X-9.161 Y-86.393
N4110 X-40.839 Y-86.233 F#105
N4115 X-41.639 Y-86.229 F#103
N4120 G3 X-42.141 Y-86.712 I-0.003 J-0.5
N4125 X-40.786 Y-90.125 I4.385 J-0.235 F#100
N4130 X-33.169 Y-95.304 I12.954 J10.861
N4135 X-8.341 Y-89.802 I8.294 J21.344
N4140 X-7.859 Y-87.544 I-3.057 J1.833
N4145 X-8.356 Y-87.061 I-0.5 J-0.017 F#104
N4150 G1 X-9.161 Y-87.057
N4155 X-40.839 Y-86.878 F#105
N4160 X-41.639 Y-86.873 F#103
N4165 G3 X-42.141 Y-87.356 I-0.003 J-0.5
N4170 X-40.786 Y-90.723 I4.287 J-0.231 F#100
N4175 X-33.773 Y-95.566 I12.474 J10.563
N4180 X-8.514 Y-90.647 I8.897 J21.626
N4185 X-7.859 Y-88.194 I-2.597 J2.008
N4190 X-8.355 Y-87.712 I-0.5 J-0.017 F#104
N4195 G1 X-9.161 Y-87.707
N4200 X-40.839 Y-87.515 F#105
N4205 X-41.639 Y-87.51 F#103
N4210 G3 X-42.141 Y-87.993 I-0.003 J-0.5
N4215 X-40.772 Y-91.329 I4.21 J-0.221 F#100
N4220 X-33.73 Y-96.083 I12.302 J10.63
N4225 X-8.574 Y-91.342 I8.86 J22.095
N4230 X-7.859 Y-88.83 I-2.505 J2.071
N4235 X-8.355 Y-88.347 I-0.5 J-0.017 F#104
N4240 G1 X-9.161 Y-88.342
N4245 X-40.839 Y-88.146 F#105
N4250 X-41.639 Y-88.141 F#103
N4255 G3 X-42.141 Y-88.624 I-0.003 J-0.5
N4260 X-40.783 Y-91.898 I4.125 J-0.208 F#100
N4265 X-33.758 Y-96.571 I12.133 J10.625
N4270 X-8.676 Y-92.062 I8.896 J22.533
N4275 X-7.859 Y-89.455 I-2.435 J2.195
N4280 X-8.355 Y-88.973 I-0.5 J-0.017 F#104
N4285 G1 X-9.161 Y-88.967
N4290 X-40.839 Y-88.75 F#105
N4295 X-41.638 Y-88.745 F#103
N4300 G3 X-42.141 Y-89.227 I-0.003 J-0.5
N4305 X-40.78 Y-92.476 I4.06 J-0.209 F#100
N4310 X-33.751 Y-97.071 I11.977 J10.649
N4315 X-8.761 Y-92.752 I8.897 J22.978
N4320 X-7.859 Y-90.068 I-2.309 J2.27
N4325 X-8.355 Y-89.586 I-0.5 J-0.017 F#104
N4330 G1 X-9.161 Y-89.58
N4335 X-40.839 Y-89.354 F#105
N4340 X-41.638 Y-89.348 F#103
N4345 G3 X-42.141 Y-89.831 I-0.004 J-0.5
N4350 X-40.767 Y-93.058 I4.006 J-0.201 F#100
N4355 X-34.349 Y-97.339 I11.475 J10.255
N4360 X-8.821 Y-93.41 I9.495 J23.207
N4365 X-7.859 Y-90.674 I-2.309 J2.35
N4370 X-8.355 Y-90.191 I-0.5 J-0.017 F#104
N4375 G1 X-9.161 Y-90.185
N4380 X-40.839 Y-89.957 F#105
N4385 X-41.638 Y-89.951 F#103
N4390 G3 X-42.141 Y-90.434 I-0.004 J-0.5
N4395 X-40.777 Y-93.61 I3.942 J-0.188 F#100
N4400 X-34.391 Y-97.823 I11.321 J10.216
N4405 X-8.928 Y-94.096 I9.547 J23.626
N4410 X-7.859 Y-91.269 I-2.179 J2.44
N4415 X-8.355 Y-90.786 I-0.5 J-0.017 F#104
N4420 G1 X-9.161 Y-90.78
N4425 X-40.839 Y-90.534 F#105
N4430 X-41.638 Y-90.528 F#103
N4435 G3 X-42.141 Y-91.01 I-0.004 J-0.5
N4440 X-40.788 Y-94.156 I3.886 J-0.192 F#100
N4445 X-34.434 Y-98.306 I11.177 J10.173
N4450 X-8.882 Y-94.645 I9.599 J24.002
N4455 X-7.859 Y-91.859 I-2.285 J2.42
N4460 X-8.354 Y-91.376 I-0.5 J-0.017 F#104
N4465 G1 X-9.161 Y-91.369
N4470 X-40.839 Y-91.104 F#105
N4475 X-41.637 Y-91.098 F#103
N4480 G3 X-42.141 Y-91.58 I-0.004 J-0.5
N4485 X-40.8 Y-94.696 I3.834 J-0.196 F#100
N4490 X-34.482 Y-98.787 I11.038 J10.122
N4495 X-8.999 Y-95.323 I9.659 J24.403
N4500 X-7.859 Y-92.441 I-2.147 J2.516
N4505 X-8.354 Y-91.958 I-0.5 J-0.017 F#104
N4510 G1 X-9.161 Y-91.951
N4515 X-40.839 Y-91.668 F#105
N4520 X-41.637 Y-91.66 F#103
N4525 G3 X-42.141 Y-92.143 I-0.004 J-0.5
N4530 X-40.772 Y-95.304 I4.027 J-0.133 F#100
N4535 X-32.966 Y-99.817 I12.032 J11.804
N4540 X-9.07 Y-95.955 I8.165 J25.341
N4545 X-7.833 Y-93.593 I-2.35 J2.736
N4550 G1 X-7.859 Y-93.017
N4555 G3 X-8.354 Y-92.535 I-0.5 J-0.017 F#104
N4560 G1 X-9.161 Y-92.528
N4565 X-40.839 Y-92.27 F#105
N4570 X-41.638 Y-92.264 F#103
N4575 G3 X-42.141 Y-92.746 I-0.004 J-0.5
N4580 X-40.766 Y-95.821 I3.769 J-0.159 F#100
N4585 X-34.382 Y-99.824 I10.862 J10.233
N4590 X-9.23 Y-96.646 I9.584 J25.274
N4595 X-7.84 Y-93.589 I-2.133 J2.815
N4600 G1 X-7.852 Y-93.502 F#104
N4605 X-7.879 Y-93.419
N4610 X-7.92 Y-93.342
N4615 X-7.973 Y-93.273
N4620 X-8.036 Y-93.214
N4625 X-8.108 Y-93.167
N4630 X-8.186 Y-93.133
N4635 X-8.269 Y-93.113
N4640 X-8.354 Y-93.107
N4645 X-9.161 Y-93.1
N4650 X-40.839 Y-92.817 F#105
N4655 X-41.637 Y-92.81 F#103
N4660 G3 X-42.141 Y-93.293 I-0.004 J-0.5
N4665 X-40.792 Y-96.335 I3.72 J-0.17 F#100
N4670 X-34.48 Y-100.285 I10.731 J10.129
N4675 X-9.198 Y-97.187 I9.693 J25.606
N4680 X-7.827 Y-94.721 I-2.32 J2.905
N4685 G1 X-7.859 Y-94.156
N4690 G3 X-8.353 Y-93.673 I-0.5 J-0.017 F#104
N4695 G1 X-9.161 Y-93.665
N4700 X-40.839 Y-93.352 F#105
N4705 X-41.637 Y-93.344 F#103
N4710 G3 X-42.141 Y-93.826 I-0.005 J-0.5
N4715 X-40.786 Y-96.909 I3.909 J-0.12 F#100
N4720 X-33.718 Y-101.056 I11.381 J11.3
N4725 X-9.331 Y-97.845 I8.94 J26.315
N4730 X-7.822 Y-95.281 I-2.246 J3.047
N4735 G1 X-7.859 Y-94.718
N4740 G3 X-8.354 Y-94.235 I-0.5 J-0.017 F#104
N4745 G1 X-9.161 Y-94.227
N4750 X-40.839 Y-93.922 F#105
N4755 X-41.637 Y-93.914 F#103
N4760 G3 X-42.141 Y-94.396 I-0.005 J-0.5
N4765 X-40.803 Y-97.392 I3.65 J-0.166 F#100
N4770 X-34.542 Y-101.257 I10.531 J10.055
N4775 X-9.573 Y-98.566 I9.782 J26.41
N4780 X-7.85 Y-96.219 I-2.37 J3.546
N4785 G1 X-7.859 Y-95.831
N4790 Y-95.276
N4795 G3 X-8.353 Y-94.794 I-0.5 J-0.017 F#104
N4800 G1 X-9.161 Y-94.785
N4805 X-40.839 Y-94.436 F#105
N4810 X-41.636 Y-94.427 F#103
N4815 G3 X-42.141 Y-94.909 I-0.006 J-0.5
N4820 X-40.806 Y-97.949 I3.829 J-0.131 F#100
N4825 X-33.821 Y-102.01 I11.164 J11.166
N4830 X-9.487 Y-99.06 I9.068 J27.039
N4835 X-7.957 Y-97.162 I-2.81 J3.831
N4840 G1 X-7.888 Y-96.772
N4845 X-7.859 Y-96.381
N4850 Y-95.831
N4855 G3 X-8.353 Y-95.349 I-0.5 J-0.017 F#104
N4860 G1 X-9.161 Y-95.34
N4865 X-40.839 Y-94.989 F#105
N4870 X-41.636 Y-94.981 F#103
N4875 G3 X-42.141 Y-95.463 I-0.006 J-0.5
N4880 X-40.798 Y-98.486 I3.814 J-0.114 F#100
N4885 X-33.8 Y-102.51 I11.101 J11.205
N4890 X-9.676 Y-99.733 I9.064 J27.431
N4895 X-7.848 Y-97.328 I-2.4 J3.723
N4900 G1 X-7.859 Y-96.928
N4905 Y-96.381
N4910 G3 X-8.353 Y-95.898 I-0.5 J-0.017 F#104
N4915 G1 X-9.161 Y-95.889
N4920 X-40.839 Y-95.532 F#105
N4925 X-41.636 Y-95.523 F#103
N4930 G3 X-42.141 Y-96.006 I-0.006 J-0.5
N4935 X-40.751 Y-99.025 I3.613 J-0.166 F#100
N4940 X-35.047 Y-102.562 I9.929 J9.644
N4945 X-9.591 Y-100.219 I10.327 J27.251
N4950 X-7.849 Y-97.868 I-2.417 J3.612
N4955 G1 X-7.859 Y-97.473
N4960 Y-96.928
N4965 G3 X-8.353 Y-96.445 I-0.5 J-0.017 F#104
N4970 G1 X-9.161 Y-96.436
N4975 X-40.839 Y-96.095 F#105
N4980 X-41.636 Y-96.086 F#103
N4985 G3 X-42.141 Y-96.568 I-0.005 J-0.5
N4990 X-40.793 Y-99.537 I3.768 J-0.079 F#100
N4995 X-33.802 Y-103.497 I10.968 J11.214
N5000 X-9.903 Y-100.959 I9.091 J28.189
N5005 X-7.972 Y-98.782 I-2.4 J4.074
N5010 G1 X-7.887 Y-98.403
N5015 X-7.859 Y-98.014
N5020 Y-97.473
N5025 G3 X-8.352 Y-96.99 I-0.5 J-0.017 F#104
N5030 G1 X-9.161 Y-96.98
N5035 X-40.839 Y-96.599 F#105
N5040 X-41.636 Y-96.59 F#103
N5045 G3 X-42.141 Y-97.072 I-0.006 J-0.5
N5050 X-40.765 Y-100.053 I3.564 J-0.163 F#100
N5055 X-34.451 Y-103.769 I10.22 J10.143
N5060 X-9.862 Y-101.469 I9.762 J28.227
N5065 X-8.11 Y-99.683 I-2.773 J4.473
N5070 X-7.859 Y-98.014 I-2.998 J1.304
N5075 X-8.352 Y-97.532 I-0.5 J-0.017 F#104
N5080 G1 X-9.161 Y-97.522
N5085 X-40.839 Y-97.142 F#105
N5090 X-41.636 Y-97.132 F#103
N5095 G3 X-42.141 Y-97.615 I-0.006 J-0.5
N5100 X-40.777 Y-100.559 I3.535 J-0.15 F#100
N5105 X-34.51 Y-104.243 I10.131 J10.062
N5110 X-14.208 Y-104.003 I9.816 J28.432
N5115 X-8.527 Y-100.904 I-4.424 J14.867
N5120 X-7.859 Y-98.554 I-2.431 J1.961
N5125 X-8.352 Y-98.071 I-0.5 J-0.017 F#104
N5130 G1 X-9.161 Y-98.061
N5135 X-40.839 Y-97.656 F#105
N5140 X-41.635 Y-97.645 F#103
N5145 G3 X-42.141 Y-98.128 I-0.006 J-0.5
N5150 X-40.774 Y-101.078 I3.524 J-0.159 F#100
N5155 X-34.505 Y-104.739 I10.082 J10.068
N5160 X-14.988 Y-104.772 I9.807 J28.635
N5165 X-8.527 Y-101.449 I-4.235 J16.176
N5170 X-7.859 Y-99.09 I-2.474 J1.975
N5175 X-8.352 Y-98.608 I-0.5 J-0.017 F#104
N5180 G1 X-9.161 Y-98.597
N5185 X-40.839 Y-98.182 F#105
N5190 X-41.635 Y-98.172 F#103
N5195 G3 X-42.141 Y-98.654 I-0.007 J-0.5
N5200 X-40.765 Y-101.602 I3.514 J-0.154 F#100
N5205 X-34.479 Y-105.242 I10.041 J10.092
N5210 X-15.766 Y-105.511 I9.772 J28.806
N5215 X-8.526 Y-101.991 I-3.996 J17.425
N5220 X-7.859 Y-99.624 I-2.523 J1.988
N5225 X-8.352 Y-99.142 I-0.5 J-0.017 F#104
N5230 G1 X-9.161 Y-99.131
N5235 X-40.839 Y-98.712 F#105
N5240 X-41.635 Y-98.701 F#103
N5245 G3 X-42.141 Y-99.184 I-0.007 J-0.5
N5250 X-40.781 Y-102.099 I3.488 J-0.148 F#100
N5255 X-34.547 Y-105.712 I9.966 J10.01
N5260 X-16.696 Y-106.26 I9.819 J28.88
N5265 X-8.794 Y-102.783 I-4.095 J20.027
N5270 X-7.859 Y-100.157 I-2.151 J2.246
N5275 X-8.351 Y-99.674 I-0.5 J-0.017 F#104
N5280 G1 X-9.161 Y-99.663
N5285 X-40.839 Y-99.216 F#105
N5290 X-41.635 Y-99.205 F#103
N5295 G3 X-42.141 Y-99.687 I-0.007 J-0.5
N5300 X-40.811 Y-102.611 I3.656 J-0.102 F#100
N5305 X-33.924 Y-106.413 I10.595 J11.055
N5310 X-15.075 Y-106.307 I9.256 J29.985
N5315 X-8.556 Y-103.072 I-3.959 J16.164
N5320 X-7.859 Y-100.686 I-2.432 J2.006
N5325 X-8.351 Y-100.204 I-0.5 J-0.017 F#104
N5330 G1 X-9.161 Y-100.192
N5335 X-40.839 Y-99.719 F#105
N5340 X-41.634 Y-99.707 F#103
N5345 G3 X-42.141 Y-100.189 I-0.007 J-0.5
N5350 X-40.764 Y-103.136 I3.478 J-0.17 F#100
N5355 X-34.516 Y-106.71 I9.894 J10.049
N5360 X-16.583 Y-107.221 I9.815 J29.541
N5365 X-8.797 Y-103.84 I-3.903 J19.64
N5370 X-7.859 Y-101.214 I-2.145 J2.247
N5375 X-8.351 Y-100.731 I-0.5 J-0.017 F#104
N5380 G1 X-9.161 Y-100.72
N5385 X-40.839 Y-100.265 F#105
N5390 X-41.634 Y-100.253 F#103
N5395 G3 X-42.141 Y-100.736 I-0.007 J-0.5
N5400 X-40.778 Y-103.632 I3.452 J-0.144 F#100
N5405 X-34.577 Y-107.182 I9.825 J9.969
N5410 X-17.518 Y-107.933 I9.845 J29.53
N5415 X-8.973 Y-104.514 I-3.678 J21.584
N5420 X-7.859 Y-101.74 I-2.043 J2.431
N5425 X-8.351 Y-101.257 I-0.5 J-0.017 F#104
N5430 G1 X-9.161 Y-101.245
N5435 X-40.839 Y-100.765 F#105
N5440 X-41.634 Y-100.753 F#103
N5445 G3 X-42.141 Y-101.236 I-0.008 J-0.5
N5450 X-40.777 Y-104.14 I3.445 J-0.154 F#100
N5455 X-34.585 Y-107.672 I9.782 J9.956
N5460 X-18.386 Y-108.6 I9.815 J29.502
N5465 X-9.112 Y-105.152 I-3.387 J23.311
N5470 X-7.859 Y-102.264 I-1.93 J2.553
N5475 X-8.351 Y-101.782 I-0.5 J-0.017 F#104
N5480 G1 X-9.161 Y-101.769
N5485 X-40.839 Y-101.279 F#105
N5490 X-41.634 Y-101.266 F#103
N5495 G3 X-42.141 Y-101.749 I-0.008 J-0.5
N5500 X-40.797 Y-104.627 I3.422 J-0.155 F#100
N5505 X-34.67 Y-108.136 I9.707 J9.846
N5510 X-18.499 Y-109.109 I9.899 J29.685
N5515 X-9.139 Y-105.695 I-3.264 J23.487
N5520 X-7.859 Y-102.787 I-1.884 J2.565
N5525 X-8.35 Y-102.304 I-0.5 J-0.017 F#104
N5530 G1 X-9.161 Y-102.291
N5535 X-40.839 Y-101.772 F#105
N5540 X-41.633 Y-101.759 F#103
N5545 G3 X-42.141 Y-102.242 I-0.008 J-0.5
N5550 X-40.793 Y-105.136 I3.419 J-0.169 F#100
N5555 X-34.677 Y-108.626 I9.667 J9.837
N5560 X-18.486 Y-109.594 I9.915 J29.934
N5565 X-9.132 Y-106.21 I-3.177 J23.4
N5570 X-7.859 Y-103.309 I-1.886 J2.558
N5575 X-8.35 Y-102.827 I-0.5 J-0.017 F#104
N5580 G1 X-9.161 Y-102.813
N5585 X-40.839 Y-102.285 F#105
N5590 X-41.633 Y-102.272 F#103
N5595 G3 X-42.141 Y-102.755 I-0.008 J-0.5
N5600 X-40.772 Y-105.66 I3.423 J-0.162 F#100
N5605 X-34.61 Y-109.139 I9.656 J9.904
N5610 X-18.365 Y-110.062 I9.866 J30.241
N5615 X-9.12 Y-106.718 I-3.132 J23.114
N5620 X-7.859 Y-103.831 I-1.888 J2.544
N5625 X-8.35 Y-103.348 I-0.5 J-0.017 F#104
N5630 G1 X-9.161 Y-103.335
N5635 X-40.839 Y-102.812 F#105
N5640 X-41.633 Y-102.799 F#103
N5645 G3 X-42.141 Y-103.281 I-0.008 J-0.5
N5650 X-40.745 Y-106.188 I3.427 J-0.143 F#100
N5655 X-35.196 Y-109.434 I9.208 J9.375
N5660 X-18.214 Y-110.52 I10.455 J30.171
N5665 X-9.104 Y-107.221 I-3.047 J22.643
N5670 X-7.859 Y-104.35 I-1.924 J2.54
N5675 X-8.35 Y-103.868 I-0.5 J-0.017 F#104
N5680 G1 X-9.161 Y-103.855
N5685 X-40.839 Y-103.341 F#105
N5690 X-41.633 Y-103.328 F#103
N5695 G3 X-42.141 Y-103.81 I-0.008 J-0.5
N5700 X-40.777 Y-106.661 I3.396 J-0.126 F#100
N5705 X-34.643 Y-110.111 I9.58 J9.853
N5710 X-19.269 Y-111.191 I9.853 J30.315
N5715 X-9.315 Y-107.897 I-2.745 J24.988
N5720 X-7.827 Y-105.385 I-2.038 J2.904
N5725 G1 X-7.859 Y-104.866
N5730 G3 X-8.35 Y-104.383 I-0.5 J-0.017 F#104
N5735 G1 X-9.161 Y-104.369
N5740 X-40.839 Y-103.818 F#105
N5745 X-41.633 Y-103.804 F#103
N5750 G3 X-42.141 Y-104.287 I-0.009 J-0.5
N5755 X-40.75 Y-107.188 I3.409 J-0.149 F#100
N5760 X-34.563 Y-110.628 I9.578 J9.941
N5765 X-19.12 Y-111.656 I9.795 J30.625
N5770 X-9.298 Y-108.398 I-2.725 J24.653
N5775 X-7.841 Y-105.381 I-1.925 J2.79
N5780 G1 X-7.853 Y-105.294 F#104
N5785 X-7.88 Y-105.212
N5790 X-7.92 Y-105.135
N5795 X-7.972 Y-105.067
N5800 X-8.034 Y-105.008
N5805 X-8.106 Y-104.961
N5810 X-8.184 Y-104.927
N5815 X-8.266 Y-104.906
N5820 X-8.35 Y-104.899
N5825 X-9.161 Y-104.886
N5830 X-40.839 Y-104.347 F#105
N5835 X-41.633 Y-104.334 F#103
N5840 G3 X-42.141 Y-104.816 I-0.008 J-0.5
N5845 X-40.78 Y-107.66 I3.38 J-0.13 F#100
N5850 X-34.679 Y-111.081 I9.503 J9.797
N5855 X-19.295 Y-112.169 I9.902 J30.713
N5860 X-9.34 Y-108.942 I-2.598 J24.986
N5865 X-7.826 Y-106.415 I-2.017 J2.925
N5870 G1 X-7.859 Y-105.898
N5875 G3 X-8.349 Y-105.416 I-0.5 J-0.017 F#104
N5880 G1 X-9.161 Y-105.401
N5885 X-40.839 Y-104.825 F#105
N5890 X-41.633 Y-104.81 F#103
N5895 G3 X-42.141 Y-105.293 I-0.009 J-0.5
N5900 X-40.751 Y-108.188 I3.396 J-0.15 F#100
N5905 X-34.591 Y-111.6 I9.508 J9.899
N5910 X-19.133 Y-112.634 I9.839 J31.038
N5915 X-9.316 Y-109.436 I-2.587 J24.616
N5920 X-7.84 Y-106.41 I-1.908 J2.804
N5925 G1 X-7.853 Y-106.324 F#104
N5930 X-7.879 Y-106.242
N5935 X-7.919 Y-106.165
N5940 X-7.971 Y-106.096
N5945 X-8.034 Y-106.038
N5950 X-8.105 Y-105.991
N5955 X-8.183 Y-105.956
N5960 X-8.265 Y-105.936
N5965 X-8.35 Y-105.929
N5970 X-9.161 Y-105.915
N5975 X-40.839 Y-105.354 F#105
N5980 X-41.633 Y-105.339 F#103
N5985 G3 X-42.141 Y-105.822 I-0.009 J-0.5
N5990 X-40.78 Y-108.66 I3.368 J-0.13 F#100
N5995 X-34.695 Y-112.056 I9.442 J9.767
N6000 X-29.791 Y-113.2 I6.89 J18.459
N6005 G1 X-20.776
N6010 G3 X-9.513 Y-110.076 I-0.79 J24.715
N6015 X-7.821 Y-107.442 I-1.9 J3.08
N6020 G1 X-7.859 Y-106.925
N6025 G3 X-8.569 Y-106.489 I-0.5 J-0.017 F#104
N6030 G1 X-9.1 Y-106.735
N6035 X-20.756 Y-112.148 F#105
N6040 X-20.969 Y-112.247 F#103
N6045 G3 X-20.776 Y-113.2 I0.211 J-0.453
N6050 X-16.484 Y-113.074 I1.466 J23.195 F#100
N6055 X-8.896 Y-110.122 I-2.681 J18.122
N6060 X-7.859 Y-107.437 I-1.981 J2.308
N6065 X-8.599 Y-107.016 I-0.5 J-0.017 F#104
N6070 G1 X-9.083 Y-107.281
N6075 X-17.947 Y-112.133 F#105
N6080 X-18.182 Y-112.262 F#103
N6085 G3 X-17.959 Y-113.2 I0.24 J-0.439
N6090 X-8.614 Y-110.36 I1.067 J13.283 F#100
N6095 G1 X-8.477 Y-110.192
N6100 X-8.352 Y-110.015
N6105 X-8.24 Y-109.83
N6110 X-8.141 Y-109.637
N6115 X-8.055 Y-109.438
N6120 X-7.983 Y-109.234
N6125 X-7.926 Y-109.025
N6130 X-7.884 Y-108.812
N6135 X-7.856 Y-108.597
N6140 X-7.844 Y-108.381
N6145 X-7.846 Y-108.164
N6150 X-7.864 Y-107.948
N6155 X-7.874 Y-107.863 F#104
N6160 X-7.899 Y-107.78
N6165 X-7.938 Y-107.703
N6170 X-7.989 Y-107.633
N6175 X-8.052 Y-107.574
N6180 X-8.125 Y-107.526
N6185 X-8.205 Y-107.492
N6190 X-8.289 Y-107.472
N6195 X-8.376 Y-107.467
N6200 X-8.462 Y-107.477
N6205 X-8.546 Y-107.502
N6210 X-8.624 Y-107.541
N6215 X-9.067 Y-107.819
N6220 X-15.944 Y-112.119 F#105
N6225 X-16.195 Y-112.276 F#103
N6230 G3 X-15.948 Y-113.2 I0.265 J-0.424
N6235 X-8.607 Y-110.829 I0.836 J9.959 F#100
N6240 X-7.866 Y-108.454 I-2.216 J1.994
N6245 G1 X-7.875 Y-108.373 F#104
N6250 X-7.897 Y-108.295
N6255 X-7.932 Y-108.221
N6260 X-7.979 Y-108.154
N6265 X-8.036 Y-108.095
N6270 X-8.102 Y-108.046
N6275 X-8.176 Y-108.009
N6280 X-8.254 Y-107.985
N6285 X-8.336 Y-107.974
N6290 X-8.418 Y-107.976
N6295 X-8.499 Y-107.992
N6300 X-8.576 Y-108.021
N6305 X-8.648 Y-108.063
N6310 X-9.051 Y-108.349
N6315 X-14.344 Y-112.104 F#105
N6320 X-14.61 Y-112.292 F#103
N6325 G3 X-14.338 Y-113.2 I0.289 J-0.408
N6330 X-8.347 Y-111.044 I0.704 J7.45 F#100
N6335 X-7.859 Y-109.44 I-2.631 J1.676
N6340 X-8.643 Y-109.046 I-0.5 J-0.017 F#104
N6345 G1 X-9.055 Y-109.331
N6350 X-13.074 Y-112.107 F#105
N6355 X-13.337 Y-112.289 F#103
N6360 G3 X-13.071 Y-113.2 I0.284 J-0.411
N6365 X-8.24 Y-111.358 I0.653 J5.543 F#100
N6370 X-7.859 Y-109.895 I-3.021 J1.568
N6375 X-8.665 Y-109.517 I-0.5 J-0.017 F#104
N6380 G1 X-9.038 Y-109.807
N6385 X-11.98 Y-112.092 F#105
N6390 X-12.254 Y-112.305 F#103
N6395 G3 X-11.965 Y-113.2 I0.307 J-0.395
N6400 X-8.107 Y-111.529 I0.591 J3.924 F#100
N6405 G1 X-7.988 Y-111.117
N6410 X-7.891 Y-110.712
N6415 X-7.859 Y-110.297
N6420 G3 X-8.691 Y-109.94 I-0.5 J-0.017 F#104
N6425 G1 X-9.019 Y-110.232
N6430 X-11.089 Y-112.074 F#105
N6435 X-11.374 Y-112.327 F#103
N6440 G3 X-11.059 Y-113.2 I0.332 J-0.374
N6445 G1 X-10.859 Y-113.231 F#100
N6450 X-10.657 Y-113.247
N6455 X-10.454 Y-113.248
N6460 X-10.252 Y-113.233
N6465 X-10.052 Y-113.204
N6470 X-9.854 Y-113.16
N6475 X-9.66 Y-113.102
N6480 X-9.471 Y-113.029
N6485 X-9.288 Y-112.942
N6490 X-9.112 Y-112.842
N6495 X-8.943 Y-112.73
N6500 X-8.784 Y-112.605
N6505 X-8.634 Y-112.468
N6510 X-8.495 Y-112.321
N6515 X-8.367 Y-112.164
N6520 X-8.251 Y-111.998
N6525 X-8.148 Y-111.824
N6530 X-8.058 Y-111.642
N6535 X-7.982 Y-111.455
N6540 X-7.92 Y-111.262
N6545 X-7.872 Y-111.065
N6550 X-7.859 Y-110.653
N6555 G3 X-8.72 Y-110.325 I-0.5 J-0.017 F#104
N6560 G1 X-8.995 Y-110.613
N6565 X-10.368 Y-112.05 F#105
N6570 X-10.659 Y-112.355 F#103
N6575 G3 X-10.315 Y-113.2 I0.362 J-0.345
N6580 G1 X-10.142 Y-113.225 F#100
N6585 X-9.967 Y-113.235
N6590 X-9.792 Y-113.23
N6595 X-9.618 Y-113.211
N6600 X-9.446 Y-113.177
N6605 X-9.278 Y-113.128
N6610 X-9.114 Y-113.066
N6615 X-8.956 Y-112.99
N6620 X-8.805 Y-112.901
N6625 X-8.663 Y-112.799
N6630 X-8.529 Y-112.686
N6635 X-8.406 Y-112.561
N6640 X-8.293 Y-112.427
N6645 X-8.192 Y-112.284
N6650 X-8.104 Y-112.133
N6655 X-8.029 Y-111.975
N6660 X-7.967 Y-111.811
N6665 X-7.919 Y-111.642
N6670 X-7.886 Y-111.47
N6675 X-7.868 Y-111.296
N6680 X-7.864 Y-111.121
N6685 X-7.874 Y-111.037 F#104
N6690 X-7.898 Y-110.955
N6695 X-7.935 Y-110.879
N6700 X-7.985 Y-110.811
N6705 X-8.047 Y-110.752
N6710 X-8.117 Y-110.704
N6715 X-8.194 Y-110.669
N6720 X-8.277 Y-110.647
N6725 X-8.362 Y-110.64
N6730 X-8.447 Y-110.647
N6735 X-8.529 Y-110.669
N6740 X-8.607 Y-110.705
N6745 X-8.677 Y-110.753
N6750 X-8.738 Y-110.813
N6755 X-8.98 Y-111.095
N6760 X-9.782 Y-112.034 F#105
N6765 X-10.074 Y-112.375 F#103
N6770 G3 X-9.712 Y-113.2 I0.38 J-0.325
N6775 X-7.868 Y-111.579 I0.269 J1.553 F#100
N6780 G1 X-7.878 Y-111.494 F#104
N6785 X-7.902 Y-111.413
N6790 X-7.939 Y-111.337
N6795 X-7.99 Y-111.268
N6800 X-8.051 Y-111.209
N6805 X-8.122 Y-111.161
N6810 X-8.201 Y-111.126
N6815 X-8.284 Y-111.105
N6820 X-8.369 Y-111.099
N6825 X-8.455 Y-111.108
N6830 X-8.538 Y-111.131
N6835 X-8.615 Y-111.168
N6840 X-8.685 Y-111.218
N6845 X-8.746 Y-111.28
N6850 X-8.973 Y-111.558
N6855 X-9.355 Y-112.027 F#105
N6860 X-9.646 Y-112.384 F#103
N6865 G3 X-9.276 Y-113.2 I0.388 J-0.316
N6870 X-7.867 Y-111.957 I0.211 J1.18 F#100
N6875 G1 X-7.879 Y-111.828 F#104
N6880 X-7.906 Y-111.701
N6885 X-7.949 Y-111.578
N6890 X-8.006 Y-111.461
N6895 X-8.077 Y-111.352
N6900 X-8.161 Y-111.252
N6905 X-8.256 Y-111.163
N6910 X-8.362 Y-111.086
N6915 X-8.476 Y-111.023
N6920 X-8.597 Y-110.974
N6925 X-8.723 Y-110.94
N6930 X-8.852 Y-110.921
N6935 G3 X-9.352 Y-111.002 I-0.082 J-1.073 F#105
N6940 X-10.037 Y-112.242 I0.444 J-1.054
N6945 X-8.948 Y-113.2 I1.129 J0.185 F#103
N6950 X-7.863 Y-112.278 I0.185 J0.882 F#100
N6955 G1 X-7.874 Y-112.169 F#104
N6960 X-7.9 Y-112.062
N6965 X-7.94 Y-111.96
N6970 X-7.994 Y-111.864
N6975 X-8.061 Y-111.777
N6980 X-8.139 Y-111.699
N6985 X-8.227 Y-111.633
N6990 X-8.323 Y-111.58
N6995 X-8.426 Y-111.54
N7000 X-8.533 Y-111.515
N7005 X-8.643 Y-111.505
N7010 X-8.753 Y-111.509
N7015 X-8.861 Y-111.529
N7020 X-8.966 Y-111.564
N7025 X-8.989 Y-111.573
N7030 G3 X-9.452 Y-112.09 I0.346 J-0.777 F#105
N7035 X-8.672 Y-113.2 I0.809 J-0.26 F#103
N7040 X-7.861 Y-112.51 I0.137 J0.66 F#100
N7045 G1 X-7.871 Y-112.42 F#104
N7050 X-7.894 Y-112.332
N7055 X-7.931 Y-112.249
N7060 X-7.98 Y-112.172
N7065 X-8.04 Y-112.104
N7070 X-8.109 Y-112.046
N7075 X-8.187 Y-111.999
N7080 X-8.271 Y-111.964
N7085 X-8.359 Y-111.942
N7090 X-8.45 Y-111.934
N7095 X-8.541 Y-111.94
N7100 X-8.629 Y-111.96
N7105 X-8.714 Y-111.993
N7110 G3 X-8.443 Y-113.198 I0.276 J-0.571
N7115 X-7.857 Y-112.702 I0.059 J0.525 F#100
N7120 G1 X-7.859 Y-108.954
N7125 G3 X-8.319 Y-108.473 I-0.5 J-0.017 F#104
N7130 G1 X-8.66 Y-108.446
N7135 X-8.747 Y-108.439 Z-3.492
N7140 X-8.831 Y-108.432 Z-3.47
N7145 X-8.909 Y-108.426 Z-3.433
N7150 X-8.981 Y-108.42 Z-3.383
N7155 X-9.042 Y-108.415 Z-3.321
N7160 X-9.092 Y-108.411 Z-3.25
N7165 X-9.129 Y-108.408 Z-3.171
N7170 X-9.151 Y-108.407 Z-3.087
N7175 X-9.159 Y-108.406 Z-3.
N7180 G0 Z2.
N7185 X-7.886 Y-73.05
N7190 Z-3.
N7195 G1 Z-3.5 F#103
N7200 X-7.901 Y-71.479
N7205 G3 X-9.172 Y-65.393 I-14.235 J0.204 F#100
N7210 X-41.561 Y-66.532 I-15.926 J-8.221
N7215 X-41.88 Y-68.856 I95.927 J-14.333
N7220 G1 X-41.914 Y-69.926 F#104
N7225 X-41.917 Y-70.013 Z-3.492
N7230 X-41.92 Y-70.097 Z-3.47
N7235 X-41.923 Y-70.176 Z-3.433
N7240 X-41.925 Y-70.247 Z-3.383
N7245 X-41.927 Y-70.309 Z-3.321
N7250 X-41.929 Y-70.359 Z-3.25
N7255 X-41.93 Y-70.396 Z-3.171
N7260 X-41.931 Y-70.418 Z-3.087
N7265 Y-70.426 Z-3.
N7270 G0 X-9.009 Y-69.93
N7275 G1 Z-3.5 F#103
N7280 G2 X-8.253 Y-68.953 I5.206 J-3.242
N7285 G3 X-8.145 Y-68.648 I-0.29 J0.275
N7290 X-11.454 Y-61.381 I-10.991 J-0.618 F#100
N7295 X-41.261 Y-64.913 I-13.676 J-12.128
N7300 X-41.593 Y-66.789 I80.941 J-15.28
N7305 G1 X-41.595 Y-66.868 F#104
N7310 X-41.581 Y-66.945
N7315 X-41.553 Y-67.019
N7320 X-41.511 Y-67.085
N7325 G2 X-41.076 Y-67.703 I-6.623 J-5.128
N7330 G1 X-41.031 Y-67.778 Z-3.492
N7335 X-40.988 Y-67.85 Z-3.47
N7340 X-40.947 Y-67.918 Z-3.433
N7345 X-40.911 Y-67.979 Z-3.383
N7350 X-40.879 Y-68.032 Z-3.321
N7355 X-40.853 Y-68.075 Z-3.25
N7360 X-40.835 Y-68.107 Z-3.171
N7365 X-40.823 Y-68.126 Z-3.087
N7370 X-40.819 Y-68.132 Z-3.
N7375 G0 X-9.283 Y-67.924
N7380 G1 Z-3.5 F#103
N7385 G2 X-8.532 Y-66.953 I7.189 J-4.79
N7390 G3 X-8.433 Y-66.636 I-0.298 J0.267
N7395 X-11.283 Y-60.902 I-9.168 J-0.982 F#100
N7400 X-40.958 Y-63.509 I-13.848 J-12.57
N7405 X-41.311 Y-65.215 I255.933 J-53.939
N7410 G1 X-41.316 Y-65.293 F#104
N7415 X-41.305 Y-65.371
N7420 X-41.279 Y-65.445
N7425 X-41.239 Y-65.513
N7430 G2 X-40.818 Y-66.141 I-8.761 J-6.337
N7435 G1 X-40.773 Y-66.216 Z-3.492
N7440 X-40.731 Y-66.288 Z-3.47
N7445 X-40.691 Y-66.356 Z-3.433
N7450 X-40.654 Y-66.418 Z-3.383
N7455 X-40.623 Y-66.471 Z-3.321
N7460 X-40.598 Y-66.514 Z-3.25
N7465 X-40.579 Y-66.545 Z-3.171
N7470 X-40.567 Y-66.565 Z-3.087
N7475 X-40.564 Y-66.571 Z-3.
N7480 G0 X-9.364 Y-66.626
N7485 G1 Z-3.5 F#103
N7490 G2 X-8.742 Y-65.501 I11.569 J-5.658
N7495 G3 X-8.687 Y-65.228 I-0.34 J0.211
N7500 X-11.526 Y-60.005 I-8.292 J-1.124 F#100
N7505 X-37.808 Y-59.139 I-13.596 J-13.371
N7510 X-40.758 Y-62.62 I5.792 J-7.899
N7515 G1 X-40.874 Y-63.216
N7520 X-41.022 Y-63.859
N7525 G3 X-40.96 Y-64.159 I0.393 J-0.075 F#104
N7530 G2 X-40.553 Y-64.797 I-10.803 J-7.342
N7535 G1 X-40.51 Y-64.872 Z-3.492
N7540 X-40.468 Y-64.945 Z-3.47
N7545 X-40.429 Y-65.014 Z-3.433
N7550 X-40.393 Y-65.076 Z-3.383
N7555 X-40.363 Y-65.129 Z-3.321
N7560 X-40.338 Y-65.173 Z-3.25
N7565 X-40.32 Y-65.205 Z-3.171
N7570 X-40.309 Y-65.224 Z-3.087
N7575 X-40.305 Y-65.231 Z-3.
N7580 G0 X-9.624 Y-65.316
N7585 G1 Z-3.5 F#103
N7590 G2 X-9.016 Y-64.19 I13.575 J-6.601
N7595 G3 X-8.966 Y-63.91 I-0.344 J0.205
N7600 X-11.814 Y-59.113 I-7.624 J-1.282 F#100
N7605 X-31.8 Y-55.067 I-13.236 J-13.997
N7610 X-40.113 Y-60.803 I6.261 J-17.965
N7615 X-40.72 Y-62.638 I6.804 J-3.268
N7620 G1 X-40.731 Y-62.715 F#104
N7625 X-40.726 Y-62.793
N7630 X-40.706 Y-62.869
N7635 X-40.672 Y-62.939
N7640 G2 X-40.281 Y-63.587 I-12.88 J-8.205
N7645 G1 X-40.239 Y-63.663 Z-3.492
N7650 X-40.199 Y-63.737 Z-3.47
N7655 X-40.161 Y-63.806 Z-3.433
N7660 X-40.127 Y-63.869 Z-3.383
N7665 X-40.097 Y-63.923 Z-3.321
N7670 X-40.073 Y-63.967 Z-3.25
N7675 X-40.055 Y-63.999 Z-3.171
N7680 X-40.044 Y-64.019 Z-3.087
N7685 X-40.041 Y-64.025 Z-3.
N7690 G0 X-9.895 Y-64.117
N7695 G1 Z-3.5 F#103
N7700 G2 X-9.302 Y-62.989 I15.489 J-7.429
N7705 G3 X-9.258 Y-62.703 I-0.347 J0.199
N7710 X-11.829 Y-58.501 I-6.911 J-1.34 F#100
N7715 X-33.215 Y-55.142 I-13.247 J-14.58
N7720 X-39.756 Y-59.727 I7.228 J-17.269
N7725 X-40.406 Y-61.501 I5.744 J-3.113
N7730 G1 X-40.42 Y-61.578 F#104
N7735 X-40.418 Y-61.655
N7740 X-40.402 Y-61.731
N7745 X-40.37 Y-61.803
N7750 G2 X-39.999 Y-62.462 I-15.108 J-8.937
N7755 G1 X-39.959 Y-62.54 Z-3.492
N7760 X-39.921 Y-62.614 Z-3.47
N7765 X-39.885 Y-62.685 Z-3.433
N7770 X-39.852 Y-62.748 Z-3.383
N7775 X-39.823 Y-62.803 Z-3.321
N7780 X-39.801 Y-62.847 Z-3.25
N7785 X-39.784 Y-62.88 Z-3.171
N7790 X-39.773 Y-62.9 Z-3.087
N7795 X-39.77 Y-62.907 Z-3.
N7800 G0 X-10.171 Y-63.028
N7805 G1 Z-3.5 F#103
N7810 G2 X-9.593 Y-61.901 I17.303 J-8.16
N7815 G3 X-9.555 Y-61.607 I-0.35 J0.194
N7820 X-12.475 Y-57.383 I-6.78 J-1.565 F#100
N7825 X-26.432 Y-53.014 I-12.357 J-14.998
N7830 X-39.404 Y-58.719 I1.142 J-20.195
N7835 X-40.099 Y-60.458 I6.554 J-3.626
N7840 X-40.062 Y-60.762 I0.385 J-0.108 F#104
N7845 G2 X-39.705 Y-61.429 I-17.128 J-9.615
N7850 G1 X-39.666 Y-61.506 Z-3.492
N7855 X-39.629 Y-61.582 Z-3.47
N7860 X-39.594 Y-61.653 Z-3.433
N7865 X-39.562 Y-61.717 Z-3.383
N7870 X-39.535 Y-61.772 Z-3.321
N7875 X-39.512 Y-61.817 Z-3.25
N7880 X-39.496 Y-61.85 Z-3.171
N7885 X-39.486 Y-61.87 Z-3.087
N7890 X-39.483 Y-61.877 Z-3.
N7895 G0 X-10.275 Y-62.104
N7900 G1 Z-3.5 F#103
N7905 G2 X-9.865 Y-60.835 I27.036 J-8.041
N7910 G3 X-9.856 Y-60.601 I-0.378 J0.132
N7915 X-12.808 Y-56.571 I-6.52 J-1.679 F#100
N7920 X-26.481 Y-52.556 I-12.005 J-15.596
N7925 X-38.986 Y-57.711 I1.164 J-20.567
N7930 X-39.756 Y-59.459 I5.72 J-3.562
N7935 G1 X-39.773 Y-59.535 F#104
N7940 X-39.774 Y-59.612
N7945 X-39.761 Y-59.689
N7950 X-39.732 Y-59.762
N7955 G2 X-39.388 Y-60.436 I-19.177 J-10.198
N7960 G1 X-39.351 Y-60.515 Z-3.492
N7965 X-39.315 Y-60.591 Z-3.47
N7970 X-39.281 Y-60.662 Z-3.433
N7975 X-39.251 Y-60.727 Z-3.383
N7980 X-39.224 Y-60.782 Z-3.321
N7985 X-39.203 Y-60.828 Z-3.25
N7990 X-39.187 Y-60.861 Z-3.171
N7995 X-39.178 Y-60.881 Z-3.087
N8000 X-39.174 Y-60.888 Z-3.
N8005 G0 X-10.586 Y-61.103
N8010 G1 Z-3.5 F#103
N8015 G2 X-10.194 Y-59.839 I29.687 J-8.506
N8020 G3 X-10.191 Y-59.595 I-0.379 J0.127
N8025 X-13.263 Y-55.706 I-6.302 J-1.819 F#100
N8030 X-24.812 Y-52.047 I-11.373 J-15.841
N8035 X-38.558 Y-56.752 I-0.451 J-21.115
N8040 X-39.392 Y-58.456 I5.042 J-3.523
N8045 X-39.375 Y-58.762 I0.377 J-0.133 F#104
N8050 G2 X-39.059 Y-59.449 I-22.2 J-10.648
N8055 G1 X-39.024 Y-59.529 Z-3.492
N8060 X-38.991 Y-59.606 Z-3.47
N8065 X-38.96 Y-59.679 Z-3.433
N8070 X-38.932 Y-59.744 Z-3.383
N8075 X-38.907 Y-59.801 Z-3.321
N8080 X-38.887 Y-59.847 Z-3.25
N8085 X-38.873 Y-59.881 Z-3.171
N8090 X-38.864 Y-59.901 Z-3.087
N8095 X-38.861 Y-59.908 Z-3.
N8100 G0 X-10.924 Y-60.102
N8105 G1 Z-3.5 F#103
N8110 G2 X-10.552 Y-58.843 I32.428 J-8.906
N8115 G3 X-10.556 Y-58.59 I-0.381 J0.121
N8120 X-13.389 Y-55.094 I-5.897 J-1.885 F#100
N8125 X-27.532 Y-51.724 I-11.459 J-16.726
N8130 X-38.158 Y-55.87 I2.036 J-20.907
N8135 X-39.001 Y-57.504 I5.504 J-3.875
N8140 G1 X-39.023 Y-57.578 F#104
N8145 X-39.031 Y-57.655
N8150 X-39.023 Y-57.733
N8155 X-39. Y-57.808
N8160 G2 X-38.707 Y-58.505 I-25.197 J-11.002
N8165 G1 X-38.675 Y-58.586 Z-3.492
N8170 X-38.645 Y-58.664 Z-3.47
N8175 X-38.616 Y-58.738 Z-3.433
N8180 X-38.589 Y-58.804 Z-3.383
N8185 X-38.567 Y-58.862 Z-3.321
N8190 X-38.549 Y-58.908 Z-3.25
N8195 X-38.535 Y-58.942 Z-3.171
N8200 X-38.527 Y-58.963 Z-3.087
N8205 X-38.524 Y-58.97 Z-3.
N8210 G0 X-11.263 Y-59.192
N8215 G1 Z-3.5 F#103
N8220 G2 X-10.908 Y-57.937 I35.087 J-9.235
N8225 G3 X-10.919 Y-57.675 I-0.383 J0.116
N8230 X-14.075 Y-54.144 I-5.947 J-2.14 F#100
N8235 X-26.121 Y-51.141 I-10.655 J-17.081
N8240 X-37.685 Y-54.967 I0.73 J-21.599
N8245 X-38.625 Y-56.636 I5.497 J-4.195
N8250 X-38.164 Y-57.323 I0.464 J-0.187 F#104
N8255 G1 X-37.568 Y-57.326
N8260 X-12.368 Y-57.463 F#105
N8265 X-11.777 Y-57.466 F#103
N8270 G3 X-11.311 Y-56.779 I0.003 J0.5
N8275 X-14.563 Y-53.36 I-5.804 J-2.264 F#100
N8280 X-26.247 Y-50.682 I-10.165 J-17.517
N8285 X-37.148 Y-54.066 I0.816 J-21.877
N8290 X-38.168 Y-55.679 I5.582 J-4.656
N8295 X-37.72 Y-56.393 I0.452 J-0.213 F#104
N8300 G1 X-37.151 Y-56.397
N8305 X-12.758 Y-56.596 F#105
N8310 X-12.185 Y-56.601 F#103
N8315 G3 X-11.723 Y-55.899 I0.004 J0.5
N8320 X-14.965 Y-52.645 I-5.729 J-2.465 F#100
N8325 X-28.834 Y-50.488 I-10.006 J-18.672
N8330 X-36.594 Y-53.203 I2.914 J-20.774
N8335 X-37.676 Y-54.775 I4.558 J-4.294
N8340 G1 X-37.709 Y-54.853 F#104
N8345 X-37.728 Y-54.935
N8350 X-37.733 Y-55.019
N8355 X-37.723 Y-55.103
N8360 X-37.7 Y-55.184
N8365 X-37.663 Y-55.26
N8370 X-37.614 Y-55.329
N8375 X-37.553 Y-55.388
N8380 X-37.484 Y-55.437
N8385 X-37.407 Y-55.473
N8390 X-37.325 Y-55.495
N8395 X-37.241 Y-55.504
N8400 X-36.691 Y-55.508
N8405 X-13.207 Y-55.69 F#105
N8410 X-12.659 Y-55.694 F#103
N8415 G3 X-12.209 Y-54.969 I0.004 J0.5
N8420 X-15.584 Y-51.847 I-5.673 J-2.749 F#100
N8425 X-29.807 Y-50.19 I-9.472 J-19.433
N8430 X-36.024 Y-52.37 I3.378 J-19.59
N8435 X-37.149 Y-53.889 I5.168 J-5.001
N8440 G1 X-37.185 Y-53.967 F#104
N8445 X-37.207 Y-54.05
N8450 X-37.214 Y-54.135
N8455 X-37.207 Y-54.221
N8460 X-37.185 Y-54.304
N8465 X-37.149 Y-54.382
N8470 X-37.1 Y-54.453
N8475 X-37.039 Y-54.514
N8480 X-36.969 Y-54.564
N8485 X-36.891 Y-54.602
N8490 X-36.807 Y-54.625
N8495 X-36.721 Y-54.633
N8500 X-36.191 Y-54.636
N8505 X-13.73 Y-54.758 F#105
N8510 X-13.205 Y-54.761 F#103
N8515 G3 X-12.768 Y-54.014 I0.003 J0.5
N8520 X-16.363 Y-51.016 I-5.65 J-3.121 F#100
N8525 X-30.285 Y-49.81 I-8.756 J-20.108
N8530 X-35.442 Y-51.563 I3.37 J-18.371
N8535 X-36.584 Y-53.013 I3.294 J-3.769
N8540 X-36.162 Y-53.776 I0.425 J-0.263 F#104
N8545 G1 X-35.65 Y-53.78
N8550 X-14.245 Y-53.922 F#105
N8555 X-13.745 Y-53.925 F#103
N8560 G3 X-13.319 Y-53.158 I0.003 J0.5
N8565 X-16.745 Y-50.4 I-5.137 J-2.874 F#100
N8570 X-27.897 Y-48.938 I-8.197 J-19.261
N8575 X-35.222 Y-50.97 I1.752 J-20.541
N8580 X-36.199 Y-52.393 I3.484 J-3.438
N8585 X-35.766 Y-53.137 I0.436 J-0.244 F#104
N8590 G1 X-35.232 Y-53.14
N8595 X-14.702 Y-53.243 F#105
N8600 X-14.174 Y-53.246 F#103
N8605 G3 X-13.735 Y-52.502 I0.003 J0.5
N8610 X-16.702 Y-49.98 I-4.421 J-2.195 F#100
N8615 X-25.289 Y-48.312 I-7.771 J-17.066
N8620 X-34.539 Y-50.147 I-0.27 J-22.874
N8625 X-35.936 Y-51.917 I1.696 J-2.775
N8630 G1 X-35.966 Y-51.993 F#104
N8635 X-35.983 Y-52.073
N8640 X-35.986 Y-52.155
N8645 X-35.975 Y-52.236
N8650 X-35.951 Y-52.314
N8655 X-35.914 Y-52.388
N8660 X-35.865 Y-52.455
N8665 X-35.806 Y-52.512
N8670 X-35.737 Y-52.559
N8675 X-35.662 Y-52.595
N8680 X-35.582 Y-52.617
N8685 X-35.499 Y-52.625
N8690 X-34.931 Y-52.627
N8695 X-15.03 Y-52.699 F#105
N8700 X-14.466 Y-52.701 F#103
N8705 G3 X-14.012 Y-51.989 I0.002 J0.5
N8710 X-16.734 Y-49.53 I-4.112 J-1.815 F#100
N8715 X-25.646 Y-47.853 I-7.767 J-16.76
N8720 X-34.499 Y-49.667 I-0.175 J-21.651
N8725 X-35.681 Y-51.393 I1.965 J-2.614
N8730 G1 X-35.708 Y-51.468 F#104
N8735 X-35.722 Y-51.547
N8740 X-35.723 Y-51.627
N8745 X-35.71 Y-51.706
N8750 X-35.685 Y-51.783
N8755 X-35.648 Y-51.854
N8760 X-35.599 Y-51.919
N8765 X-35.54 Y-51.975
N8770 X-35.473 Y-52.021
N8775 X-35.399 Y-52.055
N8780 X-35.32 Y-52.076
N8785 X-35.238 Y-52.085
N8790 X-34.652 Y-52.088
N8795 X-15.302 Y-52.181 F#105
N8800 X-14.72 Y-52.184 F#103
N8805 G3 X-14.258 Y-51.488 I0.002 J0.5
N8810 X-16.814 Y-49.069 I-3.822 J-1.479 F#100
N8815 X-23.878 Y-47.408 I-7.143 J-14.524
N8820 X-34.22 Y-49.065 I-1.674 J-22.654
N8825 X-35.464 Y-50.765 I1.545 J-2.436
N8830 X-34.982 Y-51.37 I0.489 J-0.105 F#104
N8835 G1 X-34.296 Y-51.379
N8840 X-15.607 Y-51.636 F#105
N8845 X-14.959 Y-51.645 F#103
N8850 G3 X-14.469 Y-51.016 I0.007 J0.5
N8855 X-16.375 Y-48.887 I-3.085 J-0.844 F#100
N8860 X-23.513 Y-46.973 I-7.265 J-12.825
N8865 X-34.036 Y-48.516 I-2.1 J-22.326
N8870 X-35.464 Y-50.765 I1.642 J-2.621
N8875 X-34.974 Y-51.37 I0.489 J-0.105 F#104
N8880 G1 X-34.296 Y-51.368
N8885 X-15.718 Y-51.317 F#105
N8890 X-15.037 Y-51.315 F#103
N8895 G3 X-14.549 Y-50.711 I-0.001 J0.5
N8900 X-16.39 Y-48.469 I-3.062 J-0.638 F#100
N8905 X-23.065 Y-46.541 I-7.035 J-11.84
N8910 X-33.808 Y-47.949 I-2.535 J-22.349
N8915 X-35.357 Y-50.323 I1.533 J-2.693
N8920 X-34.866 Y-50.916 I0.491 J-0.094 F#104
N8925 G1 X-34.175
N8930 X-15.828 Y-50.903 F#105
N8935 X-15.137 Y-50.902 F#103
N8940 G3 X-14.646 Y-50.308 I0. J0.5
N8945 X-16.485 Y-48.004 I-3.057 J-0.554 F#100
N8950 X-23.019 Y-46.081 I-6.908 J-11.412
N8955 X-33.483 Y-47.345 I-2.623 J-22.235
N8960 X-35.259 Y-49.891 I1.314 J-2.81
N8965 X-34.764 Y-50.471 I0.494 J-0.08 F#104
N8970 G1 X-34.06 Y-50.469
N8975 X-15.949 Y-50.426 F#105
N8980 X-15.242 Y-50.425 F#103
N8985 G3 X-14.75 Y-49.845 I-0.001 J0.5
N8990 X-16.645 Y-47.499 I-3.087 J-0.555 F#100
N8995 X-22.532 Y-45.664 I-6.554 J-10.671
N9000 X-33.4 Y-46.85 I-3.09 J-22.084
N9005 X-35.179 Y-49.455 I1.287 J-2.789
N9010 X-34.684 Y-50.026 I0.495 J-0.071 F#104
N9015 G1 X-33.969 Y-50.027
N9020 X-16.027 Y-50.046 F#105
N9025 X-15.313 Y-50.047 F#103
N9030 G3 X-14.818 Y-49.476 I0.001 J0.5
N9035 X-16.399 Y-47.244 I-2.805 J-0.31 F#100
N9040 X-22.647 Y-45.197 I-6.77 J-10.106
N9045 X-33.353 Y-46.373 I-3.068 J-21.375
N9050 X-35.165 Y-48.978 I1.441 J-2.935
N9055 G1 X-35.152 Y-49.068 F#104
N9060 X-35.124 Y-49.153
N9065 X-35.082 Y-49.233
N9070 X-35.028 Y-49.303
N9075 X-34.963 Y-49.362
N9080 X-34.889 Y-49.41
N9085 X-34.808 Y-49.443
N9090 X-34.724 Y-49.463
N9095 X-34.638 Y-49.467
N9100 X-33.835 Y-49.474
N9105 X-16.164 Y-49.615 F#105
N9110 X-15.369 Y-49.621 F#103
N9115 G3 X-14.865 Y-49.135 I0.004 J0.5
N9120 X-16.258 Y-46.941 I-2.56 J-0.086 F#100
N9125 X-21.876 Y-44.84 I-6.484 J-8.778
N9130 X-33.214 Y-45.852 I-3.806 J-21.359
N9135 X-35.139 Y-48.173 I1.56 J-3.254
N9140 G1 X-35.132 Y-48.57
N9145 Y-48.733
N9150 X-35.134 Y-48.981
N9155 G3 X-34.631 Y-49.467 I0.5 J0.014 F#104
N9160 G1 X-33.835 Y-49.463
N9165 X-16.166 Y-49.364 F#105
N9170 X-15.364 Y-49.359 F#103
N9175 G3 X-14.867 Y-48.873 I-0.003 J0.5
N9180 X-16.226 Y-46.553 I-2.558 J0.059 F#100
N9185 X-21.637 Y-44.42 I-6.398 J-8.297
N9190 X-33.045 Y-45.322 I-4.064 J-21.19
N9195 X-35.165 Y-47.793 I1.486 J-3.42
N9200 G1 X-35.141 Y-48.199
N9205 X-35.132 Y-48.531
N9210 Y-48.57
N9215 G3 X-34.63 Y-49.051 I0.5 J0.019 F#104
N9220 G1 X-33.828 Y-49.048
N9225 X-16.182 Y-48.971 F#105
N9230 X-15.364 Y-48.967 F#103
N9235 G3 X-14.867 Y-48.498 I-0.002 J0.5
N9240 X-16.147 Y-46.194 I-2.548 J0.092 F#100
N9245 X-21.798 Y-43.936 I-6.58 J-8.269
N9250 X-33.039 Y-44.862 I-3.952 J-20.726
N9255 X-35.079 Y-46.929 I1.755 J-3.772
N9260 X-35.141 Y-48.199 I5.778 J-0.918
N9265 X-34.642 Y-48.668 I0.499 J0.031 F#104
N9270 G1 X-33.826 Y-48.667
N9275 X-16.173 Y-48.64 F#105
N9280 X-15.356 Y-48.639 F#103
N9285 G3 X-14.858 Y-48.17 I-0.001 J0.5
N9290 X-16.135 Y-45.781 I-2.61 J0.141 F#100
N9295 X-21.686 Y-43.498 I-6.572 J-8.088
N9300 X-32.942 Y-44.362 I-4.089 J-20.476
N9305 X-35.16 Y-46.779 I1.544 J-3.643
N9310 G1 X-35.153 Y-47.24
N9315 X-35.15 Y-47.702
N9320 G3 X-34.652 Y-48.181 I0.5 J0.021 F#104
N9325 G1 X-33.844 Y-48.184
N9330 X-16.156 Y-48.244 F#105
N9335 X-15.352 Y-48.247 F#103
N9340 G3 X-14.85 Y-47.767 I0.002 J0.5
N9345 X-16.269 Y-45.249 I-2.774 J0.096 F#100
N9350 X-21.598 Y-43.053 I-6.468 J-8.128
N9355 X-32.854 Y-43.865 I-4.191 J-20.306
N9360 X-35.037 Y-45.878 I1.788 J-4.129
N9365 G1 X-35.115 Y-46.331
N9370 X-35.153 Y-46.779
N9375 Y-47.24
N9380 G3 X-34.656 Y-47.721 I0.5 J0.019 F#104
N9385 G1 X-33.849 Y-47.727
N9390 X-16.153 Y-47.839 F#105
N9395 X-15.351 Y-47.845 F#103
N9400 G3 X-14.848 Y-47.365 I0.003 J0.5
N9405 X-16.289 Y-44.803 I-2.824 J0.098 F#100
N9410 X-21.657 Y-42.584 I-6.525 J-8.181
N9415 X-33.051 Y-43.492 I-4.155 J-19.807
N9420 X-35.047 Y-45.457 I1.949 J-3.975
N9425 G1 X-35.118 Y-45.892
N9430 X-35.153 Y-46.321
N9435 Y-46.779
N9440 G3 X-34.657 Y-47.262 I0.5 J0.017 F#104
N9445 G1 X-33.85 Y-47.268
N9450 X-16.15 Y-47.399 F#105
N9455 X-15.35 Y-47.405 F#103
N9460 G3 X-14.847 Y-46.922 I0.004 J0.5
N9465 X-16.266 Y-44.387 I-2.839 J0.076 F#100
N9470 X-22.118 Y-42.05 I-6.797 J-8.527
N9475 X-32.974 Y-43.001 I-3.772 J-19.379
N9480 X-35.16 Y-45.414 I1.567 J-3.617
N9485 G1 X-35.153 Y-45.862
N9490 Y-46.321
N9495 G3 X-34.658 Y-46.803 I0.5 J0.017 F#104
N9500 G1 X-33.85 Y-46.812
N9505 X-16.15 Y-46.994 F#105
N9510 X-15.352 Y-47.002 F#103
N9515 G3 X-14.847 Y-46.52 I0.005 J0.5
N9520 X-16.274 Y-43.946 I-2.864 J0.095 F#100
N9525 X-22.139 Y-41.588 I-6.838 J-8.532
N9530 X-33.163 Y-42.628 I-3.772 J-18.965
N9535 X-35.039 Y-44.529 I1.988 J-3.838
N9540 G1 X-35.117 Y-44.967
N9545 X-35.153 Y-45.403
N9550 Y-45.862
N9555 G3 X-34.659 Y-46.345 I0.5 J0.017 F#104
N9560 G1 X-33.851 Y-46.354
N9565 X-16.149 Y-46.557 F#105
N9570 X-15.352 Y-46.567 F#103
N9575 G3 X-14.847 Y-46.084 I0.006 J0.5
N9580 X-16.274 Y-43.509 I-2.881 J0.086 F#100
N9585 X-22.127 Y-41.13 I-6.869 J-8.511
N9590 X-33.132 Y-42.153 I-3.801 J-18.824
N9595 X-35.155 Y-44.493 I1.692 J-3.507
N9600 G1 X-35.153 Y-44.944
N9605 Y-45.403
N9610 G3 X-34.66 Y-45.886 I0.5 J0.017 F#104
N9615 G1 X-33.851 Y-45.896
N9620 X-16.149 Y-46.126 F#105
N9625 X-15.353 Y-46.136 F#103
N9630 G3 X-14.847 Y-45.654 I0.006 J0.5
N9635 X-16.284 Y-43.062 I-2.901 J0.085 F#100
N9640 X-21.612 Y-40.761 I-6.656 J-8.092
N9645 X-32.91 Y-41.586 I-4.283 J-19.123
N9650 X-35.042 Y-43.6 I1.851 J-4.097
N9655 G1 X-35.117 Y-44.045
N9660 X-35.153 Y-44.484
N9665 Y-44.944
N9670 G3 X-34.66 Y-45.426 I0.5 J0.017 F#104
N9675 G1 X-33.851 Y-45.438
N9680 X-16.149 Y-45.681 F#105
N9685 X-15.354 Y-45.692 F#103
N9690 G3 X-14.847 Y-45.21 I0.007 J0.5
N9695 X-16.256 Y-42.643 I-2.902 J0.077 F#100
N9700 X-22.066 Y-40.222 I-6.926 J-8.438
N9705 X-33.06 Y-41.196 I-3.891 J-18.614
N9710 X-35.16 Y-43.582 I1.654 J-3.573
N9715 G1 X-35.153 Y-44.021
N9720 Y-44.484
N9725 G3 X-34.661 Y-44.966 I0.5 J0.017 F#104
N9730 G1 X-33.851 Y-44.98
N9735 X-16.149 Y-45.269 F#105
N9740 X-15.355 Y-45.282 F#103
N9745 G3 X-14.847 Y-44.8 I0.008 J0.5
N9750 X-16.272 Y-42.19 I-2.923 J0.099 F#100
N9755 X-22.127 Y-39.752 I-6.973 J-8.496
N9760 X-33.059 Y-40.733 I-3.85 J-18.486
N9765 X-35.16 Y-43.121 I1.643 J-3.566
N9770 G1 X-35.153 Y-43.558
N9775 Y-44.021
N9780 G3 X-34.662 Y-44.504 I0.5 J0.017 F#104
N9785 G1 X-33.851 Y-44.518
N9790 X-16.149 Y-44.817 F#105
N9795 X-15.355 Y-44.83 F#103
N9800 G3 X-14.847 Y-44.348 I0.008 J0.5
N9805 X-16.232 Y-41.777 I-2.915 J0.088 F#100
N9810 X-21.987 Y-39.317 I-6.974 J-8.354
N9815 X-33.199 Y-40.337 I-3.99 J-18.28
N9820 X-35.042 Y-42.232 I2.002 J-3.791
N9825 G1 X-35.118 Y-42.665
N9830 X-35.153 Y-43.096
N9835 Y-43.558
N9840 G3 X-34.663 Y-44.04 I0.5 J0.017 F#104
N9845 G1 X-33.851 Y-44.057
N9850 X-16.149 Y-44.412 F#105
N9855 X-15.357 Y-44.428 F#103
N9860 G3 X-14.847 Y-43.945 I0.01 J0.5
N9865 X-16.237 Y-41.329 I-2.931 J0.12 F#100
N9870 X-22.003 Y-38.855 I-7.006 J-8.369
N9875 X-33.19 Y-39.87 I-3.987 J-18.209
N9880 X-35.155 Y-42.191 I1.722 J-3.45
N9885 G1 X-35.153 Y-42.634
N9890 Y-43.096
N9895 G3 X-34.664 Y-43.578 I0.5 J0.017 F#104
N9900 G1 X-33.851 Y-43.595
N9905 X-16.149 Y-43.968 F#105
N9910 X-15.357 Y-43.985 F#103
N9915 G3 X-14.847 Y-43.502 I0.011 J0.5
N9920 X-16.232 Y-40.888 I-2.939 J0.117 F#100
N9925 X-21.979 Y-38.4 I-7.025 J-8.345
N9930 X-33.166 Y-39.395 I-4.021 J-18.168
N9935 X-35.155 Y-41.726 I1.712 J-3.475
N9940 G1 X-35.153 Y-42.172
N9945 Y-42.634
N9950 G3 X-34.665 Y-43.116 I0.5 J0.017 F#104
N9955 G1 X-33.851 Y-43.134
N9960 X-16.149 Y-43.531 F#105
N9965 X-15.358 Y-43.549 F#103
N9970 G3 X-14.847 Y-43.067 I0.011 J0.5
N9975 X-16.259 Y-40.42 I-2.962 J0.12 F#100
N9980 X-22.091 Y-37.919 I-7.078 J-8.457
N9985 X-33.192 Y-38.945 I-3.93 J-18.045
N9990 X-35.155 Y-41.267 I1.721 J-3.446
N9995 G1 X-35.153 Y-41.709
N10000 Y-42.172
N10005 G3 X-34.664 Y-42.654 I0.5 J0.017 F#104
N10010 G1 X-33.851 Y-42.672
N10015 X-16.149 Y-43.06 F#105
N10020 X-15.358 Y-43.077 F#103
N10025 G3 X-14.847 Y-42.594 I0.011 J0.5
N10030 X-16.222 Y-40.001 I-2.95 J0.097 F#100
N10035 X-21.956 Y-37.485 I-7.071 J-8.323
N10040 X-33.131 Y-38.452 I-4.066 J-18.066
N10045 X-35.155 Y-40.797 I1.697 J-3.511
N10050 G1 X-35.153 Y-41.246
N10055 Y-41.709
N10060 G3 X-34.666 Y-42.191 I0.5 J0.017 F#104
N10065 G1 X-33.851 Y-42.211
N10070 X-16.149 Y-42.648 F#105
N10075 X-15.359 Y-42.667 F#103
N10080 G3 X-14.847 Y-42.185 I0.012 J0.5
N10085 X-16.231 Y-39.546 I-2.965 J0.127 F#100
N10090 X-21.988 Y-37.019 I-7.099 J-8.353
N10095 X-33.13 Y-37.988 I-4.047 J-18.013
N10100 X-35.155 Y-40.335 I1.699 J-3.513
N10105 G1 X-35.153 Y-40.784
N10110 Y-41.246
N10115 G3 X-34.666 Y-41.729 I0.5 J0.017 F#104
N10120 G1 X-33.851 Y-41.749
N10125 X-16.149 Y-42.195 F#105
N10130 X-15.359 Y-42.215 F#103
N10135 G3 X-14.847 Y-41.733 I0.013 J0.5
N10140 X-16.229 Y-39.098 I-2.971 J0.121 F#100
N10145 X-21.973 Y-36.563 I-7.113 J-8.339
N10150 X-33.113 Y-37.517 I-4.071 J-17.988
N10155 X-35.155 Y-39.87 I1.695 J-3.533
N10160 G1 X-35.153 Y-40.321
N10165 Y-40.784
N10170 G3 X-34.666 Y-41.266 I0.5 J0.017 F#104
N10175 G1 X-33.851 Y-41.287
N10180 X-16.149 Y-41.751 F#105
N10185 X-15.36 Y-41.772 F#103
N10190 G3 X-14.847 Y-41.29 I0.013 J0.5
N10195 X-16.244 Y-38.637 I-2.985 J0.122 F#100
N10200 X-22.032 Y-36.092 I-7.145 J-8.396
N10205 X-33.125 Y-37.059 I-4.026 J-17.919
N10210 X-35.155 Y-39.409 I1.698 J-3.519
N10215 G1 X-35.153 Y-39.858
N10220 Y-40.321
N10225 G3 X-34.666 Y-40.803 I0.5 J0.017 F#104
N10230 G1 X-33.851 Y-40.825
N10235 X-16.149 Y-41.288 F#105
N10240 X-15.36 Y-41.309 F#103
N10245 G3 X-14.847 Y-40.826 I0.013 J0.5
N10250 X-16.248 Y-38.182 I-2.993 J0.108 F#100
N10255 X-22.042 Y-35.63 I-7.161 J-8.406
N10260 X-33.121 Y-36.594 I-4.026 J-17.883
N10265 X-35.155 Y-38.945 I1.698 J-3.525
N10270 G1 X-35.153 Y-39.395
N10275 Y-39.858
N10280 G3 X-34.667 Y-40.34 I0.5 J0.017 F#104
N10285 G1 X-33.851 Y-40.362
N10290 X-16.149 Y-40.836 F#105
N10295 X-15.36 Y-40.857 F#103
N10300 G3 X-14.847 Y-40.374 I0.013 J0.5
N10305 X-16.251 Y-37.728 I-2.999 J0.104 F#100
N10310 X-22.052 Y-35.169 I-7.178 J-8.415
N10315 X-33.118 Y-36.129 I-4.026 J-17.849
N10320 X-35.155 Y-38.481 I1.697 J-3.528
N10325 G1 X-35.153 Y-38.931
N10330 Y-39.395
N10335 G3 X-34.667 Y-39.877 I0.5 J0.017 F#104
N10340 G1 X-33.851 Y-39.899
N10345 X-16.149 Y-40.383 F#105
N10350 X-15.36 Y-40.405 F#103
N10355 G3 X-14.847 Y-39.922 I0.014 J0.5
N10360 X-16.243 Y-37.282 I-3. J0.103 F#100
N10365 X-22.026 Y-34.714 I-7.186 J-8.389
N10370 X-33.101 Y-35.657 I-4.059 J-17.838
N10375 X-35.156 Y-38.016 I1.692 J-3.547
N10380 G1 X-35.153 Y-38.468
N10385 Y-38.931
N10390 G3 X-34.667 Y-39.414 I0.5 J0.017 F#104
N10395 G1 X-33.851 Y-39.437
N10400 X-16.149 Y-39.939 F#105
N10405 X-15.361 Y-39.961 F#103
N10410 G3 X-14.847 Y-39.479 I0.014 J0.5
N10415 X-16.227 Y-36.842 I-2.998 J0.111 F#100
N10420 X-22.521 Y-34.169 I-7.425 J-8.734
N10425 X-33.278 Y-35.285 I-3.628 J-17.425
N10430 X-35.154 Y-37.569 I1.779 J-3.373
N10435 G1 X-35.153 Y-38.003
N10440 Y-38.468
N10445 G3 X-34.668 Y-38.951 I0.5 J0.017 F#104
N10450 G1 X-33.851 Y-38.975
N10455 X-16.149 Y-39.502 F#105
N10460 X-15.362 Y-39.526 F#103
N10465 G3 X-14.847 Y-39.043 I0.015 J0.5
N10470 X-16.248 Y-36.372 I-3.013 J0.122 F#100
N10475 X-22.055 Y-33.79 I-7.219 J-8.412
N10480 X-33.097 Y-34.729 I-4.049 J-17.77
N10485 X-35.155 Y-37.086 I1.681 J-3.545
N10490 G1 X-35.153 Y-37.54
N10495 Y-38.003
N10500 G3 X-34.668 Y-38.485 I0.5 J0.017 F#104
N10505 G1 X-33.851 Y-38.509
N10510 X-16.149 Y-39.03 F#105
N10515 X-15.361 Y-39.053 F#103
N10520 G3 X-14.847 Y-38.571 I0.015 J0.5
N10525 X-16.256 Y-35.912 I-3.02 J0.103 F#100
N10530 X-22.077 Y-33.326 I-7.232 J-8.435
N10535 X-33.108 Y-34.271 I-4.036 J-17.734
N10540 X-35.155 Y-36.627 I1.688 J-3.535
N10545 G1 X-35.153 Y-37.077
N10550 Y-37.54
N10555 G3 X-34.668 Y-38.023 I0.5 J0.017 F#104
N10560 G1 X-33.851 Y-38.047
N10565 X-16.149 Y-38.571 F#105
N10570 X-15.361 Y-38.594 F#103
N10575 G3 X-14.847 Y-38.112 I0.015 J0.5
N10580 X-16.245 Y-35.466 I-3.018 J0.097 F#100
N10585 X-22.04 Y-32.873 I-7.236 J-8.4
N10590 X-33.085 Y-33.796 I-4.079 J-17.739
N10595 X-35.156 Y-36.161 I1.682 J-3.562
N10600 G1 X-35.153 Y-36.615
N10605 Y-37.077
N10610 G3 X-34.669 Y-37.56 I0.5 J0.017 F#104
N10615 G1 X-33.851 Y-37.585
N10620 X-16.149 Y-38.127 F#105
N10625 X-15.362 Y-38.151 F#103
N10630 G3 X-14.847 Y-37.669 I0.015 J0.5
N10635 X-16.227 Y-35.026 I-3.013 J0.108 F#100
N10640 X-22.525 Y-32.328 I-7.47 J-8.736
N10645 X-33.262 Y-33.423 I-3.654 J-17.349
N10650 X-35.154 Y-35.714 I1.769 J-3.388
N10655 G1 X-35.153 Y-36.15
N10660 Y-36.615
N10665 G3 X-34.669 Y-37.097 I0.5 J0.017 F#104
N10670 G1 X-33.851 Y-37.123
N10675 X-16.149 Y-37.69 F#105
N10680 X-15.363 Y-37.715 F#103
N10685 G3 X-14.847 Y-37.233 I0.016 J0.5
N10690 X-16.246 Y-34.556 I-3.027 J0.122 F#100
N10695 X-22.054 Y-31.951 I-7.261 J-8.411
N10700 X-33.077 Y-32.866 I-4.081 J-17.696
N10705 X-35.155 Y-35.231 I1.671 J-3.564
N10710 G1 X-35.153 Y-35.687
N10715 Y-36.15
N10720 G3 X-34.669 Y-36.632 I0.5 J0.017 F#104
N10725 G1 X-33.851 Y-36.658
N10730 X-16.149 Y-37.218 F#105
N10735 X-15.363 Y-37.243 F#103
N10740 G3 X-14.847 Y-36.761 I0.016 J0.5
N10745 X-16.252 Y-34.095 I-3.032 J0.105 F#100
N10750 X-22.069 Y-31.488 I-7.27 J-8.428
N10755 X-33.087 Y-32.408 I-4.073 J-17.671
N10760 X-35.156 Y-34.772 I1.679 J-3.557
N10765 G1 X-35.153 Y-35.225
N10770 Y-35.687
N10775 G3 X-34.669 Y-36.17 I0.5 J0.017 F#104
N10780 G1 X-33.851 Y-36.196
N10785 X-16.149 Y-36.759 F#105
N10790 X-15.363 Y-36.784 F#103
N10795 G3 X-14.847 Y-36.301 I0.016 J0.5
N10800 X-16.239 Y-33.65 I-3.028 J0.101 F#100
N10805 X-22.572 Y-30.939 I-7.506 J-8.781
N10810 X-33.268 Y-32.037 I-3.631 J-17.276
N10815 X-35.154 Y-34.325 I1.769 J-3.378
N10820 G1 X-35.153 Y-34.76
N10825 Y-35.225
N10830 G3 X-34.67 Y-35.707 I0.5 J0.017 F#104
N10835 G1 X-33.851 Y-35.734
N10840 X-16.149 Y-36.315 F#105
N10845 X-15.363 Y-36.34 F#103
N10850 G3 X-14.847 Y-35.858 I0.016 J0.5
N10855 X-16.219 Y-33.21 I-3.021 J0.114 F#100
N10860 X-22.503 Y-30.491 I-7.501 J-8.714
N10865 X-24.391 Y-30.528 I-0.859 J-4.36
N10870 G2 X-27.537 Y-30.251 I0.013 J18.142
N10875 G3 X-34.195 Y-32.186 I0.003 J-12.427
N10880 X-35.153 Y-34.76 I2.09 J-2.243
N10885 X-34.441 Y-35.195 I0.5 J0.017 F#104
N10890 G1 X-33.912 Y-34.948
N10895 X-26.572 Y-31.514 F#105
N10900 X-26.237 Y-31.357 F#103
N10905 G3 X-26.301 Y-30.427 I-0.212 J0.453
N10910 X-34.3 Y-31.88 I-2.624 J-8.298 F#100
N10915 X-35.143 Y-34.296 I1.961 J-2.039
N10920 G1 X-35.135 Y-34.377 F#104
N10925 X-35.112 Y-34.456
N10930 X-35.077 Y-34.531
N10935 X-35.03 Y-34.598
N10940 X-34.973 Y-34.657
N10945 X-34.906 Y-34.706
N10950 X-34.832 Y-34.743
N10955 X-34.752 Y-34.767
N10960 X-34.67 Y-34.777
N10965 X-34.587 Y-34.774
N10970 X-34.505 Y-34.757
N10975 X-34.428 Y-34.726
N10980 X-33.92 Y-34.469
N10985 X-27.557 Y-31.252 F#105
N10990 X-27.206 Y-31.074 F#103
N10995 G3 X-27.274 Y-30.153 I-0.226 J0.446
N11000 X-32.824 Y-30.562 I-2.335 J-6.179 F#100
N11005 G1 X-33.033 Y-30.625
N11010 X-33.237 Y-30.703
N11015 X-33.435 Y-30.795
N11020 X-33.627 Y-30.9
N11025 X-33.811 Y-31.018
N11030 X-33.986 Y-31.148
N11035 X-34.152 Y-31.29
N11040 X-34.307 Y-31.443
N11045 X-34.452 Y-31.607
N11050 X-34.586 Y-31.78
N11055 X-34.707 Y-31.962
N11060 X-34.815 Y-32.151
N11065 X-34.91 Y-32.348
N11070 X-34.991 Y-32.55
N11075 X-35.058 Y-32.758
N11080 X-35.111 Y-32.97
N11085 X-35.149 Y-33.185
N11090 X-35.172 Y-33.402
N11095 X-35.18 Y-33.621
N11100 X-35.174 Y-33.839
N11105 X-35.161 Y-33.926 F#104
N11110 X-35.135 Y-34.009
N11115 X-35.094 Y-34.087
N11120 X-35.042 Y-34.156
N11125 X-34.979 Y-34.215
N11130 X-34.907 Y-34.263
N11135 X-34.828 Y-34.298
N11140 X-34.745 Y-34.319
N11145 X-34.659 Y-34.325
N11150 X-34.575 Y-34.317
N11155 X-34.493 Y-34.295
N11160 X-34.416 Y-34.26
N11165 X-33.927 Y-33.996
N11170 X-28.434 Y-31.028 F#105
N11175 X-28.008 Y-30.798 F#103
N11180 G3 X-28.017 Y-29.913 I-0.238 J0.44
N11185 X-31.69 Y-29.74 I-2.023 J-3.854 F#100
N11190 X-34.864 Y-31.644 I0.773 J-4.886
N11195 X-35.153 Y-33.382 I3.3 J-1.441
N11200 X-34.419 Y-33.806 I0.5 J0.017 F#104
N11205 G1 X-33.925 Y-33.544
N11210 X-28.851 Y-30.849 F#105
N11215 X-28.388 Y-30.603 F#103
N11220 G3 X-28.357 Y-29.738 I-0.235 J0.442
N11225 X-31.955 Y-29.43 I-2.093 J-3.286 F#100
N11230 X-35.09 Y-31.729 I0.535 J-4.017
N11235 G1 X-35.126 Y-32.121
N11240 X-35.153 Y-32.5
N11245 Y-32.934
N11250 G3 X-34.413 Y-33.355 I0.5 J0.017 F#104
N11255 G1 X-33.929 Y-33.09
N11260 X-29.352 Y-30.579 F#105
N11265 X-28.866 Y-30.313 F#103
N11270 G3 X-28.822 Y-29.463 I-0.24 J0.438
N11275 X-32.161 Y-29.113 I-1.996 J-2.936 F#100
N11280 X-35.171 Y-31.674 I0.42 J-3.544
N11285 G1 X-35.153 Y-32.08
N11290 Y-32.5
N11295 G3 X-34.412 Y-32.921 I0.5 J0.017 F#104
N11300 G1 X-33.93 Y-32.655
N11305 X-29.73 Y-30.337 F#105
N11310 X-29.244 Y-30.069 F#103
N11315 G3 X-29.201 Y-29.22 I-0.242 J0.438
N11320 X-32.769 Y-28.938 I-2.02 J-2.844 F#100
N11325 X-35.158 Y-32.081 I0.515 J-2.871
N11330 G1 X-35.147 Y-32.166 F#104
N11335 X-35.122 Y-32.249
N11340 X-35.083 Y-32.326
N11345 X-35.032 Y-32.395
N11350 X-34.969 Y-32.454
N11355 X-34.898 Y-32.502
N11360 X-34.819 Y-32.536
N11365 X-34.736 Y-32.557
N11370 X-34.651 Y-32.564
N11375 X-34.565 Y-32.556
N11380 X-34.483 Y-32.533
N11385 X-34.405 Y-32.497
N11390 X-33.934 Y-32.227
N11395 X-30.162 Y-30.073 F#105
N11400 X-29.656 Y-29.783 F#103
N11405 G3 X-29.602 Y-28.95 I-0.248 J0.434
N11410 X-32.416 Y-28.479 I-1.816 J-2.208 F#100
N11415 X-35.174 Y-31.678 I0.265 J-3.017
N11420 G1 X-35.161 Y-31.767 F#104
N11425 X-35.134 Y-31.853
N11430 X-35.092 Y-31.931
N11435 X-35.037 Y-32.002
N11440 X-34.971 Y-32.061
N11445 X-34.896 Y-32.109
N11450 X-34.815 Y-32.142
N11455 X-34.729 Y-32.161
N11460 X-34.642 Y-32.165
N11465 X-34.555 Y-32.153
N11470 X-34.472 Y-32.127
N11475 X-34.395 Y-32.088
N11480 X-33.94 Y-31.813
N11485 X-30.622 Y-29.815 F#105
N11490 X-30.054 Y-29.472 F#103
N11495 G3 X-29.959 Y-28.69 I-0.258 J0.428
N11500 X-32.247 Y-28.094 I-1.707 J-1.864 F#100
N11505 G1 X-32.465 Y-28.112
N11510 X-32.682 Y-28.146
N11515 X-32.895 Y-28.195
N11520 X-33.104 Y-28.258
N11525 X-33.309 Y-28.337
N11530 X-33.507 Y-28.43
N11535 X-33.699 Y-28.536
N11540 X-33.882 Y-28.656
N11545 X-34.056 Y-28.789
N11550 X-34.221 Y-28.933
N11555 X-34.374 Y-29.089
N11560 X-34.517 Y-29.255
N11565 X-34.647 Y-29.432
N11570 X-34.764 Y-29.616
N11575 X-34.868 Y-29.809
N11580 X-34.958 Y-30.009
N11585 X-35.034 Y-30.214
N11590 X-35.095 Y-30.424
N11595 X-35.141 Y-30.638
N11600 X-35.172 Y-30.855
N11605 X-35.187 Y-31.074
N11610 Y-31.293
N11615 X-35.173 Y-31.383 F#104
N11620 X-35.144 Y-31.469
N11625 X-35.101 Y-31.549
N11630 X-35.045 Y-31.619
N11635 X-34.979 Y-31.679
N11640 X-34.903 Y-31.726
N11645 X-34.821 Y-31.76
N11650 X-34.735 Y-31.779
N11655 X-34.648 Y-31.782
N11660 X-34.561 Y-31.771
N11665 X-34.479 Y-31.745
N11670 X-34.402 Y-31.706
N11675 X-33.935 Y-31.435
N11680 X-30.844 Y-29.639 F#105
N11685 X-30.243 Y-29.289 F#103
N11690 G3 X-30.114 Y-28.532 I-0.251 J0.432
N11695 X-32.447 Y-27.821 I-1.78 J-1.658 F#100
N11700 X-35.167 Y-30.924 I0.176 J-2.898
N11705 G1 X-35.156 Y-31.011 F#104
N11710 X-35.129 Y-31.095
N11715 X-35.089 Y-31.172
N11720 X-35.036 Y-31.242
N11725 X-34.972 Y-31.301
N11730 X-34.899 Y-31.349
N11735 X-34.819 Y-31.383
N11740 X-34.735 Y-31.403
N11745 X-34.649 Y-31.409
N11750 X-34.563 Y-31.399
N11755 X-34.48 Y-31.376
N11760 X-34.403 Y-31.338
N11765 X-33.935 Y-31.067
N11770 X-31.057 Y-29.405 F#105
N11775 X-30.457 Y-29.058 F#103
N11780 G3 X-30.327 Y-28.3 I-0.25 J0.433
N11785 X-32.815 Y-27.582 I-1.812 J-1.609 F#100
N11790 X-35.148 Y-30.572 I0.376 J-2.699
N11795 G1 X-35.138 Y-30.657 F#104
N11800 X-35.114 Y-30.738
N11805 X-35.076 Y-30.815
N11810 X-35.026 Y-30.884
N11815 X-34.964 Y-30.943
N11820 X-34.893 Y-30.991
N11825 X-34.815 Y-31.026
N11830 X-34.731 Y-31.047
N11835 X-34.646 Y-31.054
N11840 X-34.56 Y-31.045
N11845 X-34.477 Y-31.022
N11850 X-34.399 Y-30.986
N11855 X-33.937 Y-30.713
N11860 X-31.294 Y-29.156 F#105
N11865 X-30.686 Y-28.797 F#103
N11870 G3 X-30.554 Y-28.048 I-0.254 J0.431
N11875 X-32.892 Y-27.303 I-1.761 J-1.486 F#100
N11880 X-35.143 Y-30.228 I0.369 J-2.613
N11885 G1 X-35.134 Y-30.312 F#104
N11890 X-35.11 Y-30.394
N11895 X-35.072 Y-30.471
N11900 X-35.022 Y-30.54
N11905 X-34.96 Y-30.599
N11910 X-34.889 Y-30.647
N11915 X-34.811 Y-30.682
N11920 X-34.727 Y-30.703
N11925 X-34.641 Y-30.709
N11930 X-34.555 Y-30.7
N11935 X-34.472 Y-30.677
N11940 X-34.394 Y-30.639
N11945 X-33.941 Y-30.364
N11950 X-31.526 Y-28.9 F#105
N11955 X-30.912 Y-28.527 F#103
N11960 G3 X-30.782 Y-27.786 I-0.259 J0.428
N11965 X-33.125 Y-27.064 I-1.721 J-1.422 F#100
N11970 X-35.141 Y-29.889 I0.524 J-2.506
N11975 G1 X-35.132 Y-29.974 F#104
N11980 X-35.108 Y-30.056
N11985 X-35.07 Y-30.132
N11990 X-35.019 Y-30.202
N11995 X-34.957 Y-30.261
N12000 X-34.885 Y-30.309
N12005 X-34.806 Y-30.344
N12010 X-34.722 Y-30.364
N12015 X-34.635 Y-30.369
N12020 X-34.549 Y-30.36
N12025 X-34.465 Y-30.335
N12030 X-34.387 Y-30.296
N12035 X-33.945 Y-30.018
N12040 X-31.753 Y-28.641 F#105
N12045 X-31.138 Y-28.255 F#103
N12050 G3 X-31.014 Y-27.517 I-0.266 J0.423
N12055 X-33.948 Y-27.146 I-1.66 J-1.337 F#100
N12060 X-35.153 Y-29.559 I1.222 J-2.118
N12065 X-34.384 Y-29.963 I0.5 J0.017 F#104
N12070 G1 X-33.947 Y-29.683
N12075 X-31.963 Y-28.417 F#105
N12080 X-31.329 Y-28.012 F#103
N12085 G3 X-31.195 Y-27.294 I-0.269 J0.421
N12090 X-33.54 Y-26.629 I-1.591 J-1.144 F#100
N12095 X-35.142 Y-29.218 I0.791 J-2.28
N12100 G1 X-35.133 Y-29.304 F#104
N12105 X-35.109 Y-29.386
N12110 X-35.07 Y-29.464
N12115 X-35.019 Y-29.533
N12120 X-34.956 Y-29.593
N12125 X-34.884 Y-29.64
N12130 X-34.804 Y-29.675
N12135 X-34.719 Y-29.694
N12140 X-34.632 Y-29.699
N12145 X-34.545 Y-29.689
N12150 X-34.462 Y-29.663
N12155 X-34.384 Y-29.623
N12160 X-33.947 Y-29.344
N12165 X-32.171 Y-28.206 F#105
N12170 X-31.494 Y-27.772 F#103
N12175 G3 X-31.333 Y-27.098 I-0.27 J0.421
N12180 X-33.862 Y-26.554 I-1.521 J-0.923 F#100
N12185 X-35.153 Y-28.884 I0.979 J-2.065
N12190 X-34.384 Y-29.288 I0.5 J0.017 F#104
N12195 G1 X-33.947 Y-29.009
N12200 X-32.346 Y-27.988 F#105
N12205 X-31.637 Y-27.536 F#103
N12210 G3 X-31.458 Y-26.893 I-0.269 J0.422
N12215 X-33.425 Y-26.088 I-1.457 J-0.754 F#100
N12220 X-35.143 Y-28.588 I0.547 J-2.216
N12225 G1 X-35.134 Y-28.673 F#104
N12230 X-35.109 Y-28.756
N12235 X-35.071 Y-28.833
N12240 X-35.019 Y-28.902
N12245 X-34.957 Y-28.962
N12250 X-34.884 Y-29.01
N12255 X-34.804 Y-29.044
N12260 X-34.72 Y-29.064
N12265 X-34.633 Y-29.069
N12270 X-34.546 Y-29.058
N12275 X-34.463 Y-29.033
N12280 X-34.385 Y-28.993
N12285 X-33.947 Y-28.714
N12290 X-32.479 Y-27.779 F#105
N12295 X-31.748 Y-27.313 F#103
N12300 G3 X-31.556 Y-26.695 I-0.269 J0.422
N12305 X-33.26 Y-25.822 I-1.403 J-0.64 F#100
N12310 X-35.142 Y-28.285 I0.311 J-2.189
N12315 G1 X-35.133 Y-28.37 F#104
N12320 X-35.108 Y-28.453
N12325 X-35.07 Y-28.53
N12330 X-35.018 Y-28.6
N12335 X-34.955 Y-28.659
N12340 X-34.882 Y-28.707
N12345 X-34.802 Y-28.741
N12350 X-34.717 Y-28.761
N12355 X-34.63 Y-28.765
N12360 X-34.543 Y-28.754
N12365 X-34.459 Y-28.728
N12370 X-34.381 Y-28.688
N12375 X-33.949 Y-28.408
N12380 X-32.595 Y-27.53 F#105
N12385 X-31.864 Y-27.056 F#103
N12390 G3 X-31.676 Y-26.44 I-0.272 J0.42
N12395 X-33.373 Y-25.605 I-1.366 J-0.635 F#100
N12400 X-35.144 Y-28.006 I0.389 J-2.14
N12405 G1 X-35.134 Y-28.092 F#104
N12410 X-35.109 Y-28.176
N12415 X-35.07 Y-28.253
N12420 X-35.018 Y-28.323
N12425 X-34.954 Y-28.383
N12430 X-34.88 Y-28.43
N12435 X-34.799 Y-28.464
N12440 X-34.714 Y-28.483
N12445 X-34.626 Y-28.487
N12450 X-34.539 Y-28.475
N12455 X-34.455 Y-28.448
N12460 X-34.377 Y-28.407
N12465 X-33.952 Y-28.125
N12470 X-32.707 Y-27.298 F#105
N12475 X-31.972 Y-26.811 F#103
N12480 G3 X-31.787 Y-26.202 I-0.276 J0.417
N12485 X-33.8 Y-25.494 I-1.355 J-0.636 F#100
N12490 X-35.146 Y-27.735 I0.791 J-1.999
N12495 G1 X-35.136 Y-27.821 F#104
N12500 X-35.111 Y-27.905
N12505 X-35.071 Y-27.982
N12510 X-35.019 Y-28.052
N12515 X-34.955 Y-28.112
N12520 X-34.881 Y-28.159
N12525 X-34.8 Y-28.193
N12530 X-34.715 Y-28.212
N12535 X-34.627 Y-28.216
N12540 X-34.54 Y-28.204
N12545 X-34.456 Y-28.177
N12550 X-34.378 Y-28.136
N12555 X-33.951 Y-27.854
N12560 X-32.8 Y-27.095 F#105
N12565 X-32.065 Y-26.61 F#103
N12570 G3 X-31.879 Y-26.001 I-0.275 J0.417
N12575 X-34.359 Y-25.642 I-1.355 J-0.616 F#100
N12580 X-35.153 Y-27.473 I1.141 J-1.582
N12585 X-34.374 Y-27.87 I0.5 J0.017 F#104
N12590 G1 X-33.954 Y-27.587
N12595 X-32.898 Y-26.876 F#105
N12600 X-32.164 Y-26.381 F#103
N12605 G3 X-31.982 Y-25.774 I-0.279 J0.415
N12610 X-34.328 Y-25.389 I-1.297 J-0.562 F#100
N12615 X-35.153 Y-27.204 I1.065 J-1.579
N12620 X-34.37 Y-27.599 I0.5 J0.017 F#104
N12625 G1 X-33.956 Y-27.315
N12630 X-33.01 Y-26.666 F#105
N12635 X-32.262 Y-26.153 F#103
N12640 G3 X-32.076 Y-25.565 I-0.283 J0.412
N12645 X-34.287 Y-25.143 I-1.239 J-0.489 F#100
N12650 X-35.153 Y-26.952 I0.98 J-1.581
N12655 X-34.366 Y-27.344 I0.5 J0.017 F#104
N12660 G1 X-33.959 Y-27.059
N12665 X-33.11 Y-26.464 F#105
N12670 X-32.346 Y-25.929 F#103
N12675 G3 X-32.158 Y-25.364 I-0.287 J0.41
N12680 X-33.922 Y-24.728 I-1.121 J-0.343 F#100
N12685 X-35.153 Y-26.71 I0.639 J-1.77
N12690 X-34.358 Y-27.096 I0.5 J0.017 F#104
N12695 G1 X-33.965 Y-26.809
N12700 X-33.209 Y-26.257 F#105
N12705 X-32.421 Y-25.682 F#103
N12710 G3 X-32.232 Y-25.154 I-0.295 J0.404
N12715 G1 X-32.264 Y-25.038 F#100
N12720 X-32.309 Y-24.927
N12725 X-32.368 Y-24.822
N12730 X-32.438 Y-24.725
N12735 X-32.52 Y-24.637
N12740 X-32.612 Y-24.56
N12745 X-32.712 Y-24.494
N12750 X-32.82 Y-24.44
N12755 X-32.933 Y-24.4
N12760 X-33.05 Y-24.374
N12765 X-33.17 Y-24.362
N12770 X-33.29 Y-24.364
N12775 X-33.409 Y-24.381
N12780 X-33.525 Y-24.412
N12785 X-33.686 Y-24.436
N12790 X-33.843 Y-24.474
N12795 X-33.997 Y-24.527
N12800 X-34.145 Y-24.592
N12805 X-34.287 Y-24.671
N12810 X-34.422 Y-24.762
N12815 X-34.548 Y-24.864
N12820 X-34.664 Y-24.978
N12825 X-34.769 Y-25.101
N12830 X-34.864 Y-25.233
N12835 X-34.946 Y-25.373
N12840 X-35.015 Y-25.52
N12845 X-35.071 Y-25.672
N12850 X-35.113 Y-25.829
N12855 X-35.141 Y-25.989
N12860 X-35.155 Y-26.151
N12865 X-35.154 Y-26.313
N12870 X-35.139 Y-26.475
N12875 X-35.131 Y-26.556 F#104
N12880 X-35.109 Y-26.635
N12885 X-35.074 Y-26.709
N12890 X-35.026 Y-26.777
N12895 X-34.968 Y-26.836
N12900 X-34.901 Y-26.884
N12905 X-34.827 Y-26.921
N12910 X-34.747 Y-26.945
N12915 X-34.664 Y-26.955
N12920 X-34.581 Y-26.951
N12925 X-34.499 Y-26.932
N12930 X-34.422 Y-26.901
N12935 X-34.35 Y-26.857
N12940 X-33.971 Y-26.567
N12945 X-33.306 Y-26.06 F#105
N12950 X-32.476 Y-25.427 F#103
N12955 G3 X-32.284 Y-24.962 I-0.303 J0.398
N12960 X-33.378 Y-24.174 I-0.974 J-0.2 F#100
N12965 X-35.145 Y-26.248 I0.071 J-1.851
N12970 G1 X-35.136 Y-26.33 F#104
N12975 X-35.114 Y-26.409
N12980 X-35.079 Y-26.483
N12985 X-35.032 Y-26.55
N12990 X-34.974 Y-26.609
N12995 X-34.908 Y-26.657
N13000 X-34.834 Y-26.694
N13005 X-34.755 Y-26.718
N13010 X-34.673 Y-26.729
N13015 X-34.59 Y-26.726
N13020 X-34.509 Y-26.709
N13025 X-34.431 Y-26.679
N13030 X-34.36 Y-26.636
N13035 X-33.964 Y-26.349
N13040 X-33.345 Y-25.9 F#105
N13045 X-32.51 Y-25.295 F#103
N13050 G3 X-32.308 Y-24.823 I-0.293 J0.405
N13055 X-33.54 Y-23.989 I-1.038 J-0.207 F#100
N13060 X-35.144 Y-26.011 I0.186 J-1.795
N13065 G1 X-35.136 Y-26.092 F#104
N13070 X-35.114 Y-26.17
N13075 X-35.079 Y-26.243
N13080 X-35.033 Y-26.311
N13085 X-34.976 Y-26.369
N13090 X-34.911 Y-26.418
N13095 X-34.838 Y-26.455
N13100 X-34.76 Y-26.48
N13105 X-34.678 Y-26.491
N13110 X-34.596 Y-26.489
N13115 X-34.516 Y-26.474
N13120 X-34.438 Y-26.445
N13125 X-34.367 Y-26.404
N13130 X-33.959 Y-26.119
N13135 X-33.386 Y-25.718 F#105
N13140 X-32.545 Y-25.131 F#103
N13145 G3 X-32.336 Y-24.656 I-0.287 J0.41
N13150 X-33.431 Y-23.79 I-0.995 J-0.133 F#100
N13155 X-35.144 Y-25.777 I0.038 J-1.765
N13160 G1 X-35.134 Y-25.864 F#104
N13165 X-35.109 Y-25.948
N13170 X-35.069 Y-26.026
N13175 X-35.016 Y-26.096
N13180 X-34.95 Y-26.156
N13185 X-34.876 Y-26.203
N13190 X-34.794 Y-26.236
N13195 X-34.707 Y-26.254
N13200 X-34.618 Y-26.257
N13205 X-34.53 Y-26.243
N13210 X-34.446 Y-26.215
N13215 X-34.368 Y-26.171
N13220 X-33.958 Y-25.886
N13225 X-33.421 Y-25.514 F#105
N13230 X-32.58 Y-24.931 F#103
N13235 G3 X-32.369 Y-24.455 I-0.285 J0.411
N13240 G1 X-32.399 Y-24.333 F#100
N13245 X-32.442 Y-24.215
N13250 X-32.499 Y-24.103
N13255 X-32.569 Y-23.998
N13260 X-32.651 Y-23.903
N13265 X-32.744 Y-23.817
N13270 X-32.846 Y-23.744
N13275 X-32.956 Y-23.683
N13280 X-33.072 Y-23.635
N13285 X-33.194 Y-23.602
N13290 X-33.318 Y-23.583
N13295 X-33.444 Y-23.579
N13300 X-33.569 Y-23.59
N13305 X-33.692 Y-23.616
N13310 X-33.812 Y-23.656
N13315 X-33.925 Y-23.71
N13320 G3 X-35.153 Y-25.552 I0.465 J-1.64
N13325 X-34.373 Y-25.949 I0.5 J0.017 F#104
N13330 G1 X-33.954 Y-25.666
N13335 X-33.462 Y-25.334 F#105
N13340 X-32.612 Y-24.759 F#103
N13345 G3 X-32.395 Y-24.289 I-0.28 J0.414
N13350 X-33.474 Y-23.407 I-0.989 J-0.11 F#100
N13355 X-35.147 Y-25.331 I0.041 J-1.725
N13360 G1 X-35.136 Y-25.418 F#104
N13365 X-35.111 Y-25.502
N13370 X-35.071 Y-25.58
N13375 X-35.018 Y-25.65
N13380 X-34.953 Y-25.709
N13385 X-34.879 Y-25.757
N13390 X-34.797 Y-25.79
N13395 X-34.711 Y-25.808
N13400 X-34.622 Y-25.811
N13405 X-34.535 Y-25.799
N13410 X-34.451 Y-25.77
N13415 X-34.373 Y-25.728
N13420 X-33.955 Y-25.445
N13425 X-33.493 Y-25.132 F#105
N13430 X-32.641 Y-24.555 F#103
N13435 G3 X-32.424 Y-24.087 I-0.28 J0.414
N13440 X-33.509 Y-23.221 I-0.978 J-0.112 F#100
N13445 X-35.145 Y-25.119 I0.042 J-1.691
N13450 G1 X-35.135 Y-25.206 F#104
N13455 X-35.11 Y-25.29
N13460 X-35.07 Y-25.368
N13465 X-35.017 Y-25.438
N13470 X-34.952 Y-25.498
N13475 X-34.878 Y-25.545
N13480 X-34.796 Y-25.578
N13485 X-34.71 Y-25.597
N13490 X-34.621 Y-25.6
N13495 X-34.534 Y-25.587
N13500 X-34.449 Y-25.559
N13505 X-34.372 Y-25.516
N13510 X-33.956 Y-25.232
N13515 X-33.52 Y-24.935 F#105
N13520 X-32.669 Y-24.354 F#103
N13525 G3 X-32.453 Y-23.888 I-0.282 J0.413
N13530 G1 X-32.48 Y-23.766 F#100
N13535 X-32.522 Y-23.649
N13540 X-32.577 Y-23.537
N13545 X-32.645 Y-23.433
N13550 X-32.725 Y-23.338
N13555 X-32.816 Y-23.253
N13560 X-32.916 Y-23.179
N13565 X-33.024 Y-23.118
N13570 X-33.139 Y-23.07
N13575 X-33.259 Y-23.036
N13580 X-33.382 Y-23.017
N13585 X-33.506 Y-23.012
N13590 X-33.63 Y-23.023
N13595 X-33.752 Y-23.048
N13600 X-33.87 Y-23.087
N13605 X-33.983 Y-23.141
N13610 G3 X-35.153 Y-24.909 I0.454 J-1.572
N13615 X-34.377 Y-25.308 I0.5 J0.017 F#104
N13620 G1 X-33.952 Y-25.027
N13625 X-33.553 Y-24.763 F#105
N13630 X-32.697 Y-24.197 F#103
N13635 G3 X-32.476 Y-23.728 I-0.276 J0.417
N13640 X-33.548 Y-22.841 I-0.98 J-0.093 F#100
N13645 X-35.147 Y-24.693 I0.054 J-1.663
N13650 G1 X-35.137 Y-24.78 F#104
N13655 X-35.111 Y-24.864
N13660 X-35.072 Y-24.942
N13665 X-35.019 Y-25.012
N13670 X-34.954 Y-25.071
N13675 X-34.88 Y-25.119
N13680 X-34.799 Y-25.152
N13685 X-34.713 Y-25.171
N13690 X-34.625 Y-25.174
N13695 X-34.538 Y-25.162
N13700 X-34.454 Y-25.135
N13705 X-34.376 Y-25.093
N13710 X-33.952 Y-24.81
N13715 X-33.581 Y-24.563 F#105
N13720 X-32.724 Y-23.992 F#103
N13725 G3 X-32.504 Y-23.526 I-0.277 J0.416
N13730 X-33.698 Y-22.689 I-0.946 J-0.079 F#100
N13735 X-35.142 Y-24.492 I0.125 J-1.579
N13740 G1 X-35.132 Y-24.578 F#104
N13745 X-35.107 Y-24.661
N13750 X-35.068 Y-24.739
N13755 X-35.016 Y-24.809
N13760 X-34.952 Y-24.868
N13765 X-34.879 Y-24.916
N13770 X-34.798 Y-24.95
N13775 X-34.712 Y-24.969
N13780 X-34.624 Y-24.972
N13785 X-34.536 Y-24.96
N13790 X-34.452 Y-24.933
N13795 X-34.374 Y-24.891
N13800 X-33.954 Y-24.608
N13805 X-33.62 Y-24.384 F#105
N13810 X-32.746 Y-23.796 F#103
N13815 G3 X-32.526 Y-23.353 I-0.279 J0.415
N13820 X-33.553 Y-22.471 I-0.947 J-0.063 F#100
N13825 X-35.145 Y-24.284 I0.005 J-1.61
N13830 G1 X-35.135 Y-24.371 F#104
N13835 X-35.11 Y-24.455
N13840 X-35.07 Y-24.533
N13845 X-35.017 Y-24.603
N13850 X-34.952 Y-24.662
N13855 X-34.878 Y-24.71
N13860 X-34.797 Y-24.743
N13865 X-34.711 Y-24.762
N13870 X-34.622 Y-24.765
N13875 X-34.535 Y-24.752
N13880 X-34.451 Y-24.724
N13885 X-34.373 Y-24.682
N13890 X-33.955 Y-24.398
N13895 X-33.666 Y-24.202 F#105
N13900 X-32.761 Y-23.589 F#103
N13905 G3 X-32.542 Y-23.185 I-0.281 J0.414
N13910 X-33.392 Y-22.301 I-0.9 J-0.015 F#100
N13915 X-35.143 Y-24.076 I-0.186 J-1.567
N13920 G1 X-35.133 Y-24.162 F#104
N13925 X-35.109 Y-24.245
N13930 X-35.07 Y-24.322
N13935 X-35.018 Y-24.392
N13940 X-34.955 Y-24.452
N13945 X-34.882 Y-24.499
N13950 X-34.801 Y-24.533
N13955 X-34.716 Y-24.553
N13960 X-34.629 Y-24.557
N13965 X-34.542 Y-24.546
N13970 X-34.458 Y-24.519
N13975 X-34.38 Y-24.478
N13980 X-33.95 Y-24.198
N13985 X-33.678 Y-24.02 F#105
N13990 X-32.771 Y-23.427 F#103
N13995 G3 X-32.544 Y-23.018 I-0.274 J0.419
N14000 X-33.641 Y-22.124 I-0.907 J0.006 F#100
N14005 X-35.142 Y-23.876 I0.027 J-1.542
N14010 G1 X-35.133 Y-23.961 F#104
N14015 X-35.109 Y-24.043
N14020 X-35.071 Y-24.12
N14025 X-35.02 Y-24.189
N14030 X-34.957 Y-24.249
N14035 X-34.885 Y-24.296
N14040 X-34.806 Y-24.331
N14045 X-34.722 Y-24.351
N14050 X-34.635 Y-24.357
N14055 X-34.549 Y-24.347
N14060 X-34.465 Y-24.322
N14065 X-34.387 Y-24.283
N14070 X-33.945 Y-24.005
N14075 X-33.707 Y-23.855 F#105
N14080 X-32.773 Y-23.267 F#103
N14085 G3 X-32.541 Y-22.881 I-0.266 J0.423
N14090 X-33.609 Y-21.94 I-0.896 J0.059 F#100
N14095 X-35.142 Y-23.687 I-0.007 J-1.539
N14100 G1 X-35.133 Y-23.772 F#104
N14105 X-35.109 Y-23.854
N14110 X-35.071 Y-23.931
N14115 X-35.02 Y-24.
N14120 X-34.958 Y-24.059
N14125 X-34.886 Y-24.107
N14130 X-34.807 Y-24.142
N14135 X-34.723 Y-24.162
N14140 X-34.637 Y-24.168
N14145 X-34.551 Y-24.159
N14150 X-34.467 Y-24.134
N14155 X-34.389 Y-24.096
N14160 X-33.944 Y-23.818
N14165 X-33.719 Y-23.679 F#105
N14170 X-32.763 Y-23.083 F#103
N14175 G3 X-32.531 Y-22.721 I-0.264 J0.424
N14180 G1 X-32.532 Y-22.603 F#100
N14185 X-32.548 Y-22.486
N14190 X-32.579 Y-22.371
N14195 X-32.623 Y-22.261
N14200 X-32.681 Y-22.158
N14205 X-32.751 Y-22.063
N14210 X-32.833 Y-21.977
N14215 X-32.924 Y-21.902
N14220 X-33.025 Y-21.839
N14225 X-33.132 Y-21.789
N14230 X-33.245 Y-21.754
N14235 X-33.361 Y-21.732
N14240 X-33.48 Y-21.725
N14245 X-33.598 Y-21.733
N14250 X-33.714 Y-21.756
N14255 X-33.826 Y-21.793
N14260 G3 X-35.153 Y-23.503 I0.207 J-1.53
N14265 X-34.388 Y-23.909 I0.5 J0.017 F#104
N14270 G1 X-33.945 Y-23.631
N14275 X-33.724 Y-23.493 F#105
N14280 X-32.738 Y-22.874 F#103
N14285 G3 X-32.513 Y-22.548 I-0.266 J0.424
N14290 X-33.357 Y-21.568 I-0.893 J0.084 F#100
N14295 X-35.141 Y-23.322 I-0.241 J-1.54
N14300 G1 X-35.132 Y-23.406 F#104
N14305 X-35.109 Y-23.486
N14310 X-35.073 Y-23.562
N14315 X-35.024 Y-23.631
N14320 X-34.963 Y-23.69
N14325 X-34.894 Y-23.738
N14330 X-34.817 Y-23.774
N14335 X-34.734 Y-23.796
N14340 X-34.65 Y-23.803
N14345 X-34.565 Y-23.796
N14350 X-34.482 Y-23.775
N14355 X-34.404 Y-23.74
N14360 X-33.935 Y-23.469
N14365 X-33.729 Y-23.351 F#105
N14370 X-32.737 Y-22.779 F#103
N14375 G3 X-32.496 Y-22.443 I-0.25 J0.433
N14380 X-33.461 Y-21.392 I-0.878 J0.162 F#100
N14385 X-35.136 Y-23.118 I-0.193 J-1.488
N14390 G1 X-35.128 Y-23.2 F#104
N14395 X-35.106 Y-23.279
N14400 X-35.071 Y-23.354
N14405 X-35.023 Y-23.422
N14410 X-34.965 Y-23.481
N14415 X-34.897 Y-23.53
N14420 X-34.822 Y-23.566
N14425 X-34.741 Y-23.59
N14430 X-34.657 Y-23.599
N14435 X-34.573 Y-23.594
N14440 X-34.491 Y-23.575
N14445 X-34.412 Y-23.542
N14450 X-33.929 Y-23.276
N14455 X-33.718 Y-23.16 F#105
N14460 X-32.715 Y-22.608 F#103
N14465 G3 X-32.467 Y-22.277 I-0.241 J0.438
N14470 X-33.268 Y-21.201 I-0.914 J0.156 F#100
N14475 X-35.141 Y-22.923 I-0.334 J-1.516
N14480 G1 X-35.133 Y-23.005 F#104
N14485 X-35.11 Y-23.084
N14490 X-35.075 Y-23.158
N14495 X-35.028 Y-23.226
N14500 X-34.97 Y-23.285
N14505 X-34.903 Y-23.334
N14510 X-34.828 Y-23.37
N14515 X-34.749 Y-23.394
N14520 X-34.666 Y-23.404
N14525 X-34.582 Y-23.4
N14530 X-34.501 Y-23.382
N14535 X-34.423 Y-23.351
N14540 X-33.923 Y-23.091
N14545 X-33.701 Y-22.976 F#105
N14550 X-32.696 Y-22.454 F#103
N14555 G3 X-32.438 Y-22.117 I-0.231 J0.444
N14560 X-33.229 Y-21.014 I-0.933 J0.166 F#100
N14565 X-35.142 Y-22.736 I-0.363 J-1.519
N14570 G1 X-35.133 Y-22.817 F#104
N14575 X-35.111 Y-22.895
N14580 X-35.077 Y-22.969
N14585 X-35.03 Y-23.037
N14590 X-34.973 Y-23.096
N14595 X-34.907 Y-23.144
N14600 X-34.833 Y-23.181
N14605 X-34.754 Y-23.206
N14610 X-34.672 Y-23.217
N14615 X-34.589 Y-23.214
N14620 X-34.508 Y-23.197
N14625 X-34.43 Y-23.167
N14630 X-33.919 Y-22.912
N14635 X-33.674 Y-22.79 F#105
N14640 X-32.674 Y-22.292 F#103
N14645 G3 X-32.407 Y-21.945 I-0.223 J0.448
N14650 X-33.487 Y-20.772 I-1.052 J0.115 F#100
N14655 X-35.146 Y-22.553 I-0.067 J-1.6
N14660 G1 X-35.137 Y-22.634 F#104
N14665 X-35.115 Y-22.712
N14670 X-35.08 Y-22.786
N14675 X-35.034 Y-22.854
N14680 X-34.976 Y-22.912
N14685 X-34.91 Y-22.961
N14690 X-34.837 Y-22.998
N14695 X-34.759 Y-23.023
N14700 X-34.677 Y-23.034
N14705 X-34.595 Y-23.032
N14710 X-34.514 Y-23.016
N14715 X-34.436 Y-22.987
N14720 X-33.915 Y-22.736
N14725 X-33.652 Y-22.609 F#105
N14730 X-32.652 Y-22.127 F#103
N14735 G3 X-32.379 Y-21.777 I-0.217 J0.451
N14740 X-33.818 Y-20.64 I-1.075 J0.119 F#100
N14745 G1 X-33.967 Y-20.667
N14750 X-34.113 Y-20.709
N14755 X-34.253 Y-20.764
N14760 X-34.388 Y-20.834
N14765 X-34.515 Y-20.916
N14770 X-34.633 Y-21.01
N14775 X-34.742 Y-21.115
N14780 X-34.84 Y-21.231
N14785 X-34.925 Y-21.355
N14790 X-34.999 Y-21.488
N14795 X-35.058 Y-21.627
N14800 X-35.104 Y-21.771
N14805 X-35.136 Y-21.919
N14810 X-35.152 Y-22.069
N14815 X-35.154 Y-22.221
N14820 X-35.141 Y-22.371
N14825 X-35.133 Y-22.452 F#104
N14830 X-35.111 Y-22.53
N14835 X-35.077 Y-22.603
N14840 X-35.032 Y-22.67
N14845 X-34.975 Y-22.729
N14850 X-34.91 Y-22.778
N14855 X-34.837 Y-22.815
N14860 X-34.759 Y-22.84
N14865 X-34.678 Y-22.852
N14870 X-34.596 Y-22.85
N14875 X-34.515 Y-22.835
N14880 X-34.438 Y-22.807
N14885 X-33.914 Y-22.557
N14890 X-33.593 Y-22.403 F#105
N14895 X-32.645 Y-21.95 F#103
N14900 G3 X-32.362 Y-21.542 I-0.215 J0.451
N14905 X-34.036 Y-20.519 I-1.122 J0.046 F#100
N14910 X-35.153 Y-22.197 I0.46 J-1.516
N14915 X-34.436 Y-22.63 I0.5 J0.017 F#104
N14920 G1 X-33.915 Y-22.379
N14925 X-33.549 Y-22.202 F#105
N14930 X-32.638 Y-21.763 F#103
N14935 G3 X-32.356 Y-21.314 I-0.217 J0.45
N14940 X-34.247 Y-20.428 I-1.166 J-0.026 F#100
N14945 X-35.153 Y-22.027 I0.642 J-1.42
N14950 X-34.423 Y-22.454 I0.5 J0.017 F#104
N14955 G1 X-33.923 Y-22.194
N14960 X-33.534 Y-21.993 F#105
N14965 X-32.636 Y-21.526 F#103
N14970 G3 X-32.366 Y-21.07 I-0.23 J0.444
N14975 X-34.385 Y-20.325 I-1.182 J-0.096 F#100
N14980 X-35.153 Y-21.847 I0.766 J-1.342
N14985 X-34.416 Y-22.27 I0.5 J0.017 F#104
N14990 G1 X-33.927 Y-22.006
N14995 X-33.52 Y-21.787 F#105
N15000 X-32.65 Y-21.319 F#103
N15005 G3 X-32.389 Y-20.834 I-0.237 J0.44
N15010 X-34.346 Y-20.094 I-1.172 J-0.141 F#100
N15015 X-35.153 Y-21.666 I0.749 J-1.378
N15020 X-34.4 Y-22.079 I0.5 J0.017 F#104
N15025 G1 X-33.937 Y-21.807
N15030 X-33.523 Y-21.565 F#105
N15035 X-32.674 Y-21.066 F#103
N15040 G3 X-32.431 Y-20.57 I-0.253 J0.431
N15045 X-34.583 Y-20.079 I-1.188 J-0.244 F#100
N15050 X-35.153 Y-21.463 I0.975 J-1.21
N15055 X-34.392 Y-21.871 I0.5 J0.017 F#104
N15060 G1 X-33.942 Y-21.595
N15065 X-33.528 Y-21.341 F#105
N15070 X-32.721 Y-20.847 F#103
N15075 G3 X-32.496 Y-20.307 I-0.261 J0.426
N15080 X-34.578 Y-19.872 I-1.149 J-0.3 F#100
N15085 X-35.153 Y-21.256 I0.967 J-1.213
N15090 X-34.384 Y-21.66 I0.5 J0.017 F#104
N15095 G1 X-33.947 Y-21.38
N15100 X-33.549 Y-21.125 F#105
N15105 X-32.779 Y-20.632 F#103
N15110 G3 X-32.573 Y-20.057 I-0.27 J0.421
N15115 X-34.576 Y-19.673 I-1.103 J-0.339 F#100
N15120 X-35.154 Y-21.066 I0.955 J-1.213
N15125 X-34.369 Y-21.455 I0.5 J0.021 F#104
N15130 G1 X-33.956 Y-21.168
N15135 X-33.6 Y-20.92 F#105
N15140 X-32.852 Y-20.4 F#103
N15145 G3 X-32.669 Y-19.814 I-0.286 J0.41
N15150 G1 X-32.756 Y-19.605 F#100
N15155 X-32.809 Y-19.495
N15160 X-32.823 Y-19.467
N15165 X-32.836 Y-19.458 F#104
N15170 G3 X-33.613 Y-19.886 I-0.277 J-0.416
N15175 G1 X-33.602 Y-20.351
N15180 X-33.584 Y-21.107 F#105
N15185 G3 X-32.589 Y-21.167 I0.5 J0.012
N15190 G1 X-32.587 Y-21.15
N15195 G3 X-32.756 Y-19.605 I-3.135 J0.439 F#103
N15200 X-34.194 Y-19.236 I-0.881 J-0.447 F#100
N15205 X-35.156 Y-20.878 I0.592 J-1.45
N15210 X-34.33 Y-21.231 I0.499 J0.025 F#104
N15215 G1 X-33.986 Y-20.934
N15220 X-33.652 Y-20.646 F#105
N15225 X-32.956 Y-20.045 F#103
N15230 G3 X-32.831 Y-19.452 I-0.327 J0.378
N15235 X-34.674 Y-19.376 I-0.945 J-0.531 F#100
N15240 X-35.159 Y-20.692 I1.003 J-1.117
N15245 X-34.323 Y-21.036 I0.499 J0.025 F#104
N15250 G1 X-33.997 Y-20.739
N15255 X-33.711 Y-20.479 F#105
N15260 X-33.044 Y-19.871 F#103
N15265 G3 X-32.944 Y-19.26 I-0.337 J0.37
N15270 X-34.415 Y-18.953 I-0.861 J-0.445 F#100
N15275 X-35.169 Y-20.311 I0.673 J-1.262
N15280 X-34.362 Y-20.658 I0.498 J0.046 F#104
N15285 G1 X-33.971 Y-20.35
N15290 X-33.855 Y-20.259 F#105
N15295 X-33.175 Y-19.722 F#103
N15300 G3 X-33.046 Y-19.088 I-0.31 J0.393
N15305 X-34.936 Y-19.286 I-0.898 J-0.545 F#100
N15310 X-35.169 Y-20.311 I1.025 J-0.772
N15315 X-34.318 Y-20.619 I0.498 J0.046 F#104
N15320 G1 X-34.007 Y-20.309
N15325 X-33.876 Y-20.178 F#105
N15330 X-33.225 Y-19.527 F#103
N15335 G3 X-33.143 Y-18.927 I-0.353 J0.354
N15340 X-34.939 Y-19.074 I-0.863 J-0.505 F#100
N15345 X-35.182 Y-20.094 I0.988 J-0.773
N15350 X-34.323 Y-20.395 I0.498 J0.046 F#104
N15355 G1 X-34.026 Y-20.085
N15360 X-33.966 Y-20.023 F#105
N15365 X-33.321 Y-19.352 F#103
N15370 G3 X-33.246 Y-18.759 I-0.36 J0.347
N15375 X-35.083 Y-19.131 I-0.845 J-0.547 F#100
N15380 G1 X-35.201 Y-19.426
N15385 X-35.203 Y-19.738
N15390 G3 X-34.374 Y-20.038 I0.495 J0.072 F#104
N15395 G1 X-34.093 Y-19.785
N15400 X-33.473 Y-19.227 F#103
N15405 G3 X-33.406 Y-18.558 I-0.334 J0.372
N15410 G1 X-33.478 Y-18.464 F#100
N15415 X-33.562 Y-18.379
N15420 X-33.656 Y-18.307
N15425 X-33.759 Y-18.248
N15430 X-33.869 Y-18.203
N15435 X-33.985 Y-18.173
N15440 X-34.103 Y-18.158
N15445 X-34.222 Y-18.16
N15450 X-34.339 Y-18.177
N15455 X-34.454 Y-18.209
N15460 X-34.563 Y-18.257
N15465 X-34.665 Y-18.318
N15470 X-34.757 Y-18.393
N15475 X-34.839 Y-18.479
N15480 X-34.909 Y-18.575
N15485 X-34.966 Y-18.68
N15490 G3 X-35.203 Y-19.738 I0.947 J-0.769
N15495 X-34.316 Y-19.976 I0.495 J0.072 F#104
N15500 G1 X-34.111 Y-19.716
N15505 X-33.55 Y-19.005 F#103
N15510 G3 X-33.549 Y-18.387 I-0.393 J0.31
N15515 G1 X-33.627 Y-18.299 F#100
N15520 X-33.716 Y-18.221
N15525 X-33.815 Y-18.155
N15530 X-33.921 Y-18.104
N15535 X-34.033 Y-18.066
N15540 X-34.149 Y-18.044
N15545 X-34.268 Y-18.037
N15550 X-34.385 Y-18.046
N15555 X-34.501 Y-18.07
N15560 X-34.613 Y-18.109
N15565 X-34.718 Y-18.163
N15570 X-34.816 Y-18.23
N15575 X-34.903 Y-18.309
N15580 X-34.98 Y-18.4
N15585 X-35.044 Y-18.499
N15590 X-35.094 Y-18.606
N15595 X-35.13 Y-18.719
N15600 X-35.151 Y-18.835
N15605 X-35.248 Y-19.084
N15610 X-35.247 Y-19.344
N15615 X-35.224 Y-19.549
N15620 G3 X-34.321 Y-19.764 I0.495 J0.072 F#104
N15625 G1 X-34.2 Y-19.592
N15630 X-33.663 Y-18.828 F#103
N15635 G3 X-33.678 Y-18.233 I-0.409 J0.287
N15640 G1 X-33.748 Y-18.15 F#100
N15645 X-33.829 Y-18.076
N15650 X-33.918 Y-18.014
N15655 X-34.015 Y-17.965
N15660 X-34.118 Y-17.928
N15665 X-34.224 Y-17.906
N15670 X-34.333 Y-17.898
N15675 X-34.442 Y-17.905
N15680 X-34.549 Y-17.926
N15685 X-34.652 Y-17.961
N15690 X-34.749 Y-18.009
N15695 X-34.84 Y-18.07
N15700 X-34.921 Y-18.143
N15705 X-34.992 Y-18.225
N15710 X-35.051 Y-18.317
N15715 X-35.098 Y-18.415
N15720 X-35.228 Y-18.641
N15725 X-35.278 Y-18.894
N15730 X-35.269 Y-19.152
N15735 G3 X-35.007 Y-19.513 I0.515 J0.098 F#104
N15740 X-33.799 Y-18.09 I0.46 J0.834
N15745 X-35.224 Y-18.482 I-0.635 J-0.48 F#100
N15750 G1 X-35.307 Y-18.718
N15755 X-35.298 Y-18.962
N15760 X-35.269 Y-19.152
N15765 G3 X-34.863 Y-19.53 I0.461 J0.088 F#104
N15770 X-33.914 Y-17.955 I0.119 J1.002
N15775 G1 X-33.981 Y-17.875 F#100
N15780 X-34.059 Y-17.805
N15785 X-34.146 Y-17.747
N15790 X-34.239 Y-17.701
N15795 X-34.339 Y-17.669
N15800 X-34.442 Y-17.651
N15805 X-34.546 Y-17.648
N15810 X-34.65 Y-17.66
N15815 X-34.751 Y-17.686
N15820 X-34.847 Y-17.726
N15825 X-34.937 Y-17.779
N15830 X-35.019 Y-17.844
N15835 X-35.091 Y-17.92
N15840 X-35.151 Y-18.005
N15845 X-35.199 Y-18.098
N15850 X-35.233 Y-18.196
N15855 X-35.253 Y-18.299
N15860 X-35.336 Y-18.539
N15865 X-35.326 Y-18.789
N15870 X-35.298 Y-18.962
N15875 G3 X-34.934 Y-19.318 I0.438 J0.083 F#104
N15880 X-33.996 Y-17.844 I0.158 J0.935
N15885 X-35.325 Y-18.36 I-0.6 J-0.424 F#100
N15890 G1 X-35.356 Y-18.61
N15895 X-35.326 Y-18.789
N15900 G3 X-34.959 Y-19.122 I0.41 J0.082 F#104
N15905 X-34.085 Y-17.72 I0.094 J0.915
N15910 X-35.352 Y-18.22 I-0.578 J-0.39 F#100
N15915 G1 X-35.379 Y-18.482
N15920 G3 X-35.177 Y-18.738 I0.374 J0.088 F#104
N15925 X-34.156 Y-17.615 I0.353 J0.704
N15930 X-35.38 Y-18.092 I-0.568 J-0.351 F#100
N15935 G1 X-35.405 Y-18.352
N15940 G3 X-35.113 Y-18.617 I0.346 J0.088 F#104
N15945 X-34.253 Y-17.471 I0.122 J0.804
N15950 X-35.366 Y-17.713 I-0.517 J-0.301 F#100
N15955 G1 X-35.453 Y-17.958
N15960 X-35.435 Y-18.212
N15965 X-35.405 Y-18.352
N15970 G3 X-35.061 Y-18.62 I0.345 J0.088 F#104
N15975 X-34.285 Y-17.41 I0.003 J0.852
N15980 G1 X-34.33 Y-17.325 F#100
N15985 X-34.389 Y-17.249
N15990 X-34.46 Y-17.183
N15995 X-34.54 Y-17.13
N16000 X-34.628 Y-17.091
N16005 X-34.721 Y-17.068
N16010 X-34.817 Y-17.06
N16015 X-34.913 Y-17.067
N16020 X-35.006 Y-17.091
N16025 X-35.095 Y-17.13
N16030 X-35.175 Y-17.183
N16035 X-35.246 Y-17.248
N16040 X-35.305 Y-17.324
N16045 X-35.35 Y-17.409
N16050 X-35.381 Y-17.5
N16055 X-35.396 Y-17.595
N16060 X-35.483 Y-17.833
N16065 X-35.465 Y-18.077
N16070 X-35.435 Y-18.212
N16075 G3 X-35.089 Y-18.471 I0.334 J0.085 F#104
N16080 G1 X-35.017 Y-18.465
N16085 G3 X-34.343 Y-17.29 I-0.103 J0.84 F#103
N16090 G1 X-34.388 Y-17.206 F#100
N16095 X-34.447 Y-17.131
N16100 X-34.517 Y-17.066
N16105 X-34.597 Y-17.014
N16110 X-34.685 Y-16.976
N16115 X-34.777 Y-16.954
N16120 X-34.872 Y-16.947
N16125 X-34.967 Y-16.956
N16130 X-35.059 Y-16.98
N16135 X-35.146 Y-17.02
N16140 X-35.224 Y-17.074
N16145 X-35.293 Y-17.14
N16150 X-35.35 Y-17.216
N16155 X-35.393 Y-17.301
