%
(SETUP2-TOP-Z-HEAD-BASEPLATE-POCKETS-2MM)
(T5  D=2. CR=0. - ZMIN=-8.4 - FLAT END MILL)
N10 G90 G94 G17 G91.1
N15 G21
N20 G53 G0 Z0.
(2D POCKET2 2)
N25 M9
N30 T5 M6
N35 S3700 M3
N40 G54
N45 M9
N55 G0 X-40.511 Y-114.005
N60 G43 Z6. H5
N65 #100=150. (CUTTING)
N70 #103=130. (ENTRY)
N75 #104=150. (EXIT)
N80 #107=150. (RAMPING)
N85 G0 Z-0.5
N90 G1 Z-2.5 F#103
N95 S3300
N100 G3 X-40.489 Y-114.795 Z-2.565 I0.011 J-0.395 F#107
N105 X-40.511 Y-114.005 Z-2.63 I-0.011 J0.395
N110 X-40.489 Y-114.795 Z-2.695 I0.011 J-0.395
N115 X-40.511 Y-114.005 Z-2.76 I-0.011 J0.395
N120 X-40.489 Y-114.795 Z-2.825 I0.011 J-0.395
N125 X-40.511 Y-114.005 Z-2.89 I-0.011 J0.395
N130 X-40.489 Y-114.795 Z-2.955 I0.011 J-0.395
N135 X-40.511 Y-114.005 Z-3.02 I-0.011 J0.395
N140 X-40.489 Y-114.795 Z-3.085 I0.011 J-0.395
N145 X-40.511 Y-114.005 Z-3.15 I-0.011 J0.395
N150 X-40.489 Y-114.795 Z-3.215 I0.011 J-0.395
N155 X-40.511 Y-114.005 Z-3.28 I-0.011 J0.395
N160 X-40.489 Y-114.795 Z-3.345 I0.011 J-0.395
N165 X-40.511 Y-114.005 Z-3.41 I-0.011 J0.395
N170 X-40.489 Y-114.795 Z-3.476 I0.011 J-0.395
N175 X-40.511 Y-114.005 Z-3.541 I-0.011 J0.395
N180 X-40.489 Y-114.795 Z-3.606 I0.011 J-0.395
N185 X-40.511 Y-114.005 Z-3.671 I-0.011 J0.395
N190 X-40.489 Y-114.795 Z-3.736 I0.011 J-0.395
N195 X-40.511 Y-114.005 Z-3.801 I-0.011 J0.395
N200 X-40.489 Y-114.795 Z-3.866 I0.011 J-0.395
N205 X-40.511 Y-114.005 Z-3.931 I-0.011 J0.395
N210 X-40.489 Y-114.795 Z-3.996 I0.011 J-0.395
N215 X-40.511 Y-114.005 Z-4.061 I-0.011 J0.395
N220 X-40.489 Y-114.795 Z-4.126 I0.011 J-0.395
N225 X-40.511 Y-114.005 Z-4.191 I-0.011 J0.395
N230 X-40.489 Y-114.795 Z-4.256 I0.011 J-0.395
N235 X-40.511 Y-114.005 Z-4.321 I-0.011 J0.395
N240 X-40.489 Y-114.795 Z-4.386 I0.011 J-0.395
N245 X-40.511 Y-114.005 Z-4.451 I-0.011 J0.395
N250 X-40.489 Y-114.795 Z-4.516 I0.011 J-0.395
N255 X-40.511 Y-114.005 Z-4.581 I-0.011 J0.395
N260 X-40.489 Y-114.795 Z-4.646 I0.011 J-0.395
N265 X-40.511 Y-114.005 Z-4.711 I-0.011 J0.395
N270 X-40.489 Y-114.795 Z-4.776 I0.011 J-0.395
N275 X-40.511 Y-114.005 Z-4.841 I-0.011 J0.395
N280 X-40.489 Y-114.795 Z-4.906 I0.011 J-0.395
N285 X-40.511 Y-114.005 Z-4.971 I-0.011 J0.395
N290 X-40.489 Y-114.795 Z-5.036 I0.011 J-0.395
N295 X-40.511 Y-114.005 Z-5.101 I-0.011 J0.395
N300 X-40.895 Y-114.4 Z-5.133 I0.011 J-0.395
N305 X-40.1 I0.397 J0.
N310 S3700
N315 G1 Y-74.6 F#100
N320 G3 X-40.9 I-0.4 J0.
N325 G1 Y-114.4
N330 G3 X-40.1 I0.4 J0.
N335 S3300
N340 G1 Y-74.6 Z-6.103 F#107
N345 G3 X-40.9 Z-6.133 I-0.4 J0.
N350 G1 Y-100.603 Z-6.767
N355 S3700
N360 Y-114.4 F#100
N365 G3 X-40.1 I0.4 J0.
N370 G1 Y-74.6
N375 G3 X-40.9 I-0.4 J0.
N380 G1 Y-100.603
N385 S3300
N390 Y-114.4 Z-7.103 F#107
N395 G3 X-40.1 Z-7.133 I0.4 J0.
N400 G1 Y-74.6 Z-8.103
N405 G3 X-40.9 Z-8.133 I-0.4 J0.
N410 G1 Y-85.548 Z-8.4
N415 S3700
N420 Y-114.4 F#100
N425 G3 X-40.1 I0.4 J0.
N430 G1 Y-74.6
N435 G3 X-40.9 I-0.4 J0.
N440 G1 Y-85.548
N445 G2 X-41. Y-85.698 I-0.162 J0.
N450 G3 X-41.1 Y-85.848 I0.063 J-0.15
N455 G1 Y-114.4
N460 G3 X-39.9 I0.6 J0.
N465 G1 Y-74.6
N470 G3 X-41.1 I-0.6 J0.
N475 G1 Y-85.848
N480 X-41. Z-8.39 F#104
N485 G0 Z3.
N490 X-9.489 Y-114.795
N495 Z-0.5
N500 G1 Z-2.5 F#103
N505 S3300
N510 G3 X-9.511 Y-114.005 Z-2.565 I-0.011 J0.395 F#107
N515 X-9.489 Y-114.795 Z-2.63 I0.011 J-0.395
N520 X-9.511 Y-114.005 Z-2.695 I-0.011 J0.395
N525 X-9.489 Y-114.795 Z-2.76 I0.011 J-0.395
N530 X-9.511 Y-114.005 Z-2.825 I-0.011 J0.395
N535 X-9.489 Y-114.795 Z-2.89 I0.011 J-0.395
N540 X-9.511 Y-114.005 Z-2.955 I-0.011 J0.395
N545 X-9.489 Y-114.795 Z-3.02 I0.011 J-0.395
N550 X-9.511 Y-114.005 Z-3.085 I-0.011 J0.395
N555 X-9.489 Y-114.795 Z-3.15 I0.011 J-0.395
N560 X-9.511 Y-114.005 Z-3.215 I-0.011 J0.395
N565 X-9.489 Y-114.795 Z-3.28 I0.011 J-0.395
N570 X-9.511 Y-114.005 Z-3.345 I-0.011 J0.395
N575 X-9.489 Y-114.795 Z-3.41 I0.011 J-0.395
N580 X-9.511 Y-114.005 Z-3.476 I-0.011 J0.395
N585 X-9.489 Y-114.795 Z-3.541 I0.011 J-0.395
N590 X-9.511 Y-114.005 Z-3.606 I-0.011 J0.395
N595 X-9.489 Y-114.795 Z-3.671 I0.011 J-0.395
N600 X-9.511 Y-114.005 Z-3.736 I-0.011 J0.395
N605 X-9.489 Y-114.795 Z-3.801 I0.011 J-0.395
N610 X-9.511 Y-114.005 Z-3.866 I-0.011 J0.395
N615 X-9.489 Y-114.795 Z-3.931 I0.011 J-0.395
N620 X-9.511 Y-114.005 Z-3.996 I-0.011 J0.395
N625 X-9.489 Y-114.795 Z-4.061 I0.011 J-0.395
N630 X-9.511 Y-114.005 Z-4.126 I-0.011 J0.395
N635 X-9.489 Y-114.795 Z-4.191 I0.011 J-0.395
N640 X-9.511 Y-114.005 Z-4.256 I-0.011 J0.395
N645 X-9.489 Y-114.795 Z-4.321 I0.011 J-0.395
N650 X-9.511 Y-114.005 Z-4.386 I-0.011 J0.395
N655 X-9.489 Y-114.795 Z-4.451 I0.011 J-0.395
N660 X-9.511 Y-114.005 Z-4.516 I-0.011 J0.395
N665 X-9.489 Y-114.795 Z-4.581 I0.011 J-0.395
N670 X-9.511 Y-114.005 Z-4.646 I-0.011 J0.395
N675 X-9.489 Y-114.795 Z-4.711 I0.011 J-0.395
N680 X-9.511 Y-114.005 Z-4.776 I-0.011 J0.395
N685 X-9.489 Y-114.795 Z-4.841 I0.011 J-0.395
N690 X-9.511 Y-114.005 Z-4.906 I-0.011 J0.395
N695 X-9.489 Y-114.795 Z-4.971 I0.011 J-0.395
N700 X-9.511 Y-114.005 Z-5.036 I-0.011 J0.395
N705 X-9.489 Y-114.795 Z-5.101 I0.011 J-0.395
N710 X-9.105 Y-114.4 Z-5.133 I-0.011 J0.395
N715 X-9.9 I-0.398 J0.
N720 S3700
N725 X-9.1 I0.4 J0. F#100
N730 G1 Y-74.6
N735 G3 X-9.9 I-0.4 J0.
N740 G1 Y-114.4
N745 S3300
N750 G3 X-9.1 Z-5.164 I0.4 J0. F#107
N755 G1 Y-74.6 Z-6.133
N760 G3 X-9.9 Z-6.164 I-0.4 J0.
N765 G1 Y-99.346 Z-6.767
N770 S3700
N775 Y-114.4 F#100
N780 G3 X-9.1 I0.4 J0.
N785 G1 Y-74.6
N790 G3 X-9.9 I-0.4 J0.
N795 G1 Y-99.346
N800 S3300
N805 Y-114.4 Z-7.133 F#107
N810 G3 X-9.1 Z-7.164 I0.4 J0.
N815 G1 Y-74.6 Z-8.133
N820 G3 X-9.9 Z-8.164 I-0.4 J0.
N825 G1 Y-84.292 Z-8.4
N830 S3700
N835 Y-114.4 F#100
N840 G3 X-9.1 I0.4 J0.
N845 G1 Y-74.6
N850 G3 X-9.9 I-0.4 J0.
N855 G1 Y-84.292
N860 G2 X-10. Y-84.442 I-0.163 J0.
N865 G3 X-10.1 Y-84.592 I0.063 J-0.15
N870 G1 Y-114.4
N875 G3 X-8.9 I0.6 J0.
N880 G1 Y-74.6
N885 G3 X-10.1 I-0.6 J0.
N890 G1 Y-84.592
N895 X-10. Z-8.39 F#104
N900 G0 Z6.
N910 M9
N915 G53 Z0.
N920 M30
%
