%
(SETUP1-TOP-Z-HEAD-BASEPLATE-JIG-SPOTDRILL)
(T70  D=10. CR=0. TAPER=90DEG - ZMIN=-2. - SPOT DRILL)
N10 G90 G94 G17 G91.1
N15 G21
N20 G53 G0 Z0.
(JIG SPOT DRILLING)
N25 M9
N30 T70 M6
N35 S3000 M3
N40 G54
N45 M9
N55 G0 X-112.5 Y-15.
N60 G43 Z4. H70
N70 G0 Z2.
N75 G98 G81 X-112.5 Y-15. Z-2. R2. F70.
N80 Y-35.
N85 X-67.5
N90 Y-15.
N95 X-71.5 Y-7.3
N100 Y-42.7
N105 X-97. Y-25.
N110 X-111.5 Y-42.7
N115 X-117.25 Y-29.5
N120 Y-20.5
N125 X-111.5 Y-7.3
N130 G80
N135 G0 Z4.
N145 M9
N150 G53 Z0.
N155 M30
%
