%
(SETUP3-BOTTOM-Z-HEAD-BASEPLATE-POCKETING-4MM)
(T2  D=4. CR=0. - ZMIN=-3.5 - FLAT END MILL)
N10 G90 G94 G17 G91.1
N15 G21
N20 G53 G0 Z0.
(2D ADAPTIVE4)
N25 M9
N30 T2 M6
N35 S3300 M3
N40 G54
N45 M9
N55 G0 X-124.522 Y-41.524
N60 G43 Z4. H2
N65 #100=220. (CUTTING)
N70 #103=210. (ENTRY)
N75 #104=210. (EXIT)
N80 #105=4400. (DIRECT)
N85 #106=150. (REDUCED)
N90 G0 Z-2.5
N95 G1 Z-3. F#103
N100 X-124.516 Y-41.527 Z-3.087
N105 X-124.496 Y-41.539 Z-3.171
N110 X-124.465 Y-41.558 Z-3.25
N115 X-124.422 Y-41.583 Z-3.321
N120 X-124.369 Y-41.615 Z-3.383
N125 X-124.307 Y-41.651 Z-3.433
N130 X-124.239 Y-41.692 Z-3.47
N135 X-124.167 Y-41.735 Z-3.492
N140 X-124.092 Y-41.779 Z-3.5
N145 G3 X-122.585 Y-42.222 I1.618 J2.721
N150 X-122.311 Y-41.651 I-0.349 J0.519 F#100
N155 X-122.081 Y-36.042 I-33.69 J4.194
N160 G1 X-122.08 Y-9.328
N165 G3 X-123.63 Y-7.778 I-1.55 J0.
N170 G1 X-123.984 Y-7.943 F#104
N175 X-124.112 Y-8.271
N180 X-124.134 Y-9.099
N185 X-124.945 Y-39.597 F#105
N190 G3 X-123.987 Y-41.693 I2.497 J-0.126
N195 X-122.536 Y-42.222 I1.539 J1.97 F#103
N200 X-122.066 Y-41.707 I-0.102 J0.565 F#100
N205 X-121.6 Y-38.204 I-8.86 J2.96
N210 X-121.581 Y-34.594 I-211.428 J2.971
N215 G1 X-121.58 Y-10.122
N220 G3 X-123.01 Y-7.765 I-2.192 J0.282
N225 G1 X-123.34 Y-7.778
N230 G3 X-123.823 Y-8.278 I0.017 J-0.5 F#104
N235 G1 Y-9.081
N240 X-123.831 Y-41.951 F#105
N245 G2 X-124.231 I-0.2 J0.
N250 X-123.928 Y-41.779 I0.2 J0.
N255 G1 X-123.914 Y-41.787
N260 G3 X-122.421 Y-42.222 I1.603 J2.729 F#103
N265 X-121.837 Y-41.772 I-0.027 J0.64 F#100
N270 X-121.135 Y-38.427 I-6.29 J3.066
N275 X-121.081 Y-34.095 I-108.315 J3.505
N280 G1 X-121.08 Y-29.041
N285 Y-10.991
N290 G3 X-121.811 Y-8.238 I-3.701 J0.491
N295 X-122.961 Y-7.778 I-1.15 J-1.207
N300 X-123.443 Y-8.275 I0.017 J-0.5 F#104
N305 G1 X-123.448 Y-9.081
N310 X-123.667 Y-41.952 F#105
N315 G2 X-124.067 Y-41.95 I-0.2 J0.001
N320 X-123.764 Y-41.779 I0.2 J-0.001
N325 G1 X-123.75 Y-41.787
N330 G3 X-122.257 Y-42.222 I1.603 J2.729 F#103
N335 X-121.437 Y-41.583 I-0.122 J1.002 F#100
N340 G1 X-121.298 Y-41.273
N345 X-121.172 Y-40.957
N350 X-121.059 Y-40.637
N355 X-120.959 Y-40.312
N360 X-120.873 Y-39.983
N365 X-120.8 Y-39.651
N370 X-120.742 Y-39.316
N375 X-120.697 Y-38.979
N380 X-120.666 Y-38.64
N385 X-120.648 Y-38.301
N390 X-120.645 Y-37.961
N395 X-120.656 Y-37.621
N400 G3 X-120.581 Y-33.288 I-64.337 J3.283
N405 G1 X-120.58 Y-28.234
N410 Y-11.628
N415 G3 X-121.139 Y-8.579 I-5.382 J0.588
N420 X-122.564 Y-7.778 I-1.424 J-0.866
N425 X-123.046 Y-8.271 I0.017 J-0.5 F#104
N430 G1 X-123.057 Y-9.081
N435 X-123.503 Y-41.954 F#105
N440 G2 X-123.902 Y-41.948 I-0.2 J0.003
N445 X-123.6 Y-41.779 I0.2 J-0.003
N450 G1 X-123.586 Y-41.787
N455 G3 X-122.093 Y-42.222 I1.603 J2.729 F#103
N460 X-121.145 Y-41.622 I-0.018 J1.077 F#100
N465 X-120.17 Y-37.03 I-7.294 J3.949
N470 X-120.08 Y-29.085 I-123.932 J5.373
N475 G1 Y-12.479
N480 G3 X-120.542 Y-8.937 I-7.709 J0.796
N485 X-122.153 Y-7.773 I-1.663 J-0.605
N490 G1 X-122.239 Y-7.784 F#104
N495 X-122.322 Y-7.809
N500 X-122.399 Y-7.848
N505 X-122.468 Y-7.9
N510 X-122.527 Y-7.963
N515 X-122.575 Y-8.034
N520 X-122.609 Y-8.113
N525 X-122.63 Y-8.197
N530 X-122.636 Y-8.282
N535 X-122.629 Y-9.081
N540 X-122.369 Y-40.919 F#105
N545 X-122.362 Y-41.726 F#103
N550 G3 X-121.88 Y-42.222 I0.5 J0.004
N555 X-120.812 Y-41.629 I0.054 J1.16 F#100
N560 G1 X-120.643 Y-41.339
N565 X-120.488 Y-41.043
N570 X-120.345 Y-40.74
N575 X-120.217 Y-40.43
N580 X-120.102 Y-40.116
N585 X-120.002 Y-39.796
N590 X-119.916 Y-39.472
N595 X-119.845 Y-39.145
N600 X-119.788 Y-38.815
N605 X-119.747 Y-38.483
N610 X-119.72 Y-38.149
N615 X-119.708 Y-37.814
N620 X-119.712 Y-37.479
N625 G3 X-119.581 Y-31.703 I-66.109 J4.384
N630 G1 X-119.58 Y-25.928
N635 Y-12.932
N640 G3 X-119.969 Y-9.3 I-9.819 J0.785
N645 X-121.73 Y-7.756 I-1.951 J-0.45
N650 G1 X-121.818 Y-7.769 F#104
N655 X-121.903 Y-7.796
N660 X-121.981 Y-7.838
N665 X-122.051 Y-7.891
N670 X-122.11 Y-7.956
N675 X-122.157 Y-8.03
N680 X-122.191 Y-8.11
N685 X-122.21 Y-8.194
N690 X-122.215 Y-8.279
N695 X-122.212 Y-9.081
N700 X-122.119 Y-40.919 F#105
N705 X-122.117 Y-41.723 F#103
N710 G3 X-121.634 Y-42.222 I0.5 J0.001
N715 X-120.335 Y-41.454 I0.022 J1.446 F#100
N720 G1 X-120.158 Y-41.132
N725 X-119.994 Y-40.803
N730 X-119.846 Y-40.467
N735 X-119.712 Y-40.125
N740 X-119.593 Y-39.777
N745 X-119.489 Y-39.425
N750 X-119.4 Y-39.068
N755 X-119.328 Y-38.708
N760 X-119.271 Y-38.345
N765 X-119.229 Y-37.98
N770 X-119.204 Y-37.614
N775 X-119.195 Y-37.246
N780 X-119.201 Y-36.879
N785 G3 X-119.081 Y-31.103 I-72.217 J4.39
N790 G1 X-119.08 Y-26.049
N795 Y-13.775
N800 G3 X-119.496 Y-9.321 I-14.406 J0.901
N805 X-121.299 Y-7.747 I-2.099 J-0.584
N810 G1 X-121.389 Y-7.76 F#104
N815 X-121.475 Y-7.788
N820 X-121.554 Y-7.831
N825 X-121.624 Y-7.886
N830 X-121.683 Y-7.951
N835 X-121.73 Y-8.026
N840 X-121.763 Y-8.106
N845 X-121.782 Y-8.191
N850 X-121.786 Y-8.277
N855 X-121.788 Y-9.081
N860 X-121.868 Y-40.919 F#105
N865 X-121.87 Y-41.721 F#103
N870 G3 X-121.388 Y-42.222 I0.5 J-0.001
N875 X-119.839 Y-41.267 I0.019 J1.703 F#100
N880 G1 X-119.663 Y-40.924
N885 X-119.5 Y-40.575
N890 X-119.351 Y-40.219
N895 X-119.217 Y-39.857
N900 X-119.096 Y-39.491
N905 X-118.991 Y-39.12
N910 X-118.9 Y-38.745
N915 X-118.824 Y-38.367
N920 X-118.763 Y-37.987
N925 X-118.717 Y-37.604
N930 X-118.686 Y-37.219
N935 X-118.67 Y-36.834
N940 Y-36.448
N945 X-118.684 Y-36.063
N950 G3 X-118.58 Y-27.397 I-135.724 J5.967
N955 G1 Y-14.401
N960 G3 X-119.123 Y-9.107 I-15.112 J1.125
N965 X-120.865 Y-7.752 I-2.008 J-0.783
N970 G1 X-120.954 Y-7.765 F#104
N975 X-121.039 Y-7.792
N980 X-121.117 Y-7.834
N985 X-121.187 Y-7.888
N990 X-121.246 Y-7.952
N995 X-121.293 Y-8.025
N1000 X-121.327 Y-8.105
N1005 X-121.346 Y-8.189
N1010 X-121.351 Y-8.274
N1015 X-121.357 Y-9.081
N1020 X-121.586 Y-40.919 F#105
N1025 X-121.592 Y-41.718 F#103
N1030 G3 X-121.109 Y-42.222 I0.5 J-0.004
N1035 X-119.394 Y-41.175 I0.021 J1.894 F#100
N1040 G1 X-119.209 Y-40.815
N1045 X-119.039 Y-40.448
N1050 X-118.884 Y-40.075
N1055 X-118.743 Y-39.696
N1060 X-118.618 Y-39.311
N1065 X-118.507 Y-38.922
N1070 X-118.412 Y-38.529
N1075 X-118.333 Y-38.133
N1080 X-118.269 Y-37.734
N1085 X-118.221 Y-37.332
N1090 X-118.189 Y-36.929
N1095 X-118.172 Y-36.525
N1100 Y-36.121
N1105 X-118.188 Y-35.717
N1110 G3 X-118.08 Y-27.773 I-121.966 J5.621
N1115 G1 Y-14.777
N1120 G3 X-118.644 Y-9.182 I-16.442 J1.168
N1125 X-120.871 Y-7.759 I-2.031 J-0.725
N1130 G1 X-120.958 Y-7.772 F#104
N1135 X-121.042 Y-7.799
N1140 X-121.119 Y-7.841
N1145 X-121.188 Y-7.894
N1150 X-121.247 Y-7.958
N1155 X-121.293 Y-8.031
N1160 X-121.327 Y-8.11
N1165 X-121.346 Y-8.194
N1170 X-121.351 Y-8.279
N1175 X-121.349 Y-9.081
N1180 X-121.266 Y-40.919 F#105
N1185 X-121.264 Y-41.723 F#103
N1190 G3 X-120.781 Y-42.222 I0.5 J0.001
N1195 X-118.939 Y-41.083 I0.038 J1.998 F#100
N1200 X-117.84 Y-35.821 I-7.339 J4.279
N1205 G2 X-117.598 Y-32.063 I13.588 J1.012
N1210 G1 X-117.581 Y-27.724
N1215 X-117.58 Y-17.768
N1220 G2 X-117.673 Y-12.747 I11.575 J2.726
N1225 G3 X-118.509 Y-8.66 I-7.683 J0.557
N1230 X-120.427 Y-7.791 I-1.567 J-0.907
N1235 G1 X-120.512 Y-7.8 F#104
N1240 X-120.594 Y-7.824
N1245 X-120.671 Y-7.861
N1250 X-120.741 Y-7.912
N1255 X-120.801 Y-7.975
N1260 X-120.849 Y-8.047
N1265 X-120.884 Y-8.126
N1270 X-120.904 Y-8.21
N1275 X-120.909 Y-8.297
N1280 X-120.9 Y-8.384
N1285 X-120.875 Y-8.468
N1290 X-120.644 Y-9.03
N1295 X-118.855 Y-13.388 F#105
N1300 X-118.738 Y-13.672 F#103
N1305 G3 X-117.788 Y-13.593 I0.463 J0.19
N1310 X-117.35 Y-11.597 I-11.507 J3.571 F#100
N1315 X-118.442 Y-8.196 I-4.971 J0.279
N1320 X-119.985 Y-7.785 I-1.225 J-1.498
N1325 G1 X-120.066 Y-7.794 F#104
N1330 X-120.145 Y-7.817
N1335 X-120.219 Y-7.852
N1340 X-120.287 Y-7.898
N1345 X-120.345 Y-7.956
N1350 X-120.394 Y-8.022
N1355 X-120.431 Y-8.096
N1360 X-120.455 Y-8.175
N1365 X-120.466 Y-8.257
N1370 X-120.463 Y-8.34
N1375 X-120.447 Y-8.421
N1380 X-120.417 Y-8.498
N1385 X-120.164 Y-9.014
N1390 X-118.607 Y-12.189 F#105
N1395 X-118.421 Y-12.567 F#103
N1400 G3 X-117.509 Y-12.535 I0.449 J0.22
N1405 X-117.977 Y-8.21 I-3.58 J1.801 F#100
N1410 X-119.546 Y-7.784 I-1.273 J-1.586
N1415 G1 X-119.628 Y-7.793 F#104
N1420 X-119.708 Y-7.816
N1425 X-119.783 Y-7.852
N1430 X-119.851 Y-7.9
N1435 X-119.909 Y-7.958
N1440 X-119.958 Y-8.026
N1445 X-119.994 Y-8.101
N1450 X-120.018 Y-8.181
N1455 X-120.027 Y-8.264
N1460 X-120.023 Y-8.348
N1465 X-120.005 Y-8.429
N1470 X-119.973 Y-8.507
N1475 X-119.715 Y-9.009
N1480 X-118.404 Y-11.555 F#105
N1485 X-118.182 Y-11.986 F#103
N1490 G3 X-117.298 Y-11.994 I0.445 J0.229
N1495 X-117.775 Y-8.036 I-2.611 J1.693 F#100
N1500 X-119.127 Y-7.778 I-1.076 J-1.967
N1505 X-119.538 Y-8.533 I0.019 J-0.5 F#104
N1510 G1 X-119.264 Y-8.995
N1515 X-118.14 Y-10.89 F#105
N1520 X-117.846 Y-11.387 F#103
N1525 G3 X-117.009 Y-11.423 I0.43 J0.255
N1530 G1 X-116.9 Y-11.267 F#100
N1535 X-116.804 Y-11.103
N1540 X-116.721 Y-10.932
N1545 X-116.652 Y-10.755
N1550 X-116.596 Y-10.573
N1555 X-116.555 Y-10.388
N1560 X-116.528 Y-10.2
N1565 X-116.517 Y-10.01
N1570 X-116.519 Y-9.82
N1575 X-116.537 Y-9.631
N1580 X-116.569 Y-9.443
N1585 X-116.616 Y-9.259
N1590 X-116.677 Y-9.079
N1595 X-116.752 Y-8.905
N1600 X-116.84 Y-8.736
N1605 X-116.941 Y-8.575
N1610 X-117.054 Y-8.423
N1615 X-117.179 Y-8.279
N1620 X-117.315 Y-8.146
N1625 X-117.46 Y-8.024
N1630 X-117.615 Y-7.913
N1635 X-117.777 Y-7.815
N1640 G3 X-118.726 Y-7.779 I-0.607 J-3.424
N1645 G1 X-118.812 Y-7.789 F#104
N1650 X-118.894 Y-7.814
N1655 X-118.971 Y-7.853
N1660 X-119.04 Y-7.905
N1665 X-119.099 Y-7.968
N1670 X-119.146 Y-8.04
N1675 X-119.18 Y-8.119
N1680 X-119.2 Y-8.203
N1685 X-119.206 Y-8.289
N1690 X-119.196 Y-8.374
N1695 X-119.172 Y-8.457
N1700 X-119.134 Y-8.535
N1705 X-118.858 Y-8.991
N1710 X-117.918 Y-10.545 F#105
N1715 X-117.614 Y-11.047 F#103
N1720 G3 X-116.782 Y-11.083 I0.428 J0.259
N1725 X-117.635 Y-7.716 I-1.573 J1.393 F#100
N1730 X-118.498 Y-7.762 I-0.252 J-3.348
N1735 X-118.846 Y-8.544 I0.062 J-0.496 F#104
N1740 G1 X-118.536 Y-8.99
N1745 X-117.699 Y-10.193 F#105
N1750 X-117.338 Y-10.712 F#103
N1755 G3 X-116.532 Y-10.731 I0.41 J0.286
N1760 G1 X-116.417 Y-10.607 F#100
N1765 X-116.315 Y-10.473
N1770 X-116.225 Y-10.33
N1775 X-116.15 Y-10.179
N1780 X-116.089 Y-10.021
N1785 X-116.043 Y-9.859
N1790 X-116.013 Y-9.693
N1795 X-115.998 Y-9.525
N1800 X-115.999 Y-9.356
N1805 X-116.016 Y-9.188
N1810 X-116.049 Y-9.022
N1815 X-116.097 Y-8.861
N1820 X-116.16 Y-8.704
N1825 X-116.237 Y-8.554
N1830 X-116.329 Y-8.412
N1835 X-116.433 Y-8.279
N1840 X-116.549 Y-8.157
N1845 X-116.676 Y-8.046
N1850 X-116.813 Y-7.947
N1855 X-116.959 Y-7.862
N1860 X-117.112 Y-7.791
N1865 X-117.271 Y-7.734
N1870 X-117.435 Y-7.693
N1875 X-117.601 Y-7.667
N1880 X-117.77 Y-7.657
N1885 X-117.939 Y-7.663
N1890 X-118.106 Y-7.685
N1895 X-118.271 Y-7.722
N1900 X-118.353 Y-7.746 F#104
N1905 X-118.431 Y-7.783
N1910 X-118.5 Y-7.833
N1915 X-118.561 Y-7.894
N1920 X-118.61 Y-7.964
N1925 X-118.646 Y-8.041
N1930 X-118.669 Y-8.124
N1935 X-118.678 Y-8.209
N1940 X-118.672 Y-8.294
N1945 X-118.652 Y-8.376
N1950 X-118.618 Y-8.454
N1955 X-118.571 Y-8.526
N1960 X-118.235 Y-8.96
N1965 X-117.524 Y-9.879 F#105
N1970 X-117.079 Y-10.454 F#103
N1975 G3 X-116.333 Y-10.505 I0.395 J0.306
N1980 X-118.015 Y-7.701 I-1.093 J1.251 F#100
N1985 G1 X-118.095 Y-7.725 F#104
N1990 X-118.17 Y-7.762
N1995 X-118.238 Y-7.811
N2000 X-118.296 Y-7.872
N2005 X-118.343 Y-7.941
N2010 X-118.378 Y-8.019
N2015 X-118.399 Y-8.101
N2020 X-118.406 Y-8.185
N2025 X-118.398 Y-8.27
N2030 X-118.375 Y-8.353
N2035 X-118.338 Y-8.43
N2040 X-118.289 Y-8.501
N2045 X-117.936 Y-8.908
N2050 X-117.302 Y-9.639 F#105
N2055 X-116.808 Y-10.209 F#103
N2060 G3 X-116.08 Y-10.239 I0.378 J0.328
N2065 X-117.765 Y-7.679 I-1.008 J1.171 F#100
N2070 G1 X-117.842 Y-7.7 F#104
N2075 X-117.915 Y-7.734
N2080 X-117.981 Y-7.781
N2085 X-118.039 Y-7.84
N2090 X-118.085 Y-7.908
N2095 X-118.12 Y-7.984
N2100 X-118.14 Y-8.066
N2105 X-118.146 Y-8.15
N2110 X-118.137 Y-8.235
N2115 X-118.113 Y-8.318
N2120 X-118.075 Y-8.396
N2125 X-118.023 Y-8.467
N2130 X-117.658 Y-8.846
N2135 X-117.132 Y-9.392 F#105
N2140 X-116.546 Y-10. F#103
N2145 G3 X-115.884 Y-10.052 I0.36 J0.347
N2150 G1 X-115.771 Y-9.961 F#100
N2155 X-115.668 Y-9.859
N2160 X-115.576 Y-9.746
N2165 X-115.496 Y-9.625
N2170 X-115.429 Y-9.496
N2175 X-115.376 Y-9.36
N2180 X-115.337 Y-9.22
N2185 X-115.313 Y-9.077
N2190 X-115.304 Y-8.932
N2195 X-115.31 Y-8.787
N2200 X-115.332 Y-8.643
N2205 X-115.368 Y-8.502
N2210 X-115.418 Y-8.366
N2215 X-115.482 Y-8.235
N2220 X-115.56 Y-8.112
N2225 X-115.65 Y-7.998
N2230 X-115.751 Y-7.894
N2235 X-115.863 Y-7.801
N2240 X-115.983 Y-7.72
N2245 X-116.112 Y-7.651
N2250 X-116.246 Y-7.597
N2255 X-116.386 Y-7.557
N2260 X-116.529 Y-7.531
N2265 X-116.674 Y-7.521
N2270 G3 X-117.561 Y-7.582 I-0.335 J-1.592
N2275 G1 X-117.643 Y-7.614 F#104
N2280 X-117.718 Y-7.659
N2285 X-117.785 Y-7.716
N2290 X-117.84 Y-7.785
N2295 X-117.882 Y-7.862
N2300 X-117.91 Y-7.945
N2305 X-117.924 Y-8.032
N2310 X-117.922 Y-8.119
N2315 X-117.904 Y-8.205
N2320 X-117.872 Y-8.287
N2325 X-117.826 Y-8.362
N2330 X-117.768 Y-8.427
N2335 X-117.393 Y-8.783
N2340 X-116.923 Y-9.227 F#105
N2345 X-116.293 Y-9.824 F#103
N2350 G3 X-115.647 Y-9.86 I0.344 J0.363
N2355 G1 X-115.536 Y-9.775 F#100
N2360 X-115.435 Y-9.679
N2365 X-115.345 Y-9.573
N2370 X-115.266 Y-9.458
N2375 X-115.2 Y-9.335
N2380 X-115.148 Y-9.206
N2385 X-115.109 Y-9.072
N2390 X-115.086 Y-8.935
N2395 X-115.077 Y-8.796
N2400 X-115.083 Y-8.656
N2405 X-115.103 Y-8.518
N2410 X-115.139 Y-8.384
N2415 X-115.188 Y-8.253
N2420 X-115.251 Y-8.129
N2425 X-115.327 Y-8.012
N2430 X-115.416 Y-7.904
N2435 X-115.515 Y-7.806
N2440 X-115.624 Y-7.72
N2445 X-115.741 Y-7.645
N2450 X-115.854 Y-7.559
N2455 X-115.975 Y-7.486
N2460 X-116.103 Y-7.425
N2465 X-116.237 Y-7.379
N2470 X-116.375 Y-7.348
N2475 X-116.515 Y-7.331
N2480 X-116.657 Y-7.33
N2485 X-116.797 Y-7.344
N2490 X-116.936 Y-7.372
N2495 X-117.071 Y-7.416
N2500 X-117.2 Y-7.473
N2505 X-117.322 Y-7.544
N2510 X-117.401 Y-7.574 F#104
N2515 X-117.473 Y-7.617
N2520 X-117.537 Y-7.673
N2525 X-117.591 Y-7.739
N2530 X-117.632 Y-7.815
N2535 X-117.659 Y-7.896
N2540 X-117.672 Y-7.982
N2545 X-117.669 Y-8.068
N2550 X-117.651 Y-8.154
N2555 X-117.618 Y-8.235
N2560 X-117.571 Y-8.309
N2565 X-117.511 Y-8.374
N2570 X-117.122 Y-8.712
N2575 X-116.735 Y-9.05 F#105
N2580 X-116.039 Y-9.655 F#103
N2585 G3 X-115.437 Y-9.696 I0.328 J0.377
N2590 G1 X-115.327 Y-9.621 F#100
N2595 X-115.226 Y-9.534
N2600 X-115.135 Y-9.436
N2605 X-115.055 Y-9.329
N2610 X-114.988 Y-9.214
N2615 X-114.933 Y-9.093
N2620 X-114.892 Y-8.966
N2625 X-114.864 Y-8.835
N2630 X-114.852 Y-8.702
N2635 X-114.854 Y-8.569
N2640 X-114.87 Y-8.437
N2645 X-114.901 Y-8.307
N2650 X-114.945 Y-8.181
N2655 X-115.003 Y-8.061
N2660 X-115.074 Y-7.948
N2665 X-115.157 Y-7.843
N2670 X-115.25 Y-7.748
N2675 X-115.354 Y-7.664
N2680 X-115.465 Y-7.591
N2685 G3 X-117.006 Y-7.413 I-0.901 J-1.036
N2690 X-117.118 Y-8.206 I0.241 J-0.438 F#104
N2695 G1 X-116.662 Y-8.659
N2700 X-116.49 Y-8.83 F#105
N2705 X-115.836 Y-9.479 F#103
N2710 G3 X-115.237 Y-9.559 I0.352 J0.355
N2715 X-114.749 Y-8.058 I-0.515 J0.997 F#100
N2720 X-116.998 Y-7.424 I-1.35 J-0.485
N2725 G1 X-117.067 Y-7.468 F#104
N2730 X-117.127 Y-7.523
N2735 X-117.178 Y-7.588
N2740 X-117.217 Y-7.66
N2745 X-117.244 Y-7.738
N2750 X-117.258 Y-7.819
N2755 X-117.257 Y-7.902
N2760 X-117.243 Y-7.984
N2765 X-117.215 Y-8.063
N2770 X-117.174 Y-8.135
N2775 X-117.122 Y-8.201
N2780 X-117.059 Y-8.256
N2785 X-116.602 Y-8.587
N2790 X-116.355 Y-8.766 F#105
N2795 X-115.517 Y-9.373 F#103
N2800 G3 X-115.008 Y-9.419 I0.293 J0.405
N2805 X-114.563 Y-7.838 I-0.517 J0.998 F#100
N2810 X-116.692 Y-7.235 I-1.327 J-0.624
N2815 G1 X-116.755 Y-7.286 F#104
N2820 X-116.808 Y-7.348
N2825 X-116.851 Y-7.417
N2830 X-116.883 Y-7.492
N2835 X-116.901 Y-7.572
N2840 X-116.906 Y-7.653
N2845 X-116.898 Y-7.734
N2850 X-116.877 Y-7.813
N2855 X-116.843 Y-7.888
N2860 X-116.798 Y-7.956
N2865 X-116.742 Y-8.015
N2870 X-116.244 Y-8.464
N2875 X-116.106 Y-8.588 F#105
N2880 X-115.378 Y-9.245 F#103
N2885 G3 X-114.827 Y-9.325 I0.335 J0.371
N2890 X-114.334 Y-7.729 I-0.484 J1.024 F#100
N2895 X-116.688 Y-7.238 I-1.358 J-0.622
N2900 G1 X-116.755 Y-7.293 F#104
N2905 X-116.811 Y-7.358
N2910 X-116.855 Y-7.432
N2915 X-116.885 Y-7.513
N2920 X-116.902 Y-7.598
N2925 X-116.903 Y-7.684
N2930 X-116.889 Y-7.77
N2935 X-116.86 Y-7.852
N2940 X-116.817 Y-7.928
N2945 X-116.762 Y-7.995
N2950 X-116.696 Y-8.052
N2955 X-116.197 Y-8.406
N2960 X-115.967 Y-8.569 F#105
N2965 X-115.119 Y-9.17 F#103
N2970 G3 X-114.614 Y-9.214 I0.289 J0.408
N2975 X-114.18 Y-7.531 I-0.433 J1.009 F#100
N2980 X-116.568 Y-7.145 I-1.338 J-0.7
N2985 X-116.544 Y-7.955 I0.305 J-0.396 F#104
N2990 G1 X-116.025 Y-8.306
N2995 X-115.782 Y-8.472 F#105
N3000 X-114.896 Y-9.072 F#103
N3005 G3 X-114.418 Y-9.118 I0.281 J0.414
N3010 G1 X-114.304 Y-9.067 F#100
N3015 X-114.196 Y-9.004
N3020 X-114.097 Y-8.929
N3025 X-114.007 Y-8.843
N3030 X-113.927 Y-8.746
N3035 X-113.859 Y-8.642
N3040 X-113.804 Y-8.53
N3045 X-113.761 Y-8.413
N3050 X-113.733 Y-8.291
N3055 X-113.719 Y-8.167
N3060 Y-8.043
N3065 X-113.733 Y-7.919
N3070 X-113.762 Y-7.797
N3075 X-113.804 Y-7.68
N3080 X-113.859 Y-7.569
N3085 X-113.928 Y-7.464
N3090 X-113.992 Y-7.33
N3095 X-114.069 Y-7.203
N3100 X-114.159 Y-7.084
N3105 X-114.261 Y-6.975
N3110 X-114.372 Y-6.877
N3115 X-114.493 Y-6.791
N3120 X-114.623 Y-6.717
N3125 X-114.758 Y-6.656
N3130 X-114.9 Y-6.61
N3135 X-115.045 Y-6.577
N3140 X-115.193 Y-6.56
N3145 X-115.341 Y-6.557
N3150 X-115.49 Y-6.569
N3155 X-115.636 Y-6.597
N3160 X-115.779 Y-6.638
N3165 X-115.917 Y-6.694
N3170 X-116.048 Y-6.763
N3175 X-116.172 Y-6.845
N3180 X-116.287 Y-6.94
N3185 X-116.392 Y-7.045
N3190 X-116.453 Y-7.099 F#104
N3195 X-116.504 Y-7.163
N3200 X-116.544 Y-7.235
N3205 X-116.571 Y-7.314
N3210 X-116.584 Y-7.396
N3215 X-116.583 Y-7.479
N3220 X-116.568 Y-7.562
N3225 X-116.538 Y-7.641
N3230 X-116.496 Y-7.714
N3235 X-116.441 Y-7.779
N3240 X-116.376 Y-7.834
N3245 X-115.85 Y-8.186
N3250 X-115.584 Y-8.364 F#105
N3255 X-114.664 Y-8.98 F#103
N3260 G3 X-114.221 Y-9.036 I0.278 J0.415
N3265 X-113.574 Y-7.672 I-0.274 J0.965 F#100
N3270 X-116.193 Y-6.891 I-1.501 J-0.252
N3275 G1 X-116.253 Y-6.946 F#104
N3280 X-116.304 Y-7.01
N3285 X-116.343 Y-7.081
N3290 X-116.37 Y-7.159
N3295 X-116.383 Y-7.24
N3300 Y-7.323
N3305 X-116.368 Y-7.405
N3310 X-116.34 Y-7.483
N3315 X-116.299 Y-7.556
N3320 X-116.246 Y-7.621
N3325 X-116.182 Y-7.677
N3330 X-115.655 Y-8.046
N3335 X-115.365 Y-8.249 F#105
N3340 X-114.449 Y-8.89 F#103
N3345 G3 X-114.017 Y-8.959 I0.287 J0.41
N3350 X-113.326 Y-7.619 I-0.237 J0.971 F#100
N3355 X-115.859 Y-6.608 I-1.528 J-0.15
N3360 G1 X-115.915 Y-6.67 F#104
N3365 X-115.96 Y-6.739
N3370 X-115.992 Y-6.815
N3375 X-116.012 Y-6.895
N3380 X-116.019 Y-6.978
N3385 X-116.011 Y-7.06
N3390 X-115.99 Y-7.14
N3395 X-115.957 Y-7.216
N3400 X-115.911 Y-7.285
N3405 X-115.855 Y-7.345
N3410 X-115.305 Y-7.844
N3415 X-115.068 Y-8.059 F#105
N3420 X-114.275 Y-8.779 F#103
N3425 G3 X-113.809 Y-8.891 I0.336 J0.37
N3430 X-113.072 Y-7.408 I-0.326 J1.086 F#100
N3435 G1 X-113.106 Y-7.254
N3440 X-113.155 Y-7.104
N3445 X-113.218 Y-6.959
N3450 X-113.294 Y-6.822
N3455 X-113.384 Y-6.692
N3460 X-113.486 Y-6.572
N3465 X-113.6 Y-6.462
N3470 X-113.723 Y-6.364
N3475 X-113.856 Y-6.278
N3480 X-113.996 Y-6.205
N3485 X-114.142 Y-6.147
N3490 X-114.294 Y-6.103
N3495 X-114.449 Y-6.074
N3500 X-114.606 Y-6.06
N3505 X-114.764 Y-6.062
N3510 X-114.921 Y-6.079
N3515 X-115.075 Y-6.111
N3520 X-115.226 Y-6.158
N3525 X-115.371 Y-6.219
N3530 X-115.51 Y-6.294
N3535 X-115.641 Y-6.383
N3540 X-115.762 Y-6.484
N3545 X-115.873 Y-6.596
N3550 X-115.932 Y-6.664 F#104
N3555 X-115.978 Y-6.741
N3560 X-116.009 Y-6.824
N3565 X-116.026 Y-6.911
N3570 X-116.028 Y-7.
N3575 X-116.014 Y-7.087
N3580 X-115.985 Y-7.17
N3585 X-115.943 Y-7.247
N3590 X-115.888 Y-7.315
N3595 X-115.822 Y-7.372
N3600 X-115.266 Y-7.798
N3605 X-114.916 Y-8.065 F#105
N3610 X-114.032 Y-8.741 F#103
N3615 G3 X-113.598 Y-8.827 I0.304 J0.397
N3620 X-112.815 Y-7.543 I-0.188 J0.995 F#100
N3625 G1 X-112.834 Y-7.385
N3630 X-112.868 Y-7.23
N3635 X-112.918 Y-7.079
N3640 X-112.982 Y-6.933
N3645 X-113.06 Y-6.795
N3650 X-113.151 Y-6.665
N3655 X-113.255 Y-6.544
N3660 X-113.37 Y-6.435
N3665 X-113.495 Y-6.337
N3670 X-113.63 Y-6.252
N3675 X-113.772 Y-6.181
N3680 X-113.92 Y-6.124
N3685 X-114.074 Y-6.082
N3690 X-114.23 Y-6.056
N3695 X-114.389 Y-6.045
N3700 X-114.548 Y-6.05
N3705 X-114.705 Y-6.07
N3710 X-114.752 Y-6.075 F#104
N3715 X-114.796 Y-6.091
N3720 X-114.836 Y-6.119
N3725 X-114.867 Y-6.156
N3730 X-114.888 Y-6.201
N3735 X-114.897 Y-6.249
N3740 X-114.894 Y-6.299
N3745 X-114.877 Y-6.348
N3750 X-114.321 Y-7.37
N3755 X-114.243 Y-7.513 F#105
N3760 X-113.613 Y-8.673 F#103
N3765 G3 X-113.401 Y-8.774 I0.176 J0.096
N3770 X-112.609 Y-7.172 I-0.244 J1.117 F#100
N3775 X-114.435 Y-6.06 I-1.587 J-0.551
N3780 G1 X-114.522 Y-6.07 F#104
N3785 X-114.606 Y-6.095
N3790 X-114.684 Y-6.135
N3795 X-114.754 Y-6.188
N3800 X-114.813 Y-6.253
N3805 X-114.861 Y-6.327
N3810 X-114.894 Y-6.408
N3815 X-114.913 Y-6.495
N3820 X-114.916 Y-6.583
N3825 X-114.903 Y-6.67
N3830 X-114.875 Y-6.754
N3835 X-114.833 Y-6.832
N3840 X-114.549 Y-7.251
N3845 X-114.248 Y-7.694 F#105
N3850 X-113.693 Y-8.515 F#103
N3855 G3 X-113.187 Y-8.726 I0.414 J0.28
N3860 X-112.53 Y-6.883 I-0.205 J1.112 F#100
N3865 X-114.169 Y-6.052 I-1.39 J-0.711
N3870 X-114.567 Y-6.829 I0.018 J-0.5 F#104
N3875 G1 X-114.285 Y-7.252
N3880 X-114.031 Y-7.632 F#105
N3885 X-113.474 Y-8.467 F#103
N3890 G3 X-112.982 Y-8.683 I0.416 J0.278
N3895 X-112.12 Y-7.137 I-0.137 J1.09 F#100
N3900 X-113.886 Y-6.061 I-1.521 J-0.509
N3905 G1 X-113.973 Y-6.071 F#104
N3910 X-114.056 Y-6.096
N3915 X-114.134 Y-6.135
N3920 X-114.204 Y-6.188
N3925 X-114.264 Y-6.252
N3930 X-114.311 Y-6.326
N3935 X-114.345 Y-6.407
N3940 X-114.364 Y-6.493
N3945 X-114.367 Y-6.581
N3950 X-114.355 Y-6.668
N3955 X-114.328 Y-6.752
N3960 X-114.286 Y-6.83
N3965 X-114.003 Y-7.252
N3970 X-113.786 Y-7.575 F#105
N3975 X-113.216 Y-8.427 F#103
N3980 G3 X-112.745 Y-8.645 I0.415 J0.278
N3985 X-111.999 Y-6.949 I-0.108 J1.059 F#100
N3990 X-113.61 Y-6.052 I-1.389 J-0.599
N3995 X-114.012 Y-6.824 I0.017 J-0.5 F#104
N4000 G1 X-113.732 Y-7.256
N4005 X-113.556 Y-7.528 F#105
N4010 X-112.998 Y-8.389 F#103
N4015 G3 X-112.531 Y-8.614 I0.42 J0.272
N4020 X-111.853 Y-6.776 I-0.103 J1.082 F#100
N4025 X-113.364 Y-6.052 I-1.272 J-0.717
N4030 X-113.767 Y-6.823 I0.017 J-0.5 F#104
N4035 G1 X-113.487 Y-7.257
N4040 X-113.339 Y-7.486 F#105
N4045 X-112.772 Y-8.363 F#103
N4050 G3 X-112.324 Y-8.591 I0.42 J0.271
N4055 X-111.431 Y-7.134 I-0.007 J1.007 F#100
N4060 X-113.096 Y-6.052 I-1.442 J-0.397
N4065 X-113.499 Y-6.822 I0.017 J-0.5 F#104
N4070 G1 X-113.22 Y-7.257
N4075 X-113.094 Y-7.452 F#105
N4080 X-112.522 Y-8.342 F#103
N4085 G3 X-112.089 Y-8.571 I0.421 J0.271
N4090 X-111.239 Y-7.025 I-0.005 J1.01 F#100
N4095 X-112.84 Y-6.052 I-1.39 J-0.483
N4100 X-113.245 Y-6.819 I0.017 J-0.5 F#104
N4105 G1 X-112.967 Y-7.259
N4110 X-112.865 Y-7.42 F#105
N4115 X-112.292 Y-8.328 F#103
N4120 G3 X-111.875 Y-8.561 I0.423 J0.267
N4125 X-111.078 Y-6.871 I-0.006 J1.035 F#100
N4130 X-112.599 Y-6.052 I-1.3 J-0.593
N4135 X-113.008 Y-6.812 I0.017 J-0.5 F#104
N4140 G1 X-112.733 Y-7.264
N4145 X-112.646 Y-7.407 F#105
N4150 X-112.092 Y-8.316 F#103
N4155 G3 X-111.67 Y-8.556 I0.427 J0.26
N4160 X-110.771 Y-7.032 I0.049 J0.999 F#100
N4165 X-112.356 Y-6.052 I-1.383 J-0.464
N4170 X-112.765 Y-6.814 I0.017 J-0.5 F#104
N4175 G1 X-112.488 Y-7.262
N4180 X-112.407 Y-7.394 F#105
N4185 X-111.841 Y-8.313 F#103
N4190 G3 X-111.433 Y-8.55 I0.426 J0.262
N4195 X-110.613 Y-6.875 I0.023 J1.027 F#100
N4200 X-112.127 Y-6.052 I-1.295 J-0.579
N4205 X-112.537 Y-6.811 I0.017 J-0.5 F#104
N4210 G1 X-112.262 Y-7.264
N4215 X-112.186 Y-7.39 F#105
N4220 X-111.629 Y-8.309 F#103
N4225 G3 X-111.219 Y-8.55 I0.428 J0.259
N4230 X-110.308 Y-7.034 I0.065 J0.993 F#100
N4235 X-111.888 Y-6.052 I-1.378 J-0.456
N4240 X-112.297 Y-6.812 I0.017 J-0.5 F#104
N4245 G1 X-112.022 Y-7.264
N4250 X-111.944 Y-7.391 F#105
N4255 X-111.383 Y-8.311 F#103
N4260 G3 X-110.974 Y-8.55 I0.427 J0.26
N4265 X-110.035 Y-7.142 I0.065 J0.973 F#100
N4270 X-111.661 Y-6.052 I-1.415 J-0.353
N4275 X-112.068 Y-6.816 I0.017 J-0.5 F#104
N4280 G1 X-111.79 Y-7.261
N4285 X-111.706 Y-7.397 F#105
N4290 X-111.134 Y-8.315 F#103
N4295 G3 X-110.727 Y-8.55 I0.424 J0.264
N4300 X-109.838 Y-7.041 I0.034 J0.996 F#100
N4305 X-111.424 Y-6.052 I-1.379 J-0.446
N4310 X-111.835 Y-6.809 I0.017 J-0.5 F#104
N4315 G1 X-111.56 Y-7.265
N4320 X-111.487 Y-7.388 F#105
N4325 X-110.933 Y-8.308 F#103
N4330 G3 X-110.522 Y-8.55 I0.428 J0.258
N4335 X-109.566 Y-7.154 I0.072 J0.976 F#100
N4340 X-111.189 Y-6.052 I-1.416 J-0.339
N4345 X-111.599 Y-6.81 I0.017 J-0.5 F#104
N4350 G1 X-111.325 Y-7.265
N4355 X-111.25 Y-7.389 F#105
N4360 X-110.695 Y-8.309 F#103
N4365 G3 X-110.285 Y-8.55 I0.428 J0.258
N4370 X-109.505 Y-6.79 I0.02 J1.044 F#100
N4375 X-110.956 Y-6.052 I-1.239 J-0.64
N4380 X-111.369 Y-6.806 I0.017 J-0.5 F#104
N4385 G1 X-111.096 Y-7.268
N4390 X-111.028 Y-7.384 F#105
N4395 X-110.484 Y-8.304 F#103
N4400 G3 X-110.071 Y-8.55 I0.431 J0.254
N4405 X-109.223 Y-6.872 I0.047 J1.03 F#100
N4410 X-110.725 Y-6.052 I-1.289 J-0.574
N4415 X-111.136 Y-6.809 I0.017 J-0.5 F#104
N4420 G1 X-110.862 Y-7.266
N4425 X-110.789 Y-7.387 F#105
N4430 X-110.237 Y-8.308 F#103
N4435 G3 X-109.826 Y-8.55 I0.429 J0.257
N4440 X-108.918 Y-7.031 I0.06 J0.995 F#100
N4445 X-110.493 Y-6.052 I-1.374 J-0.455
N4450 X-110.902 Y-6.812 I0.017 J-0.5 F#104
N4455 G1 X-110.627 Y-7.264
N4460 X-110.549 Y-7.391 F#105
N4465 X-109.988 Y-8.311 F#103
N4470 G3 X-109.579 Y-8.55 I0.427 J0.26
N4475 X-108.756 Y-6.877 I0.018 J1.03 F#100
N4480 X-110.267 Y-6.052 I-1.295 J-0.574
N4485 X-110.68 Y-6.808 I0.017 J-0.5 F#104
N4490 G1 X-110.406 Y-7.266
N4495 X-110.335 Y-7.386 F#105
N4500 X-109.786 Y-8.306 F#103
N4505 G3 X-109.374 Y-8.55 I0.43 J0.256
N4510 X-108.45 Y-7.041 I0.068 J0.996 F#100
N4515 X-110.03 Y-6.052 I-1.379 J-0.447
N4520 X-110.442 Y-6.808 I0.017 J-0.5 F#104
N4525 G1 X-110.168 Y-7.266
N4530 X-110.097 Y-7.386 F#105
N4535 X-109.549 Y-8.306 F#103
N4540 G3 X-109.136 Y-8.55 I0.43 J0.256
N4545 X-108.18 Y-7.149 I0.075 J0.975 F#100
N4550 X-109.804 Y-6.052 I-1.416 J-0.345
N4555 X-110.213 Y-6.812 I0.017 J-0.5 F#104
N4560 G1 X-109.938 Y-7.263
N4565 X-109.859 Y-7.392 F#105
N4570 X-109.297 Y-8.311 F#103
N4575 G3 X-108.888 Y-8.55 I0.427 J0.261
N4580 X-108.118 Y-6.788 I0.013 J1.044 F#100
N4585 X-109.57 Y-6.052 I-1.238 J-0.642
N4590 X-109.982 Y-6.807 I0.017 J-0.5 F#104
N4595 G1 X-109.709 Y-7.267
N4600 X-109.638 Y-7.386 F#105
N4605 X-109.09 Y-8.306 F#103
N4610 G3 X-108.678 Y-8.55 I0.43 J0.256
N4615 X-107.715 Y-7.152 I0.078 J0.977 F#100
N4620 X-109.337 Y-6.052 I-1.415 J-0.34
N4625 X-109.748 Y-6.81 I0.017 J-0.5 F#104
N4630 G1 X-109.473 Y-7.265
N4635 X-109.397 Y-7.389 F#105
N4640 X-108.841 Y-8.309 F#103
N4645 G3 X-108.431 Y-8.55 I0.428 J0.259
N4650 X-107.53 Y-7.029 I0.054 J0.995 F#100
N4655 X-109.105 Y-6.052 I-1.373 J-0.456
N4660 X-109.513 Y-6.813 I0.017 J-0.5 F#104
N4665 G1 X-109.238 Y-7.263
N4670 X-109.158 Y-7.393 F#105
N4675 X-108.594 Y-8.312 F#103
N4680 G3 X-108.186 Y-8.55 I0.426 J0.261
N4685 X-107.365 Y-6.879 I0.013 J1.03 F#100
N4690 X-108.879 Y-6.052 I-1.295 J-0.572
N4695 X-109.291 Y-6.807 I0.017 J-0.5 F#104
N4700 G1 X-109.018 Y-7.267
N4705 X-108.948 Y-7.385 F#105
N4710 X-108.401 Y-8.306 F#103
N4715 G3 X-107.988 Y-8.55 I0.43 J0.255
N4720 X-107.064 Y-7.037 I0.072 J0.995 F#100
N4725 X-108.64 Y-6.052 I-1.377 J-0.45
N4730 X-109.051 Y-6.809 I0.017 J-0.5 F#104
N4735 G1 X-108.777 Y-7.266
N4740 X-108.704 Y-7.388 F#105
N4745 X-108.151 Y-8.308 F#103
N4750 G3 X-107.74 Y-8.55 I0.429 J0.257
N4755 X-106.904 Y-6.88 I0.03 J1.029 F#100
N4760 X-108.416 Y-6.052 I-1.296 J-0.572
N4765 X-108.829 Y-6.806 I0.017 J-0.5 F#104
N4770 G1 X-108.556 Y-7.267
N4775 X-108.487 Y-7.384 F#105
N4780 X-107.942 Y-8.305 F#103
N4785 G3 X-107.53 Y-8.55 I0.43 J0.255
N4790 X-106.601 Y-7.039 I0.074 J0.995 F#100
N4795 X-108.18 Y-6.052 I-1.379 J-0.449
N4800 X-108.591 Y-6.808 I0.017 J-0.5 F#104
N4805 G1 X-108.318 Y-7.266
N4810 X-108.245 Y-7.387 F#105
N4815 X-107.694 Y-8.307 F#103
N4820 G3 X-107.283 Y-8.55 I0.429 J0.257
N4825 X-106.33 Y-7.149 I0.073 J0.975 F#100
N4830 X-107.955 Y-6.052 I-1.416 J-0.346
N4835 X-108.364 Y-6.813 I0.017 J-0.5 F#104
N4840 G1 X-108.089 Y-7.263
N4845 X-108.009 Y-7.393 F#105
N4850 X-107.446 Y-8.311 F#103
N4855 G3 X-107.038 Y-8.55 I0.426 J0.261
N4860 X-106.013 Y-7.586 I0.082 J0.939 F#100
N4865 X-107.719 Y-6.06 I-1.494 J0.046
N4870 G1 X-107.804 Y-6.07 F#104
N4875 X-107.886 Y-6.094
N4880 X-107.963 Y-6.132
N4885 X-108.033 Y-6.183
N4890 X-108.092 Y-6.246
N4895 X-108.14 Y-6.318
N4900 X-108.175 Y-6.397
N4905 X-108.195 Y-6.481
N4910 X-108.2 Y-6.568
N4915 X-108.191 Y-6.654
N4920 X-108.166 Y-6.737
N4925 X-108.128 Y-6.815
N4930 X-107.851 Y-7.262
N4935 X-107.768 Y-7.396 F#105
N4940 X-107.198 Y-8.314 F#103
N4945 G3 X-106.791 Y-8.55 I0.425 J0.264
N4950 X-105.98 Y-6.875 I0.007 J1.03 F#100
N4955 X-107.493 Y-6.052 I-1.294 J-0.576
N4960 X-107.904 Y-6.809 I0.017 J-0.5 F#104
N4965 G1 X-107.63 Y-7.265
N4970 X-107.556 Y-7.388 F#105
N4975 X-107.003 Y-8.308 F#103
N4980 G3 X-106.592 Y-8.55 I0.429 J0.258
N4985 X-105.677 Y-7.036 I0.065 J0.995 F#100
N4990 X-107.253 Y-6.052 I-1.377 J-0.452
N4995 X-107.664 Y-6.81 I0.017 J-0.5 F#104
N5000 G1 X-107.389 Y-7.265
N5005 X-107.314 Y-7.389 F#105
N5010 X-106.759 Y-8.309 F#103
N5015 G3 X-106.348 Y-8.55 I0.428 J0.258
N5020 X-105.517 Y-6.877 I0.027 J1.029 F#100
N5025 X-107.029 Y-6.052 I-1.295 J-0.574
N5030 X-107.441 Y-6.808 I0.017 J-0.5 F#104
N5035 G1 X-107.167 Y-7.266
N5040 X-107.096 Y-7.386 F#105
N5045 X-106.547 Y-8.306 F#103
N5050 G3 X-106.135 Y-8.55 I0.429 J0.256
N5055 X-105.214 Y-7.037 I0.069 J0.995 F#100
N5060 X-106.792 Y-6.052 I-1.378 J-0.451
N5065 X-107.203 Y-6.81 I0.017 J-0.5 F#104
N5070 G1 X-106.928 Y-7.265
N5075 X-106.854 Y-7.388 F#105
N5080 X-106.3 Y-8.308 F#103
N5085 G3 X-105.89 Y-8.55 I0.428 J0.258
N5090 G1 X-105.768 Y-8.552 F#100
N5095 X-105.647 Y-8.538
N5100 X-105.529 Y-8.51
N5105 X-105.415 Y-8.467
N5110 X-105.307 Y-8.409
N5115 X-105.208 Y-8.339
N5120 X-105.118 Y-8.257
N5125 X-105.039 Y-8.165
N5130 X-104.972 Y-8.063
N5135 X-104.919 Y-7.953
N5140 X-104.88 Y-7.838
N5145 X-104.856 Y-7.719
N5150 X-104.846 Y-7.598
N5155 X-104.852 Y-7.476
N5160 X-104.873 Y-7.356
N5165 X-104.909 Y-7.24
N5170 X-104.96 Y-7.129
N5175 G3 X-106.567 Y-6.052 I-1.412 J-0.368
N5180 X-106.975 Y-6.814 I0.017 J-0.5 F#104
N5185 G1 X-106.699 Y-7.262
N5190 X-106.617 Y-7.394 F#105
N5195 X-106.051 Y-8.313 F#103
N5200 G3 X-105.643 Y-8.55 I0.426 J0.262
N5205 X-104.837 Y-6.876 I0.014 J1.024 F#100
N5210 X-106.348 Y-6.052 I-1.292 J-0.573
N5215 X-106.758 Y-6.811 I0.017 J-0.5 F#104
N5220 G1 X-106.483 Y-7.264
N5225 X-106.406 Y-7.39 F#105
N5230 X-105.848 Y-8.31 F#103
N5235 G3 X-105.438 Y-8.55 I0.427 J0.26
N5240 X-104.53 Y-7.037 I0.063 J0.991 F#100
N5245 X-106.11 Y-6.052 I-1.379 J-0.453
N5250 X-106.52 Y-6.811 I0.017 J-0.5 F#104
N5255 G1 X-106.245 Y-7.264
N5260 X-106.168 Y-7.39 F#105
N5265 X-105.61 Y-8.31 F#103
N5270 G3 X-105.2 Y-8.55 I0.427 J0.259
N5275 X-104.371 Y-6.878 I0.029 J1.028 F#100
N5280 X-105.884 Y-6.052 I-1.296 J-0.575
N5285 X-106.296 Y-6.809 I0.017 J-0.5 F#104
N5290 G1 X-106.022 Y-7.266
N5295 X-105.949 Y-7.387 F#105
N5300 X-105.398 Y-8.307 F#103
N5305 G3 X-104.987 Y-8.55 I0.429 J0.257
N5310 X-104.067 Y-7.037 I0.07 J0.994 F#100
N5315 X-105.647 Y-6.052 I-1.379 J-0.452
N5320 X-106.057 Y-6.81 I0.017 J-0.5 F#104
N5325 G1 X-105.783 Y-7.265
N5330 X-105.708 Y-7.389 F#105
N5335 X-105.152 Y-8.309 F#103
N5340 G3 X-104.741 Y-8.55 I0.428 J0.259
N5345 X-103.795 Y-7.146 I0.07 J0.974 F#100
N5350 X-105.421 Y-6.052 I-1.416 J-0.349
N5355 X-105.829 Y-6.815 I0.017 J-0.5 F#104
N5360 G1 X-105.552 Y-7.262
N5365 X-105.47 Y-7.395 F#105
N5370 X-104.902 Y-8.313 F#103
N5375 G3 X-104.495 Y-8.55 I0.425 J0.263
N5380 X-103.731 Y-6.788 I0.007 J1.044 F#100
N5385 X-105.185 Y-6.052 I-1.239 J-0.642
N5390 X-105.596 Y-6.808 I0.017 J-0.5 F#104
N5395 G1 X-105.323 Y-7.266
N5400 X-105.251 Y-7.386 F#105
N5405 X-104.702 Y-8.307 F#103
N5410 G3 X-104.29 Y-8.55 I0.429 J0.256
N5415 X-103.446 Y-6.873 I0.042 J1.029 F#100
N5420 X-104.95 Y-6.052 I-1.289 J-0.574
N5425 X-105.361 Y-6.809 I0.017 J-0.5 F#104
N5430 G1 X-105.087 Y-7.266
N5435 X-105.015 Y-7.387 F#105
N5440 X-104.464 Y-8.307 F#103
N5445 G3 X-104.052 Y-8.55 I0.429 J0.257
N5450 X-103.266 Y-6.792 I0.026 J1.043 F#100
N5455 X-104.717 Y-6.052 I-1.24 J-0.638
N5460 X-105.131 Y-6.805 I0.017 J-0.5 F#104
N5465 G1 X-104.859 Y-7.268
N5470 X-104.793 Y-7.382 F#105
N5475 X-104.252 Y-8.303 F#103
N5480 G3 X-103.839 Y-8.55 I0.431 J0.253
N5485 X-102.984 Y-6.874 I0.052 J1.03 F#100
N5490 X-104.487 Y-6.052 I-1.29 J-0.573
N5495 X-104.899 Y-6.808 I0.017 J-0.5 F#104
N5500 G1 X-104.625 Y-7.266
N5505 X-104.554 Y-7.386 F#105
N5510 X-104.005 Y-8.306 F#103
N5515 G3 X-103.593 Y-8.55 I0.429 J0.256
N5520 X-102.68 Y-7.033 I0.064 J0.995 F#100
N5525 X-104.255 Y-6.052 I-1.376 J-0.453
N5530 X-104.666 Y-6.811 I0.017 J-0.5 F#104
N5535 G1 X-104.391 Y-7.264
N5540 X-104.314 Y-7.39 F#105
N5545 X-103.757 Y-8.31 F#103
N5550 G3 X-103.347 Y-8.55 I0.428 J0.259
N5555 X-102.517 Y-6.88 I0.022 J1.03 F#100
N5560 X-104.03 Y-6.052 I-1.296 J-0.572
N5565 X-104.443 Y-6.807 I0.017 J-0.5 F#104
N5570 G1 X-104.17 Y-7.267
N5575 X-104.1 Y-7.384 F#105
N5580 X-103.555 Y-8.305 F#103
N5585 G3 X-103.142 Y-8.55 I0.43 J0.255
N5590 X-102.106 Y-7.309 I0.065 J0.998 F#100
N5595 X-103.792 Y-6.06 I-1.473 J-0.225
N5600 G1 X-103.876 Y-6.069 F#104
N5605 X-103.958 Y-6.093
N5610 X-104.034 Y-6.131
N5615 X-104.103 Y-6.181
N5620 X-104.162 Y-6.242
N5625 X-104.21 Y-6.313
N5630 X-104.245 Y-6.391
N5635 X-104.267 Y-6.475
N5640 X-104.273 Y-6.56
N5645 X-104.265 Y-6.646
N5650 X-104.242 Y-6.729
N5655 X-104.205 Y-6.807
N5660 X-103.932 Y-7.267
N5665 X-103.863 Y-7.385 F#105
N5670 X-103.317 Y-8.305 F#103
N5675 G3 X-102.904 Y-8.55 I0.43 J0.255
N5680 X-101.941 Y-7.152 I0.078 J0.977 F#100
N5685 X-103.56 Y-6.052 I-1.413 J-0.338
N5690 X-103.971 Y-6.81 I0.017 J-0.5 F#104
N5695 G1 X-103.696 Y-7.265
N5700 X-103.622 Y-7.389 F#105
N5705 X-103.067 Y-8.309 F#103
N5710 G3 X-102.656 Y-8.55 I0.428 J0.258
N5715 X-101.879 Y-6.79 I0.016 J1.045 F#100
N5720 X-103.328 Y-6.052 I-1.238 J-0.639
N5725 X-103.742 Y-6.805 I0.017 J-0.5 F#104
N5730 G1 X-103.469 Y-7.268
N5735 X-103.401 Y-7.383 F#105
N5740 X-102.859 Y-8.304 F#103
N5745 G3 X-102.445 Y-8.55 I0.431 J0.254
N5750 X-101.597 Y-6.871 I0.047 J1.03 F#100
N5755 X-103.098 Y-6.052 I-1.287 J-0.574
N5760 X-103.509 Y-6.809 I0.017 J-0.5 F#104
N5765 G1 X-103.235 Y-7.266
N5770 X-103.162 Y-7.387 F#105
N5775 X-102.61 Y-8.308 F#103
N5780 G3 X-102.198 Y-8.55 I0.429 J0.257
N5785 X-101.292 Y-7.031 I0.058 J0.996 F#100
N5790 X-102.866 Y-6.052 I-1.374 J-0.454
N5795 X-103.276 Y-6.812 I0.017 J-0.5 F#104
N5800 G1 X-103. Y-7.264
N5805 X-102.923 Y-7.391 F#105
N5810 X-102.363 Y-8.31 F#103
N5815 G3 X-101.953 Y-8.55 I0.427 J0.26
N5820 X-101.02 Y-7.139 I0.06 J0.975 F#100
N5825 X-102.641 Y-6.052 I-1.411 J-0.352
N5830 X-103.048 Y-6.816 I0.017 J-0.5 F#104
N5835 G1 X-102.77 Y-7.261
N5840 X-102.686 Y-7.397 F#105
N5845 X-102.113 Y-8.315 F#103
N5850 G3 X-101.706 Y-8.55 I0.424 J0.265
N5855 X-100.893 Y-6.874 I0.003 J1.034 F#100
N5860 X-102.405 Y-6.052 I-1.292 J-0.574
N5865 X-102.816 Y-6.808 I0.017 J-0.5 F#104
N5870 G1 X-102.543 Y-7.266
N5875 X-102.47 Y-7.387 F#105
N5880 X-101.919 Y-8.307 F#103
N5885 G3 X-101.508 Y-8.55 I0.429 J0.257
N5890 X-100.59 Y-7.035 I0.063 J0.998 F#100
N5895 X-102.162 Y-6.052 I-1.374 J-0.449
N5900 X-102.574 Y-6.809 I0.017 J-0.5 F#104
N5905 G1 X-102.3 Y-7.266
N5910 X-102.227 Y-7.387 F#105
N5915 X-101.675 Y-8.307 F#103
N5920 G3 X-101.264 Y-8.55 I0.429 J0.257
N5925 X-100.431 Y-6.877 I0.026 J1.031 F#100
N5930 X-101.939 Y-6.052 I-1.293 J-0.573
N5935 X-102.352 Y-6.807 I0.017 J-0.5 F#104
N5940 G1 X-102.079 Y-7.267
N5945 X-102.009 Y-7.385 F#105
N5950 X-101.463 Y-8.305 F#103
N5955 G3 X-101.05 Y-8.55 I0.43 J0.255
N5960 X-100.128 Y-7.037 I0.069 J0.996 F#100
N5965 X-101.704 Y-6.052 I-1.377 J-0.449
N5970 X-102.115 Y-6.809 I0.017 J-0.5 F#104
N5975 G1 X-101.841 Y-7.266
N5980 X-101.768 Y-7.387 F#105
N5985 X-101.217 Y-8.307 F#103
N5990 G3 X-100.805 Y-8.55 I0.429 J0.257
N5995 G1 X-100.684 Y-8.552 F#100
N6000 X-100.563 Y-8.538
N6005 X-100.444 Y-8.51
N6010 X-100.331 Y-8.467
N6015 X-100.223 Y-8.41
N6020 X-100.124 Y-8.34
N6025 X-100.034 Y-8.258
N6030 X-99.955 Y-8.165
N6035 X-99.888 Y-8.064
N6040 X-99.835 Y-7.954
N6045 X-99.795 Y-7.839
N6050 X-99.771 Y-7.72
N6055 X-99.761 Y-7.599
N6060 X-99.767 Y-7.477
N6065 X-99.788 Y-7.358
N6070 X-99.824 Y-7.241
N6075 X-99.874 Y-7.131
N6080 G3 X-101.48 Y-6.052 I-1.412 J-0.367
N6085 X-101.888 Y-6.814 I0.017 J-0.5 F#104
N6090 G1 X-101.612 Y-7.263
N6095 X-101.532 Y-7.393 F#105
N6100 X-100.967 Y-8.312 F#103
N6105 G3 X-100.558 Y-8.55 I0.426 J0.262
N6110 X-99.678 Y-7.043 I0.041 J0.987 F#100
N6115 X-101.264 Y-6.052 I-1.381 J-0.446
N6120 X-101.674 Y-6.811 I0.017 J-0.5 F#104
N6125 G1 X-101.398 Y-7.264
N6130 X-101.322 Y-7.39 F#105
N6135 X-100.764 Y-8.31 F#103
N6140 G3 X-100.354 Y-8.55 I0.427 J0.259
N6145 X-99.526 Y-6.871 I0.039 J1.024 F#100
N6150 X-101.033 Y-6.052 I-1.29 J-0.577
N6155 X-101.442 Y-6.813 I0.017 J-0.5 F#104
N6160 G1 X-101.166 Y-7.263
N6165 X-101.087 Y-7.392 F#105
N6170 X-100.525 Y-8.311 F#103
N6175 G3 X-100.116 Y-8.55 I0.427 J0.261
N6180 X-99.21 Y-7.045 I0.052 J0.994 F#100
N6185 X-100.798 Y-6.052 I-1.383 J-0.444
N6190 X-101.21 Y-6.808 I0.017 J-0.5 F#104
N6195 G1 X-100.936 Y-7.266
N6200 X-100.864 Y-7.386 F#105
N6205 X-100.314 Y-8.307 F#103
N6210 G3 X-99.902 Y-8.55 I0.429 J0.256
N6215 X-99.061 Y-6.871 I0.045 J1.028 F#100
N6220 X-100.565 Y-6.052 I-1.289 J-0.577
N6225 X-100.975 Y-6.811 I0.017 J-0.5 F#104
N6230 G1 X-100.7 Y-7.264
N6235 X-100.625 Y-7.39 F#105
N6240 X-100.067 Y-8.309 F#103
N6245 G3 X-99.657 Y-8.55 I0.428 J0.259
N6250 X-98.755 Y-7.029 I0.057 J0.994 F#100
N6255 X-100.332 Y-6.052 I-1.375 J-0.458
N6260 X-100.74 Y-6.813 I0.017 J-0.5 F#104
N6265 G1 X-100.464 Y-7.263
N6270 X-100.384 Y-7.393 F#105
N6275 X-99.819 Y-8.312 F#103
N6280 G3 X-99.41 Y-8.55 I0.426 J0.262
N6285 X-98.593 Y-6.876 I0.015 J1.03 F#100
N6290 X-100.105 Y-6.052 I-1.294 J-0.576
N6295 X-100.516 Y-6.809 I0.017 J-0.5 F#104
N6300 G1 X-100.242 Y-7.266
N6305 X-100.169 Y-7.387 F#105
N6310 X-99.617 Y-8.308 F#103
N6315 G3 X-99.206 Y-8.55 I0.429 J0.257
N6320 X-98.287 Y-7.039 I0.065 J0.995 F#100
N6325 X-99.866 Y-6.052 I-1.379 J-0.449
N6330 X-100.278 Y-6.809 I0.017 J-0.5 F#104
N6335 G1 X-100.004 Y-7.266
N6340 X-99.931 Y-7.387 F#105
N6345 X-99.379 Y-8.307 F#103
N6350 G3 X-98.968 Y-8.55 I0.429 J0.257
N6355 X-98.128 Y-6.881 I0.033 J1.029 F#100
N6360 X-99.64 Y-6.052 I-1.296 J-0.572
N6365 X-100.053 Y-6.806 I0.017 J-0.5 F#104
N6370 G1 X-99.781 Y-7.267
N6375 X-99.712 Y-7.384 F#105
N6380 X-99.167 Y-8.305 F#103
N6385 G3 X-98.754 Y-8.55 I0.43 J0.254
N6390 X-97.825 Y-7.041 I0.074 J0.995 F#100
N6395 X-99.404 Y-6.052 I-1.38 J-0.448
N6400 X-99.816 Y-6.808 I0.017 J-0.5 F#104
N6405 G1 X-99.543 Y-7.266
N6410 X-99.471 Y-7.386 F#105
N6415 X-98.921 Y-8.307 F#103
N6420 G3 X-98.509 Y-8.55 I0.429 J0.256
N6425 X-97.572 Y-7.133 I0.08 J0.965 F#100
N6430 X-99.18 Y-6.052 I-1.414 J-0.366
N6435 X-99.589 Y-6.813 I0.017 J-0.5 F#104
N6440 G1 X-99.313 Y-7.263
N6445 X-99.234 Y-7.392 F#105
N6450 X-98.671 Y-8.311 F#103
N6455 G3 X-98.262 Y-8.55 I0.426 J0.261
N6460 X-97.45 Y-6.879 I0.02 J1.023 F#100
N6465 X-98.963 Y-6.052 I-1.295 J-0.572
N6470 X-99.374 Y-6.81 I0.017 J-0.5 F#104
N6475 G1 X-99.099 Y-7.265
N6480 X-99.024 Y-7.389 F#105
N6485 X-98.468 Y-8.309 F#103
N6490 G3 X-98.058 Y-8.55 I0.428 J0.259
N6495 X-97.143 Y-7.04 I0.067 J0.991 F#100
N6500 X-98.725 Y-6.052 I-1.381 J-0.451
N6505 X-99.136 Y-6.81 I0.017 J-0.5 F#104
N6510 G1 X-98.861 Y-7.265
N6515 X-98.786 Y-7.389 F#105
N6520 X-98.23 Y-8.309 F#103
N6525 G3 X-97.82 Y-8.55 I0.428 J0.259
N6530 X-96.872 Y-7.147 I0.073 J0.973 F#100
N6535 X-98.499 Y-6.052 I-1.417 J-0.35
N6540 X-98.907 Y-6.815 I0.017 J-0.5 F#104
N6545 G1 X-98.63 Y-7.262
N6550 X-98.548 Y-7.395 F#105
N6555 X-97.979 Y-8.313 F#103
N6560 G3 X-97.572 Y-8.55 I0.425 J0.263
N6565 X-96.676 Y-7.041 I0.041 J0.995 F#100
N6570 X-98.263 Y-6.052 I-1.38 J-0.447
N6575 X-98.674 Y-6.809 I0.017 J-0.5 F#104
N6580 G1 X-98.399 Y-7.265
N6585 X-98.325 Y-7.388 F#105
N6590 X-97.772 Y-8.308 F#103
N6595 G3 X-97.361 Y-8.55 I0.428 J0.258
N6600 X-96.424 Y-7.133 I0.08 J0.966 F#100
N6605 X-98.029 Y-6.052 I-1.412 J-0.364
N6610 X-98.438 Y-6.812 I0.017 J-0.5 F#104
N6615 G1 X-98.163 Y-7.264
N6620 X-98.084 Y-7.392 F#105
N6625 X-97.524 Y-8.311 F#103
N6630 G3 X-97.114 Y-8.55 I0.427 J0.26
N6635 X-96.302 Y-6.879 I0.02 J1.024 F#100
N6640 X-97.814 Y-6.052 I-1.294 J-0.571
N6645 X-98.225 Y-6.81 I0.017 J-0.5 F#104
N6650 G1 X-97.95 Y-7.265
N6655 X-97.875 Y-7.389 F#105
N6660 X-97.32 Y-8.309 F#103
N6665 G3 X-96.91 Y-8.55 I0.428 J0.258
N6670 X-95.995 Y-7.04 I0.067 J0.991 F#100
N6675 X-97.576 Y-6.052 I-1.381 J-0.451
N6680 X-97.987 Y-6.81 I0.017 J-0.5 F#104
N6685 G1 X-97.712 Y-7.265
N6690 X-97.638 Y-7.389 F#105
N6695 X-97.082 Y-8.309 F#103
N6700 G3 X-96.672 Y-8.55 I0.428 J0.258
N6705 X-95.724 Y-7.147 I0.073 J0.973 F#100
N6710 X-97.35 Y-6.052 I-1.417 J-0.35
N6715 X-97.758 Y-6.815 I0.017 J-0.5 F#104
N6720 G1 X-97.482 Y-7.262
N6725 X-97.399 Y-7.395 F#105
N6730 X-96.831 Y-8.313 F#103
N6735 G3 X-96.424 Y-8.55 I0.425 J0.263
N6740 X-95.528 Y-7.041 I0.041 J0.996 F#100
N6745 X-97.114 Y-6.052 I-1.38 J-0.446
N6750 X-97.525 Y-6.809 I0.017 J-0.5 F#104
N6755 G1 X-97.251 Y-7.265
N6760 X-97.177 Y-7.388 F#105
N6765 X-96.624 Y-8.308 F#103
N6770 G3 X-96.213 Y-8.55 I0.428 J0.258
N6775 X-95.275 Y-7.134 I0.08 J0.966 F#100
N6780 X-96.88 Y-6.052 I-1.412 J-0.364
N6785 X-97.29 Y-6.812 I0.017 J-0.5 F#104
N6790 G1 X-97.014 Y-7.264
N6795 X-96.936 Y-7.391 F#105
N6800 X-96.376 Y-8.311 F#103
N6805 G3 X-95.966 Y-8.55 I0.427 J0.26
N6810 X-95.153 Y-6.879 I0.02 J1.024 F#100
N6815 X-96.666 Y-6.052 I-1.294 J-0.571
N6820 X-97.076 Y-6.81 I0.017 J-0.5 F#104
N6825 G1 X-96.802 Y-7.265
N6830 X-96.727 Y-7.389 F#105
N6835 X-96.172 Y-8.309 F#103
N6840 G3 X-95.762 Y-8.55 I0.428 J0.258
N6845 X-94.847 Y-7.04 I0.067 J0.991 F#100
N6850 X-96.428 Y-6.052 I-1.381 J-0.451
N6855 X-96.839 Y-6.81 I0.017 J-0.5 F#104
N6860 G1 X-96.564 Y-7.265
N6865 X-96.489 Y-7.389 F#105
N6870 X-95.934 Y-8.309 F#103
N6875 G3 X-95.524 Y-8.55 I0.428 J0.258
N6880 X-94.575 Y-7.147 I0.073 J0.973 F#100
N6885 X-96.202 Y-6.052 I-1.417 J-0.35
N6890 X-96.61 Y-6.815 I0.017 J-0.5 F#104
N6895 G1 X-96.333 Y-7.262
N6900 X-96.251 Y-7.395 F#105
N6905 X-95.683 Y-8.313 F#103
N6910 G3 X-95.276 Y-8.55 I0.425 J0.263
N6915 X-94.38 Y-7.041 I0.042 J0.996 F#100
N6920 X-95.966 Y-6.052 I-1.38 J-0.446
N6925 X-96.377 Y-6.809 I0.017 J-0.5 F#104
N6930 G1 X-96.103 Y-7.265
N6935 X-96.029 Y-7.388 F#105
N6940 X-95.476 Y-8.308 F#103
N6945 G3 X-95.065 Y-8.55 I0.429 J0.258
N6950 X-94.127 Y-7.134 I0.08 J0.966 F#100
N6955 X-95.732 Y-6.052 I-1.412 J-0.364
N6960 X-96.141 Y-6.812 I0.017 J-0.5 F#104
N6965 G1 X-95.866 Y-7.264
N6970 X-95.788 Y-7.391 F#105
N6975 X-95.228 Y-8.311 F#103
N6980 G3 X-94.818 Y-8.55 I0.427 J0.26
N6985 X-94.005 Y-6.879 I0.02 J1.024 F#100
N6990 X-95.517 Y-6.052 I-1.294 J-0.571
N6995 X-95.928 Y-6.81 I0.017 J-0.5 F#104
N7000 G1 X-95.654 Y-7.265
N7005 X-95.579 Y-7.389 F#105
N7010 X-95.024 Y-8.309 F#103
N7015 G3 X-94.613 Y-8.55 I0.428 J0.258
N7020 X-93.698 Y-7.04 I0.067 J0.991 F#100
N7025 X-95.28 Y-6.052 I-1.381 J-0.45
N7030 X-95.69 Y-6.81 I0.017 J-0.5 F#104
N7035 G1 X-95.416 Y-7.265
N7040 X-95.341 Y-7.389 F#105
N7045 X-94.786 Y-8.309 F#103
N7050 G3 X-94.376 Y-8.55 I0.428 J0.258
N7055 X-93.427 Y-7.147 I0.073 J0.973 F#100
N7060 X-95.054 Y-6.052 I-1.417 J-0.35
N7065 X-95.462 Y-6.815 I0.017 J-0.5 F#104
N7070 G1 X-95.185 Y-7.262
N7075 X-95.103 Y-7.395 F#105
N7080 X-94.535 Y-8.313 F#103
N7085 G3 X-94.127 Y-8.55 I0.425 J0.263
N7090 X-93.232 Y-7.041 I0.042 J0.996 F#100
N7095 X-94.818 Y-6.052 I-1.38 J-0.446
N7100 X-95.229 Y-6.809 I0.017 J-0.5 F#104
N7105 G1 X-94.955 Y-7.265
N7110 X-94.881 Y-7.388 F#105
N7115 X-94.328 Y-8.308 F#103
N7120 G3 X-93.917 Y-8.55 I0.429 J0.258
N7125 X-92.979 Y-7.134 I0.08 J0.966 F#100
N7130 X-94.584 Y-6.052 I-1.412 J-0.364
N7135 X-94.993 Y-6.812 I0.017 J-0.5 F#104
N7140 G1 X-94.718 Y-7.264
N7145 X-94.64 Y-7.391 F#105
N7150 X-94.079 Y-8.311 F#103
N7155 G3 X-93.67 Y-8.55 I0.427 J0.26
N7160 X-92.857 Y-6.879 I0.02 J1.024 F#100
N7165 X-94.369 Y-6.052 I-1.294 J-0.571
N7170 X-94.78 Y-6.81 I0.017 J-0.5 F#104
N7175 G1 X-94.505 Y-7.265
N7180 X-94.431 Y-7.389 F#105
N7185 X-93.876 Y-8.309 F#103
N7190 G3 X-93.465 Y-8.55 I0.428 J0.258
N7195 X-92.55 Y-7.04 I0.067 J0.991 F#100
N7200 X-94.132 Y-6.052 I-1.381 J-0.45
N7205 X-94.542 Y-6.81 I0.017 J-0.5 F#104
N7210 G1 X-94.268 Y-7.265
N7215 X-94.193 Y-7.389 F#105
N7220 X-93.638 Y-8.309 F#103
N7225 G3 X-93.228 Y-8.55 I0.428 J0.258
N7230 X-92.279 Y-7.147 I0.073 J0.973 F#100
N7235 X-93.906 Y-6.052 I-1.417 J-0.35
N7240 X-94.314 Y-6.815 I0.017 J-0.5 F#104
N7245 G1 X-94.037 Y-7.262
N7250 X-93.955 Y-7.395 F#105
N7255 X-93.387 Y-8.313 F#103
N7260 G3 X-92.979 Y-8.55 I0.425 J0.263
N7265 X-92.084 Y-7.041 I0.042 J0.996 F#100
N7270 X-93.67 Y-6.052 I-1.38 J-0.446
N7275 X-94.081 Y-6.809 I0.017 J-0.5 F#104
N7280 G1 X-93.807 Y-7.265
N7285 X-93.733 Y-7.388 F#105
N7290 X-93.18 Y-8.308 F#103
N7295 G3 X-92.769 Y-8.55 I0.429 J0.258
N7300 X-91.831 Y-7.134 I0.08 J0.966 F#100
N7305 X-93.436 Y-6.052 I-1.412 J-0.364
N7310 X-93.845 Y-6.812 I0.017 J-0.5 F#104
N7315 G1 X-93.57 Y-7.264
N7320 X-93.492 Y-7.391 F#105
N7325 X-92.931 Y-8.311 F#103
N7330 G3 X-92.522 Y-8.55 I0.427 J0.26
N7335 X-91.709 Y-6.879 I0.02 J1.024 F#100
N7340 X-93.221 Y-6.052 I-1.294 J-0.571
N7345 X-93.632 Y-6.81 I0.017 J-0.5 F#104
N7350 G1 X-93.357 Y-7.265
N7355 X-93.283 Y-7.389 F#105
N7360 X-92.728 Y-8.308 F#103
N7365 G3 X-92.317 Y-8.55 I0.428 J0.258
N7370 X-91.402 Y-7.04 I0.067 J0.991 F#100
N7375 X-92.984 Y-6.052 I-1.381 J-0.45
N7380 X-93.394 Y-6.81 I0.017 J-0.5 F#104
N7385 G1 X-93.12 Y-7.265
N7390 X-93.045 Y-7.389 F#105
N7395 X-92.49 Y-8.309 F#103
N7400 G3 X-92.08 Y-8.55 I0.428 J0.258
N7405 X-91.131 Y-7.147 I0.073 J0.973 F#100
N7410 X-92.758 Y-6.052 I-1.417 J-0.35
N7415 X-93.166 Y-6.815 I0.017 J-0.5 F#104
N7420 G1 X-92.889 Y-7.262
N7425 X-92.807 Y-7.395 F#105
N7430 X-92.239 Y-8.313 F#103
N7435 G3 X-91.831 Y-8.55 I0.425 J0.263
N7440 X-90.935 Y-7.041 I0.042 J0.996 F#100
N7445 X-92.522 Y-6.052 I-1.38 J-0.446
N7450 X-92.933 Y-6.809 I0.017 J-0.5 F#104
N7455 G1 X-92.658 Y-7.265
N7460 X-92.585 Y-7.388 F#105
N7465 X-92.032 Y-8.308 F#103
N7470 G3 X-91.621 Y-8.55 I0.429 J0.258
N7475 X-90.683 Y-7.134 I0.08 J0.966 F#100
N7480 X-92.288 Y-6.052 I-1.412 J-0.364
N7485 X-92.697 Y-6.812 I0.017 J-0.5 F#104
N7490 G1 X-92.422 Y-7.264
N7495 X-92.344 Y-7.391 F#105
N7500 X-91.783 Y-8.311 F#103
N7505 G3 X-91.374 Y-8.55 I0.427 J0.26
N7510 X-90.561 Y-6.879 I0.02 J1.024 F#100
N7515 X-92.073 Y-6.052 I-1.294 J-0.571
N7520 X-92.484 Y-6.81 I0.017 J-0.5 F#104
N7525 G1 X-92.209 Y-7.265
N7530 X-92.135 Y-7.389 F#105
N7535 X-91.58 Y-8.308 F#103
N7540 G3 X-91.169 Y-8.55 I0.428 J0.258
N7545 X-90.254 Y-7.04 I0.068 J0.991 F#100
N7550 X-91.835 Y-6.052 I-1.381 J-0.45
N7555 X-92.246 Y-6.81 I0.017 J-0.5 F#104
N7560 G1 X-91.972 Y-7.265
N7565 X-91.897 Y-7.389 F#105
N7570 X-91.342 Y-8.309 F#103
N7575 G3 X-90.932 Y-8.55 I0.428 J0.258
N7580 X-89.983 Y-7.147 I0.073 J0.973 F#100
N7585 X-91.61 Y-6.052 I-1.417 J-0.35
N7590 X-92.018 Y-6.815 I0.017 J-0.5 F#104
N7595 G1 X-91.741 Y-7.262
N7600 X-91.659 Y-7.395 F#105
N7605 X-91.091 Y-8.313 F#103
N7610 G3 X-90.683 Y-8.55 I0.425 J0.263
N7615 X-89.787 Y-7.041 I0.042 J0.996 F#100
N7620 X-91.373 Y-6.052 I-1.38 J-0.446
N7625 X-91.785 Y-6.809 I0.017 J-0.5 F#104
N7630 G1 X-91.51 Y-7.265
N7635 X-91.437 Y-7.388 F#105
N7640 X-90.884 Y-8.308 F#103
N7645 G3 X-90.473 Y-8.55 I0.429 J0.258
N7650 X-89.535 Y-7.134 I0.08 J0.966 F#100
N7655 X-91.14 Y-6.052 I-1.412 J-0.364
N7660 X-91.549 Y-6.812 I0.017 J-0.5 F#104
N7665 G1 X-91.274 Y-7.264
N7670 X-91.196 Y-7.391 F#105
N7675 X-90.635 Y-8.311 F#103
N7680 G3 X-90.226 Y-8.55 I0.427 J0.26
N7685 X-89.413 Y-6.879 I0.02 J1.024 F#100
N7690 X-90.925 Y-6.052 I-1.294 J-0.571
N7695 X-91.336 Y-6.81 I0.017 J-0.5 F#104
N7700 G1 X-91.061 Y-7.265
N7705 X-90.987 Y-7.389 F#105
N7710 X-90.432 Y-8.308 F#103
N7715 G3 X-90.021 Y-8.55 I0.428 J0.258
N7720 X-89.106 Y-7.04 I0.068 J0.991 F#100
N7725 X-90.687 Y-6.052 I-1.381 J-0.45
N7730 X-91.098 Y-6.81 I0.017 J-0.5 F#104
N7735 G1 X-90.824 Y-7.265
N7740 X-90.749 Y-7.389 F#105
N7745 X-90.194 Y-8.309 F#103
N7750 G3 X-89.783 Y-8.55 I0.428 J0.258
N7755 X-88.835 Y-7.147 I0.073 J0.973 F#100
N7760 X-90.462 Y-6.052 I-1.417 J-0.349
N7765 X-90.869 Y-6.815 I0.017 J-0.5 F#104
N7770 G1 X-90.593 Y-7.262
N7775 X-90.511 Y-7.395 F#105
N7780 X-89.943 Y-8.313 F#103
N7785 G3 X-89.535 Y-8.55 I0.425 J0.263
N7790 X-88.639 Y-7.041 I0.042 J0.996 F#100
N7795 X-90.225 Y-6.052 I-1.38 J-0.446
N7800 X-90.636 Y-6.809 I0.017 J-0.5 F#104
N7805 G1 X-90.362 Y-7.265
N7810 X-90.289 Y-7.388 F#105
N7815 X-89.736 Y-8.308 F#103
N7820 G3 X-89.325 Y-8.55 I0.429 J0.258
N7825 X-88.386 Y-7.134 I0.08 J0.966 F#100
N7830 X-89.991 Y-6.052 I-1.412 J-0.364
N7835 X-90.401 Y-6.812 I0.017 J-0.5 F#104
N7840 G1 X-90.126 Y-7.264
N7845 X-90.048 Y-7.391 F#105
N7850 X-89.487 Y-8.311 F#103
N7855 G3 X-89.078 Y-8.55 I0.427 J0.26
N7860 X-88.264 Y-6.879 I0.02 J1.024 F#100
N7865 X-89.777 Y-6.052 I-1.294 J-0.571
N7870 X-90.188 Y-6.81 I0.017 J-0.5 F#104
N7875 G1 X-89.913 Y-7.265
N7880 X-89.839 Y-7.389 F#105
N7885 X-89.284 Y-8.308 F#103
N7890 G3 X-88.873 Y-8.55 I0.428 J0.258
N7895 X-87.958 Y-7.04 I0.068 J0.991 F#100
N7900 X-89.539 Y-6.052 I-1.381 J-0.45
N7905 X-89.95 Y-6.81 I0.017 J-0.5 F#104
N7910 G1 X-89.675 Y-7.265
N7915 X-89.601 Y-7.389 F#105
N7920 X-89.046 Y-8.309 F#103
N7925 G3 X-88.635 Y-8.55 I0.428 J0.258
N7930 X-87.687 Y-7.147 I0.073 J0.973 F#100
N7935 X-89.314 Y-6.052 I-1.417 J-0.349
N7940 X-89.721 Y-6.815 I0.017 J-0.5 F#104
N7945 G1 X-89.445 Y-7.262
N7950 X-89.363 Y-7.395 F#105
N7955 X-88.795 Y-8.313 F#103
N7960 G3 X-88.387 Y-8.55 I0.425 J0.263
N7965 X-87.491 Y-7.041 I0.042 J0.996 F#100
N7970 X-89.077 Y-6.052 I-1.38 J-0.446
N7975 X-89.488 Y-6.809 I0.017 J-0.5 F#104
N7980 G1 X-89.214 Y-7.265
N7985 X-89.141 Y-7.388 F#105
N7990 X-88.588 Y-8.308 F#103
N7995 G3 X-88.177 Y-8.55 I0.429 J0.258
N8000 X-87.238 Y-7.134 I0.08 J0.966 F#100
N8005 X-88.843 Y-6.052 I-1.412 J-0.364
N8010 X-89.253 Y-6.812 I0.017 J-0.5 F#104
N8015 G1 X-88.977 Y-7.264
N8020 X-88.9 Y-7.391 F#105
N8025 X-88.339 Y-8.311 F#103
N8030 G3 X-87.93 Y-8.55 I0.427 J0.26
N8035 X-87.116 Y-6.879 I0.02 J1.024 F#100
N8040 X-88.629 Y-6.052 I-1.294 J-0.571
N8045 X-89.039 Y-6.81 I0.017 J-0.5 F#104
N8050 G1 X-88.765 Y-7.265
N8055 X-88.69 Y-7.389 F#105
N8060 X-88.136 Y-8.308 F#103
N8065 G3 X-87.725 Y-8.55 I0.428 J0.258
N8070 X-86.81 Y-7.04 I0.068 J0.991 F#100
N8075 X-88.391 Y-6.052 I-1.381 J-0.45
N8080 X-88.802 Y-6.81 I0.017 J-0.5 F#104
N8085 G1 X-88.527 Y-7.265
N8090 X-88.453 Y-7.389 F#105
N8095 X-87.898 Y-8.309 F#103
N8100 G3 X-87.487 Y-8.55 I0.428 J0.258
N8105 X-86.539 Y-7.147 I0.073 J0.973 F#100
N8110 X-88.165 Y-6.052 I-1.417 J-0.349
N8115 X-88.573 Y-6.815 I0.017 J-0.5 F#104
N8120 G1 X-88.297 Y-7.262
N8125 X-88.215 Y-7.395 F#105
N8130 X-87.647 Y-8.313 F#103
N8135 G3 X-87.239 Y-8.55 I0.425 J0.263
N8140 X-86.343 Y-7.041 I0.042 J0.996 F#100
N8145 X-87.929 Y-6.052 I-1.38 J-0.446
N8150 X-88.34 Y-6.809 I0.017 J-0.5 F#104
N8155 G1 X-88.066 Y-7.265
N8160 X-87.993 Y-7.388 F#105
N8165 X-87.44 Y-8.308 F#103
N8170 G3 X-87.029 Y-8.55 I0.429 J0.258
N8175 X-86.09 Y-7.134 I0.08 J0.966 F#100
N8180 X-87.695 Y-6.052 I-1.412 J-0.364
N8185 X-88.105 Y-6.812 I0.017 J-0.5 F#104
N8190 G1 X-87.829 Y-7.264
N8195 X-87.752 Y-7.391 F#105
N8200 X-87.191 Y-8.311 F#103
N8205 G3 X-86.782 Y-8.55 I0.427 J0.26
N8210 X-85.968 Y-6.879 I0.02 J1.024 F#100
N8215 X-87.481 Y-6.052 I-1.294 J-0.571
N8220 X-87.891 Y-6.81 I0.017 J-0.5 F#104
N8225 G1 X-87.617 Y-7.265
N8230 X-87.542 Y-7.389 F#105
N8235 X-86.988 Y-8.308 F#103
N8240 G3 X-86.577 Y-8.55 I0.428 J0.258
N8245 X-85.662 Y-7.04 I0.068 J0.991 F#100
N8250 X-87.243 Y-6.052 I-1.381 J-0.45
N8255 X-87.654 Y-6.81 I0.017 J-0.5 F#104
N8260 G1 X-87.379 Y-7.265
N8265 X-87.305 Y-7.389 F#105
N8270 X-86.75 Y-8.309 F#103
N8275 G3 X-86.339 Y-8.55 I0.428 J0.258
N8280 X-85.39 Y-7.147 I0.073 J0.973 F#100
N8285 X-87.017 Y-6.052 I-1.417 J-0.349
N8290 X-87.425 Y-6.815 I0.017 J-0.5 F#104
N8295 G1 X-87.149 Y-7.262
N8300 X-87.067 Y-7.395 F#105
N8305 X-86.499 Y-8.313 F#103
N8310 G3 X-86.091 Y-8.55 I0.425 J0.263
N8315 X-85.195 Y-7.041 I0.042 J0.996 F#100
N8320 X-86.781 Y-6.052 I-1.38 J-0.446
N8325 X-87.192 Y-6.809 I0.017 J-0.5 F#104
N8330 G1 X-86.918 Y-7.265
N8335 X-86.844 Y-7.388 F#105
N8340 X-86.292 Y-8.308 F#103
N8345 G3 X-85.88 Y-8.55 I0.429 J0.258
N8350 X-84.942 Y-7.134 I0.08 J0.966 F#100
N8355 X-86.547 Y-6.052 I-1.412 J-0.364
N8360 X-86.957 Y-6.812 I0.017 J-0.5 F#104
N8365 G1 X-86.681 Y-7.264
N8370 X-86.603 Y-7.391 F#105
N8375 X-86.043 Y-8.311 F#103
N8380 G3 X-85.634 Y-8.55 I0.427 J0.26
N8385 X-84.82 Y-6.879 I0.02 J1.024 F#100
N8390 X-86.333 Y-6.052 I-1.294 J-0.571
N8395 X-86.743 Y-6.81 I0.017 J-0.5 F#104
N8400 G1 X-86.469 Y-7.265
N8405 X-86.394 Y-7.389 F#105
N8410 X-85.84 Y-8.308 F#103
N8415 G3 X-85.429 Y-8.55 I0.428 J0.258
N8420 X-84.514 Y-7.04 I0.068 J0.991 F#100
N8425 X-86.095 Y-6.052 I-1.381 J-0.45
N8430 X-86.506 Y-6.81 I0.017 J-0.5 F#104
N8435 G1 X-86.231 Y-7.265
N8440 X-86.157 Y-7.389 F#105
N8445 X-85.602 Y-8.309 F#103
N8450 G3 X-85.191 Y-8.55 I0.428 J0.258
N8455 X-84.242 Y-7.147 I0.073 J0.973 F#100
N8460 X-85.869 Y-6.052 I-1.417 J-0.349
N8465 X-86.277 Y-6.815 I0.017 J-0.5 F#104
N8470 G1 X-86.001 Y-7.262
N8475 X-85.918 Y-7.395 F#105
N8480 X-85.351 Y-8.313 F#103
N8485 G3 X-84.943 Y-8.55 I0.425 J0.263
N8490 X-84.047 Y-7.041 I0.042 J0.996 F#100
N8495 X-85.633 Y-6.052 I-1.38 J-0.446
N8500 X-86.044 Y-6.809 I0.017 J-0.5 F#104
N8505 G1 X-85.77 Y-7.265
N8510 X-85.696 Y-7.388 F#105
N8515 X-85.143 Y-8.308 F#103
N8520 G3 X-84.732 Y-8.55 I0.429 J0.258
N8525 X-83.794 Y-7.134 I0.08 J0.966 F#100
N8530 X-85.399 Y-6.052 I-1.412 J-0.364
N8535 X-85.809 Y-6.812 I0.017 J-0.5 F#104
N8540 G1 X-85.533 Y-7.264
N8545 X-85.455 Y-7.391 F#105
N8550 X-84.895 Y-8.311 F#103
N8555 G3 X-84.486 Y-8.55 I0.427 J0.26
N8560 X-83.672 Y-6.879 I0.02 J1.024 F#100
N8565 X-85.184 Y-6.052 I-1.294 J-0.571
N8570 X-85.595 Y-6.81 I0.017 J-0.5 F#104
N8575 G1 X-85.321 Y-7.265
N8580 X-85.246 Y-7.389 F#105
N8585 X-84.692 Y-8.308 F#103
N8590 G3 X-84.281 Y-8.55 I0.428 J0.258
N8595 X-83.366 Y-7.04 I0.068 J0.991 F#100
N8600 X-84.947 Y-6.052 I-1.381 J-0.45
N8605 X-85.358 Y-6.81 I0.017 J-0.5 F#104
N8610 G1 X-85.083 Y-7.265
N8615 X-85.009 Y-7.389 F#105
N8620 X-84.454 Y-8.309 F#103
N8625 G3 X-84.043 Y-8.55 I0.428 J0.258
N8630 X-83.094 Y-7.147 I0.073 J0.973 F#100
N8635 X-84.721 Y-6.052 I-1.417 J-0.349
N8640 X-85.129 Y-6.815 I0.017 J-0.5 F#104
N8645 G1 X-84.853 Y-7.262
N8650 X-84.77 Y-7.395 F#105
N8655 X-84.203 Y-8.313 F#103
N8660 G3 X-83.795 Y-8.55 I0.425 J0.263
N8665 X-82.899 Y-7.041 I0.042 J0.996 F#100
N8670 X-84.485 Y-6.052 I-1.38 J-0.446
N8675 X-84.896 Y-6.809 I0.017 J-0.5 F#104
N8680 G1 X-84.622 Y-7.265
N8685 X-84.548 Y-7.388 F#105
N8690 X-83.995 Y-8.308 F#103
N8695 G3 X-83.584 Y-8.55 I0.429 J0.258
N8700 X-82.646 Y-7.134 I0.08 J0.966 F#100
N8705 X-84.251 Y-6.052 I-1.412 J-0.364
N8710 X-84.661 Y-6.812 I0.017 J-0.5 F#104
N8715 G1 X-84.385 Y-7.264
N8720 X-84.307 Y-7.391 F#105
N8725 X-83.747 Y-8.311 F#103
N8730 G3 X-83.337 Y-8.55 I0.427 J0.26
N8735 X-82.524 Y-6.879 I0.02 J1.024 F#100
N8740 X-84.036 Y-6.052 I-1.294 J-0.571
N8745 X-84.447 Y-6.81 I0.017 J-0.5 F#104
N8750 G1 X-84.173 Y-7.265
N8755 X-84.098 Y-7.389 F#105
N8760 X-83.544 Y-8.308 F#103
N8765 G3 X-83.133 Y-8.55 I0.428 J0.258
N8770 X-82.218 Y-7.04 I0.068 J0.991 F#100
N8775 X-83.799 Y-6.052 I-1.381 J-0.45
N8780 X-84.21 Y-6.81 I0.017 J-0.5 F#104
N8785 G1 X-83.935 Y-7.265
N8790 X-83.861 Y-7.389 F#105
N8795 X-83.306 Y-8.309 F#103
N8800 G3 X-82.895 Y-8.55 I0.428 J0.258
N8805 X-81.946 Y-7.147 I0.073 J0.973 F#100
N8810 X-83.573 Y-6.052 I-1.417 J-0.349
N8815 X-83.981 Y-6.815 I0.017 J-0.5 F#104
N8820 G1 X-83.704 Y-7.262
N8825 X-83.622 Y-7.395 F#105
N8830 X-83.055 Y-8.313 F#103
N8835 G3 X-82.647 Y-8.55 I0.425 J0.263
N8840 X-81.751 Y-7.041 I0.042 J0.996 F#100
N8845 X-83.337 Y-6.052 I-1.38 J-0.446
N8850 X-83.748 Y-6.809 I0.017 J-0.5 F#104
N8855 G1 X-83.474 Y-7.265
N8860 X-83.4 Y-7.388 F#105
N8865 X-82.847 Y-8.308 F#103
N8870 G3 X-82.436 Y-8.55 I0.429 J0.258
N8875 X-81.498 Y-7.134 I0.08 J0.966 F#100
N8880 X-83.103 Y-6.052 I-1.412 J-0.364
N8885 X-83.512 Y-6.812 I0.017 J-0.5 F#104
N8890 G1 X-83.237 Y-7.264
N8895 X-83.159 Y-7.391 F#105
N8900 X-82.599 Y-8.311 F#103
N8905 G3 X-82.189 Y-8.55 I0.427 J0.26
N8910 X-81.376 Y-6.879 I0.02 J1.024 F#100
N8915 X-82.888 Y-6.052 I-1.294 J-0.571
N8920 X-83.299 Y-6.81 I0.017 J-0.5 F#104
N8925 G1 X-83.025 Y-7.265
N8930 X-82.95 Y-7.389 F#105
N8935 X-82.396 Y-8.308 F#103
N8940 G3 X-81.985 Y-8.55 I0.428 J0.258
N8945 X-81.069 Y-7.04 I0.068 J0.991 F#100
N8950 X-82.651 Y-6.052 I-1.381 J-0.45
N8955 X-83.062 Y-6.81 I0.017 J-0.5 F#104
N8960 G1 X-82.787 Y-7.265
N8965 X-82.712 Y-7.389 F#105
N8970 X-82.158 Y-8.309 F#103
N8975 G3 X-81.747 Y-8.55 I0.428 J0.258
N8980 X-80.798 Y-7.147 I0.073 J0.973 F#100
N8985 X-82.425 Y-6.052 I-1.417 J-0.349
N8990 X-82.833 Y-6.815 I0.017 J-0.5 F#104
N8995 G1 X-82.556 Y-7.262
N9000 X-82.474 Y-7.395 F#105
N9005 X-81.907 Y-8.313 F#103
N9010 G3 X-81.499 Y-8.55 I0.425 J0.263
N9015 X-80.603 Y-7.041 I0.042 J0.996 F#100
N9020 X-82.189 Y-6.052 I-1.38 J-0.446
N9025 X-82.6 Y-6.809 I0.017 J-0.5 F#104
N9030 G1 X-82.326 Y-7.265
N9035 X-82.252 Y-7.388 F#105
N9040 X-81.699 Y-8.308 F#103
N9045 G3 X-81.288 Y-8.55 I0.429 J0.258
N9050 X-80.35 Y-7.134 I0.08 J0.966 F#100
N9055 X-81.955 Y-6.052 I-1.412 J-0.364
N9060 X-82.364 Y-6.812 I0.017 J-0.5 F#104
N9065 G1 X-82.089 Y-7.264
N9070 X-82.011 Y-7.391 F#105
N9075 X-81.451 Y-8.311 F#103
N9080 G3 X-81.041 Y-8.55 I0.427 J0.26
N9085 X-80.228 Y-6.879 I0.02 J1.024 F#100
N9090 X-81.74 Y-6.052 I-1.294 J-0.571
N9095 X-82.151 Y-6.81 I0.017 J-0.5 F#104
N9100 G1 X-81.877 Y-7.265
N9105 X-81.802 Y-7.389 F#105
N9110 X-81.248 Y-8.308 F#103
N9115 G3 X-80.837 Y-8.55 I0.428 J0.258
N9120 X-79.921 Y-7.04 I0.068 J0.991 F#100
N9125 X-81.503 Y-6.052 I-1.381 J-0.45
N9130 X-81.913 Y-6.81 I0.017 J-0.5 F#104
N9135 G1 X-81.639 Y-7.265
N9140 X-81.564 Y-7.389 F#105
N9145 X-81.01 Y-8.309 F#103
N9150 G3 X-80.599 Y-8.55 I0.428 J0.258
N9155 X-79.65 Y-7.147 I0.073 J0.973 F#100
N9160 X-81.277 Y-6.052 I-1.417 J-0.349
N9165 X-81.685 Y-6.815 I0.017 J-0.5 F#104
N9170 G1 X-81.408 Y-7.262
N9175 X-81.326 Y-7.395 F#105
N9180 X-80.759 Y-8.313 F#103
N9185 G3 X-80.351 Y-8.55 I0.425 J0.263
N9190 X-79.455 Y-7.041 I0.042 J0.996 F#100
N9195 X-81.041 Y-6.052 I-1.38 J-0.446
N9200 X-81.452 Y-6.809 I0.017 J-0.5 F#104
N9205 G1 X-81.178 Y-7.265
N9210 X-81.104 Y-7.388 F#105
N9215 X-80.551 Y-8.308 F#103
N9220 G3 X-80.14 Y-8.55 I0.429 J0.258
N9225 X-79.202 Y-7.134 I0.08 J0.966 F#100
N9230 X-80.807 Y-6.052 I-1.412 J-0.364
N9235 X-81.216 Y-6.812 I0.017 J-0.5 F#104
N9240 G1 X-80.941 Y-7.264
N9245 X-80.863 Y-7.391 F#105
N9250 X-80.303 Y-8.311 F#103
N9255 G3 X-79.893 Y-8.55 I0.427 J0.26
N9260 X-79.08 Y-6.879 I0.02 J1.024 F#100
N9265 X-80.592 Y-6.052 I-1.294 J-0.571
N9270 X-81.003 Y-6.81 I0.017 J-0.5 F#104
N9275 G1 X-80.728 Y-7.265
N9280 X-80.654 Y-7.389 F#105
N9285 X-80.099 Y-8.308 F#103
N9290 G3 X-79.689 Y-8.55 I0.428 J0.258
N9295 X-78.773 Y-7.04 I0.068 J0.991 F#100
N9300 X-80.355 Y-6.052 I-1.381 J-0.45
N9305 X-80.765 Y-6.81 I0.017 J-0.5 F#104
N9310 G1 X-80.491 Y-7.265
N9315 X-80.416 Y-7.389 F#105
N9320 X-79.862 Y-8.309 F#103
N9325 G3 X-79.451 Y-8.55 I0.428 J0.258
N9330 X-78.502 Y-7.147 I0.073 J0.973 F#100
N9335 X-80.129 Y-6.052 I-1.417 J-0.349
N9340 X-80.537 Y-6.815 I0.017 J-0.5 F#104
N9345 G1 X-80.26 Y-7.262
N9350 X-80.178 Y-7.395 F#105
N9355 X-79.611 Y-8.313 F#103
N9360 G3 X-79.203 Y-8.55 I0.425 J0.263
N9365 X-78.307 Y-7.041 I0.042 J0.996 F#100
N9370 X-79.893 Y-6.052 I-1.38 J-0.446
N9375 X-80.304 Y-6.809 I0.017 J-0.5 F#104
N9380 G1 X-80.03 Y-7.265
N9385 X-79.956 Y-7.388 F#105
N9390 X-79.403 Y-8.308 F#103
N9395 G3 X-78.992 Y-8.55 I0.429 J0.258
N9400 X-78.054 Y-7.134 I0.08 J0.966 F#100
N9405 X-79.444 Y-6.052 I-1.363 J-0.318
N9410 X-79.88 Y-6.763 I0.017 J-0.5 F#104
N9415 G1 X-79.633 Y-7.293
N9420 X-79.612 Y-7.336 F#105
N9425 X-79.181 Y-8.262 F#103
N9430 G3 X-78.745 Y-8.55 I0.453 J0.211
N9435 X-77.932 Y-6.879 I0.02 J1.024 F#100
N9440 X-79.207 Y-6.052 I-1.246 J-0.526
N9445 X-79.646 Y-6.755 I0.017 J-0.5 F#104
N9450 G1 X-79.405 Y-7.297
N9455 X-79.391 Y-7.329 F#105
N9460 X-78.98 Y-8.253 F#103
N9465 G3 X-78.541 Y-8.55 I0.457 J0.203
N9470 X-77.625 Y-7.04 I0.068 J0.991 F#100
N9475 X-78.981 Y-6.052 I-1.324 J-0.393
N9480 G1 X-79.659
N9485 G3 X-80.012 Y-6.887 I0.017 J-0.5 F#104
N9490 G1 X-79.72 Y-7.21
N9495 X-79.442 Y-7.518 F#105
N9500 X-78.656 Y-8.386 F#103
N9505 G3 X-78.303 Y-8.55 I0.371 J0.335
N9510 X-77.354 Y-7.147 I0.073 J0.973 F#100
N9515 X-78.981 Y-6.052 I-1.417 J-0.349
N9520 X-79.389 Y-6.815 I0.017 J-0.5 F#104
N9525 G1 X-79.112 Y-7.262
N9530 X-79.03 Y-7.395 F#105
N9535 X-78.462 Y-8.313 F#103
N9540 G3 X-78.055 Y-8.55 I0.425 J0.263
N9545 X-77.159 Y-7.041 I0.042 J0.996 F#100
N9550 X-78.745 Y-6.052 I-1.38 J-0.446
N9555 X-79.156 Y-6.809 I0.017 J-0.5 F#104
N9560 G1 X-78.882 Y-7.265
N9565 X-78.808 Y-7.388 F#105
N9570 X-78.255 Y-8.308 F#103
N9575 G3 X-77.844 Y-8.55 I0.429 J0.258
N9580 X-76.906 Y-7.134 I0.08 J0.966 F#100
N9585 X-78.296 Y-6.052 I-1.363 J-0.318
N9590 X-78.732 Y-6.763 I0.017 J-0.5 F#104
N9595 G1 X-78.485 Y-7.293
N9600 X-78.464 Y-7.336 F#105
N9605 X-78.033 Y-8.262 F#103
N9610 G3 X-77.597 Y-8.55 I0.453 J0.211
N9615 X-76.784 Y-6.879 I0.02 J1.024 F#100
N9620 X-78.059 Y-6.052 I-1.246 J-0.526
N9625 X-78.498 Y-6.755 I0.017 J-0.5 F#104
N9630 G1 X-78.257 Y-7.297
N9635 X-78.243 Y-7.329 F#105
N9640 X-77.832 Y-8.253 F#103
N9645 G3 X-77.393 Y-8.55 I0.457 J0.203
N9650 X-76.477 Y-7.04 I0.068 J0.991 F#100
N9655 X-77.833 Y-6.052 I-1.324 J-0.393
N9660 G1 X-78.511
N9665 G3 X-78.864 Y-6.887 I0.017 J-0.5 F#104
N9670 G1 X-78.572 Y-7.21
N9675 X-78.293 Y-7.518 F#105
N9680 X-77.508 Y-8.386 F#103
N9685 G3 X-77.155 Y-8.55 I0.371 J0.335
N9690 X-76.206 Y-7.147 I0.073 J0.973 F#100
N9695 X-77.833 Y-6.052 I-1.417 J-0.349
N9700 X-78.241 Y-6.815 I0.017 J-0.5 F#104
N9705 G1 X-77.964 Y-7.262
N9710 X-77.882 Y-7.395 F#105
N9715 X-77.314 Y-8.313 F#103
N9720 G3 X-76.907 Y-8.55 I0.425 J0.263
N9725 X-76.01 Y-7.041 I0.042 J0.996 F#100
N9730 X-77.597 Y-6.052 I-1.38 J-0.446
N9735 X-78.008 Y-6.809 I0.017 J-0.5 F#104
N9740 G1 X-77.733 Y-7.265
N9745 X-77.66 Y-7.388 F#105
N9750 X-77.107 Y-8.308 F#103
N9755 G3 X-76.696 Y-8.55 I0.429 J0.258
N9760 X-75.758 Y-7.134 I0.08 J0.966 F#100
N9765 X-77.363 Y-6.052 I-1.412 J-0.364
N9770 X-77.772 Y-6.812 I0.017 J-0.5 F#104
N9775 G1 X-77.497 Y-7.264
N9780 X-77.419 Y-7.391 F#105
N9785 X-76.859 Y-8.311 F#103
N9790 G3 X-76.449 Y-8.55 I0.427 J0.26
N9795 X-75.636 Y-6.879 I0.02 J1.024 F#100
N9800 X-77.148 Y-6.052 I-1.294 J-0.571
N9805 X-77.559 Y-6.81 I0.017 J-0.5 F#104
N9810 G1 X-77.284 Y-7.265
N9815 X-77.21 Y-7.389 F#105
N9820 X-76.655 Y-8.308 F#103
N9825 G3 X-76.245 Y-8.55 I0.428 J0.258
N9830 X-75.329 Y-7.04 I0.068 J0.991 F#100
N9835 X-76.91 Y-6.052 I-1.381 J-0.45
N9840 X-77.321 Y-6.81 I0.017 J-0.5 F#104
N9845 G1 X-77.047 Y-7.265
N9850 X-76.972 Y-7.389 F#105
N9855 X-76.417 Y-8.309 F#103
N9860 G3 X-76.007 Y-8.55 I0.428 J0.258
N9865 X-75.058 Y-7.147 I0.073 J0.973 F#100
N9870 X-76.685 Y-6.052 I-1.417 J-0.349
N9875 X-77.093 Y-6.815 I0.017 J-0.5 F#104
N9880 G1 X-76.816 Y-7.262
N9885 X-76.734 Y-7.395 F#105
N9890 X-76.166 Y-8.313 F#103
N9895 G3 X-75.758 Y-8.55 I0.425 J0.263
N9900 X-74.862 Y-7.041 I0.042 J0.996 F#100
N9905 X-76.449 Y-6.052 I-1.38 J-0.446
N9910 X-76.86 Y-6.809 I0.017 J-0.5 F#104
N9915 G1 X-76.585 Y-7.265
N9920 X-76.512 Y-7.388 F#105
N9925 X-75.959 Y-8.308 F#103
N9930 G3 X-75.548 Y-8.55 I0.429 J0.258
N9935 X-74.61 Y-7.134 I0.08 J0.966 F#100
N9940 X-76.215 Y-6.052 I-1.412 J-0.364
N9945 X-76.624 Y-6.812 I0.017 J-0.5 F#104
N9950 G1 X-76.349 Y-7.264
N9955 X-76.271 Y-7.391 F#105
N9960 X-75.711 Y-8.311 F#103
N9965 G3 X-75.301 Y-8.55 I0.427 J0.26
N9970 X-74.488 Y-6.879 I0.02 J1.024 F#100
N9975 X-76. Y-6.052 I-1.294 J-0.571
N9980 X-76.411 Y-6.81 I0.017 J-0.5 F#104
N9985 G1 X-76.136 Y-7.265
N9990 X-76.062 Y-7.389 F#105
N9995 X-75.507 Y-8.308 F#103
N10000 G3 X-75.096 Y-8.55 I0.428 J0.258
N10005 X-74.181 Y-7.04 I0.068 J0.991 F#100
N10010 X-75.762 Y-6.052 I-1.381 J-0.45
N10015 X-76.173 Y-6.81 I0.017 J-0.5 F#104
N10020 G1 X-75.899 Y-7.265
N10025 X-75.824 Y-7.389 F#105
N10030 X-75.269 Y-8.309 F#103
N10035 G3 X-74.859 Y-8.55 I0.428 J0.258
N10040 X-73.91 Y-7.147 I0.073 J0.973 F#100
N10045 X-75.537 Y-6.052 I-1.417 J-0.349
N10050 X-75.945 Y-6.815 I0.017 J-0.5 F#104
N10055 G1 X-75.668 Y-7.262
N10060 X-75.586 Y-7.395 F#105
N10065 X-75.018 Y-8.313 F#103
N10070 G3 X-74.61 Y-8.55 I0.425 J0.263
N10075 X-73.714 Y-7.041 I0.042 J0.996 F#100
N10080 X-75.3 Y-6.052 I-1.38 J-0.446
N10085 X-75.712 Y-6.809 I0.017 J-0.5 F#104
N10090 G1 X-75.437 Y-7.265
N10095 X-75.364 Y-7.388 F#105
N10100 X-74.811 Y-8.308 F#103
N10105 G3 X-74.4 Y-8.55 I0.429 J0.258
N10110 X-73.462 Y-7.134 I0.08 J0.966 F#100
N10115 X-75.067 Y-6.052 I-1.412 J-0.364
N10120 X-75.476 Y-6.812 I0.017 J-0.5 F#104
N10125 G1 X-75.201 Y-7.264
N10130 X-75.123 Y-7.391 F#105
N10135 X-74.562 Y-8.311 F#103
N10140 G3 X-74.153 Y-8.55 I0.427 J0.26
N10145 X-73.34 Y-6.879 I0.02 J1.024 F#100
N10150 X-74.852 Y-6.052 I-1.294 J-0.571
N10155 X-75.263 Y-6.81 I0.017 J-0.5 F#104
N10160 G1 X-74.988 Y-7.265
N10165 X-74.914 Y-7.389 F#105
N10170 X-74.359 Y-8.308 F#103
N10175 G3 X-73.948 Y-8.55 I0.428 J0.258
N10180 X-73.033 Y-7.04 I0.068 J0.991 F#100
N10185 X-74.614 Y-6.052 I-1.381 J-0.45
N10190 X-75.025 Y-6.81 I0.017 J-0.5 F#104
N10195 G1 X-74.751 Y-7.265
N10200 X-74.676 Y-7.389 F#105
N10205 X-74.121 Y-8.309 F#103
N10210 G3 X-73.711 Y-8.55 I0.428 J0.258
N10215 X-72.762 Y-7.147 I0.073 J0.973 F#100
N10220 X-74.152 Y-6.052 I-1.36 J-0.297
N10225 X-74.589 Y-6.761 I0.017 J-0.5 F#104
N10230 G1 X-74.344 Y-7.294
N10235 X-74.325 Y-7.334 F#105
N10240 X-73.899 Y-8.259 F#103
N10245 G3 X-73.462 Y-8.55 I0.454 J0.209
N10250 X-72.566 Y-7.041 I0.042 J0.996 F#100
N10255 G1 X-72.621 Y-6.9
N10260 X-72.69 Y-6.766
N10265 X-72.772 Y-6.639
N10270 X-72.867 Y-6.521
N10275 X-72.973 Y-6.413
N10280 X-73.09 Y-6.317
N10285 X-73.215 Y-6.233
N10290 X-73.349 Y-6.162
N10295 X-73.489 Y-6.105
N10300 X-73.634 Y-6.063
N10305 X-73.782 Y-6.035
N10310 X-73.933 Y-6.022
N10315 X-74.084 Y-6.025
N10320 X-74.234 Y-6.044
N10325 X-74.382 Y-6.077
N10330 X-74.462 Y-6.083 F#104
N10335 X-74.54 Y-6.104
N10340 X-74.614 Y-6.137
N10345 X-74.681 Y-6.182
N10350 X-74.741 Y-6.238
N10355 X-74.79 Y-6.304
N10360 X-74.827 Y-6.377
N10365 X-74.852 Y-6.456
N10370 X-74.863 Y-6.538
N10375 X-74.86 Y-6.622
N10380 X-74.844 Y-6.703
N10385 X-74.813 Y-6.782
N10390 X-74.77 Y-6.854
N10395 X-74.48 Y-7.235
N10400 X-74.314 Y-7.454 F#105
N10405 X-73.633 Y-8.352 F#103
N10410 G3 X-73.252 Y-8.55 I0.398 J0.302
N10415 X-72.313 Y-7.134 I0.08 J0.966 F#100
N10420 X-73.704 Y-6.052 I-1.363 J-0.318
N10425 X-74.14 Y-6.763 I0.017 J-0.5 F#104
N10430 G1 X-73.892 Y-7.293
N10435 X-73.872 Y-7.336 F#105
N10440 X-73.441 Y-8.262 F#103
N10445 G3 X-73.005 Y-8.55 I0.453 J0.211
N10450 X-72.192 Y-6.879 I0.02 J1.024 F#100
N10455 X-73.466 Y-6.052 I-1.246 J-0.526
N10460 X-73.906 Y-6.755 I0.017 J-0.5 F#104
N10465 G1 X-73.665 Y-7.297
N10470 X-73.651 Y-7.329 F#105
N10475 X-73.24 Y-8.253 F#103
N10480 G3 X-72.8 Y-8.55 I0.457 J0.203
N10485 X-71.885 Y-7.04 I0.068 J0.991 F#100
N10490 X-73.241 Y-6.052 I-1.324 J-0.393
N10495 G1 X-73.919
N10500 G3 X-74.272 Y-6.887 I0.017 J-0.5 F#104
N10505 G1 X-73.98 Y-7.21
N10510 X-73.701 Y-7.518 F#105
N10515 X-72.916 Y-8.386 F#103
N10520 G3 X-72.563 Y-8.55 I0.371 J0.335
N10525 X-71.614 Y-7.147 I0.073 J0.973 F#100
N10530 X-73.004 Y-6.052 I-1.36 J-0.297
N10535 X-73.441 Y-6.761 I0.017 J-0.5 F#104
N10540 G1 X-73.195 Y-7.294
N10545 X-73.177 Y-7.334 F#105
N10550 X-72.751 Y-8.259 F#103
N10555 G3 X-72.314 Y-8.55 I0.454 J0.209
N10560 X-71.418 Y-7.041 I0.042 J0.996 F#100
N10565 X-72.77 Y-6.052 I-1.322 J-0.387
N10570 X-73.21 Y-6.755 I0.017 J-0.5 F#104
N10575 G1 X-72.969 Y-7.297
N10580 X-72.955 Y-7.329 F#105
N10585 X-72.543 Y-8.254 F#103
N10590 G3 X-72.104 Y-8.55 I0.457 J0.203
N10595 X-71.299 Y-6.831 I0.032 J1.033 F#100
N10600 X-72.548 Y-6.052 I-1.222 J-0.568
N10605 X-72.984 Y-6.764 I0.017 J-0.5 F#104
N10610 G1 X-72.736 Y-7.292
N10615 X-72.709 Y-7.35 F#105
N10620 X-72.288 Y-8.248 F#103
N10625 G3 X-71.822 Y-8.536 I0.453 J0.212
N10630 X-71.023 Y-6.91 I-0.008 J1.013 F#100
N10635 X-72.321 Y-6.052 I-1.274 J-0.518
N10640 X-72.754 Y-6.77 I0.017 J-0.5 F#104
N10645 G1 X-72.502 Y-7.289
N10650 X-72.477 Y-7.341 F#105
N10655 X-72.042 Y-8.239 F#103
N10660 G3 X-71.578 Y-8.521 I0.45 J0.218
N10665 X-70.877 Y-6.767 I-0.044 J1.034 F#100
N10670 X-72.092 Y-6.052 I-1.188 J-0.628
N10675 X-72.521 Y-6.776 I0.017 J-0.5 F#104
N10680 G1 X-72.265 Y-7.285
N10685 X-72.226 Y-7.363 F#105
N10690 X-71.799 Y-8.212 F#103
N10695 G3 X-71.284 Y-8.482 I0.447 J0.225
N10700 X-70.727 Y-8.232 I-0.131 J1.038 F#100
N10705 G1 X-70.72 Y-8.218 F#104
N10710 G3 X-71.149 Y-7.525 I-0.461 J0.194
N10715 G1 X-71.574 Y-7.498
N10720 G3 X-71.748 Y-7.518 I-0.032 J-0.499
N10725 X-72.106 Y-7.999 I0.143 J-0.479 F#105
N10730 X-71.612 Y-8.497 I0.5 J0.002 F#103
N10735 X-70.849 Y-8.311 I0.02 J1.582
N10740 X-71.576 Y-6.101 I-0.809 J0.958 F#100
N10745 G1 X-71.588 Y-6.063 F#104
N10750 G3 X-71.937 Y-6.552 I0.151 J-0.477
N10755 G1 X-71.913 Y-7.463
N10760 X-71.903 Y-7.857 F#105
N10765 X-71.901 Y-7.927 F#103
N10770 G3 X-71.479 Y-8.408 I0.5 J0.013
N10775 X-70.716 Y-8.224 I0.16 J1.011
N10780 X-70.313 Y-7.069 I-0.807 J0.929 F#100
N10785 G1 X-70.336 Y-7.006 F#104
N10790 X-70.371 Y-6.949
N10795 X-70.416 Y-6.899
N10800 X-70.47 Y-6.858
N10805 X-70.531 Y-6.829
N10810 X-70.596 Y-6.812
N10815 X-70.663 Y-6.808
N10820 X-70.73 Y-6.817
N10825 G3 X-70.573 Y-7.498 I0.079 J-0.341 F#103
N10830 X-70.325 Y-7.284 I-0.079 J0.341
N10835 X-70.3 Y-7.156 I-0.345 J0.133
N10840 X-71.74 Y-6.073 I-1.269 J-0.188 F#100
N10845 G1 X-73.241 Y-6.052
N10850 G3 X-73.216 Y-7.052 I0.017 J-0.5 F#104
N10855 G1 X-73.206 Y-7.051
N10860 X-73.119 Y-7.048 Z-3.492
N10865 X-73.035 Y-7.045 Z-3.47
N10870 X-72.956 Y-7.043 Z-3.433
N10875 X-72.884 Y-7.04 Z-3.383
N10880 X-72.823 Y-7.038 Z-3.321
N10885 X-72.773 Y-7.036 Z-3.25
N10890 X-72.736 Y-7.035 Z-3.171
N10895 X-72.714 Y-7.034 Z-3.087
N10900 X-72.706 Z-3.
N10905 G0 Z2.
N10910 X-118.824 Y-34.958
N10915 Z-2.5
N10920 G1 Z-3. F#103
N10925 X-118.819 Y-34.953 Z-3.087
N10930 X-118.804 Y-34.936 Z-3.171
N10935 X-118.779 Y-34.909 Z-3.25
N10940 X-118.745 Y-34.872 Z-3.321
N10945 X-118.704 Y-34.826 Z-3.383
N10950 X-118.656 Y-34.773 Z-3.433
N10955 X-118.603 Y-34.715 Z-3.47
N10960 X-118.546 Y-34.653 Z-3.492
N10965 X-118.487 Y-34.588 Z-3.5
N10970 G3 X-117.752 Y-33.2 I-2.342 J2.13
N10975 X-117.121 Y-30.252 I-17.981 J5.389 F#100
N10980 X-117.081 Y-25.918 I-182.387 J3.871
N10985 G1 X-117.08 Y-18.996
N10990 G3 X-117.517 Y-17.784 I-5.875 J-1.434
N10995 G1 X-117.562 Y-17.62
N11000 X-117.635 Y-17.341
N11005 G3 X-118.596 Y-17.62 I-0.479 J-0.145 F#104
N11010 G1 X-118.593 Y-17.631
N11015 X-118.568 Y-17.714 Z-3.492
N11020 X-118.543 Y-17.794 Z-3.47
N11025 X-118.52 Y-17.87 Z-3.433
N11030 X-118.5 Y-17.938 Z-3.383
N11035 X-118.482 Y-17.997 Z-3.321
N11040 X-118.467 Y-18.045 Z-3.25
N11045 X-118.457 Y-18.08 Z-3.171
N11050 X-118.45 Y-18.102 Z-3.087
N11055 X-118.448 Y-18.109 Z-3.
N11060 G0 Z-2.5
N11065 X-118.914 Y-33.505
N11070 G1 Z-3. F#103
N11075 X-118.908 Y-33.501 Z-3.087
N11080 X-118.889 Y-33.489 Z-3.171
N11085 X-118.859 Y-33.468 Z-3.25
N11090 X-118.817 Y-33.44 Z-3.321
N11095 X-118.766 Y-33.406 Z-3.383
N11100 X-118.707 Y-33.366 Z-3.433
N11105 X-118.642 Y-33.322 Z-3.47
N11110 X-118.572 Y-33.275 Z-3.492
N11115 X-118.5 Y-33.226 Z-3.5
N11120 G3 X-117.456 Y-32.052 I-1.769 J2.625
N11125 X-116.698 Y-29.69 I-3.617 J2.462 F#100
N11130 G1 X-116.645 Y-29.353
N11135 X-116.608 Y-29.014
N11140 X-116.586 Y-28.673
N11145 X-116.579 Y-28.331
N11150 X-116.587 Y-27.99
N11155 X-116.611 Y-27.649
N11160 X-116.651 Y-27.31
N11165 X-116.681 Y-27.231 F#104
N11170 X-116.725 Y-27.158
N11175 X-116.78 Y-27.093
N11180 X-116.846 Y-27.039
N11185 X-116.92 Y-26.997
N11190 X-117. Y-26.968
N11195 X-117.083 Y-26.953
N11200 X-117.168 Y-26.952
N11205 X-117.252 Y-26.966
N11210 X-117.333 Y-26.993
N11215 X-117.407 Y-27.034
N11220 X-117.474 Y-27.088
N11225 X-117.53 Y-27.151
N11230 X-117.575 Y-27.223
N11235 X-117.607 Y-27.302
N11240 X-117.625 Y-27.385
N11245 X-117.652 Y-27.591
N11250 X-118.105 Y-31.052 F#105
N11255 X-118.139 Y-31.311 F#103
N11260 G3 X-117.246 Y-31.68 I0.496 J-0.065
N11265 X-116.268 Y-28.994 I-3.044 J2.63 F#100
N11270 G1 X-116.289 Y-28.911 F#104
N11275 X-116.324 Y-28.832
N11280 X-116.372 Y-28.76
N11285 X-116.431 Y-28.698
N11290 X-116.5 Y-28.646
N11295 X-116.577 Y-28.607
N11300 X-116.659 Y-28.582
N11305 X-116.744 Y-28.571
N11310 X-116.829 Y-28.574
N11315 X-116.913 Y-28.592
N11320 X-116.992 Y-28.623
N11325 X-117.065 Y-28.668
N11330 X-117.129 Y-28.724
N11335 X-117.183 Y-28.79
N11340 X-117.225 Y-28.864
N11345 X-117.253 Y-28.944
N11350 X-117.309 Y-29.149
N11355 X-117.676 Y-30.505 F#105
N11360 X-117.726 Y-30.69 F#103
N11365 G3 X-116.845 Y-31.122 I0.483 J-0.131
N11370 X-116.485 Y-28.135 I-2.161 J1.776 F#100
N11375 G2 X-116.597 Y-22.1 I12.167 J3.245
N11380 G3 X-116.611 Y-19.887 I-16.62 J1.005
N11385 X-116.688 Y-19.091 I-16.607 J-1.207 F#106
N11390 G1 X-116.892 Y-18.81 F#100
N11395 G3 X-117.791 Y-19.114 I-0.399 J-0.302 F#104
N11400 G1 X-117.79 Y-19.436
N11405 X-117.778 Y-23.066 F#105
N11410 X-117.777 Y-23.19 F#103
N11415 G3 X-116.792 Y-23.31 I0.5 J0.002
N11420 X-116.221 Y-20.081 I-11.598 J3.715 F#100
N11425 G1 X-116.317 Y-19.823
N11430 X-116.426 Y-19.57
N11435 X-116.55 Y-19.323
N11440 X-116.686 Y-19.084
N11445 X-116.836 Y-18.852
N11450 X-116.998 Y-18.63
N11455 X-117.172 Y-18.416
N11460 X-117.358 Y-18.212
N11465 X-117.409 Y-18.152 F#104
N11470 X-117.47 Y-18.101
N11475 X-117.538 Y-18.061
N11480 X-117.613 Y-18.032
N11485 X-117.692 Y-18.016
N11490 X-117.772 Y-18.014
N11495 X-117.852 Y-18.025
N11500 X-117.93 Y-18.05
N11505 X-118.003 Y-18.087
N11510 X-118.069 Y-18.136
N11515 X-118.126 Y-18.195
N11520 X-118.172 Y-18.264
N11525 X-118.206 Y-18.339
N11530 X-118.228 Y-18.42
N11535 X-118.29 Y-18.818
N11540 X-121.865 Y-41.981 F#105
N11545 G2 X-122.26 Y-41.92 I-0.198 J0.031
N11550 X-121.96 Y-41.779 I0.198 J-0.031
N11555 G1 X-121.946 Y-41.787
N11560 G3 X-120.453 Y-42.222 I1.603 J2.729 F#103
N11565 X-118.548 Y-41.103 I0.077 J2.05 F#100
N11570 X-117.439 Y-37.699 I-6.068 J3.86
N11575 G2 X-117.776 Y-36.481 I12.15 J4.014
N11580 G1 X-117.804 Y-36.401 F#104
N11585 X-117.845 Y-36.327
N11590 X-117.898 Y-36.262
N11595 X-117.962 Y-36.206
N11600 X-118.034 Y-36.161
N11605 X-118.112 Y-36.13
N11610 X-118.195 Y-36.112
N11615 X-118.279 Y-36.108
N11620 X-118.363 Y-36.119
N11625 X-118.444 Y-36.143
N11630 X-118.52 Y-36.182
N11635 X-118.588 Y-36.232
N11640 X-118.647 Y-36.293
N11645 X-118.695 Y-36.363
N11650 X-118.73 Y-36.441
N11655 X-118.828 Y-36.72
N11660 X-120.319 Y-40.958 F#105
N11665 X-120.53 Y-41.556 F#103
N11670 G3 X-120.075 Y-42.222 I0.472 J-0.166
N11675 X-118.157 Y-41.13 I0.085 J2.081 F#100
N11680 X-117.15 Y-38.485 I-4.671 J3.292
N11685 X-117.524 Y-37.419 I-36.838 J-12.317
N11690 X-118.457 Y-37.398 I-0.471 J-0.168 F#104
N11695 G1 X-118.596 Y-37.737
N11700 X-119.921 Y-40.969 F#105
N11705 X-120.152 Y-41.532 F#103
N11710 G3 X-119.707 Y-42.222 I0.463 J-0.19
N11715 X-117.744 Y-41.133 I0.104 J2.128 F#100
N11720 X-116.937 Y-38.717 I-2.705 J2.245
N11725 G1 X-117.093 Y-38.418
N11730 X-117.337 Y-37.927
N11735 G3 X-118.237 Y-37.968 I-0.44 J-0.237 F#104
N11740 G1 X-118.412 Y-38.38
N11745 X-119.513 Y-40.972 F#105
N11750 X-119.748 Y-41.527 F#103
N11755 G3 X-119.305 Y-42.222 I0.46 J-0.195
N11760 X-117.248 Y-41.029 I0.052 J2.279 F#100
N11765 X-116.929 Y-38.645 I-1.625 J1.431
N11770 G1 X-116.987 Y-38.578 F#104
N11775 X-117.056 Y-38.522
N11780 X-117.133 Y-38.479
N11785 X-117.216 Y-38.45
N11790 X-117.302 Y-38.435
N11795 X-117.389 Y-38.434
N11800 X-117.474 Y-38.449
N11805 X-117.555 Y-38.477
N11810 X-117.631 Y-38.518
N11815 X-117.697 Y-38.571
N11820 X-117.754 Y-38.634
N11825 X-117.799 Y-38.705
N11830 X-118.074 Y-39.198
N11835 X-119.076 Y-40.998 F#105
N11840 X-119.344 Y-41.48 F#103
N11845 G3 X-118.927 Y-42.223 I0.437 J-0.243
N11850 X-116.887 Y-41.11 I0.161 J2.132 F#100
N11855 X-116.963 Y-38.665 I-1.421 J1.179
N11860 G1 X-117.019 Y-38.598 F#104
N11865 X-117.086 Y-38.542
N11870 X-117.162 Y-38.499
N11875 X-117.244 Y-38.47
N11880 X-117.331 Y-38.456
N11885 X-117.419 Y-38.457
N11890 X-117.505 Y-38.474
N11895 X-117.587 Y-38.506
N11900 X-117.663 Y-38.552
N11905 X-117.729 Y-38.611
N11910 X-117.784 Y-38.681
N11915 X-117.825 Y-38.759
N11920 X-118.016 Y-39.226
N11925 X-118.718 Y-40.941 F#105
N11930 X-118.965 Y-41.546 F#103
N11935 G3 X-118.565 Y-42.232 I0.463 J-0.189
N11940 X-116.563 Y-41.219 I0.276 J1.938 F#100
N11945 X-116.769 Y-38.957 I-1.422 J1.011
N11950 G1 X-116.826 Y-38.893 F#104
N11955 X-116.894 Y-38.84
N11960 X-116.97 Y-38.799
N11965 X-117.052 Y-38.773
N11970 X-117.137 Y-38.761
N11975 X-117.223 Y-38.764
N11980 X-117.308 Y-38.782
N11985 X-117.389 Y-38.815
N11990 X-117.462 Y-38.861
N11995 X-117.527 Y-38.919
N12000 X-117.58 Y-38.989
N12005 X-117.621 Y-39.066
N12010 X-117.816 Y-39.548
N12015 X-118.385 Y-40.956 F#105
N12020 X-118.642 Y-41.593 F#103
N12025 G3 X-118.271 Y-42.271 I0.464 J-0.187
N12030 G1 X-118.102 Y-42.3 F#100
N12035 X-117.931 Y-42.312
N12040 X-117.76 Y-42.308
N12045 X-117.59 Y-42.288
N12050 X-117.422 Y-42.253
N12055 X-117.259 Y-42.202
N12060 X-117.101 Y-42.136
N12065 X-116.949 Y-42.055
N12070 X-116.806 Y-41.961
N12075 X-116.673 Y-41.854
N12080 X-116.549 Y-41.735
N12085 X-116.438 Y-41.605
N12090 X-116.339 Y-41.465
N12095 X-116.254 Y-41.316
N12100 X-116.182 Y-41.16
N12105 X-116.126 Y-40.999
N12110 X-116.085 Y-40.832
N12115 X-116.059 Y-40.663
N12120 X-116.05 Y-40.492
N12125 X-116.056 Y-40.321
N12130 X-116.079 Y-40.151
N12135 X-116.117 Y-39.984
N12140 X-116.17 Y-39.821
N12145 X-116.239 Y-39.664
N12150 X-116.322 Y-39.514
N12155 X-116.418 Y-39.372
N12160 X-116.481 Y-39.317 F#104
N12165 X-116.551 Y-39.272
N12170 X-116.628 Y-39.24
N12175 X-116.709 Y-39.22
N12180 X-116.791 Y-39.213
N12185 X-116.874 Y-39.22
N12190 X-116.953 Y-39.24
N12195 X-117.029 Y-39.272
N12200 X-117.097 Y-39.316
N12205 X-117.158 Y-39.371
N12210 X-117.209 Y-39.434
N12215 X-117.249 Y-39.504
N12220 X-117.516 Y-40.045
N12225 X-117.99 Y-41.009 F#105
N12230 X-118.291 Y-41.62 F#103
N12235 G3 X-117.966 Y-42.326 I0.449 J-0.221
N12240 G1 X-117.811 Y-42.361 F#100
N12245 X-117.654 Y-42.382
N12250 X-117.495 Y-42.388
N12255 X-117.337 Y-42.379
N12260 X-117.18 Y-42.355
N12265 X-117.026 Y-42.316
N12270 X-116.877 Y-42.263
N12275 X-116.733 Y-42.197
N12280 X-116.596 Y-42.117
N12285 X-116.467 Y-42.025
N12290 X-116.347 Y-41.921
N12295 X-116.238 Y-41.806
N12300 X-116.139 Y-41.681
N12305 X-116.053 Y-41.548
N12310 X-115.98 Y-41.407
N12315 X-115.921 Y-41.26
N12320 X-115.875 Y-41.108
N12325 X-115.844 Y-40.953
N12330 X-115.828 Y-40.795
N12335 X-115.826 Y-40.636
N12340 X-115.84 Y-40.478
N12345 X-115.868 Y-40.322
N12350 X-115.911 Y-40.17
N12355 X-115.968 Y-40.022
N12360 X-116.038 Y-39.88
N12365 X-116.122 Y-39.745
N12370 X-116.218 Y-39.618
N12375 X-116.325 Y-39.502
N12380 X-116.443 Y-39.395
N12385 X-116.505 Y-39.338 F#104
N12390 X-116.576 Y-39.291
N12395 X-116.654 Y-39.258
N12400 X-116.737 Y-39.238
N12405 X-116.822 Y-39.234
N12410 X-116.907 Y-39.244
N12415 X-116.989 Y-39.268
N12420 X-117.066 Y-39.307
N12425 X-117.135 Y-39.358
N12430 X-117.194 Y-39.421
N12435 X-117.242 Y-39.493
N12440 X-117.277 Y-39.573
N12445 X-117.438 Y-40.077
N12450 X-117.744 Y-41.033 F#105
N12455 X-117.978 Y-41.764 F#103
N12460 G3 X-117.638 Y-42.398 I0.476 J-0.152
N12465 X-116.112 Y-39.775 I0.469 J1.482 F#100
N12470 G1 X-116.285 Y-39.546
N12475 G3 X-117.119 Y-39.777 I-0.35 J-0.357 F#104
N12480 G1 X-117.251 Y-40.285
N12485 X-117.461 Y-41.088 F#105
N12490 X-117.666 Y-41.877 F#103
N12495 G3 X-117.337 Y-42.478 I0.484 J-0.126
N12500 X-115.51 Y-40.764 I0.51 J1.287 F#100
N12505 G1 X-115.573 Y-40.432
N12510 X-115.735 Y-40.14
N12515 X-115.953 Y-39.887
N12520 G3 X-116.763 Y-40.122 I-0.33 J-0.375 F#104
N12525 G1 X-116.922 Y-40.666
N12530 X-117.061 Y-41.144 F#105
N12535 X-117.306 Y-41.98 F#103
N12540 G3 X-117.046 Y-42.569 I0.48 J-0.14
N12545 G1 X-116.919 Y-42.619 F#100
N12550 X-116.788 Y-42.655
N12555 X-116.653 Y-42.677
N12560 X-116.517 Y-42.683
N12565 X-116.381 Y-42.675
N12570 X-116.247 Y-42.653
N12575 X-116.116 Y-42.615
N12580 X-115.99 Y-42.564
N12585 X-115.87 Y-42.499
N12590 X-115.758 Y-42.422
N12595 X-115.655 Y-42.333
N12600 X-115.562 Y-42.233
N12605 X-115.481 Y-42.124
N12610 X-115.412 Y-42.007
N12615 X-115.356 Y-41.882
N12620 X-115.314 Y-41.753
N12625 X-115.286 Y-41.619
N12630 X-115.273 Y-41.484
N12635 X-115.275 Y-41.348
N12640 X-115.292 Y-41.213
N12645 G3 X-115.844 Y-39.981 I-1.406 J0.11
N12650 X-116.628 Y-40.25 I-0.302 J-0.399 F#104
N12655 G1 X-116.782 Y-40.822
N12660 X-116.886 Y-41.209 F#105
N12665 X-117.12 Y-42.084 F#103
N12670 G3 X-116.878 Y-42.652 I0.483 J-0.13
N12675 X-115.157 Y-41.814 I0.602 J0.95 F#100
N12680 X-115.844 Y-39.981 I-1.513 J0.479
N12685 X-116.64 Y-40.306 I-0.302 J-0.399 F#104
N12690 G1 X-116.719 Y-40.836
N12695 X-116.782 Y-41.258 F#105
N12700 X-116.933 Y-42.262 F#103
N12705 G3 X-116.724 Y-42.747 I0.494 J-0.074
N12710 G1 X-116.621 Y-42.819 F#100
N12715 X-116.51 Y-42.879
N12720 X-116.393 Y-42.926
N12725 X-116.272 Y-42.958
N12730 X-116.147 Y-42.975
N12735 X-116.022 Y-42.977
N12740 X-115.896 Y-42.964
N12745 X-115.774 Y-42.937
N12750 X-115.655 Y-42.895
N12755 X-115.543 Y-42.839
N12760 X-115.437 Y-42.77
N12765 X-115.341 Y-42.689
N12770 X-115.255 Y-42.597
N12775 X-115.181 Y-42.496
N12780 X-115.12 Y-42.386
N12785 X-115.072 Y-42.27
N12790 X-114.998 Y-42.134
N12795 X-114.94 Y-41.992
N12800 X-114.896 Y-41.844
N12805 X-114.867 Y-41.693
N12810 X-114.854 Y-41.539
N12815 X-114.856 Y-41.385
N12820 X-114.875 Y-41.232
N12825 X-114.909 Y-41.082
N12830 X-114.958 Y-40.935
N12835 X-115.021 Y-40.795
N12840 X-115.099 Y-40.662
N12845 X-115.19 Y-40.538
N12850 X-115.293 Y-40.423
N12855 X-115.407 Y-40.32
N12860 X-115.531 Y-40.228
N12865 X-115.664 Y-40.15
N12870 X-115.734 Y-40.104 F#104
N12875 X-115.811 Y-40.07
N12880 X-115.893 Y-40.051
N12885 X-115.978 Y-40.045
N12890 X-116.062 Y-40.055
N12895 X-116.144 Y-40.079
N12900 X-116.221 Y-40.117
N12905 X-116.29 Y-40.167
N12910 X-116.349 Y-40.229
N12915 X-116.397 Y-40.301
N12920 X-116.432 Y-40.38
N12925 X-116.453 Y-40.465
N12930 X-116.524 Y-40.989
N12935 X-116.577 Y-41.373 F#105
N12940 X-116.72 Y-42.419 F#103
N12945 G3 X-116.537 Y-42.877 I0.495 J-0.068
N12950 X-114.923 Y-42.567 I0.675 J0.846 F#100
N12955 X-115.514 Y-40.262 I-1.294 J0.896
N12960 G1 X-115.586 Y-40.222 F#104
N12965 X-115.664 Y-40.194
N12970 X-115.745 Y-40.18
N12975 X-115.828
N12980 X-115.91 Y-40.194
N12985 X-115.989 Y-40.221
N12990 X-116.062 Y-40.261
N12995 X-116.127 Y-40.313
N13000 X-116.183 Y-40.375
N13005 X-116.228 Y-40.446
N13010 X-116.26 Y-40.524
N13015 X-116.279 Y-40.606
N13020 X-116.352 Y-41.162
N13025 X-116.398 Y-41.51 F#105
N13030 X-116.536 Y-42.56 F#103
N13035 G3 X-116.353 Y-43.015 I0.496 J-0.065
N13040 X-114.725 Y-42.721 I0.687 J0.852 F#100
N13045 X-115.185 Y-40.474 I-1.271 J0.911
N13050 G1 X-115.261 Y-40.439 F#104
N13055 X-115.343 Y-40.417
N13060 X-115.427 Y-40.409
N13065 X-115.511 Y-40.415
N13070 X-115.593 Y-40.436
N13075 X-115.671 Y-40.47
N13080 X-115.741 Y-40.517
N13085 X-115.803 Y-40.575
N13090 X-115.854 Y-40.643
N13095 X-115.893 Y-40.718
N13100 X-115.918 Y-40.799
N13105 X-116.058 Y-41.421
N13110 X-116.114 Y-41.669 F#105
N13115 X-116.336 Y-42.659 F#103
N13120 G3 X-116.162 Y-43.158 I0.488 J-0.109
N13125 G1 X-116.061 Y-43.233 F#100
N13130 X-115.953 Y-43.297
N13135 X-115.838 Y-43.347
N13140 X-115.718 Y-43.384
N13145 X-115.594 Y-43.406
N13150 X-115.469 Y-43.413
N13155 X-115.343 Y-43.405
N13160 X-115.22 Y-43.383
N13165 X-115.099 Y-43.347
N13170 X-114.984 Y-43.296
N13175 X-114.876 Y-43.232
N13180 X-114.776 Y-43.157
N13185 X-114.686 Y-43.069
N13190 X-114.606 Y-42.972
N13195 X-114.539 Y-42.866
N13200 X-114.484 Y-42.753
N13205 G3 X-115.192 Y-40.499 I-1.167 J0.872
N13210 G1 X-115.262 Y-40.463 F#104
N13215 X-115.337 Y-40.439
N13220 X-115.415 Y-40.428
N13225 X-115.495 Y-40.43
N13230 X-115.573 Y-40.445
N13235 X-115.648 Y-40.473
N13240 X-115.718 Y-40.513
N13245 X-115.781 Y-40.564
N13250 X-115.835 Y-40.625
N13255 X-115.878 Y-40.694
N13260 X-115.909 Y-40.77
N13265 X-115.927 Y-40.85
N13270 X-115.995 Y-41.432
N13275 X-116.036 Y-41.785 F#105
N13280 X-116.159 Y-42.853 F#103
N13285 G3 X-115.983 Y-43.295 I0.497 J-0.058
N13290 G1 X-115.885 Y-43.372 F#100
N13295 X-115.778 Y-43.438
N13300 X-115.665 Y-43.491
N13305 X-115.546 Y-43.53
N13310 X-115.423 Y-43.555
N13315 X-115.298 Y-43.565
N13320 X-115.173 Y-43.561
N13325 X-115.049 Y-43.543
N13330 X-114.929 Y-43.509
N13335 X-114.813 Y-43.462
N13340 X-114.703 Y-43.402
N13345 X-114.601 Y-43.33
N13350 X-114.508 Y-43.245
N13355 X-114.426 Y-43.151
N13360 X-114.355 Y-43.048
N13365 X-114.297 Y-42.937
N13370 X-114.209 Y-42.814
N13375 X-114.134 Y-42.683
N13380 X-114.073 Y-42.544
N13385 X-114.026 Y-42.401
N13390 X-113.994 Y-42.253
N13395 X-113.978 Y-42.103
N13400 X-113.977 Y-41.951
N13405 X-113.991 Y-41.801
N13410 X-114.02 Y-41.653
N13415 X-114.065 Y-41.508
N13420 X-114.123 Y-41.369
N13425 X-114.196 Y-41.236
N13430 X-114.282 Y-41.112
N13435 X-114.38 Y-40.997
N13440 X-114.489 Y-40.893
N13445 X-114.608 Y-40.8
N13450 X-114.737 Y-40.72
N13455 X-114.872 Y-40.653
N13460 X-115.014 Y-40.6
N13465 X-115.091 Y-40.569 F#104
N13470 X-115.172 Y-40.551
N13475 X-115.256 Y-40.548
N13480 X-115.339 Y-40.559
N13485 X-115.42 Y-40.584
N13490 X-115.495 Y-40.623
N13495 X-115.562 Y-40.674
N13500 X-115.62 Y-40.737
N13505 X-115.667 Y-40.809
N13510 X-115.7 Y-40.888
N13515 X-115.72 Y-40.972
N13520 X-115.795 Y-41.59
N13525 X-115.834 Y-41.915 F#105
N13530 X-115.967 Y-43.006 F#103
N13535 G3 X-115.811 Y-43.433 I0.496 J-0.06
N13540 X-114.174 Y-43.259 I0.74 J0.825 F#100
N13545 X-114.813 Y-40.699 I-1.123 J1.08
N13550 G1 X-114.89 Y-40.668 F#104
N13555 X-114.972 Y-40.65
N13560 X-115.056 Y-40.647
N13565 X-115.139 Y-40.659
N13570 X-115.219 Y-40.684
N13575 X-115.294 Y-40.723
N13580 X-115.362 Y-40.774
N13585 X-115.419 Y-40.836
N13590 X-115.466 Y-40.908
N13595 X-115.5 Y-40.986
N13600 X-115.52 Y-41.069
N13605 X-115.604 Y-41.693
N13610 X-115.653 Y-42.059 F#105
N13615 X-115.8 Y-43.144 F#103
N13620 G3 X-115.646 Y-43.576 I0.496 J-0.067
N13625 X-115.263 Y-43.843 I0.768 J0.692 F#100
N13630 G1 X-115.247 Y-43.842 F#104
N13635 G3 X-114.893 Y-43.033 I-0.038 J0.499
N13640 G1 X-115.187 Y-42.663
N13645 X-115.718 Y-41.994 F#105
N13650 G3 X-116.51 Y-42.604 I-0.392 J-0.311
N13655 X-115.438 Y-43.753 I5.836 J4.371 F#103
N13660 X-115.128 Y-43.891 I0.661 J1.065 F#100
N13665 G1 X-115.113 Y-43.888 F#104
N13670 G3 X-114.794 Y-43.14 I-0.108 J0.488
N13675 G1 X-115.007 Y-42.788
N13680 G3 X-115.137 Y-42.646 I-0.427 J-0.26
N13685 X-115.725 Y-42.641 I-0.297 J-0.402 F#105
N13690 X-115.846 Y-43.332 I0.291 J-0.407 F#103
N13695 X-115.253 Y-43.848 I1.302 J0.899
N13700 X-114.586 Y-40.828 I0.209 J1.537 F#100
N13705 G1 X-114.664 Y-40.796 F#104
N13710 X-114.747 Y-40.778
N13715 X-114.832 Y-40.775
N13720 X-114.917 Y-40.787
N13725 X-114.998 Y-40.813
N13730 X-115.074 Y-40.854
N13735 X-115.142 Y-40.908
N13740 X-115.199 Y-40.974
N13745 X-115.245 Y-41.048
N13750 X-115.276 Y-41.13
N13755 X-115.293 Y-41.217
N13760 X-115.34 Y-41.816
N13765 X-115.391 Y-42.474 F#105
N13770 X-115.462 Y-43.38 F#103
N13775 G3 X-115.123 Y-43.893 I0.498 J-0.039
N13780 X-114.634 Y-43.948 I0.515 J2.369 F#100
N13785 X-114.152 Y-43.424 I-0.017 J0.5 F#104
N13790 X-114.683 Y-42.949 I-0.499 J-0.024
N13795 G1 X-114.704 Y-42.95 F#103
N13800 G3 X-114.746 Y-43.944 I0.031 J-0.499
N13805 X-114.285 Y-40.963 I-0.038 J1.532 F#100
N13810 G1 X-114.362 Y-40.94 F#104
N13815 X-114.441 Y-40.931
N13820 X-114.521 Y-40.935
N13825 X-114.6 Y-40.952
N13830 X-114.675 Y-40.982
N13835 X-114.744 Y-41.025
N13840 X-114.806 Y-41.078
N13845 X-114.858 Y-41.141
N13850 X-114.899 Y-41.213
N13855 X-114.928 Y-41.29
N13860 X-114.944 Y-41.372
N13865 X-114.997 Y-42.025
N13870 X-115.047 Y-42.648 F#105
N13875 X-115.109 Y-43.408 F#103
N13880 G3 X-114.629 Y-43.948 I0.498 J-0.041
N13885 G1 X-114.477 Y-43.957 F#100
N13890 X-114.326 Y-43.95
N13895 X-114.176 Y-43.928
N13900 X-114.029 Y-43.89
N13905 X-113.887 Y-43.838
N13910 X-113.751 Y-43.772
N13915 X-113.622 Y-43.691
N13920 X-113.503 Y-43.599
N13925 X-113.393 Y-43.494
N13930 X-113.295 Y-43.379
N13935 X-113.209 Y-43.254
N13940 X-113.136 Y-43.121
N13945 X-113.078 Y-42.981
N13950 X-113.033 Y-42.836
N13955 X-113.005 Y-42.687
N13960 X-112.991 Y-42.537
N13965 X-112.993 Y-42.385
N13970 X-113.01 Y-42.235
N13975 X-113.043 Y-42.087
N13980 X-113.091 Y-41.943
N13985 X-113.153 Y-41.805
N13990 X-113.229 Y-41.674
N13995 X-113.318 Y-41.551
N14000 X-113.419 Y-41.438
N14005 X-113.532 Y-41.337
N14010 X-113.654 Y-41.247
N14015 X-113.784 Y-41.17
N14020 X-113.922 Y-41.107
N14025 X-114.065 Y-41.058
N14030 X-114.278 Y-40.941
N14035 G3 X-114.943 Y-41.463 I-0.167 J-0.471 F#104
N14040 G1 X-114.885 Y-42.024
N14045 X-114.821 Y-42.65 F#105
N14050 X-114.734 Y-43.499 F#103
N14055 G3 X-114.254 Y-43.948 I0.497 J0.051
N14060 G1 X-114.111 Y-43.954 F#100
N14065 X-113.967 Y-43.946
N14070 X-113.826 Y-43.923
N14075 X-113.687 Y-43.885
N14080 X-113.553 Y-43.833
N14085 X-113.426 Y-43.767
N14090 X-113.306 Y-43.688
N14095 X-113.194 Y-43.598
N14100 X-113.093 Y-43.496
N14105 X-113.003 Y-43.384
N14110 X-112.925 Y-43.264
N14115 X-112.86 Y-43.136
N14120 X-112.808 Y-43.002
N14125 X-112.771 Y-42.863
N14130 X-112.748 Y-42.722
N14135 X-112.741 Y-42.578
N14140 X-112.748 Y-42.435
N14145 X-112.77 Y-42.293
N14150 X-112.806 Y-42.154
N14155 X-112.857 Y-42.02
N14160 X-112.922 Y-41.892
N14165 X-112.999 Y-41.771
N14170 X-113.089 Y-41.659
N14175 X-113.189 Y-41.557
N14180 X-113.3 Y-41.466
N14185 G3 X-114.057 Y-41.028 I-1.196 J-1.194
N14190 X-114.695 Y-41.589 I-0.145 J-0.478 F#104
N14195 G1 X-114.603 Y-42.136
N14200 X-114.515 Y-42.657 F#105
N14205 X-114.368 Y-43.531 F#103
N14210 G3 X-113.893 Y-43.948 I0.493 J0.083
N14215 G1 X-113.748 Y-43.95 F#100
N14220 X-113.605 Y-43.936
N14225 X-113.464 Y-43.906
N14230 X-113.327 Y-43.86
N14235 X-113.195 Y-43.8
N14240 X-113.072 Y-43.726
N14245 X-112.957 Y-43.638
N14250 X-112.853 Y-43.538
N14255 X-112.76 Y-43.428
N14260 X-112.68 Y-43.308
N14265 X-112.614 Y-43.179
N14270 X-112.562 Y-43.045
N14275 X-112.526 Y-42.905
N14280 X-112.505 Y-42.762
N14285 X-112.501 Y-42.618
N14290 X-112.512 Y-42.474
N14295 X-112.539 Y-42.332
N14300 X-112.582 Y-42.194
N14305 X-112.639 Y-42.062
N14310 X-112.711 Y-41.937
N14315 X-112.796 Y-41.82
N14320 X-112.894 Y-41.714
N14325 G3 X-113.872 Y-41.089 I-1.199 J-0.799
N14330 X-114.49 Y-41.681 I-0.13 J-0.483 F#104
N14335 G1 X-114.371 Y-42.211
N14340 X-114.269 Y-42.667 F#105
N14345 X-114.068 Y-43.558 F#103
N14350 G3 X-113.598 Y-43.948 I0.488 J0.11
N14355 X-112.66 Y-41.776 I0.087 J1.251 F#100
N14360 X-113.623 Y-41.166 I-1.309 J-1.
N14365 X-114.238 Y-41.772 I-0.13 J-0.483 F#104
N14370 G1 X-114.107 Y-42.284
N14375 X-114.008 Y-42.673 F#105
N14380 X-113.777 Y-43.572 F#103
N14385 G3 X-113.31 Y-43.948 I0.484 J0.124
N14390 G1 X-113.176 Y-43.95 F#100
N14395 X-113.042 Y-43.937
N14400 X-112.911 Y-43.909
N14405 X-112.783 Y-43.867
N14410 X-112.661 Y-43.811
N14415 X-112.546 Y-43.741
N14420 X-112.439 Y-43.66
N14425 X-112.342 Y-43.566
N14430 X-112.257 Y-43.463
N14435 X-112.183 Y-43.35
N14440 X-112.122 Y-43.23
N14445 X-112.075 Y-43.104
N14450 X-112.043 Y-42.974
N14455 X-112.025 Y-42.841
N14460 X-112.022 Y-42.706
N14465 X-112.034 Y-42.572
N14470 X-112.061 Y-42.441
N14475 X-112.103 Y-42.313
N14480 X-112.159 Y-42.191
N14485 X-112.228 Y-42.075
N14490 X-112.309 Y-41.968
N14495 G3 X-113.441 Y-41.216 I-1.283 J-0.703
N14500 X-114.027 Y-41.853 I-0.109 J-0.488 F#104
N14505 G1 X-113.871 Y-42.353
N14510 X-113.767 Y-42.687 F#105
N14515 X-113.483 Y-43.597 F#103
N14520 G3 X-113.023 Y-43.948 I0.477 J0.149
N14525 X-112.051 Y-42.04 I0.076 J1.163 F#100
N14530 X-113.233 Y-41.264 I-1.301 J-0.693
N14535 X-113.796 Y-41.922 I-0.092 J-0.492 F#104
N14540 G1 X-113.622 Y-42.416
N14545 X-113.522 Y-42.698 F#105
N14550 X-113.199 Y-43.615 F#103
N14555 G3 X-112.745 Y-43.948 I0.472 J0.166
N14560 X-111.806 Y-42.108 I0.069 J1.124 F#100
N14565 X-112.856 Y-41.338 I-1.201 J-0.538
N14570 X-113.394 Y-41.966 I-0.056 J-0.497 F#104
N14575 G1 X-113.237 Y-42.542
N14580 X-113.201 Y-42.677 F#105
N14585 X-112.955 Y-43.579 F#103
N14590 G3 X-112.49 Y-43.948 I0.482 J0.131
N14595 X-111.364 Y-42.574 I0.087 J1.077 F#100
N14600 X-112.856 Y-41.346 I-1.488 J-0.288
N14605 G1 X-112.942 Y-41.344 F#104
N14610 X-113.028 Y-41.356
N14615 X-113.11 Y-41.383
N14620 X-113.186 Y-41.424
N14625 X-113.254 Y-41.478
N14630 X-113.312 Y-41.543
N14635 X-113.358 Y-41.617
N14640 X-113.39 Y-41.698
N14645 X-113.407 Y-41.784
N14650 X-113.409 Y-41.871
N14655 X-113.396 Y-41.957
N14660 X-113.367 Y-42.04
N14665 X-113.155 Y-42.513
N14670 X-113.058 Y-42.729 F#105
N14675 X-112.642 Y-43.654 F#103
N14680 G3 X-112.203 Y-43.948 I0.456 J0.205
N14685 X-111.1 Y-42.726 I0.051 J1.062 F#100
N14690 X-112.604 Y-41.385 I-1.469 J-0.134
N14695 G1 X-112.69 Y-41.382 F#104
N14700 X-112.776 Y-41.394
N14705 X-112.858 Y-41.421
N14710 X-112.935 Y-41.462
N14715 X-113.003 Y-41.516
N14720 X-113.061 Y-41.581
N14725 X-113.106 Y-41.656
N14730 X-113.138 Y-41.737
N14735 X-113.155 Y-41.823
N14740 X-113.157 Y-41.91
N14745 X-113.143 Y-41.997
N14750 X-113.115 Y-42.08
N14755 X-112.901 Y-42.549
N14760 X-112.818 Y-42.731 F#105
N14765 X-112.395 Y-43.656 F#103
N14770 G3 X-111.958 Y-43.948 I0.455 J0.208
N14775 G1 X-111.834 Y-43.947 F#100
N14780 X-111.711 Y-43.932
N14785 X-111.59 Y-43.902
N14790 X-111.474 Y-43.858
N14795 X-111.364 Y-43.801
N14800 X-111.261 Y-43.732
N14805 X-111.167 Y-43.65
N14810 X-111.083 Y-43.559
N14815 X-111.011 Y-43.458
N14820 X-110.951 Y-43.349
N14825 X-110.904 Y-43.234
N14830 X-110.871 Y-43.114
N14835 X-110.853 Y-42.992
N14840 X-110.849 Y-42.868
N14845 X-110.859 Y-42.744
N14850 X-110.884 Y-42.622
N14855 X-110.923 Y-42.505
N14860 X-110.976 Y-42.392
N14865 X-111.041 Y-42.287
N14870 G3 X-112.417 Y-41.4 I-1.299 J-0.505
N14875 X-112.894 Y-42.118 I-0.027 J-0.499 F#104
N14880 G1 X-112.662 Y-42.597
N14885 X-112.592 Y-42.741 F#105
N14890 X-112.143 Y-43.666 F#103
N14895 G3 X-111.711 Y-43.948 I0.45 J0.218
N14900 G1 X-111.586 F#100
N14905 X-111.462 Y-43.932
N14910 X-111.341 Y-43.902
N14915 X-111.225 Y-43.858
N14920 X-111.115 Y-43.799
N14925 X-111.013 Y-43.728
N14930 X-110.92 Y-43.644
N14935 X-110.838 Y-43.55
N14940 X-110.768 Y-43.447
N14945 X-110.711 Y-43.336
N14950 X-110.668 Y-43.219
N14955 X-110.639 Y-43.098
N14960 X-110.626 Y-42.974
N14965 X-110.627 Y-42.849
N14970 X-110.644 Y-42.725
N14975 X-110.675 Y-42.605
N14980 X-110.721 Y-42.489
N14985 X-110.781 Y-42.379
N14990 G3 X-112.211 Y-41.419 I-1.368 J-0.492
N14995 X-112.679 Y-42.146 I-0.023 J-0.499 F#104
N15000 G1 X-112.439 Y-42.614
N15005 X-112.368 Y-42.751 F#105
N15010 X-111.893 Y-43.677 F#103
N15015 G3 X-111.466 Y-43.948 I0.445 J0.228
N15020 X-110.531 Y-42.44 I0.064 J1.004 F#100
N15025 X-112.024 Y-41.432 I-1.365 J-0.412
N15030 X-112.474 Y-42.173 I-0.012 J-0.5 F#104
N15035 G1 X-112.223 Y-42.63
N15040 X-112.148 Y-42.766 F#105
N15045 X-111.64 Y-43.689 F#103
N15050 G3 X-111.219 Y-43.948 I0.438 J0.241
N15055 X-110.254 Y-42.573 I0.06 J0.984 F#100
N15060 X-111.842 Y-41.44 I-1.416 J-0.305
N15065 X-112.273 Y-42.183 I0.006 J-0.5 F#104
N15070 G1 X-112.012 Y-42.653
N15075 X-111.948 Y-42.768 F#105
N15080 X-111.434 Y-43.691 F#103
N15085 G3 X-111.014 Y-43.948 I0.437 J0.243
N15090 G1 X-110.891 Y-43.946 F#100
N15095 X-110.768 Y-43.93
N15100 X-110.648 Y-43.899
N15105 X-110.533 Y-43.854
N15110 X-110.424 Y-43.796
N15115 X-110.322 Y-43.726
N15120 X-110.23 Y-43.644
N15125 X-110.147 Y-43.552
N15130 X-110.077 Y-43.45
N15135 X-110.018 Y-43.341
N15140 X-109.973 Y-43.226
N15145 X-109.942 Y-43.107
N15150 X-109.925 Y-42.984
N15155 X-109.922 Y-42.861
N15160 X-109.935 Y-42.738
N15165 X-109.961 Y-42.617
N15170 X-110.002 Y-42.5
N15175 X-110.056 Y-42.389
N15180 X-110.123 Y-42.285
N15185 X-110.202 Y-42.19
N15190 G3 X-111.61 Y-41.446 I-1.234 J-0.632
N15195 X-112.04 Y-42.191 I0.006 J-0.5 F#104
N15200 G1 X-111.778 Y-42.657
N15205 X-111.714 Y-42.77 F#105
N15210 X-111.195 Y-43.693 F#103
N15215 G3 X-110.777 Y-43.948 I0.436 J0.245
N15220 X-109.767 Y-42.539 I0.054 J1.027 F#100
N15225 X-111.418 Y-41.457 I-1.444 J-0.403
N15230 G1 X-111.503 Y-41.467 F#104
N15235 X-111.585 Y-41.49
N15240 X-111.661 Y-41.528
N15245 X-111.73 Y-41.579
N15250 X-111.79 Y-41.64
N15255 X-111.838 Y-41.711
N15260 X-111.873 Y-41.79
N15265 X-111.894 Y-41.873
N15270 X-111.9 Y-41.958
N15275 X-111.892 Y-42.044
N15280 X-111.869 Y-42.127
N15285 X-111.832 Y-42.205
N15290 X-111.559 Y-42.664
N15295 X-111.488 Y-42.783 F#105
N15300 X-110.941 Y-43.704 F#103
N15305 G3 X-110.528 Y-43.948 I0.43 J0.256
N15310 G1 X-110.4 Y-43.943 F#100
N15315 X-110.272 Y-43.922
N15320 X-110.149 Y-43.886
N15325 X-110.031 Y-43.835
N15330 X-109.92 Y-43.769
N15335 X-109.817 Y-43.691
N15340 X-109.726 Y-43.601
N15345 X-109.646 Y-43.499
N15350 X-109.579 Y-43.389
N15355 X-109.526 Y-43.272
N15360 X-109.488 Y-43.149
N15365 X-109.466 Y-43.022
N15370 X-109.459 Y-42.893
N15375 X-109.468 Y-42.765
N15380 X-109.493 Y-42.639
N15385 X-109.533 Y-42.516
N15390 X-109.588 Y-42.4
N15395 X-109.657 Y-42.291
N15400 X-109.739 Y-42.192
N15405 G3 X-111.19 Y-41.45 I-1.239 J-0.634
N15410 X-111.604 Y-42.201 I0.017 J-0.5 F#104
N15415 G1 X-111.333 Y-42.667
N15420 X-111.269 Y-42.778 F#105
N15425 X-110.732 Y-43.7 F#103
N15430 G3 X-110.318 Y-43.948 I0.432 J0.251
N15435 G1 X-110.197 Y-43.951 F#100
N15440 X-110.077 Y-43.94
N15445 X-109.959 Y-43.914
N15450 X-109.845 Y-43.873
N15455 X-109.737 Y-43.819
N15460 X-109.637 Y-43.752
N15465 X-109.545 Y-43.673
N15470 X-109.464 Y-43.584
N15475 X-109.394 Y-43.485
N15480 X-109.338 Y-43.378
N15485 X-109.294 Y-43.266
N15490 X-109.265 Y-43.149
N15495 X-109.25 Y-43.029
N15500 X-109.251 Y-42.908
N15505 X-109.266 Y-42.788
N15510 X-109.295 Y-42.671
N15515 X-109.339 Y-42.559
N15520 G3 X-110.959 Y-41.45 I-1.416 J-0.331
N15525 X-111.372 Y-42.205 I0.017 J-0.5 F#104
N15530 G1 X-111.099 Y-42.665
N15535 X-111.029 Y-42.782 F#105
N15540 X-110.484 Y-43.703 F#103
N15545 G3 X-110.071 Y-43.948 I0.43 J0.255
N15550 X-109.154 Y-42.433 I0.064 J0.996 F#100
N15555 X-110.729 Y-41.45 I-1.376 J-0.451
N15560 X-111.14 Y-42.208 I0.017 J-0.5 F#104
N15565 G1 X-110.865 Y-42.663
N15570 X-110.791 Y-42.787 F#105
N15575 X-110.236 Y-43.706 F#103
N15580 G3 X-109.826 Y-43.948 I0.428 J0.258
N15585 X-108.8 Y-42.987 I0.088 J0.934 F#100
N15590 X-110.503 Y-41.461 I-1.476 J0.067
N15595 G1 X-110.588 Y-41.47 F#104
N15600 X-110.67 Y-41.494
N15605 X-110.746 Y-41.532
N15610 X-110.815 Y-41.582
N15615 X-110.875 Y-41.644
N15620 X-110.923 Y-41.716
N15625 X-110.958 Y-41.795
N15630 X-110.978 Y-41.878
N15635 X-110.984 Y-41.965
N15640 X-110.975 Y-42.051
N15645 X-110.951 Y-42.134
N15650 X-110.912 Y-42.212
N15655 X-110.636 Y-42.66
N15660 X-110.554 Y-42.793 F#105
N15665 X-109.987 Y-43.711 F#103
N15670 G3 X-109.579 Y-43.948 I0.425 J0.263
N15675 X-108.685 Y-42.44 I0.036 J0.998 F#100
N15680 X-110.269 Y-41.45 I-1.378 J-0.443
N15685 X-110.681 Y-42.206 I0.017 J-0.5 F#104
N15690 G1 X-110.407 Y-42.664
N15695 X-110.336 Y-42.784 F#105
N15700 X-109.786 Y-43.705 F#103
N15705 G3 X-109.374 Y-43.948 I0.429 J0.256
N15710 X-108.379 Y-42.538 I0.044 J1.025 F#100
N15715 X-110.034 Y-41.457 I-1.446 J-0.406
N15720 G1 X-110.119 Y-41.467 F#104
N15725 X-110.201 Y-41.491
N15730 X-110.277 Y-41.529
N15735 X-110.346 Y-41.579
N15740 X-110.406 Y-41.641
N15745 X-110.454 Y-41.712
N15750 X-110.489 Y-41.791
N15755 X-110.509 Y-41.874
N15760 X-110.516 Y-41.96
N15765 X-110.507 Y-42.046
N15770 X-110.484 Y-42.129
N15775 X-110.446 Y-42.207
N15780 X-110.172 Y-42.664
N15785 X-110.1 Y-42.785 F#105
N15790 X-109.548 Y-43.705 F#103
N15795 G3 X-109.136 Y-43.948 I0.429 J0.257
N15800 G1 X-109.008 Y-43.943 F#100
N15805 X-108.88 Y-43.922
N15810 X-108.757 Y-43.885
N15815 X-108.639 Y-43.834
N15820 X-108.528 Y-43.768
N15825 X-108.426 Y-43.69
N15830 X-108.334 Y-43.599
N15835 X-108.255 Y-43.498
N15840 X-108.188 Y-43.387
N15845 X-108.136 Y-43.27
N15850 X-108.098 Y-43.146
N15855 X-108.076 Y-43.019
N15860 X-108.07 Y-42.891
N15865 X-108.079 Y-42.762
N15870 X-108.105 Y-42.636
N15875 X-108.146 Y-42.514
N15880 X-108.201 Y-42.397
N15885 X-108.271 Y-42.289
N15890 X-108.353 Y-42.19
N15895 G3 X-109.803 Y-41.45 I-1.238 J-0.637
N15900 X-110.217 Y-42.203 I0.017 J-0.5 F#104
N15905 G1 X-109.945 Y-42.666
N15910 X-109.878 Y-42.78 F#105
N15915 X-109.337 Y-43.702 F#103
N15920 G3 X-108.923 Y-43.948 I0.431 J0.253
N15925 X-107.916 Y-42.54 I0.055 J1.025 F#100
N15930 X-109.572 Y-41.457 I-1.446 J-0.404
N15935 G1 X-109.656 Y-41.467 F#104
N15940 X-109.738 Y-41.491
N15945 X-109.815 Y-41.529
N15950 X-109.884 Y-41.579
N15955 X-109.943 Y-41.641
N15960 X-109.991 Y-41.712
N15965 X-110.026 Y-41.79
N15970 X-110.047 Y-41.874
N15975 X-110.053 Y-41.959
N15980 X-110.045 Y-42.045
