%
(SETUP2-TOP-Z-HEAD-BASEPLATE-BEARING-SEAT-FINISH)
(T1  D=6. CR=0. - ZMIN=-4. - FLAT END MILL)
N10 G90 G94 G17 G91.1
N15 G21
N20 G53 G0 Z0.
(BEARING FINISH PASS)
N25 M9
N30 T1 M6
N35 S3200 M3
N40 G54
N45 M8
N55 G0 X-24.6 Y-13.
N60 G43 Z4. H1
N65 #102=330. (FINISH)
N70 #103=200. (ENTRY)
N75 #104=200. (EXIT)
N80 #108=100. (PLUNGE)
N85 G0 Z2.
N90 G1 Z1. F#103
N95 Z-3. F#108
N100 G18 G2 X-23.6 Z-4. I1. K0.
N105 G1 X-23. F#103
N110 G17 G3 X-22. Y-12. I0. J1.
N115 X-28. I-3. J0. F#102
N120 X-22. I3. J0.
N125 X-23. Y-11. I-1. J0. F#104
N130 G1 X-23.6
N135 G18 G3 X-24.6 Z-3. I0. K1.
N140 G0 Z4.
N145 G17
N150 M9
N155 G53 G0 Z0.
N160 M30
%
