%
(SETUP2-TOP-Z-HEAD-BASEPLATE-HONEYCOMB-2MM)
(T5  D=1.96 CR=0. - ZMIN=-8.5 - FLAT END MILL)
N10 G90 G94 G17 G91.1
N15 G21
N20 G53 G0 Z0.
(2D CONTOUR6)
N25 M9
N30 T5 M6
N35 S3700 M3
N40 G54
N45 M9
N55 G0 X-33.979 Y-37.538
N60 G43 Z4. H5
N65 #100=80. (CUTTING)
N70 #106=30. (REDUCED)
N75 #107=80. (RAMPING)
N80 G0 Z-1.
N85 G1 Y-45.673 Z-1.092 F#107
N90 G3 X-33.969 Y-45.69 I0.02 J0.
N95 G1 X-25.01 Y-50.863 Z-1.208
N100 G3 X-24.99 I0.01 J0.017
N105 G1 X-16.031 Y-45.69 Z-1.325
N110 G3 X-16.021 Y-45.673 I-0.01 J0.017
N115 G1 Y-35.327 Z-1.442
N120 G3 X-16.031 Y-35.31 I-0.02 J0.
N125 G1 X-24.99 Y-30.137 Z-1.558
N130 G3 X-25.01 I-0.01 J-0.017
N135 G1 X-33.969 Y-35.31 Z-1.675
N140 G3 X-33.979 Y-35.327 I0.01 J-0.017
N145 G1 Y-45.673 Z-1.792
N150 G3 X-33.969 Y-45.69 I0.02 J0.
N155 G1 X-25.01 Y-50.863 Z-1.908
N160 G3 X-24.99 I0.01 J0.017
N165 G1 X-16.031 Y-45.69 Z-2.025
N170 G3 X-16.021 Y-45.673 I-0.01 J0.017
N175 G1 Y-35.327 Z-2.142
N180 G3 X-16.031 Y-35.31 I-0.02 J0.
N185 G1 X-24.99 Y-30.137 Z-2.258
N190 G3 X-25.01 I-0.01 J-0.017
N195 G1 X-33.969 Y-35.31 Z-2.375
N200 G3 X-33.979 Y-35.327 I0.01 J-0.017
N205 G1 Y-45.673 Z-2.492
N210 G3 X-33.969 Y-45.69 I0.02 J0.
N215 G1 X-25.01 Y-50.863 Z-2.608
N220 G3 X-24.99 I0.01 J0.017
N225 G1 X-16.031 Y-45.69 Z-2.725
N230 G3 X-16.021 Y-45.673 I-0.01 J0.017
N235 G1 Y-35.327 Z-2.842
N240 G3 X-16.031 Y-35.31 I-0.02 J0.
N245 G1 X-24.99 Y-30.137 Z-2.958
N250 G3 X-25.01 I-0.01 J-0.017
N255 G1 X-33.969 Y-35.31 Z-3.075
N260 G3 X-33.979 Y-35.327 I0.01 J-0.017
N265 G1 Y-45.673 Z-3.192
N270 G3 X-33.969 Y-45.69 I0.02 J0.
N275 G1 X-25.01 Y-50.863 Z-3.308
N280 G3 X-24.99 I0.01 J0.017
N285 G1 X-16.031 Y-45.69 Z-3.425
N290 G3 X-16.021 Y-45.673 I-0.01 J0.017
N295 G1 Y-35.327 Z-3.542
N300 G3 X-16.031 Y-35.31 I-0.02 J0.
N305 G1 X-24.99 Y-30.137 Z-3.658
N310 G3 X-25.01 I-0.01 J-0.017
N315 G1 X-33.969 Y-35.31 Z-3.775
N320 G3 X-33.979 Y-35.327 I0.01 J-0.017
N325 G1 Y-45.673 Z-3.892
N330 G3 X-33.969 Y-45.69 I0.02 J0.
N335 G1 X-25.01 Y-50.863 Z-4.008
N340 G3 X-24.99 I0.01 J0.017
N345 G1 X-16.031 Y-45.69 Z-4.125
N350 G3 X-16.021 Y-45.673 I-0.01 J0.017
N355 G1 Y-35.327 Z-4.242
N360 G3 X-16.031 Y-35.31 I-0.02 J0.
N365 G1 X-24.99 Y-30.137 Z-4.358
N370 G3 X-25.01 I-0.01 J-0.017
N375 G1 X-33.969 Y-35.31 Z-4.475
N380 G3 X-33.979 Y-35.327 I0.01 J-0.017
N385 G1 Y-45.673 Z-4.592
N390 G3 X-33.969 Y-45.69 I0.02 J0.
N395 G1 X-25.01 Y-50.863 Z-4.708
N400 G3 X-24.99 I0.01 J0.017
N405 G1 X-16.031 Y-45.69 Z-4.825
N410 G3 X-16.021 Y-45.673 I-0.01 J0.017
N415 G1 Y-35.327 Z-4.942
N420 G3 X-16.031 Y-35.31 I-0.02 J0.
N425 G1 X-24.99 Y-30.137 Z-5.058
N430 G3 X-25.01 I-0.01 J-0.017
N435 G1 X-33.969 Y-35.31 Z-5.175
N440 G3 X-33.979 Y-35.327 I0.01 J-0.017
N445 G1 Y-45.673 Z-5.292
N450 G3 X-33.969 Y-45.69 I0.02 J0.
N455 G1 X-25.01 Y-50.863 Z-5.408
N460 G3 X-24.99 I0.01 J0.017
N465 G1 X-16.031 Y-45.69 Z-5.525
N470 G3 X-16.021 Y-45.673 I-0.01 J0.017
N475 G1 Y-35.327 Z-5.642
N480 G3 X-16.031 Y-35.31 I-0.02 J0.
N485 G1 X-24.99 Y-30.137 Z-5.758
N490 G3 X-25.01 I-0.01 J-0.017
N495 G1 X-33.969 Y-35.31 Z-5.875
N500 G3 X-33.979 Y-35.327 I0.01 J-0.017
N505 G1 Y-45.673 Z-5.992
N510 G3 X-33.969 Y-45.69 I0.02 J0.
N515 G1 X-25.01 Y-50.863 Z-6.108
N520 G3 X-24.99 I0.01 J0.017
N525 G1 X-16.031 Y-45.69 Z-6.225
N530 G3 X-16.021 Y-45.673 I-0.01 J0.017
N535 G1 Y-35.327 Z-6.342
N540 G3 X-16.031 Y-35.31 I-0.02 J0.
N545 G1 X-24.99 Y-30.137 Z-6.458
N550 G3 X-25.01 I-0.01 J-0.017
N555 G1 X-33.969 Y-35.31 Z-6.575
N560 G3 X-33.979 Y-35.327 I0.01 J-0.017
N565 G1 Y-45.673 Z-6.692
N570 G3 X-33.969 Y-45.69 I0.02 J0.
N575 G1 X-25.01 Y-50.863 Z-6.808
N580 G3 X-24.99 I0.01 J0.017
N585 G1 X-16.031 Y-45.69 Z-6.925
N590 G3 X-16.021 Y-45.673 I-0.01 J0.017
N595 G1 Y-35.327 Z-7.042
N600 G3 X-16.031 Y-35.31 I-0.02 J0.
N605 G1 X-24.99 Y-30.137 Z-7.158
N610 G3 X-25.01 I-0.01 J-0.017
N615 G1 X-33.969 Y-35.31 Z-7.275
N620 G3 X-33.979 Y-35.327 I0.01 J-0.017
N625 G1 Y-45.673 Z-7.392
N630 G3 X-33.969 Y-45.69 I0.02 J0.
N635 G1 X-25.01 Y-50.863 Z-7.508
N640 G3 X-24.99 I0.01 J0.017
N645 G1 X-16.031 Y-45.69 Z-7.625
N650 G3 X-16.021 Y-45.673 I-0.01 J0.017
N655 G1 Y-35.327 Z-7.742
N660 G3 X-16.031 Y-35.31 I-0.02 J0.
N665 G1 X-24.99 Y-30.137 Z-7.858
N670 G3 X-25.01 I-0.01 J-0.017
N675 G1 X-33.969 Y-35.31 Z-7.975
N680 G3 X-33.979 Y-35.327 I0.01 J-0.017
N685 G1 Y-45.673 Z-8.092
N690 G3 X-33.969 Y-45.69 I0.02 J0.
N695 G1 X-25.01 Y-50.863 Z-8.208
N700 G3 X-24.99 I0.01 J0.017
N705 G1 X-16.031 Y-45.69 Z-8.325
N710 G3 X-16.021 Y-45.673 I-0.01 J0.017
N715 G1 Y-35.327 Z-8.442
N720 G3 X-16.031 Y-35.31 I-0.02 J0.
N725 G1 X-20.51 Y-32.724 Z-8.5
N730 X-24.651 Y-30.333 F#100
N735 X-24.99 Y-30.137 F#106
N740 G3 X-25.01 I-0.01 J-0.017
N745 G1 X-33.63 Y-35.114 F#100
N750 X-33.969 Y-35.31 F#106
N755 G3 X-33.979 Y-35.327 I0.01 J-0.017
N760 G1 Y-45.281 F#100
N765 Y-45.673 F#106
N770 G3 X-33.969 Y-45.69 I0.02 J0.
N775 G1 X-25.349 Y-50.667 F#100
N780 X-25.01 Y-50.863 F#106
N785 G3 X-24.99 I0.01 J0.017
N790 G1 X-16.37 Y-45.886 F#100
N795 X-16.031 Y-45.69 F#106
N800 G3 X-16.021 Y-45.673 I-0.01 J0.017
N805 G1 Y-35.719 F#100
N810 Y-35.327 F#106
N815 G3 X-16.031 Y-35.31 I-0.02 J0.
N820 G1 X-20.51 Y-32.724 F#100
N825 X-24.651 Y-30.333
N830 X-24.99 Y-30.137 F#106
N835 G3 X-25.01 I-0.01 J-0.017
N840 G1 X-33.63 Y-35.114 F#100
N845 X-33.969 Y-35.31 F#106
N850 G3 X-33.979 Y-35.327 I0.01 J-0.017
N855 G1 Y-45.281 F#100
N860 Y-45.673 F#106
N865 G3 X-33.969 Y-45.69 I0.02 J0.
N870 G1 X-25.349 Y-50.667 F#100
N875 X-25.01 Y-50.863 F#106
N880 G3 X-24.99 I0.01 J0.017
N885 G1 X-16.37 Y-45.886 F#100
N890 X-16.031 Y-45.69 F#106
N895 G3 X-16.021 Y-45.673 I-0.01 J0.017
N900 G1 Y-35.719 F#100
N905 Y-35.327 F#106
N910 G3 X-16.031 Y-35.31 I-0.02 J0.
N915 G1 X-20.51 Y-32.724 F#100
N920 G0 Z2.
N925 X-18.619 Y-64.605
N930 Z-1.
N935 G1 Y-58.827 Z-1.091 F#107
N940 G3 X-18.629 Y-58.81 Z-1.092 I-0.02 J0.
N945 G1 X-24.99 Y-55.137 Z-1.208
N950 G3 X-25.01 I-0.01 J-0.017
N955 G1 X-31.371 Y-58.81 Z-1.325
N960 G3 X-31.381 Y-58.827 I0.01 J-0.017
N965 G1 Y-66.173 Z-1.441
N970 G3 X-31.371 Y-66.19 Z-1.442 I0.02 J0.
N975 G1 X-25.01 Y-69.863 Z-1.558
N980 G3 X-24.99 I0.01 J0.017
N985 G1 X-18.629 Y-66.19 Z-1.675
N990 G3 X-18.619 Y-66.173 I-0.01 J0.017
N995 G1 Y-58.827 Z-1.791
N1000 G3 X-18.629 Y-58.81 Z-1.792 I-0.02 J0.
N1005 G1 X-24.99 Y-55.137 Z-1.908
N1010 G3 X-25.01 I-0.01 J-0.017
N1015 G1 X-31.371 Y-58.81 Z-2.025
N1020 G3 X-31.381 Y-58.827 I0.01 J-0.017
N1025 G1 Y-66.173 Z-2.141
N1030 G3 X-31.371 Y-66.19 Z-2.142 I0.02 J0.
N1035 G1 X-25.01 Y-69.863 Z-2.258
N1040 G3 X-24.99 I0.01 J0.017
N1045 G1 X-18.629 Y-66.19 Z-2.375
N1050 G3 X-18.619 Y-66.173 I-0.01 J0.017
N1055 G1 Y-58.827 Z-2.491
N1060 G3 X-18.629 Y-58.81 Z-2.492 I-0.02 J0.
N1065 G1 X-24.99 Y-55.137 Z-2.608
N1070 G3 X-25.01 I-0.01 J-0.017
N1075 G1 X-31.371 Y-58.81 Z-2.725
N1080 G3 X-31.381 Y-58.827 I0.01 J-0.017
N1085 G1 Y-66.173 Z-2.841
N1090 G3 X-31.371 Y-66.19 Z-2.842 I0.02 J0.
N1095 G1 X-25.01 Y-69.863 Z-2.958
N1100 G3 X-24.99 I0.01 J0.017
N1105 G1 X-18.629 Y-66.19 Z-3.075
N1110 G3 X-18.619 Y-66.173 I-0.01 J0.017
N1115 G1 Y-58.827 Z-3.191
N1120 G3 X-18.629 Y-58.81 Z-3.192 I-0.02 J0.
N1125 G1 X-24.99 Y-55.137 Z-3.308
N1130 G3 X-25.01 I-0.01 J-0.017
N1135 G1 X-31.371 Y-58.81 Z-3.425
N1140 G3 X-31.381 Y-58.827 I0.01 J-0.017
N1145 G1 Y-66.173 Z-3.541
N1150 G3 X-31.371 Y-66.19 Z-3.542 I0.02 J0.
N1155 G1 X-25.01 Y-69.863 Z-3.658
N1160 G3 X-24.99 I0.01 J0.017
N1165 G1 X-18.629 Y-66.19 Z-3.775
N1170 G3 X-18.619 Y-66.173 I-0.01 J0.017
N1175 G1 Y-58.827 Z-3.891
N1180 G3 X-18.629 Y-58.81 Z-3.892 I-0.02 J0.
N1185 G1 X-24.99 Y-55.137 Z-4.008
N1190 G3 X-25.01 I-0.01 J-0.017
N1195 G1 X-31.371 Y-58.81 Z-4.125
N1200 G3 X-31.381 Y-58.827 I0.01 J-0.017
N1205 G1 Y-66.173 Z-4.241
N1210 G3 X-31.371 Y-66.19 Z-4.242 I0.02 J0.
N1215 G1 X-25.01 Y-69.863 Z-4.358
N1220 G3 X-24.99 I0.01 J0.017
N1225 G1 X-18.629 Y-66.19 Z-4.475
N1230 G3 X-18.619 Y-66.173 I-0.01 J0.017
N1235 G1 Y-58.827 Z-4.591
N1240 G3 X-18.629 Y-58.81 Z-4.592 I-0.02 J0.
N1245 G1 X-24.99 Y-55.137 Z-4.708
N1250 G3 X-25.01 I-0.01 J-0.017
N1255 G1 X-31.371 Y-58.81 Z-4.825
N1260 G3 X-31.381 Y-58.827 I0.01 J-0.017
N1265 G1 Y-66.173 Z-4.941
N1270 G3 X-31.371 Y-66.19 Z-4.942 I0.02 J0.
N1275 G1 X-25.01 Y-69.863 Z-5.058
N1280 G3 X-24.99 I0.01 J0.017
N1285 G1 X-18.629 Y-66.19 Z-5.175
N1290 G3 X-18.619 Y-66.173 I-0.01 J0.017
N1295 G1 Y-58.827 Z-5.291
N1300 G3 X-18.629 Y-58.81 Z-5.292 I-0.02 J0.
N1305 G1 X-24.99 Y-55.137 Z-5.408
N1310 G3 X-25.01 I-0.01 J-0.017
N1315 G1 X-31.371 Y-58.81 Z-5.525
N1320 G3 X-31.381 Y-58.827 I0.01 J-0.017
N1325 G1 Y-66.173 Z-5.641
N1330 G3 X-31.371 Y-66.19 Z-5.642 I0.02 J0.
N1335 G1 X-25.01 Y-69.863 Z-5.758
N1340 G3 X-24.99 I0.01 J0.017
N1345 G1 X-18.629 Y-66.19 Z-5.875
N1350 G3 X-18.619 Y-66.173 I-0.01 J0.017
N1355 G1 Y-58.827 Z-5.991
N1360 G3 X-18.629 Y-58.81 Z-5.992 I-0.02 J0.
N1365 G1 X-24.99 Y-55.137 Z-6.108
N1370 G3 X-25.01 I-0.01 J-0.017
N1375 G1 X-31.371 Y-58.81 Z-6.225
N1380 G3 X-31.381 Y-58.827 I0.01 J-0.017
N1385 G1 Y-66.173 Z-6.341
N1390 G3 X-31.371 Y-66.19 Z-6.342 I0.02 J0.
N1395 G1 X-25.01 Y-69.863 Z-6.458
N1400 G3 X-24.99 I0.01 J0.017
N1405 G1 X-18.629 Y-66.19 Z-6.575
N1410 G3 X-18.619 Y-66.173 I-0.01 J0.017
N1415 G1 Y-58.827 Z-6.691
N1420 G3 X-18.629 Y-58.81 Z-6.692 I-0.02 J0.
N1425 G1 X-24.99 Y-55.137 Z-6.808
N1430 G3 X-25.01 I-0.01 J-0.017
N1435 G1 X-31.371 Y-58.81 Z-6.925
N1440 G3 X-31.381 Y-58.827 I0.01 J-0.017
N1445 G1 Y-66.173 Z-7.041
N1450 G3 X-31.371 Y-66.19 Z-7.042 I0.02 J0.
N1455 G1 X-25.01 Y-69.863 Z-7.158
N1460 G3 X-24.99 I0.01 J0.017
N1465 G1 X-18.629 Y-66.19 Z-7.275
N1470 G3 X-18.619 Y-66.173 I-0.01 J0.017
N1475 G1 Y-58.827 Z-7.391
N1480 G3 X-18.629 Y-58.81 Z-7.392 I-0.02 J0.
N1485 G1 X-24.99 Y-55.137 Z-7.508
N1490 G3 X-25.01 I-0.01 J-0.017
N1495 G1 X-31.371 Y-58.81 Z-7.625
N1500 G3 X-31.381 Y-58.827 I0.01 J-0.017
N1505 G1 Y-66.173 Z-7.741
N1510 G3 X-31.371 Y-66.19 Z-7.742 I0.02 J0.
N1515 G1 X-25.01 Y-69.863 Z-7.858
N1520 G3 X-24.99 I0.01 J0.017
N1525 G1 X-18.629 Y-66.19 Z-7.975
N1530 G3 X-18.619 Y-66.173 I-0.01 J0.017
N1535 G1 Y-58.827 Z-8.091
N1540 G3 X-18.629 Y-58.81 Z-8.092 I-0.02 J0.
N1545 G1 X-24.99 Y-55.137 Z-8.208
N1550 G3 X-25.01 I-0.01 J-0.017
N1555 G1 X-31.371 Y-58.81 Z-8.325
N1560 G3 X-31.381 Y-58.827 I0.01 J-0.017
N1565 G1 Y-66.173 Z-8.441
N1570 G3 X-31.371 Y-66.19 Z-8.442 I0.02 J0.
N1575 G1 X-28.191 Y-68.026 Z-8.5
N1580 X-25.349 Y-69.667 F#100
N1585 X-25.01 Y-69.863 F#106
N1590 G3 X-24.99 I0.01 J0.017
N1595 G1 X-18.968 Y-66.386 F#100
N1600 X-18.629 Y-66.19 F#106
N1605 G3 X-18.619 Y-66.173 I-0.01 J0.017
N1610 G1 Y-59.219 F#100
N1615 Y-58.827 F#106
N1620 G3 X-18.629 Y-58.81 I-0.02 J0.
N1625 G1 X-24.651 Y-55.333 F#100
N1630 X-24.99 Y-55.137 F#106
N1635 G3 X-25.01 I-0.01 J-0.017
N1640 G1 X-31.032 Y-58.614 F#100
N1645 X-31.371 Y-58.81 F#106
N1650 G3 X-31.381 Y-58.827 I0.01 J-0.017
N1655 G1 Y-65.781 F#100
N1660 Y-66.173 F#106
N1665 G3 X-31.371 Y-66.19 I0.02 J0.
N1670 G1 X-28.191 Y-68.026 F#100
N1675 X-25.349 Y-69.667
N1680 X-25.01 Y-69.863 F#106
N1685 G3 X-24.99 I0.01 J0.017
N1690 G1 X-18.968 Y-66.386 F#100
N1695 X-18.629 Y-66.19 F#106
N1700 G3 X-18.619 Y-66.173 I-0.01 J0.017
N1705 G1 Y-59.219 F#100
N1710 Y-58.827 F#106
N1715 G3 X-18.629 Y-58.81 I-0.02 J0.
N1720 G1 X-24.651 Y-55.333 F#100
N1725 X-24.99 Y-55.137 F#106
N1730 G3 X-25.01 I-0.01 J-0.017
N1735 G1 X-31.032 Y-58.614 F#100
N1740 X-31.371 Y-58.81 F#106
N1745 G3 X-31.381 Y-58.827 I0.01 J-0.017
N1750 G1 Y-65.781 F#100
N1755 Y-66.173 F#106
N1760 G3 X-31.371 Y-66.19 I0.02 J0.
N1765 G1 X-28.191 Y-68.026 F#100
N1770 G0 Z4.
N1780 M9
N1785 G53 Z0.
N1790 M30
%
