%
(SETUP2-TOP-Z-HEAD-BASEPLATE-STEPPER-FLANGE-FINISH)
(T1  D=5.92 CR=0. - ZMIN=-9. - FLAT END MILL)
N10 G90 G94 G17 G91.1
N15 G21
N20 G53 G0 Z0.
(2D CONTOUR4)
N25 M9
N30 T1 M6
N35 S3200 M3
N40 G54
N45 M8
N55 G0 X-18.736 Y-84.592
N60 G43 Z4. H1
N65 #102=330. (FINISH)
N70 #103=200. (ENTRY)
N75 #104=200. (EXIT)
N80 #108=100. (PLUNGE)
N85 G0 Z2.
N90 G1 Z1. F#103
N95 Z-8.408 F#108
N100 G18 G2 X-18.144 Z-9. I0.592 K0.
N105 G1 X-17.552 F#103
N110 G17 G3 X-16.96 Y-84. I0. J0.592
N115 X-33.04 I-8.04 J0. F#102
N120 G1 Y-105.
N125 G3 X-16.96 I8.04 J0.
N130 G1 Y-84.
N135 G3 X-33.04 I-8.04 J0.
N140 G1 Y-105.
N145 G3 X-16.96 I8.04 J0.
N150 G1 Y-84.
N155 G3 X-17.552 Y-83.408 I-0.592 J0. F#104
N160 G1 X-18.144
N165 G18 G3 X-18.736 Z-8.408 I0. K0.592
N170 G0 Z4.
N175 G17
N180 M9
N185 G53 G0 Z0.
N190 M30
%
