%
(SETUP2-TOP-Z-HEAD-BASEPLATE3MM-DRILL)
(T130  D=3. CR=0. TAPER=118DEG - ZMIN=-9.901 - DRILL)
N10 G90 G94 G17 G91.1
N15 G21
N20 G53 G0 Z0.
(DRILL1 4)
N25 M9
N30 T130 M6
N35 S3200 M3
N40 G54
N45 M9
N55 G0 X-15. Y-7.5
N60 G43 Z5. H0
N70 G0 Z3.
N75 G98 G83 X-15. Y-7.5 Z-9.901 R2. Q2. F60.
N80 X-35.
N85 Y-52.5
N90 X-15.
N95 X-42.7 Y-8.5
N100 X-29.5 Y-2.75
N105 X-20.5
N110 X-25. Y-12.
N115 Y-23.
N120 X-7.3 Y-8.5
N125 Y-48.5
N130 X-42.7
N135 G80
N140 G0 Z5.
N150 M9
N155 G53 Z0.
N160 M30
%
