%
(SETUP3-BOTTOM-Z-HEAD-BASEPLATE-COUNTERBORE-2MM)
(T5  D=1.96 CR=0. - ZMIN=-2.3 - FLAT END MILL)
N10 G90 G94 G17 G91.1
N15 G21
N20 G53 G0 Z0.
(COUNTERBORE-MILL-2MM)
N25 M9
N30 T5 M6
N35 S3700 M3
N40 G54
N45 M9
N55 G0 X-97.815 Y-23.59
N60 G43 Z6. H5
N65 #100=80. (CUTTING)
N70 #103=80. (ENTRY)
N75 #104=80. (EXIT)
N80 #106=20. (REDUCED)
N85 #107=80. (RAMPING)
N90 G0 Z3.
N95 G1 Z1. F#103
N100 G3 X-96.516 Y-24.822 Z0.951 I0.649 J-0.616 F#107
N105 X-97.815 Y-23.59 Z0.902 I-0.649 J0.616
N110 X-96.516 Y-24.822 Z0.853 I0.649 J-0.616
N115 X-97.815 Y-23.59 Z0.804 I-0.649 J0.616
N120 X-96.516 Y-24.822 Z0.755 I0.649 J-0.616
N125 X-97.815 Y-23.59 Z0.706 I-0.649 J0.616
N130 X-96.516 Y-24.822 Z0.656 I0.649 J-0.616
N135 X-97.815 Y-23.59 Z0.607 I-0.649 J0.616
N140 X-96.516 Y-24.822 Z0.558 I0.649 J-0.616
N145 X-97.815 Y-23.59 Z0.509 I-0.649 J0.616
N150 X-96.516 Y-24.822 Z0.46 I0.649 J-0.616
N155 X-97.815 Y-23.59 Z0.411 I-0.649 J0.616
N160 X-96.516 Y-24.822 Z0.362 I0.649 J-0.616
N165 X-97.815 Y-23.59 Z0.313 I-0.649 J0.616
N170 X-96.516 Y-24.822 Z0.264 I0.649 J-0.616
N175 X-97.815 Y-23.59 Z0.215 I-0.649 J0.616
N180 X-96.516 Y-24.822 Z0.166 I0.649 J-0.616
N185 X-97.815 Y-23.59 Z0.117 I-0.649 J0.616
N190 X-96.516 Y-24.822 Z0.068 I0.649 J-0.616
N195 X-97.815 Y-23.59 Z0.018 I-0.649 J0.616
N200 X-96.516 Y-24.822 Z-0.031 I0.649 J-0.616
N205 X-97.815 Y-23.59 Z-0.08 I-0.649 J0.616
N210 X-96.516 Y-24.822 Z-0.129 I0.649 J-0.616
N215 X-97.815 Y-23.59 Z-0.178 I-0.649 J0.616
N220 X-96.516 Y-24.822 Z-0.227 I0.649 J-0.616
N225 X-97.815 Y-23.59 Z-0.276 I-0.649 J0.616
N230 X-96.516 Y-24.822 Z-0.325 I0.649 J-0.616
N235 X-97.815 Y-23.59 Z-0.374 I-0.649 J0.616
N240 X-96.516 Y-24.822 Z-0.423 I0.649 J-0.616
N245 X-97.815 Y-23.59 Z-0.472 I-0.649 J0.616
N250 X-96.516 Y-24.822 Z-0.521 I0.649 J-0.616
N255 X-97.815 Y-23.59 Z-0.571 I-0.649 J0.616
N260 X-96.516 Y-24.822 Z-0.62 I0.649 J-0.616
N265 X-97.815 Y-23.59 Z-0.669 I-0.649 J0.616
N270 X-96.516 Y-24.822 Z-0.718 I0.649 J-0.616
N275 X-97.815 Y-23.59 Z-0.767 I-0.649 J0.616
N280 X-96.516 Y-24.822 Z-0.816 I0.649 J-0.616
N285 X-97.815 Y-23.59 Z-0.865 I-0.649 J0.616
N290 X-96.516 Y-24.822 Z-0.914 I0.649 J-0.616
N295 X-97.815 Y-23.59 Z-0.963 I-0.649 J0.616
N300 X-96.516 Y-24.822 Z-1.012 I0.649 J-0.616
N305 X-97.815 Y-23.59 Z-1.061 I-0.649 J0.616
N310 X-96.516 Y-24.822 Z-1.11 I0.649 J-0.616
N315 X-97.348 Y-23.33 Z-1.15 I-0.649 J0.616
N320 X-98.009 Y-24.339 I0.174 J-0.835
N325 X-97. Y-25. I0.835 J0.174
N330 G1 X-96.99 Y-24.998 F#106
N335 G3 X-96.97 Y-24.966 I-0.005 J0.026
N340 G1 X-96.973 Y-24.952
N345 X-96.978 Y-24.939
N350 X-96.987 Y-24.928
N355 X-96.997 Y-24.919
N360 X-97.01 Y-24.913
N365 X-97.023 Y-24.909
N370 X-97.035 Y-24.907
N375 G3 X-97.101 Y-24.922 I-0.013 J-0.095
N380 G1 X-97.11 Y-24.928 F#100
N385 G3 X-97.161 Y-24.996 I0.069 J-0.104
N390 G1 X-97.164 Y-25.006
N395 G3 X-97.16 Y-25.108 I0.148 J-0.046
N400 G1 X-97.155 Y-25.12
N405 G3 X-97.078 Y-25.213 I0.179 J0.07
N410 G1 X-97.071 Y-25.218
N415 G3 X-96.939 Y-25.251 I0.117 J0.186
N420 G1 X-96.928 Y-25.25
N425 G3 X-96.782 Y-25.192 I-0.018 J0.254
N430 G1 X-96.774 Y-25.185
N435 G3 X-96.68 Y-25.037 I-0.183 J0.22
N440 G1 X-96.678 Y-25.027
N445 G3 X-96.688 Y-24.834 I-0.308 J0.081
N450 G1 X-96.692 Y-24.824
N455 G3 X-96.823 Y-24.658 I-0.328 J-0.124
N460 G1 X-96.832 Y-24.652
N465 G3 X-97.053 Y-24.587 I-0.214 J-0.317
N470 G1 X-97.063
N475 G3 X-97.3 Y-24.668 I0.008 J-0.412
N480 G1 X-97.309 Y-24.674
N485 G3 X-97.468 Y-24.897 I0.266 J-0.359
N490 G1 X-97.476 Y-24.92
N495 G3 X-97.406 Y-25.362 I0.472 J-0.151
N500 X-97.241 Y-25.512 I0.444 J0.321
N505 X-97.027 Y-25.587 I0.287 J0.479
N510 G1 X-97.021
N515 G3 X-96.786 Y-25.57 I0.076 J0.58
N520 X-96.565 Y-25.456 I-0.161 J0.585
N525 X-96.401 Y-25.258 I-0.393 J0.491
N530 X-96.326 Y-25.002 I-0.574 J0.306
N535 G1 X-96.324 Y-24.945
N540 G3 X-96.359 Y-24.73 I-0.672 J0.
N545 X-96.501 Y-24.485 I-0.658 J-0.218
N550 X-96.736 Y-24.31 I-0.535 J-0.475
N555 X-97.028 Y-24.24 I-0.314 J-0.667
N560 G1 X-97.055
N565 G3 X-97.332 Y-24.292 I0. J-0.759
N570 X-97.598 Y-24.465 I0.28 J-0.721
N575 G1 X-97.603 Y-24.47
N580 G3 X-97.786 Y-24.749 I0.57 J-0.573
N585 X-97.843 Y-25.051 I0.765 J-0.302
N590 G1 Y-25.085
N595 G3 X-97.757 Y-25.426 I0.845 J0.03
N600 G1 X-97.755 Y-25.431
N605 G3 X-97.537 Y-25.711 I0.782 J0.382
N610 X-97.219 Y-25.887 I0.58 J0.675
N615 X-96.947 Y-25.929 I0.272 J0.868
N620 X-96.852 Y-25.924 I0. J0.91
N625 X-96.49 Y-25.81 I-0.093 J0.929
N630 X-96.196 Y-25.558 I-0.462 J0.837
N635 X-96.02 Y-25.202 I-0.771 J0.601
N640 X-95.987 Y-24.947 I-0.966 J0.255
N645 X-95.998 Y-24.798 I-0.999 J0.
N650 X-96.14 Y-24.409 I-1.01 J-0.148
N655 X-96.429 Y-24.101 I-0.889 J-0.544
N660 X-96.823 Y-23.928 I-0.616 J-0.867
N665 X-97.054 Y-23.903 I-0.231 J-1.06
N670 X-97.262 Y-23.923 I0. J-1.085
N675 X-97.676 Y-24.096 I0.208 J-1.084
N680 G1 X-97.68 Y-24.099
N685 G3 X-97.999 Y-24.43 I0.636 J-0.932
N690 G1 X-98.002 Y-24.434
N695 G3 X-98.166 Y-24.878 I0.976 J-0.613
N700 X-98.18 Y-25.054 I1.158 J-0.177
N705 X-98.139 Y-25.361 I1.172 J0.
N710 X-97.915 Y-25.802 I1.153 J0.308
N715 G1 X-97.911 Y-25.807
N720 G3 X-97.528 Y-26.122 I0.954 J0.768
N725 X-97.054 Y-26.26 I0.575 J1.089
N730 G1 X-97.048 Y-26.261
N735 G3 X-96.546 Y-26.2 I0.103 J1.257
N740 X-96.097 Y-25.942 I-0.401 J1.218
N745 X-95.78 Y-25.522 I-0.861 J0.979
N750 X-95.652 Y-25.002 I-1.196 J0.572
N755 G1 X-95.651 Y-24.945
N760 G3 X-95.739 Y-24.465 I-1.347 J0.
N765 X-96.034 Y-23.998 I-1.281 J-0.483
N770 G1 X-96.066 Y-23.966
N775 G3 X-96.815 Y-23.566 I-0.992 J-0.957
N780 X-97.2 Y-23.552 I-0.243 J-1.357 F#106
N785 G1 X-97.205
N790 G3 X-97.493 Y-23.612 I0.15 J-1.453 F#100
N795 X-97.766 Y-23.729 I0.441 J-1.405
N800 X-98.012 Y-23.9 I0.715 J-1.289
N805 X-98.228 Y-24.128 I0.978 J-1.142
N810 X-98.39 Y-24.392 I1.194 J-0.916
N815 X-98.496 Y-24.687 I1.366 J-0.658
N820 X-98.54 Y-24.999 I1.483 J-0.367
N825 G1 X-98.541 Y-25.055
N830 G3 X-98.518 Y-25.317 I1.539 J0.
N835 X-98.432 Y-25.625 I1.528 J0.263
N840 X-98.283 Y-25.911 I1.452 J0.574
N845 X-98.076 Y-26.163 I1.312 J0.865
N850 X-97.539 Y-26.514 I1.12 J1.128
N855 X-97.227 Y-26.602 I0.59 J1.494
N860 X-96.946 Y-26.627 I0.281 J1.593
N865 G1 X-96.901 Y-26.626
N870 G3 X-96.575 Y-26.584 I-0.044 J1.628
N875 X-96.262 Y-26.477 I-0.371 J1.596
N880 X-95.975 Y-26.308 I-0.688 J1.5
N885 X-95.726 Y-26.084 I-0.981 J1.341
N890 X-95.525 Y-25.813 I-1.237 J1.125
N895 X-95.382 Y-25.505 I-1.447 J0.86
N900 G1 X-95.378 Y-25.493
N905 G3 X-95.304 Y-25.183 I-1.494 J0.518
N910 G1 X-95.28 Y-25.
N915 G3 X-98.72 I-1.72 J0.
N920 X-95.28 I1.72 J0.
N925 X-95.304 Y-24.936 Z-1.137 I-0.1 J0.
N930 X-95.354 Y-24.903 Z-1.1 I-0.076 J-0.064
N935 G1 X-95.36 Y-24.902 Z-1.095
N940 X-95.397 Y-24.894 Z-1.07
N945 X-95.438 Y-24.886 Z-1.055
N950 X-95.482 Y-24.877 Z-1.05
N955 X-97.882 Y-24.378
N960 G3 X-97.994 Y-24.517 I-0.02 J-0.098
N965 G1 Z-1.15
N970 G3 X-96.36 Y-23.786 Z-1.199 I0.817 J0.365 F#107
N975 X-97.994 Y-24.517 Z-1.248 I-0.817 J-0.365
N980 X-96.36 Y-23.786 Z-1.297 I0.817 J0.365
N985 X-97.994 Y-24.517 Z-1.346 I-0.817 J-0.365
N990 X-96.36 Y-23.786 Z-1.395 I0.817 J0.365
N995 X-97.994 Y-24.517 Z-1.444 I-0.817 J-0.365
N1000 X-96.36 Y-23.786 Z-1.494 I0.817 J0.365
N1005 X-97.994 Y-24.517 Z-1.543 I-0.817 J-0.365
N1010 X-96.36 Y-23.786 Z-1.592 I0.817 J0.365
N1015 X-97.994 Y-24.517 Z-1.641 I-0.817 J-0.365
N1020 X-96.36 Y-23.786 Z-1.69 I0.817 J0.365
N1025 X-97.994 Y-24.517 Z-1.739 I-0.817 J-0.365
N1030 X-96.36 Y-23.786 Z-1.788 I0.817 J0.365
N1035 X-97.994 Y-24.517 Z-1.837 I-0.817 J-0.365
N1040 X-96.36 Y-23.786 Z-1.886 I0.817 J0.365
N1045 X-97.994 Y-24.517 Z-1.935 I-0.817 J-0.365
N1050 X-96.36 Y-23.786 Z-1.984 I0.817 J0.365
N1055 X-97.994 Y-24.517 Z-2.033 I-0.817 J-0.365
N1060 X-96.36 Y-23.786 Z-2.082 I0.817 J0.365
N1065 X-97.994 Y-24.517 Z-2.132 I-0.817 J-0.365
N1070 X-96.36 Y-23.786 Z-2.181 I0.817 J0.365
N1075 X-97.994 Y-24.517 Z-2.23 I-0.817 J-0.365
N1080 X-96.36 Y-23.786 Z-2.279 I0.817 J0.365
N1085 X-97.36 Y-23.275 Z-2.3 I-0.817 J-0.365
N1090 X-97. Y-25. I0.18 J-0.862
N1095 G1 X-96.99 Y-24.998 F#106
N1100 G3 X-96.968 Y-24.964 I-0.006 J0.027
N1105 G1 X-96.972 Y-24.949
N1110 X-96.975 Y-24.94
N1115 X-96.98 Y-24.931
N1120 X-96.986 Y-24.924
N1125 X-96.997 Y-24.914
N1130 X-97.01 Y-24.908
N1135 X-97.024 Y-24.904 F#100
N1140 X-97.037 Y-24.902
N1145 G3 X-97.107 Y-24.918 I-0.014 J-0.101
N1150 G1 X-97.116 Y-24.924
N1155 G3 X-97.17 Y-24.995 I0.073 J-0.11
N1160 G1 X-97.173 Y-25.006
N1165 G3 X-97.169 Y-25.114 I0.156 J-0.048
N1170 G1 X-97.164 Y-25.127
N1175 G3 X-97.083 Y-25.225 I0.19 J0.074
N1180 G1 X-97.075 Y-25.23
N1185 G3 X-96.935 Y-25.265 I0.123 J0.197
N1190 G1 X-96.923 Y-25.264
N1195 G3 X-96.77 Y-25.203 I-0.019 J0.269
N1200 G1 X-96.761 Y-25.196
N1205 G3 X-96.662 Y-25.039 I-0.194 J0.233
N1210 G1 X-96.659 Y-25.029
N1215 G3 X-96.67 Y-24.824 I-0.326 J0.085
N1220 G1 X-96.674 Y-24.814
N1225 G3 X-96.813 Y-24.638 I-0.347 J-0.131
N1230 G1 X-96.822 Y-24.632
N1235 G3 X-97.057 Y-24.563 I-0.226 J-0.335
N1240 G1 X-97.067
N1245 G3 X-97.317 Y-24.648 I0.009 J-0.436
N1250 G1 X-97.327 Y-24.655
N1255 G3 X-97.496 Y-24.891 I0.281 J-0.38
N1260 G1 X-97.504 Y-24.915
N1265 G3 X-97.429 Y-25.383 I0.499 J-0.16
N1270 X-97.255 Y-25.542 I0.469 J0.339
N1275 X-97.028 Y-25.621 I0.304 J0.507
N1280 G1 X-97.022
N1285 G3 X-96.773 Y-25.603 I0.08 J0.614
N1290 X-96.539 Y-25.483 I-0.171 J0.619
N1295 X-96.366 Y-25.273 I-0.415 J0.519
N1300 X-96.287 Y-25.002 I-0.607 J0.324
N1305 G1 X-96.284 Y-24.942
N1310 G3 X-96.322 Y-24.714 I-0.711 J0.
N1315 X-96.472 Y-24.455 I-0.697 J-0.231
N1320 X-96.72 Y-24.27 I-0.566 J-0.502
N1325 X-97.03 Y-24.196 I-0.332 J-0.705
N1330 G1 X-97.058
N1335 G3 X-97.352 Y-24.251 I0. J-0.803
N1340 X-97.633 Y-24.434 I0.296 J-0.763
N1345 G1 X-97.638 Y-24.44
N1350 G3 X-97.831 Y-24.734 I0.603 J-0.606
N1355 X-97.892 Y-25.054 I0.809 J-0.32
N1360 G1 Y-25.09
N1365 X-97.891 Y-25.095
N1370 G3 X-97.801 Y-25.451 I0.894 J0.036
N1375 G1 X-97.799 Y-25.456
N1380 G3 X-97.568 Y-25.753 I0.827 J0.404
N1385 X-97.232 Y-25.939 I0.614 J0.715
N1390 X-96.944 Y-25.983 I0.287 J0.919
N1395 X-96.843 Y-25.977 I0. J0.963
N1400 G1 X-96.838
N1405 G3 X-96.46 Y-25.857 I-0.104 J0.983
N1410 X-96.149 Y-25.59 I-0.489 J0.885
N1415 X-95.963 Y-25.214 I-0.815 J0.636
N1420 X-95.928 Y-24.944 I-1.022 J0.27
N1425 X-95.94 Y-24.786 I-1.057 J0.
N1430 X-96.09 Y-24.375 I-1.068 J-0.156
N1435 X-96.395 Y-24.049 I-0.941 J-0.576
N1440 X-96.813 Y-23.866 I-0.652 J-0.917
N1445 X-97.057 Y-23.839 I-0.244 J-1.122
N1450 X-97.277 Y-23.861 I0. J-1.148
N1455 X-97.716 Y-24.043 I0.22 J-1.147
N1460 G1 X-97.72 Y-24.046
N1465 G3 X-98.058 Y-24.397 I0.673 J-0.986
N1470 G1 X-98.061 Y-24.402
N1475 G3 X-98.234 Y-24.871 I1.033 J-0.649
N1480 X-98.248 Y-25.058 I1.226 J-0.187
N1485 X-98.205 Y-25.382 I1.24 J0.
N1490 X-97.968 Y-25.848 I1.22 J0.326
N1495 G1 X-97.964 Y-25.854
N1500 G3 X-97.559 Y-26.187 I1.009 J0.813
N1505 X-97.057 Y-26.334 I0.608 J1.152
N1510 G1 X-97.051
N1515 G3 X-96.52 Y-26.27 I0.109 J1.33
N1520 X-96.045 Y-25.997 I-0.425 J1.289
N1525 X-95.71 Y-25.552 I-0.911 J1.036
N1530 X-95.574 Y-25.002 I-1.265 J0.605
N1535 G1 X-95.572 Y-24.942
N1540 G3 X-95.666 Y-24.434 I-1.425 J0.
N1545 X-95.978 Y-23.94 I-1.355 J-0.511
N1550 G1 X-96.011 Y-23.906
N1555 G3 X-96.826 Y-23.479 I-1.05 J-1.012
N1560 X-97.211 Y-23.467 I-0.235 J-1.439 F#106
N1565 G1 X-97.217 Y-23.468
N1570 G3 X-97.522 Y-23.531 I0.159 J-1.538 F#100
N1575 X-97.811 Y-23.655 I0.466 J-1.487
N1580 X-98.071 Y-23.836 I0.756 J-1.364
N1585 X-98.299 Y-24.077 I1.035 J-1.209
N1590 X-98.471 Y-24.356 I1.263 J-0.969
N1595 X-98.583 Y-24.668 I1.446 J-0.696
N1600 X-98.629 Y-24.999 I1.569 J-0.388
N1605 G1 X-98.63 Y-25.058
N1610 G3 X-98.607 Y-25.335 I1.628 J0.
N1615 X-98.515 Y-25.662 I1.616 J0.278
N1620 X-98.357 Y-25.964 I1.536 J0.608
N1625 X-98.139 Y-26.23 I1.389 J0.916
N1630 X-97.57 Y-26.602 I1.185 J1.193
N1635 X-97.24 Y-26.695 I0.624 J1.581
N1640 X-96.943 Y-26.721 I0.297 J1.685
N1645 G1 X-96.895
N1650 G3 X-96.551 Y-26.676 I-0.047 J1.722
N1655 X-96.219 Y-26.563 I-0.393 J1.689
N1660 X-95.915 Y-26.384 I-0.728 J1.587
N1665 X-95.652 Y-26.147 I-1.038 J1.419
N1670 X-95.439 Y-25.86 I-1.309 J1.19
N1675 X-95.288 Y-25.534 I-1.531 J0.91
N1680 G1 X-95.284 Y-25.521
N1685 G3 X-95.206 Y-25.194 I-1.58 J0.548
N1690 G1 X-95.18 Y-25.
N1695 G3 X-98.82 I-1.82 J0.
N1700 X-95.18 I1.82 J0.
N1705 G2 X-95.131 Y-24.926 I0.081 J0.
N1710 G3 X-95.086 Y-24.85 I-0.03 J0.07
N1715 X-98.914 Y-25.15 I-1.914 J-0.15
N1720 X-95.086 Y-24.85 I1.914 J0.15
N1725 X-98.914 Y-25.15 I-1.914 J-0.15
N1730 X-95.086 Y-24.85 I1.914 J0.15
N1735 X-95.106 Y-24.778 Z-2.285 I-0.195 J-0.015 F#104
N1740 X-95.143 Y-24.727 Z-2.243 I-0.176 J-0.087
N1745 X-95.176 Y-24.7 Z-2.179 I-0.139 J-0.139
N1750 G1 X-95.189 Y-24.693 Z-2.104
N1755 G0 Z6.
N1765 M9
N1770 G53 Z0.
N1775 M30
%
