%
(SETUP3-BOTTOM-Z-HEAD-BASEPLATE-CUTOUT-4MM)
(T2  D=4. CR=0. - ZMIN=-8. - FLAT END MILL)
N10 G90 G94 G17 G91.1
N15 G21
N20 G53 G0 Z0.
(2D CONTOUR7)
N25 M9
N30 T2 M6
N35 S3300 M3
N40 G54
N45 M9
N55 G0 X-123.2 Y-25.4
N60 G43 Z4. H2
N65 #102=220. (FINISH)
N70 #103=210. (ENTRY)
N75 #104=210. (EXIT)
N80 #108=120. (PLUNGE)
N85 G0 Z2.
N90 G1 Z1. F#103
N95 Z-7.6 F#108
N100 G18 G2 X-122.8 Z-8. I0.4 K0.
N105 G1 X-122.4 F#103
N110 G17 G3 X-122. Y-25. I0. J0.4
N115 G1 Y-2. F#102
N120 G2 X-121.414 Y-0.586 I2. J0.
N125 G1 X-119.414 Y1.414
N130 G2 X-118. Y2. I1.414 J-1.414
N135 G1 X-0.2
N140 G2 X1.214 Y1.414 I0. J-2.
N145 G1 X1.414 Y1.214
N150 G2 X2. Y-0.2 I-1.414 J-1.414
N155 G1 Y-49.8
N160 G2 X1.414 Y-51.214 I-2. J0.
N165 G1 X1.214 Y-51.414
N170 G2 X-0.2 Y-52. I-1.414 J1.414
N175 G1 X-118.
N180 G2 X-119.414 Y-51.414 I0. J2.
N185 G1 X-121.414 Y-49.414
N190 G2 X-122. Y-48. I1.414 J1.414
N195 G1 Y-2.
N200 G2 X-121.414 Y-0.586 I2. J0.
N205 G1 X-119.414 Y1.414
N210 G2 X-118. Y2. I1.414 J-1.414
N215 G1 X-0.2
N220 G2 X1.214 Y1.414 I0. J-2.
N225 G1 X1.414 Y1.214
N230 G2 X2. Y-0.2 I-1.414 J-1.414
N235 G1 Y-49.8
N240 G2 X1.414 Y-51.214 I-2. J0.
N245 G1 X1.214 Y-51.414
N250 G2 X-0.2 Y-52. I-1.414 J1.414
N255 G1 X-118.
N260 G2 X-119.414 Y-51.414 I0. J2.
N265 G1 X-121.414 Y-49.414
N270 G2 X-122. Y-48. I1.414 J1.414
N275 G1 Y-25.
N280 G3 X-122.4 Y-24.6 I-0.4 J0. F#104
N285 G1 X-122.8
N290 G18 G3 X-123.2 Z-7.6 I0. K0.4
N295 G0 Z4.
N300 G17
N305 M9
N310 G53 G0 Z0.
N315 M30
%
