%
(SETUP1-TOP-Z-HEAD-BASEPLATE-SPOTDRILL)
(T70  D=10. CR=0. TAPER=90DEG - ZMIN=-5.5 - SPOT DRILL)
N10 G90 G94 G17 G91.1
N15 G21
N20 G53 G0 Z0.
(DRILL1)
N25 M9
N30 T70 M6
N35 S3000 M3
N40 G54
N45 M9
N55 G0 X-112.5 Y-15.
N60 G43 Z5. H70
N70 G0 Z3.
N75 G98 G81 X-112.5 Y-15. Z-5.5 R-0.5 F70.
N80 Y-35.
N85 X-67.5
N90 Y-15.
N95 G80
N105 G0 X-71.5 Y-7.3 Z3.
N110 G81 X-71.5 Y-7.3 Z-2. R3. F70.
N115 Y-42.7
N120 X-97. Y-25.
N125 X-111.5 Y-42.7
N130 X-117.25 Y-29.5
N135 Y-20.5
N140 X-111.5 Y-7.3
N145 G80
N150 G0 Z5.
N160 M9
N165 G53 Z0.
N170 M30
%
