%
(SETUP2-TOP-Z-HEAD-BASEPLATE-SPOTDRILL)
(T70  D=10. CR=0. TAPER=90DEG - ZMIN=-5.5 - SPOT DRILL)
N10 G90 G94 G17 G91.1
N15 G21
N20 G53 G0 Z0.
(SPOT DRILLING)
N25 M9
N30 T70 M6
N35 S3000 M3
N40 G54
N45 M9
N55 G0 X-15. Y-7.5
N60 G43 Z5. H70
N70 G0 Z3.
N75 G98 G81 X-15. Y-7.5 Z-5.5 R3. F70.
N80 X-35.
N85 Y-52.5
N90 X-15.
N95 G80
N105 G0 X-42.7 Y-8.5 Z3.
N110 G81 X-42.7 Y-8.5 Z-2. R3. F70.
N115 X-29.5 Y-2.75
N120 X-20.5
N125 X-25. Y-12.
N130 Y-23.
N135 X-7.3 Y-8.5
N140 Y-48.5
N145 X-42.7
N150 G80
N155 G0 Z5.
N165 M9
N170 G53 Z0.
N175 M30
%
