%
(C-HEAD-BASE-RIG2-SIDE)
(6MM TWO FLUTE)
(T4  D=1.6 CR=0. TAPER=118DEG - ZMIN=-5. - DRILL)
N10 G90 G94 G17 G91.1
N15 G21
N20 G53 G0 Z0.
(DRILL8 2)
N25 M9
N30 T4 M6
N35 S2900 M3
N40 G54
N45 M9
N55 G0 X-4. Y-4.417
N60 G43 Z15. H4
N70 G0 Z5.
N75 G98 G81 X-4. Y-4.417 Z-5. R5. F87.
N80 Y-12.
N85 Y-24.
N90 Y-36.5
N95 Y-43.
N100 Y-49.5
N105 Y-56.
N110 Y-62.5
N115 Y-69.
N120 Y-75.5
N125 Y-82.
N130 Y-88.5
N135 Y-95.
N140 Y-101.5
N145 Y-108.
N150 Y-114.5
N155 G80
N160 G0 Z15.
N170 M9
N175 G53 Z0.
N180 M30
%
