%
(SETUP2-TOP-Z-HEAD-BASEPLATE-STEPPER-SLOTS-FINISH)
(T5  D=1.9 CR=0. - ZMIN=-8.5 - FLAT END MILL)
N10 G90 G94 G17 G91.1
N15 G21
N20 G53 G0 Z0.
(2D CONTOUR5)
N25 M9
N30 T5 M6
N35 S3700 M3
N40 G54
N45 M9
N55 G0 X-9.52 Y-114.64
N60 G43 Z4. H5
N65 #102=150. (FINISH)
N70 #103=130. (ENTRY)
N75 #104=150. (EXIT)
N80 #108=110. (PLUNGE)
N85 G0 Z2.
N90 G1 Z1. F#103
N95 Z-8.26 F#108
N100 G18 G2 X-9.28 Z-8.5 I0.24 K0.
N105 G1 X-9.09 F#103
N110 G17 G3 X-8.85 Y-114.4 I0. J0.24
N115 G1 Y-74.6 F#102
N120 G3 X-10.15 I-0.65 J0.
N125 G1 Y-114.4
N130 G3 X-8.85 I0.65 J0.
N135 G1 Y-74.6
N140 G3 X-10.15 I-0.65 J0.
N145 G1 Y-114.4
N150 G3 X-8.85 I0.65 J0.
N155 X-9.09 Y-114.16 I-0.24 J0. F#104
N160 G1 X-9.28
N165 G18 G3 X-9.52 Z-8.26 I0. K0.24
N170 G0 Z2.
N175 X-40.52 Y-114.313
N180 G1 Z1. F#103
N185 Z-8.26 F#108
N190 G2 X-40.28 Z-8.5 I0.24 K0.
N195 G1 X-40.09 F#103
N200 G17 G3 X-39.85 Y-114.073 I0. J0.24
N205 G1 Y-74.6 F#102
N210 G3 X-41.15 I-0.65 J0.
N215 G1 Y-114.4
N220 G3 X-39.85 I0.65 J0.
N225 G1 Y-74.6
N230 G3 X-41.15 I-0.65 J0.
N235 G1 Y-114.4
N240 G3 X-39.85 I0.65 J0.
N245 G1 Y-114.073
N250 G3 X-40.09 Y-113.833 I-0.24 J0. F#104
N255 G1 X-40.28
N260 G18 G3 X-40.52 Z-8.26 I0. K0.24
N265 G0 Z4.
N270 G17
N275 M9
N280 G53 G0 Z0.
N285 M30
%
