%
(SETUP3-BOTTOM-Z-HEAD-BASEPLATE-POCKETING-4MM-NON-ADAPTIVE)
(T2  D=4. CR=0. - ZMIN=-3.5 - FLAT END MILL)
N10 G90 G94 G17 G91.1
N15 G21
N20 G53 G0 Z0.
(2D POCKET5)
N25 M9
N30 T2 M6
N35 S3300 M3
N40 G54
N45 M9
N55 G0 X-122.638 Y-30.126
N60 G43 Z6. H2
N65 #100=220. (CUTTING)
N70 #103=210. (ENTRY)
N75 #104=210. (EXIT)
N80 #106=155. (REDUCED)
N85 G0 Z5.
N90 G1 Z-3.3 F#103
N95 X-122.635 Y-30.119 Z-3.352
N100 X-122.627 Y-30.101 Z-3.4
N105 X-122.614 Y-30.072 Z-3.441
N110 X-122.597 Y-30.034 Z-3.473
N115 X-122.578 Y-29.99 Z-3.493
N120 X-122.557 Y-29.943 Z-3.5
N125 X-122.548 Y-29.925
N130 G2 X-122.198 Y-29.217 I9.146 J-4.088 F#100
N135 G3 X-122.076 Y-28.307 I-1.123 J0.612
N140 G2 X-122.297 Y-27.306 I29.026 J6.919
N145 X-122.429 Y-26.289 I7.13 J1.442
N150 X-122.421 Y-23.978 I18.633 J1.091
N155 X-122.076 Y-21.693 I13.695 J-0.897
N160 G3 X-122.198 Y-20.783 I-1.244 J0.297
N165 G2 X-122.549 Y-20.067 I7.997 J4.361
N170 G1 Z-3.4
N175 X-122.554 Y-20.054
N180 X-122.556 Y-20.04
N185 X-122.557 Y-20.026
N190 X-122.55 Y-14.726
N195 Y-14.679 Z-3.406
N200 Y-14.634 Z-3.423
N205 Y-14.594 Z-3.45
N210 Y-14.555 Z-3.477
N215 Y-14.51 Z-3.494
N220 X-122.549 Y-14.462 Z-3.5
N225 X-122.526 Y-14.218
N230 G2 X-122.391 Y-13.107 I64.348 J-7.272
N235 X-122.353 Y-12.895 I2.251 J-0.294
N240 G1 X-122.308 Y-12.684
N245 G3 X-122.549 Y-12.384 I-0.246 J0.049
N250 G1 Z-3.4
N255 G3 X-122.651 Y-12.484 I-0.002 J-0.1
N260 G1 X-122.649 Y-37.412
N265 Y-37.466 Z-3.407
N270 Y-37.516 Z-3.429
N275 G3 X-122.645 Y-37.543 Z-3.45 I0.1 J0.
N280 X-122.611 Y-37.594 Z-3.487 I0.096 J0.028
N285 X-122.546 Y-37.616 Z-3.5 I0.062 J0.078
N290 X-122.308 Y-37.316 I-0.009 J0.251
N295 G2 X-122.525 Y-34.205 I12.257 J2.42
N300 X-122.042 Y-31.125 I15.523 J-0.858
N305 X-121.703 Y-30.204 I4.911 J-1.286
N310 X-121.231 Y-29.344 I8.611 J-4.157
N315 G3 X-121.101 Y-28.496 I-0.937 J0.578
N320 G2 X-121.404 Y-27.185 I30.955 J7.838
N325 X-121.542 Y-25.847 I6.406 J1.338
N330 X-121.491 Y-23.817 I40.109 J0.
N335 X-121.188 Y-21.809 I10.293 J-0.522
N340 G1 X-121.145 Y-21.657
N345 X-121.101 Y-21.504
N350 G3 X-121.231 Y-20.656 I-1.067 J0.27
N355 G2 X-122.242 Y-18.082 I6.635 J4.091
N360 X-122.55 Y-15.681 I17.392 J3.45
N365 G1 Z-3.4
N370 G3 X-122.75 Y-15.687 I-0.1 J-0.006
N375 G1 X-122.65 Y-38.308
N380 Y-38.346 Z-3.404
N385 X-122.649 Y-38.382 Z-3.414
N390 Y-38.416 Z-3.432
N395 G3 X-122.646 Y-38.44 Z-3.45 I0.1 J0.
N400 X-122.614 Y-38.492 Z-3.487 I0.097 J0.025
N405 X-122.549 Y-38.516 Z-3.5 I0.065 J0.076
N410 G1 X-121.382
N415 G3 X-121.165 Y-38.224 I0. J0.227
N420 G2 X-121.638 Y-35.245 I10.654 J3.218
N425 X-121.389 Y-32.239 I14.507 J0.311
N430 X-120.974 Y-30.817 I7.519 J-1.421
N435 X-120.267 Y-29.516 I5.868 J-2.348
N440 G3 X-120.119 Y-28.702 I-0.801 J0.567
N445 X-120.429 Y-27.532 I-137.793 J-35.949
N450 G2 X-120.623 Y-26.337 I5.704 J1.54
N455 X-120.677 Y-24.484 I31.243 J1.829
N460 X-120.484 Y-22.639 I8.967 J-0.007
N465 X-120.309 Y-21.967 I7.392 J-1.56
N470 G3 X-120.119 Y-21.298 I-14.836 J4.589
N475 X-120.267 Y-20.484 I-0.949 J0.248
N480 G2 X-121.343 Y-17.994 I5.372 J3.799
N485 X-121.667 Y-15.3 I16.581 J3.365
N490 X-121.563 Y-13.517 I9.122 J0.362
N495 X-121.165 Y-11.776 I12.885 J-2.03
N500 G3 X-121.382 Y-11.484 I-0.217 J0.066
N505 G1 X-122.549
N510 Z-3.4
N515 G3 X-122.649 Y-11.584 I0. J-0.1
N520 G1 X-122.647 Y-39.208
N525 Y-39.246 Z-3.404
N530 Y-39.282 Z-3.414
N535 Y-39.316 Z-3.431
N540 G3 X-122.644 Y-39.34 Z-3.45 I0.1 J0.
N545 X-122.612 Y-39.392 Z-3.487 I0.097 J0.025
N550 X-122.547 Y-39.416 Z-3.5 I0.065 J0.076
N555 G1 X-120.849
N560 X-120.049 F#106
N565 G3 X-119.871 Y-39.135 I0. J0.197
N570 G2 X-120.75 Y-35.396 I8.384 J3.942 F#100
N575 X-120.301 Y-31.581 I13.855 J0.304
N580 X-119.912 Y-30.635 I3.718 J-0.974
N585 X-119.344 Y-29.785 I6.731 J-3.881
N590 G3 X-119.149 Y-28.87 I-0.863 J0.662
N595 X-119.445 Y-27.776 I-18.865 J-4.503
N600 G2 X-119.687 Y-26.668 I7.021 J2.116
N605 X-119.778 Y-25.193 I9.633 J1.338
N610 X-119.725 Y-23.716 I33.331 J-0.471
N615 X-119.494 Y-22.41 I5.692 J-0.333
N620 G3 X-119.149 Y-21.13 I-22.188 J6.658
N625 X-119.344 Y-20.215 I-1.058 J0.253
N630 G2 X-119.912 Y-19.365 I6.163 J4.731
N635 X-120.301 Y-18.419 I3.329 J1.92
N640 X-120.75 Y-14.604 I13.407 J3.511
N645 X-120.18 Y-11.603 I9.262 J-0.203
N650 X-119.871 Y-10.865 I8.693 J-3.204 F#106
N655 G3 X-120.049 Y-10.584 I-0.178 J0.084
N660 G1 X-122.549 F#100
N665 Z-3.4
N670 G3 X-122.649 Y-10.684 I0. J-0.1
N675 G1 X-122.643 Y-40.112
N680 Y-40.15 Z-3.404
N685 Y-40.186 Z-3.414
N690 Y-40.22 Z-3.431
N695 G3 X-122.64 Y-40.244 Z-3.45 I0.1 J0.
N700 X-122.608 Y-40.296 Z-3.487 I0.097 J0.025
N705 X-122.543 Y-40.32 Z-3.5 I0.065 J0.076
N710 G1 X-119.246
N715 X-118.446 F#106
N720 G3 X-118.307 Y-40.065 I0.005 J0.162
N725 G2 X-118.834 Y-39.263 I17.202 J11.867 F#100
N730 X-119.249 Y-38.397 I3.698 J2.308
N735 X-119.833 Y-35.778 I10.754 J3.771
N740 X-119.718 Y-33.097 I9.301 J0.945
N745 X-119.388 Y-31.694 I15.961 J-3.017
N750 X-118.741 Y-30.405 I3.681 J-1.041
N755 X-118.365 Y-29.941 I8.882 J-6.818
N760 G3 X-118.186 Y-29.372 I-0.577 J0.494
N765 X-118.527 Y-27.728 I-7.958 J-0.792
N770 G2 X-118.834 Y-26.078 I6.385 J2.042
N775 X-118.853 Y-24.341 I18.076 J1.058
N780 X-118.64 Y-22.617 I10.194 J-0.382
N785 X-118.357 Y-21.554 I10.293 J-2.172
N790 G3 X-118.177 Y-20.467 I-3.543 J1.145
N795 X-118.283 Y-20.179 I-0.427 J0.007
N800 G2 X-118.476 Y-19.94 I2.882 J2.534
N805 X-119.191 Y-18.749 I5.544 J4.136
N810 X-119.619 Y-17.427 I4.983 J2.345
N815 X-119.785 Y-13.702 I12.906 J2.439
N820 X-118.757 Y-10.595 I7.415 J-0.73
N825 X-118.503 Y-10.2 I6.388 J-3.836 F#106
N830 G1 X-118.405 Y-10.067
N835 X-118.307 Y-9.935
N840 G3 X-118.446 Y-9.68 I-0.134 J0.092
N845 G1 X-122.55 Y-9.681 F#100
N850 Z-3.4
N855 G3 X-122.649 Y-9.781 I0. J-0.1
N860 G1 Y-40.966
N865 G19 G3 Y-41.073 Z-3.431 J0. K-0.2
N870 G17 G3 X-122.646 Y-41.098 Z-3.45 I0.1 J0.
N875 X-122.614 Y-41.149 Z-3.487 I0.097 J0.025
N880 X-122.549 Y-41.173 Z-3.5 I0.065 J0.076
N885 G1 X-118.66 Y-41.172
N890 G2 X-116.665 Y-41.608 I0. J-4.776
N895 X-115.011 Y-42.808 I-2.187 J-4.755
N900 G3 X-114.701 Y-42.943 I0.31 J0.287
N905 G1 X-72.272 Y-42.899
N910 X-71.472 Y-42.898 F#106
N915 G3 X-71.294 Y-42.685 I-0.013 J0.192
N920 X-71.5 Y-42.5 I-0.206 J-0.022 F#100
N925 G1 X-112.182 Y-42.476
N930 G2 X-114.246 Y-42.048 I0.828 J9.188
N935 X-116.129 Y-41.101 I2.253 J6.825
N940 X-118.662 Y-37.304 I3.638 J5.169
N945 X-118.735 Y-32.74 I11.058 J2.46
N950 X-118.367 Y-31.613 I4.536 J-0.857
N955 X-117.755 Y-30.598 I5.451 J-2.595
N960 G3 X-117.399 Y-29.984 I-2.45 J1.828
N965 X-117.29 Y-29.283 I-1.297 J0.561
N970 X-117.63 Y-27.657 I-7.764 J-0.773
N975 G2 X-117.936 Y-26.025 I6.238 J2.015
N980 X-117.955 Y-24.408 I17.328 J1.015
N985 X-117.759 Y-22.803 I9.342 J-0.324
N990 X-117.462 Y-21.654 I12.785 J-2.697
N995 G3 X-117.276 Y-20.482 I-4.022 J1.239
N1000 X-117.53 Y-19.701 I-1.265 J0.02
N1005 X-118.027 Y-19.047 I-72.339 J-54.495
N1010 G2 X-118.688 Y-17.571 I2.765 J2.122
N1015 X-118.929 Y-15.972 I21.81 J4.116
N1020 X-117.87 Y-10.86 I8.297 J0.947
N1025 X-113.671 Y-7.757 I5.648 J-3.25
N1030 X-112.593 Y-7.567 I2.412 J-10.576
N1035 X-111.5 Y-7.5 I1.093 J-8.823
N1040 G1 X-71.5 Y-7.527
N1045 G3 X-71.274 Y-7.37 I0. J0.24
N1050 X-71.351 Y-7.106 I-0.218 J0.08
N1055 X-71.494 Y-7.057 I-0.143 J-0.187
N1060 G1 X-114.701
N1065 G3 X-115.011 Y-7.192 I0. J-0.422
N1070 G2 X-116.665 Y-8.392 I-3.84 J3.556
N1075 X-118.66 Y-8.828 I-1.995 J4.339
N1080 G1 X-122.549 Y-8.827
N1085 Z-3.4
N1090 G3 X-122.649 Y-8.927 I0. J-0.1
N1095 G1 X-122.644 Y-41.914
N1100 Y-41.952 Z-3.404
N1105 Y-41.988 Z-3.414
N1110 Y-42.022 Z-3.431
N1115 G3 X-122.641 Y-42.046 Z-3.45 I0.1 J0.
N1120 X-122.609 Y-42.098 Z-3.487 I0.097 J0.025
N1125 X-122.544 Y-42.122 Z-3.5 I0.065 J0.076
N1130 G1 X-118.66
N1135 G2 X-115.584 Y-43.524 I0.001 J-4.075
N1140 G1 X-115.576 Y-43.533
N1145 G3 X-114.891 Y-43.848 I0.685 J0.588
N1150 G1 X-71.433
N1155 G3 X-71.5 Y-41.55 I-0.067 J1.148
N1160 G1 X-111.5
N1165 G2 X-117.039 Y-38.79 I-0.291 J6.354
N1170 G1 X-117.103 Y-38.654
N1175 X-117.157 Y-38.515
N1180 G2 X-117.612 Y-32.288 I7.17 J3.653
N1185 G1 X-117.569 Y-32.127
N1190 X-117.514 Y-31.971
N1195 X-117.446 Y-31.819
N1200 X-117.366 Y-31.672
N1205 X-117.274 Y-31.532
N1210 X-117.124 Y-31.38
N1215 X-116.986 Y-31.218
N1220 X-116.859 Y-31.048
N1225 X-116.744 Y-30.868
N1230 X-116.642 Y-30.682
N1235 X-116.554 Y-30.488
N1240 X-116.478 Y-30.289
N1245 X-116.417 Y-30.085
N1250 X-116.371 Y-29.878
N1255 X-116.339 Y-29.667
N1260 X-116.321 Y-29.455
N1265 X-116.319 Y-29.243
N1270 X-116.331 Y-29.03
N1275 X-116.358 Y-28.819
N1280 X-116.399 Y-28.611
N1285 X-116.455 Y-28.405
N1290 X-116.525 Y-28.204
N1295 X-116.609 Y-28.009
N1300 G2 X-116.457 Y-21.579 I10.292 J2.974
N1305 G1 X-116.399 Y-21.376
N1310 X-116.356 Y-21.168
N1315 X-116.327 Y-20.958
N1320 X-116.314 Y-20.747
N1325 X-116.316 Y-20.535
N1330 X-116.334 Y-20.324
N1335 X-116.366 Y-20.115
N1340 X-116.414 Y-19.908
N1345 X-116.476 Y-19.706
N1350 X-116.552 Y-19.508
N1355 X-116.643 Y-19.317
N1360 X-116.747 Y-19.132
N1365 X-116.864 Y-18.956
N1370 X-116.994 Y-18.788
N1375 X-117.135 Y-18.631
N1380 X-117.287 Y-18.483
N1385 X-117.382 Y-18.343
N1390 X-117.465 Y-18.195
N1395 X-117.536 Y-18.042
N1400 X-117.594 Y-17.884
N1405 X-117.639 Y-17.722
N1410 G2 X-117.189 Y-11.469 I8.201 J2.552
N1415 G1 X-117.102 Y-11.347
N1420 X-117.008 Y-11.231
N1425 G2 X-111.5 Y-8.45 I5.167 J-3.388
N1430 G1 X-71.5
N1435 G3 X-71.433 Y-6.152 I0. J1.15
N1440 G1 X-114.891
N1445 G3 X-115.576 Y-6.467 I0. J-0.903
N1450 G1 X-115.584 Y-6.476
N1455 G2 X-118.66 Y-7.878 I-3.076 J2.672
N1460 G1 X-122.548
N1465 X-124.548 F#104
N1470 G0 Z6.
N1480 M9
N1485 G53 Z0.
N1490 M30
%
