%
(1001)
(T5  D=2. CR=0. - ZMIN=-5. - FLAT END MILL)
N10 G90 G94 G17 G91.1
N15 G21
N20 G53 G0 Z0.
(BORE1)
N25 M9
N30 T5 M6
N35 S3700 M3
N40 G54
N45 M9
N55 G0 X18.615 Y-65.022
N60 G43 Z4. H5
N65 #100=150. (CUTTING)
N70 #103=130. (ENTRY)
N75 #104=150. (EXIT)
N80 G0 Z2.
N85 G1 Z0.3 F#103
N90 Y-65.03 Z0.233
N95 X18.613 Y-65.052 Z0.17
N100 X18.61 Y-65.087 Z0.113
N105 X18.606 Y-65.135 Z0.065
N110 X18.602 Y-65.191 Z0.03
N115 X18.596 Y-65.255 Z0.008
N120 X18.591 Y-65.321 Z0.
N125 X18.583 Y-65.421
N130 G3 X18.857 Y-65.744 I0.299 J-0.024
N135 X19.143 Y-62.256 Z-0.5 I0.143 J1.744 F#100
N140 X18.857 Y-65.744 Z-1. I-0.143 J-1.744
N145 X19.143 Y-62.256 Z-1.5 I0.143 J1.744
N150 X18.857 Y-65.744 Z-2. I-0.143 J-1.744
N155 X19.143 Y-62.256 Z-2.5 I0.143 J1.744
N160 X18.857 Y-65.744 Z-3. I-0.143 J-1.744
N165 X19.143 Y-62.256 Z-3.5 I0.143 J1.744
N170 X18.857 Y-65.744 Z-4. I-0.143 J-1.744
N175 X19.143 Y-62.256 Z-4.5 I0.143 J1.744
N180 X18.857 Y-65.744 Z-5. I-0.143 J-1.744
N185 X19.143 Y-62.256 I0.143 J1.744
N190 X18.857 Y-65.744 I-0.143 J-1.744
N195 X19.181 Y-65.47 I0.024 J0.299 F#104
N200 G1 X19.189 Y-65.37
N205 X19.194 Y-65.303 Z-4.992
N210 X19.2 Y-65.24 Z-4.97
N215 X19.204 Y-65.184 Z-4.935
N220 X19.208 Y-65.136 Z-4.887
N225 X19.211 Y-65.101 Z-4.83
N230 X19.213 Y-65.078 Z-4.767
N235 Y-65.071 Z-4.7
N240 G0 Z2.
N245 X-19.312 Y-65.047
N250 G1 Z0.3 F#103
N255 Y-65.054 Z0.233
N260 Y-65.076 Z0.17
N265 Y-65.112 Z0.113
N270 X-19.313 Y-65.16 Z0.065
N275 X-19.314 Y-65.216 Z0.03
N280 Y-65.28 Z0.008
N285 X-19.315 Y-65.347 Z0.
N290 X-19.316 Y-65.447
N295 G3 X-19.02 Y-65.75 I0.3 J-0.003
N300 X-18.98 Y-62.25 Z-0.5 I0.02 J1.75 F#100
N305 X-19.02 Y-65.75 Z-1. I-0.02 J-1.75
N310 X-18.98 Y-62.25 Z-1.5 I0.02 J1.75
N315 X-19.02 Y-65.75 Z-2. I-0.02 J-1.75
N320 X-18.98 Y-62.25 Z-2.5 I0.02 J1.75
N325 X-19.02 Y-65.75 Z-3. I-0.02 J-1.75
N330 X-18.98 Y-62.25 Z-3.5 I0.02 J1.75
N335 X-19.02 Y-65.75 Z-4. I-0.02 J-1.75
N340 X-18.98 Y-62.25 Z-4.5 I0.02 J1.75
N345 X-19.02 Y-65.75 Z-5. I-0.02 J-1.75
N350 X-18.98 Y-62.25 I0.02 J1.75
N355 X-19.02 Y-65.75 I-0.02 J-1.75
N360 X-18.716 Y-65.453 I0.003 J0.3 F#104
N365 G1 X-18.715 Y-65.353
N370 X-18.714 Y-65.287 Z-4.992
N375 Y-65.223 Z-4.97
N380 X-18.713 Y-65.166 Z-4.935
N385 X-18.712 Y-65.119 Z-4.887
N390 Y-65.083 Z-4.83
N395 Y-65.061 Z-4.767
N400 Y-65.053 Z-4.7
N405 G0 Z2.
N410 X-1.12 Y-62.768
N415 G1 Z0.3 F#103
N420 Y-62.776 Z0.233
N425 X-1.121 Y-62.798 Z0.17
N430 X-1.122 Y-62.834 Z0.113
N435 X-1.125 Y-62.881 Z0.065
N440 X-1.127 Y-62.938 Z0.03
N445 X-1.13 Y-63.001 Z0.008
N450 X-1.133 Y-63.068 Z0.
N455 X-1.137 Y-63.168
N460 G3 X-0.851 Y-63.481 I0.3 J-0.013
N465 X0.851 Y-25.519 Z-0.5 I0.851 J18.981 F#100
N470 X-0.851 Y-63.481 Z-1. I-0.851 J-18.981
N475 X0.851 Y-25.519 Z-1.5 I0.851 J18.981
N480 X-0.851 Y-63.481 Z-2. I-0.851 J-18.981
N485 X0.851 Y-25.519 Z-2.5 I0.851 J18.981
N490 X-0.851 Y-63.481 Z-3. I-0.851 J-18.981
N495 X0.851 Y-25.519 Z-3.5 I0.851 J18.981
N500 X-0.851 Y-63.481 Z-4. I-0.851 J-18.981
N505 X0.851 Y-25.519 Z-4.5 I0.851 J18.981
N510 X-0.851 Y-63.481 Z-5. I-0.851 J-18.981
N515 X0.851 Y-25.519 I0.851 J18.981
N520 X-0.851 Y-63.481 I-0.851 J-18.981
N525 X-0.538 Y-63.195 I0.013 J0.3 F#104
N530 G1 X-0.534 Y-63.095
N535 X-0.531 Y-63.028 Z-4.992
N540 X-0.528 Y-62.965 Z-4.97
N545 X-0.525 Y-62.908 Z-4.935
N550 X-0.523 Y-62.86 Z-4.887
N555 X-0.521 Y-62.825 Z-4.83
N560 X-0.52 Y-62.803 Z-4.767
N565 Y-62.795 Z-4.7
N570 G0 Z2.
N575 X-19.311 Y-26.047
N580 G1 Z0.3 F#103
N585 Y-26.054 Z0.233
N590 Y-26.077 Z0.17
N595 X-19.312 Y-26.112 Z0.113
N600 Y-26.16 Z0.065
N605 X-19.313 Y-26.217 Z0.03
N610 Y-26.28 Z0.008
N615 X-19.314 Y-26.347 Z0.
N620 X-19.315 Y-26.447
N625 G3 X-19.018 Y-26.75 I0.3 J-0.003
N630 X-18.982 Y-23.25 Z-0.5 I0.018 J1.75 F#100
N635 X-19.018 Y-26.75 Z-1. I-0.018 J-1.75
N640 X-18.982 Y-23.25 Z-1.5 I0.018 J1.75
N645 X-19.018 Y-26.75 Z-2. I-0.018 J-1.75
N650 X-18.982 Y-23.25 Z-2.5 I0.018 J1.75
N655 X-19.018 Y-26.75 Z-3. I-0.018 J-1.75
N660 X-18.982 Y-23.25 Z-3.5 I0.018 J1.75
N665 X-19.018 Y-26.75 Z-4. I-0.018 J-1.75
N670 X-18.982 Y-23.25 Z-4.5 I0.018 J1.75
N675 X-19.018 Y-26.75 Z-5. I-0.018 J-1.75
N680 X-18.982 Y-23.25 I0.018 J1.75
N685 X-19.018 Y-26.75 I-0.018 J-1.75
N690 X-18.715 Y-26.453 I0.003 J0.3 F#104
N695 G1 X-18.714 Y-26.353
N700 X-18.713 Y-26.286 Z-4.992
N705 Y-26.223 Z-4.97
N710 X-18.712 Y-26.166 Z-4.935
N715 Y-26.119 Z-4.887
N720 X-18.711 Y-26.083 Z-4.83
N725 Y-26.061 Z-4.767
N730 Y-26.053 Z-4.7
N735 G0 Z2.
N740 X-0.338 Y-15.886
N745 G1 Z0.3 F#103
N750 Y-15.894 Z0.233
N755 X-0.339 Y-15.916 Z0.17
N760 X-0.341 Y-15.952 Z0.113
N765 X-0.343 Y-15.999 Z0.065
N770 X-0.345 Y-16.056 Z0.03
N775 X-0.348 Y-16.119 Z0.008
N780 X-0.351 Y-16.186 Z0.
N785 X-0.355 Y-16.286
N790 G3 X-0.068 Y-16.599 I0.3 J-0.013
N795 X0.068 Y-13.401 Z-0.5 I0.068 J1.599 F#100
N800 X-0.068 Y-16.599 Z-1. I-0.068 J-1.599
N805 X0.068 Y-13.401 Z-1.5 I0.068 J1.599
N810 X-0.068 Y-16.599 Z-2. I-0.068 J-1.599
N815 X0.068 Y-13.401 Z-2.5 I0.068 J1.599
N820 X-0.068 Y-16.599 Z-3. I-0.068 J-1.599
N825 X0.068 Y-13.401 Z-3.5 I0.068 J1.599
N830 X-0.068 Y-16.599 Z-4. I-0.068 J-1.599
N835 X0.068 Y-13.401 Z-4.5 I0.068 J1.599
N840 X-0.068 Y-16.599 Z-5. I-0.068 J-1.599
N845 X0.068 Y-13.401 I0.068 J1.599
N850 X-0.068 Y-16.599 I-0.068 J-1.599
N855 X0.244 Y-16.312 I0.013 J0.3 F#104
N860 G1 X0.249 Y-16.212
N865 X0.252 Y-16.145 Z-4.992
N870 X0.254 Y-16.082 Z-4.97
N875 X0.257 Y-16.025 Z-4.935
N880 X0.259 Y-15.977 Z-4.887
N885 X0.26 Y-15.942 Z-4.83
N890 X0.261 Y-15.919 Z-4.767
N895 Y-15.912 Z-4.7
N900 G0 Z2.
N905 X18.621 Y-26.024
N910 G1 Z0.3 F#103
N915 X18.62 Y-26.032 Z0.233
N920 X18.619 Y-26.054 Z0.17
N925 X18.616 Y-26.089 Z0.113
N930 X18.612 Y-26.137 Z0.065
N935 X18.608 Y-26.193 Z0.03
N940 X18.603 Y-26.257 Z0.008
N945 X18.598 Y-26.323 Z0.
N950 X18.591 Y-26.423
N955 G3 X18.867 Y-26.745 I0.299 J-0.023
N960 X19.133 Y-23.255 Z-0.5 I0.133 J1.745 F#100
N965 X18.867 Y-26.745 Z-1. I-0.133 J-1.745
N970 X19.133 Y-23.255 Z-1.5 I0.133 J1.745
N975 X18.867 Y-26.745 Z-2. I-0.133 J-1.745
N980 X19.133 Y-23.255 Z-2.5 I0.133 J1.745
N985 X18.867 Y-26.745 Z-3. I-0.133 J-1.745
N990 X19.133 Y-23.255 Z-3.5 I0.133 J1.745
N995 X18.867 Y-26.745 Z-4. I-0.133 J-1.745
N1000 X19.133 Y-23.255 Z-4.5 I0.133 J1.745
N1005 X18.867 Y-26.745 Z-5. I-0.133 J-1.745
N1010 X19.133 Y-23.255 I0.133 J1.745
N1015 X18.867 Y-26.745 I-0.133 J-1.745
N1020 X19.189 Y-26.469 I0.023 J0.299 F#104
N1025 G1 X19.196 Y-26.369
N1030 X19.202 Y-26.302 Z-4.992
N1035 X19.206 Y-26.239 Z-4.97
N1040 X19.211 Y-26.182 Z-4.935
N1045 X19.214 Y-26.135 Z-4.887
N1050 X19.217 Y-26.099 Z-4.83
N1055 X19.219 Y-26.077 Z-4.767
N1060 Y-26.07 Z-4.7
N1065 G0 Z4.
N1075 M9
N1080 G53 Z0.
N1085 M30
%
