%
(1001)
(T5  D=2. CR=0. - ZMIN=-5.5 - FLAT END MILL)
N10 G90 G94 G17 G91.1
N15 G21
N20 G53 G0 Z0.
(2D CONTOUR1)
N25 M9
N30 T5 M6
N35 S3700 M3
N40 G54
N45 M9
N55 G0 X17.5 Y143.5
N60 G43 Z4. H5
N65 #100=150. (CUTTING)
N70 #101=150. (PREDRILLING)
N75 #103=130. (ENTRY)
N80 G0 Z2.5
N85 G1 Z1. F#103
N90 Z-5.5 F#101
N95 G3 X17.52 Y143.52 I0. J0.02 F#100
N100 G1 Y145.98
N105 G3 X17.5 Y146. I-0.02 J0.
N110 G1 X-17.5
N115 G3 X-20. Y143.5 I0. J-2.5
N120 G1 Y75.062
N125 G3 X-15.335 Y73.812 I2.5 J0.
N130 G1 X19.665 Y134.434
N135 G3 X20. Y135.684 I-2.165 J1.25
N140 G1 Y143.5
N145 G3 X17.5 Y146. I-2.5 J0.
N150 G0 Z2.5
N155 Y15.5
N160 G1 Z1. F#103
N165 Z-5.5 F#101
N170 G3 X17.52 Y15.48 I0.02 J0. F#100
N175 G1 X19.98
N180 G3 X20. Y15.5 I0. J0.02
N185 G1 Y107.182
N190 G3 X15.335 Y108.432 I-2.5 J0.
N195 G1 X-17.595 Y51.395
N200 G3 X-17.93 Y50.145 I2.165 J-1.25
N205 G1 Y15.5
N210 G3 X-15.43 Y13. I2.5 J0.
N215 G1 X17.5
N220 G3 X20. Y15.5 I0. J2.5
N225 G0 Z4.
N235 M9
N240 G53 Z0.
N245 M30
%
