%
(1001)
(T1  D=6. CR=0. - ZMIN=-2. - FLAT END MILL)
N10 G90 G94 G17 G91.1
N15 G21
N20 G53 G0 Z0.
(2D CONTOUR1)
N25 M9
N30 T1 M6
N35 S3200 M3
N40 G54
N45 M8
N55 G0 X-16.899 Y-24.999
N60 G43 Z4. H1
N65 #100=330. (CUTTING)
N70 #103=200. (ENTRY)
N75 #106=82.5 (REDUCED)
N80 #107=270. (RAMPING)
N85 #108=100. (PLUNGE)
N90 G0 Z3.1
N95 G1 X-16.892 Y-24.998 Z3.006 F#108
N100 X-16.87 Y-24.993 Z2.915
N105 X-16.835 Y-24.986 Z2.828
N110 X-16.787 Y-24.976 Z2.747
N115 X-16.727 Y-24.963 Z2.676
N120 X-16.657 Y-24.949 Z2.615
N125 X-16.578 Y-24.932 Z2.565
N130 X-16.493 Y-24.915 Z2.529
N135 X-16.404 Y-24.896 Z2.507
N140 X-16.312 Y-24.877 Z2.5
N145 X-15.724 Y-24.754 F#103
N150 G3 X-15.259 Y-24.045 I-0.122 J0.587
N155 S3000
N160 G1 X-17.523 Y-13.18 Z2.397 F#107
N165 G3 X-17.621 Y-13.1 Z2.396 I-0.098 J-0.02
N170 G1 X-24.935 Z2.328
N175 G3 X-25.035 Y-13.202 Z2.326 I0. J-0.1
N180 G1 X-24.164 Y-55.002 Z1.938
N185 G3 X-24.064 Y-55.1 Z1.936 I0.1 J0.002
N190 G1 X-8.912 Z1.795
N195 G3 X-8.814 Y-54.98 Z1.794 I0. J0.1
N200 G1 X-17.523 Y-13.18 Z1.397
N205 G3 X-17.621 Y-13.1 Z1.396 I-0.098 J-0.02
N210 G1 X-24.935 Z1.328
N215 G3 X-25.035 Y-13.202 Z1.326 I0. J-0.1
N220 G1 X-24.164 Y-55.002 Z0.938
N225 G3 X-24.064 Y-55.1 Z0.936 I0.1 J0.002
N230 G1 X-8.912 Z0.795
N235 G3 X-8.814 Y-54.98 Z0.794 I0. J0.1
N240 G1 X-17.523 Y-13.18 Z0.397
N245 G3 X-17.621 Y-13.1 Z0.396 I-0.098 J-0.02
N250 G1 X-24.935 Z0.328
N255 G3 X-25.035 Y-13.202 Z0.326 I0. J-0.1
N260 G1 X-24.164 Y-55.002 Z-0.062
N265 G3 X-24.064 Y-55.1 Z-0.064 I0.1 J0.002
N270 G1 X-8.912 Z-0.205
N275 G3 X-8.814 Y-54.98 Z-0.206 I0. J0.1
N280 G1 X-17.523 Y-13.18 Z-0.603
N285 G3 X-17.621 Y-13.1 Z-0.604 I-0.098 J-0.02
N290 G1 X-24.935 Z-0.672
N295 G3 X-25.035 Y-13.202 Z-0.674 I0. J-0.1
N300 G1 X-24.164 Y-55.002 Z-1.062
N305 G3 X-24.064 Y-55.1 Z-1.064 I0.1 J0.002
N310 G1 X-8.912 Z-1.205
N315 G3 X-8.814 Y-54.98 Z-1.206 I0. J0.1
N320 G1 X-17.523 Y-13.18 Z-1.603
N325 G3 X-17.621 Y-13.1 Z-1.604 I-0.098 J-0.02
N330 G1 X-24.935 Z-1.672
N335 G3 X-25.035 Y-13.202 Z-1.674 I0. J-0.1
N340 G1 X-24.304 Y-48.287 Z-2.
N345 S3200
N350 X-24.189 Y-53.802 F#100
N355 X-24.164 Y-55.002 F#106
N360 G3 X-24.064 Y-55.1 I0.1 J0.002
N365 G1 X-10.112 F#100
N370 X-8.912 F#106
N375 G3 X-8.814 Y-54.98 I0. J0.1
N380 G1 X-17.278 Y-14.354 F#100
N385 X-17.523 Y-13.18 F#106
N390 G3 X-17.621 Y-13.1 I-0.098 J-0.02
N395 G1 X-23.735 F#100
N400 X-24.935 F#106
N405 G3 X-25.035 Y-13.202 I0. J-0.1
N410 G1 X-24.304 Y-48.287 F#100
N415 G0 Z4.
N425 M9
N430 G53 Z0.
N435 M30
%
