%
(1001)
(T1  D=6. CR=0. - ZMIN=-2. - FLAT END MILL)
N10 G90 G94 G17 G91.1
N15 G21
N20 G53 G0 Z0.
(2D CONTOUR1)
N25 M9
N30 T1 M6
N35 S3200 M3
N40 G54
N45 M8
N55 G0 X-16.899 Y-24.999
N60 G43 Z4. H1
N65 #100=330. (CUTTING)
N70 #103=200. (ENTRY)
N75 #106=82.5 (REDUCED)
N80 #107=270. (RAMPING)
N85 #108=100. (PLUNGE)
N90 G0 Z3.1
N95 G1 X-16.892 Y-24.998 Z3.006 F#108
N100 X-16.87 Y-24.993 Z2.915
N105 X-16.835 Y-24.986 Z2.828
N110 X-16.787 Y-24.976 Z2.747
N115 X-16.727 Y-24.963 Z2.676
N120 X-16.657 Y-24.949 Z2.615
N125 X-16.578 Y-24.932 Z2.565
N130 X-16.493 Y-24.915 Z2.529
N135 X-16.404 Y-24.896 Z2.507
N140 X-16.312 Y-24.877 Z2.5
N145 X-15.724 Y-24.754 F#103
N150 G3 X-15.259 Y-24.045 I-0.122 J0.587
N155 S3000
N160 G1 X-17.523 Y-13.18 Z2.397 F#107
N165 G3 X-17.621 Y-13.1 Z2.396 I-0.098 J-0.02
N170 G1 X-24.935 Z2.328
N175 G3 X-25.035 Y-13.202 Z2.326 I0. J-0.1
N180 G1 X-24.164 Y-55.002 Z1.938
N185 G3 X-24.064 Y-55.1 Z1.936 I0.1 J0.002
N190 G1 X-8.912 Z1.795
N195 G3 X-8.814 Y-54.98 Z1.794 I0. J0.1
N200 G1 X-17.523 Y-13.18 Z1.397
N205 G3 X-17.621 Y-13.1 Z1.396 I-0.098 J-0.02
N210 G1 X-24.935 Z1.328
N215 G3 X-25.035 Y-13.202 Z1.326 I0. J-0.1
N220 G1 X-24.164 Y-55.002 Z0.938
N225 G3 X-24.064 Y-55.1 Z0.936 I0.1 J0.002
N230 G1 X-8.912 Z0.795
N235 G3 X-8.814 Y-54.98 Z0.794 I0. J0.1
N240 G1 X-17.523 Y-13.18 Z0.397
N245 G3 X-17.621 Y-13.1 Z0.396 I-0.098 J-0.02
N250 G1 X-24.935 Z0.328
N255 G3 X-25.035 Y-13.202 Z0.326 I0. J-0.1
N260 G1 X-24.164 Y-55.002 Z-0.062
N265 G3 X-24.064 Y-55.1 Z-0.064 I0.1 J0.002
N270 G1 X-8.912 Z-0.205
N275 G3 X-8.814 Y-54.98 Z-0.206 I0. J0.1
N280 G1 X-17.523 Y-13.18 Z-0.603
N285 G3 X-17.621 Y-13.1 Z-0.604 I-0.098 J-0.02
N290 G1 X-24.935 Z-0.672
N295 G3 X-25.035 Y-13.202 Z-0.674 I0. J-0.1
N300 G1 X-24.164 Y-55.002 Z-1.062
N305 G3 X-24.064 Y-55.1 Z-1.064 I0.1 J0.002
N310 G1 X-8.912 Z-1.205
N315 G3 X-8.814 Y-54.98 Z-1.206 I0. J0.1
N320 G1 X-17.523 Y-13.18 Z-1.603
N325 G3 X-17.621 Y-13.1 Z-1.604 I-0.098 J-0.02
N330 G1 X-24.935 Z-1.672
N335 G3 X-25.035 Y-13.202 Z-1.674 I0. J-0.1
N340 G1 X-24.304 Y-48.287 Z-2.
N345 S3200
N350 X-24.189 Y-53.802 F#100
N355 X-24.164 Y-55.002 F#106
N360 G3 X-24.064 Y-55.1 I0.1 J0.002
N365 G1 X-10.112 F#100
N370 X-8.912 F#106
N375 G3 X-8.814 Y-54.98 I0. J0.1
N380 G1 X-17.278 Y-14.354 F#100
N385 X-17.523 Y-13.18 F#106
N390 G3 X-17.621 Y-13.1 I-0.098 J-0.02
N395 G1 X-23.735 F#100
N400 X-24.935 F#106
N405 G3 X-25.035 Y-13.202 I0. J-0.1
N410 G1 X-24.304 Y-48.287 F#100
N415 G0 Z4.
(2D CONTOUR2)
N425 M8
N430 G0 X2.817 Y-59.403
N435 #100=330. (CUTTING)
N440 #106=82.5 (REDUCED)
N445 #107=270. (RAMPING)
N450 Z4.
N455 Z2.5
N460 S3000
N465 G2 X2.9 Y-60.407 Z2.495 I-6.017 J-1.004 F#107
N470 G1 Y-63. Z2.484
N475 G2 X-3.2 Y-69.1 Z2.44 I-6.1 J0.
N480 G1 X-33. Z2.306
N485 G2 X-39.1 Y-63. Z2.262 I0. J6.1
N490 G1 Y-13.2 Z2.037
N495 G3 X-39.2 Y-13.1 I-0.1 J0.
N500 G1 X-43.1 Z2.019
N505 G2 X-46.1 Y-10.1 Z1.998 I0. J3.
N510 G1 Y-0.1 Z1.952
N515 G2 X-43.1 Y2.9 Z1.931 I3. J0.
N520 G1 X-14.641 Z1.802
N525 G2 X-8.66 Y-2.004 Z1.765 I0. J-6.1
N530 G1 X2.782 Y-59.211 Z1.501
N535 G2 X2.9 Y-60.407 Z1.495 I-5.982 J-1.196
N540 G1 Y-63. Z1.484
N545 G2 X-3.2 Y-69.1 Z1.44 I-6.1 J0.
N550 G1 X-33. Z1.306
N555 G2 X-39.1 Y-63. Z1.262 I0. J6.1
N560 G1 Y-13.2 Z1.037
N565 G3 X-39.2 Y-13.1 I-0.1 J0.
N570 G1 X-43.1 Z1.019
N575 G2 X-46.1 Y-10.1 Z0.998 I0. J3.
N580 G1 Y-0.1 Z0.952
N585 G2 X-43.1 Y2.9 Z0.931 I3. J0.
N590 G1 X-14.641 Z0.802
N595 G2 X-8.66 Y-2.004 Z0.765 I0. J-6.1
N600 G1 X2.782 Y-59.211 Z0.501
N605 G2 X2.9 Y-60.407 Z0.495 I-5.982 J-1.196
N610 G1 Y-63. Z0.484
N615 G2 X-3.2 Y-69.1 Z0.44 I-6.1 J0.
N620 G1 X-33. Z0.306
N625 G2 X-39.1 Y-63. Z0.262 I0. J6.1
N630 G1 Y-13.2 Z0.037
N635 G3 X-39.2 Y-13.1 I-0.1 J0.
N640 G1 X-43.1 Z0.019
N645 G2 X-46.1 Y-10.1 Z-0.002 I0. J3.
N650 G1 Y-0.1 Z-0.048
N655 G2 X-43.1 Y2.9 Z-0.069 I3. J0.
N660 G1 X-14.641 Z-0.198
N665 G2 X-8.66 Y-2.004 Z-0.235 I0. J-6.1
N670 G1 X2.782 Y-59.211 Z-0.499
N675 G2 X2.9 Y-60.407 Z-0.505 I-5.982 J-1.196
N680 G1 Y-63. Z-0.516
N685 G2 X-3.2 Y-69.1 Z-0.56 I-6.1 J0.
N690 G1 X-33. Z-0.694
N695 G2 X-39.1 Y-63. Z-0.738 I0. J6.1
N700 G1 Y-13.2 Z-0.963
N705 G3 X-39.2 Y-13.1 I-0.1 J0.
N710 G1 X-43.1 Z-0.981
N715 G2 X-46.1 Y-10.1 Z-1.002 I0. J3.
N720 G1 Y-0.1 Z-1.048
N725 G2 X-43.1 Y2.9 Z-1.069 I3. J0.
N730 G1 X-14.641 Z-1.198
N735 G2 X-8.66 Y-2.004 Z-1.235 I0. J-6.1
N740 G1 X2.782 Y-59.211 Z-1.499
N745 G2 X2.9 Y-60.407 Z-1.505 I-5.982 J-1.196
N750 G1 Y-63. Z-1.516
N755 G2 X-3.2 Y-69.1 Z-1.56 I-6.1 J0.
N760 G1 X-33. Z-1.694
N765 G2 X-39.1 Y-63. Z-1.738 I0. J6.1
N770 G1 Y-13.2 Z-1.963
N775 G3 X-39.2 Y-13.1 I-0.1 J0.
N780 G1 X-43.1 Z-1.981
N785 G2 X-46.054 Y-10.623 Z-2. I0. J3.
N790 S3200
N795 X-46.1 Y-10.1 I2.954 J0.523 F#100
N800 G1 Y-0.1
N805 G2 X-43.1 Y2.9 I3. J0.
N810 G1 X-14.641
N815 G2 X-8.66 Y-2.004 I0. J-6.1
N820 G1 X2.782 Y-59.211
N825 G2 X2.9 Y-60.407 I-5.982 J-1.196
N830 G1 Y-63.
N835 G2 X-3.2 Y-69.1 I-6.1 J0.
N840 G1 X-33.
N845 G2 X-39.1 Y-63. I0. J6.1
N850 G1 Y-14.4
N855 Y-13.2 F#106
N860 G3 X-39.2 Y-13.1 I-0.1 J0.
N865 G1 X-43.1 F#100
N870 G2 X-46.054 Y-10.623 I0. J3.
N875 G0 Z4.
N885 M9
N890 G53 Z0.
N895 M30
%
