%
(1001)
(T125  D=2.5 CR=0. TAPER=118DEG - ZMIN=-8. - DRILL)
N10 G90 G94 G17 G91.1
N15 G21
N20 G53 G0 Z0.
(DRILL1)
N25 M9
N30 T125 M6
N35 S3200 M3
N40 G54
N45 M9
N55 G0 X-38.334 Y-24.
N60 G43 Z15. H0
N70 G0 Z5.
N75 G98 G81 X-38.334 Y-24. Z-8. R5. F50.
N80 Y-37.
N85 X-11.666
N90 Y-24.
N95 G80
N100 G0 Z15.
N110 M9
N115 G53 Z0.
N120 M30
%
