%
(1001)
(6MM TWO FLUTE)
(T1  D=6. CR=0. - ZMIN=-8. - FLAT END MILL)
N10 G90 G94 G17 G91.1
N15 G21
N20 G53 G0 Z0.
(2D ADAPTIVE1)
N25 M9
N30 T1 M6
N35 S3200 M3
N40 G54
N45 M8
N55 G0 X-27.202 Y4.921
N60 G43 Z4. H1
N65 #100=330. (CUTTING)
N70 #103=200. (ENTRY)
N75 #104=200. (EXIT)
N80 #105=3000. (DIRECT)
N85 G0 Z-6.9
N90 G1 Z-7.4 F#103
N95 X-27.206 Y4.914 Z-7.487
N100 X-27.217 Y4.895 Z-7.571
N105 X-27.236 Y4.863 Z-7.65
N110 X-27.262 Y4.82 Z-7.721
N115 X-27.293 Y4.767 Z-7.783
N120 X-27.33 Y4.706 Z-7.833
N125 X-27.37 Y4.638 Z-7.87
N130 X-27.413 Y4.566 Z-7.892
N135 X-27.457 Y4.491 Z-7.9
N140 G3 X-27.9 Y2.984 I2.721 J-1.618
N145 X-27.326 Y2.739 I0.523 J0.43 F#100
N150 G1 X-26.897 Y2.665
N155 X-26.467 Y2.605
N160 X-26.036 Y2.559
N165 X-25.602 Y2.526
N170 X-25.169 Y2.507
N175 X-24.734 Y2.501
N180 X-24.3 Y2.51
N185 X-23.866 Y2.532
N190 X-23.433 Y2.567
N195 G3 X-22.1 Y4.479 I-0.734 J1.933
N200 X-22.617 Y4.961 Z-7.8 I-0.5 J-0.017 F#104
N205 X-22.752 Y4.937 I0.017 J-0.5
N210 G1 X-23.363 Y4.742
N215 X-26.647 Y3.69 F#105
N220 X-27.389 Y3.452 F#103
N225 X-27.553 Y3.4 Z-7.822
N230 G3 X-27.9 Y2.941 Z-7.9 I0.153 J-0.476
N235 G1 X-27.868 Y2.859 F#100
N240 X-27.824 Y2.783
N245 X-27.768 Y2.715
N250 X-27.702 Y2.658
N255 X-27.627 Y2.611
N260 X-27.546 Y2.578
N265 X-27.46 Y2.558
N270 X-27.372 Y2.553
N275 G3 X-23.686 Y2.2 I2.48 J6.478
N280 X-22.094 Y4.485 I-0.927 J2.343
N285 G1 X-22.105 Y4.573 Z-7.889 F#104
N290 X-22.132 Y4.657 Z-7.878
N295 X-22.172 Y4.735 Z-7.867
N300 X-22.225 Y4.804 Z-7.856
N305 X-22.29 Y4.864 Z-7.844
N310 X-22.364 Y4.911 Z-7.833
N315 X-22.444 Y4.944 Z-7.822
N320 X-22.53 Y4.964 Z-7.811
N325 X-22.617 Y4.968 Z-7.8
N330 G3 X-22.762 Y4.941 I0.017 J-0.5
N335 G1 X-23.359 Y4.736
N340 X-26.653 Y3.608 F#105
N345 X-27.39 Y3.356 F#103
N350 X-27.562 Y3.297 Z-7.823
N355 G3 X-27.9 Y2.841 Z-7.9 I0.162 J-0.473
N360 X-27.418 Y2.324 I0.626 J0.1 F#100
N365 X-23.518 Y1.956 I2.407 J4.667
N370 X-22.1 Y4.294 I-1.275 J2.373
N375 X-22.617 Y4.776 Z-7.8 I-0.5 J-0.017 F#104
N380 X-22.757 Y4.751 I0.017 J-0.5
N385 G1 X-23.361 Y4.551
N390 X-26.649 Y3.463 F#105
N395 X-27.389 Y3.219 F#103
N400 X-27.557 Y3.163 Z-7.823
N405 G3 X-27.9 Y2.706 Z-7.9 I0.157 J-0.475
N410 X-27.441 Y2.085 I0.674 J0.018 F#100
N415 X-23.679 Y1.606 I2.409 J3.904
N420 X-22.096 Y4.018 I-1.1 J2.447
N425 G1 X-22.108 Y4.105 Z-7.889 F#104
N430 X-22.133 Y4.189 Z-7.878
N435 X-22.174 Y4.266 Z-7.867
N440 X-22.226 Y4.336 Z-7.856
N445 X-22.291 Y4.396 Z-7.844
N450 X-22.364 Y4.443 Z-7.833
N455 X-22.445 Y4.477 Z-7.822
N460 X-22.53 Y4.496 Z-7.811
N465 X-22.617 Y4.5 Z-7.8
N470 G3 X-22.749 Y4.478 I0.017 J-0.5
N475 G1 X-23.364 Y4.285
N480 X-26.645 Y3.258 F#105
N485 X-27.389 Y3.025 F#103
N490 X-27.55 Y2.975 Z-7.821
N495 G3 X-27.9 Y2.515 Z-7.9 I0.149 J-0.477
N500 X-27.485 Y1.863 I0.743 J0.015 F#100
N505 X-23.137 Y1.568 I2.406 J3.27
N510 X-22.1 Y3.671 I-1.712 J2.151
N515 X-22.617 Y4.153 Z-7.8 I-0.5 J-0.017 F#104
N520 X-22.735 Y4.135 I0.017 J-0.5
N525 G1 X-23.37 Y3.957
N530 X-26.637 Y3.042 F#105
N535 X-27.387 Y2.832 F#103
N540 X-27.535 Y2.79 Z-7.82
N545 G3 X-27.9 Y2.326 Z-7.9 I0.135 J-0.481
N550 X-27.401 Y1.529 I1.041 J0.097 F#100
N555 X-23.186 Y1.231 I2.341 J3.147
N560 X-22.1 Y3.371 I-1.636 J2.177
N565 X-22.617 Y3.854 Z-7.8 I-0.5 J-0.017 F#104
N570 X-22.726 Y3.838 I0.017 J-0.5
N575 G1 X-23.373 Y3.669
N580 X-26.632 Y2.821 F#105
N585 X-27.387 Y2.625 F#103
N590 X-27.526 Y2.589 Z-7.818
N595 G3 X-27.9 Y2.122 Z-7.9 I0.126 J-0.484
N600 X-27.306 Y1.172 I1.17 J0.071 F#100
N605 X-23.202 Y0.909 I2.261 J3.119
N610 X-22.096 Y3.046 I-1.629 J2.198
N615 G1 X-22.107 Y3.133 Z-7.889 F#104
N620 X-22.133 Y3.217 Z-7.878
N625 X-22.173 Y3.295 Z-7.867
N630 X-22.226 Y3.364 Z-7.856
N635 X-22.29 Y3.424 Z-7.844
N640 X-22.364 Y3.471 Z-7.833
N645 X-22.445 Y3.505 Z-7.822
N650 X-22.53 Y3.524 Z-7.811
N655 X-22.617 Y3.528 Z-7.8
N660 G3 X-22.714 Y3.515 I0.017 J-0.5
N665 G1 X-23.377 Y3.359
N670 X-26.627 Y2.595 F#105
N675 X-27.386 Y2.417 F#103
N680 X-27.515 Y2.387 Z-7.817
N685 G3 X-27.9 Y1.917 Z-7.9 I0.114 J-0.487
N690 X-27.303 Y0.875 I1.201 J-0.005 F#100
N695 X-22.878 Y0.832 I2.241 J2.968
N700 X-22.1 Y2.75 I-2.086 J1.964
N705 X-22.617 Y3.233 Z-7.8 I-0.5 J-0.017 F#104
N710 X-22.707 Y3.221 I0.017 J-0.5
N715 G1 X-23.379 Y3.074
N720 X-26.624 Y2.361 F#105
N725 X-27.385 Y2.194 F#103
N730 X-27.508 Y2.167 Z-7.816
N735 G3 X-27.9 Y1.696 Z-7.9 I0.107 J-0.488
N740 X-27.228 Y0.525 I1.404 J0.028 F#100
N745 X-22.897 Y0.503 I2.181 J2.977
N750 X-22.1 Y2.432 I-2.04 J1.972
N755 X-22.617 Y2.914 Z-7.8 I-0.5 J-0.017 F#104
N760 X-22.698 Y2.905 I0.017 J-0.5
N765 G1 X-23.382 Y2.768
N770 X-26.621 Y2.121 F#105
N775 X-27.385 Y1.968 F#103
N780 X-27.498 Y1.945 Z-7.815
N785 G3 X-27.9 Y1.473 Z-7.9 I0.098 J-0.49
N790 X-27.124 Y0.154 I1.491 J-0.01 F#100
N795 X-22.849 Y0.231 I2.084 J3.002
N800 X-22.1 Y2.103 I-2.072 J1.915
N805 X-22.617 Y2.585 Z-7.8 I-0.5 J-0.017 F#104
N810 X-22.692 Y2.577 I0.017 J-0.5
N815 G1 X-23.384 Y2.447
N820 X-26.618 Y1.841 F#105
N825 X-27.385 Y1.698 F#103
N830 X-27.492 Y1.678 Z-7.814
N835 G3 X-27.9 Y1.204 Z-7.9 I0.092 J-0.491
N840 X-26.914 Y-0.28 I1.695 J0.056 F#100
N845 X-22.877 Y-0.1 I1.884 J3.096
N850 X-22.1 Y1.807 I-2.054 J1.949
N855 X-22.617 Y2.29 Z-7.8 I-0.5 J-0.017 F#104
N860 X-22.686 Y2.283 I0.017 J-0.5
N865 G1 X-23.385 Y2.16
N870 X-26.617 Y1.593 F#105
N875 X-27.384 Y1.458 F#103
N880 X-27.487 Y1.44 Z-7.813
N885 G3 X-27.9 Y0.965 Z-7.9 I0.086 J-0.492
N890 X-26.931 Y-0.57 I1.706 J0.003 F#100
N895 X-22.81 Y-0.363 I1.912 J3.06
N900 X-22.1 Y1.457 I-2.09 J1.865
N905 X-22.617 Y1.94 Z-7.8 I-0.5 J-0.017 F#104
N910 X-22.679 Y1.934 I0.017 J-0.5
N915 G1 X-23.387 Y1.82
N920 X-26.614 Y1.304 F#105
N925 X-27.384 Y1.181 F#103
N930 X-27.479 Y1.166 Z-7.812
N935 G3 X-27.9 Y0.689 Z-7.9 I0.079 J-0.494
N940 X-26.825 Y-0.935 I1.828 J0.042 F#100
N945 X-22.905 Y-0.748 I1.817 J3.109
N950 X-22.1 Y1.18 I-1.997 J1.966
N955 X-22.617 Y1.662 Z-7.8 I-0.5 J-0.017 F#104
N960 X-22.678 Y1.656 I0.017 J-0.5
N965 G1 X-23.387 Y1.544
N970 X-26.614 Y1.033 F#105
N975 X-27.384 Y0.911 F#103
N980 X-27.479 Y0.896 Z-7.812
N985 G3 X-27.9 Y0.42 Z-7.9 I0.078 J-0.494
N990 X-26.715 Y-1.297 I1.88 J0.03 F#100
N995 X-22.841 Y-1.008 I1.714 J3.128
N1000 X-22.1 Y0.841 I-2.035 J1.888
N1005 X-22.617 Y1.323 Z-7.8 I-0.5 J-0.017 F#104
N1010 X-22.671 Y1.318 I0.017 J-0.5
N1015 G1 X-23.388 Y1.215
N1020 X-26.612 Y0.748 F#105
N1025 X-27.384 Y0.637 F#103
N1030 X-27.472 Y0.624 Z-7.811
N1035 G3 X-27.9 Y0.146 Z-7.9 I0.072 J-0.495
N1040 X-26.736 Y-1.589 I1.879 J0.002 F#100
N1045 X-22.853 Y-1.33 I1.743 J3.112
N1050 X-22.1 Y0.535 I-2.033 J1.905
N1055 X-22.617 Y1.017 Z-7.8 I-0.5 J-0.017 F#104
N1060 X-22.668 Y1.012 I0.017 J-0.5
N1065 G1 X-23.389 Y0.913
N1070 X-26.612 Y0.467 F#105
N1075 X-27.384 Y0.36 F#103
N1080 X-27.469 Y0.349 Z-7.811
N1085 G3 X-27.9 Y-0.129 Z-7.9 I0.068 J-0.495
N1090 X-26.735 Y-1.894 I1.891 J-0.019 F#100
N1095 X-22.852 Y-1.642 I1.748 J3.104
N1100 X-22.1 Y0.221 I-2.029 J1.903
N1105 X-22.617 Y0.703 Z-7.8 I-0.5 J-0.017 F#104
N1110 X-22.667 Y0.699 I0.017 J-0.5
N1115 G1 X-23.389 Y0.6
N1120 X-26.612 Y0.161 F#105
N1125 X-27.384 Y0.056 F#103
N1130 X-27.468 Y0.044 Z-7.811
N1135 G3 X-27.9 Y-0.434 Z-7.9 I0.068 J-0.495
N1140 X-26.73 Y-2.202 I1.902 J-0.013 F#100
N1145 X-22.85 Y-1.952 I1.749 J3.1
N1150 X-22.1 Y0.221 I-2.097 J1.94
N1155 X-22.617 Y0.703 Z-7.8 I-0.5 J-0.017 F#104
N1160 X-22.698 Y0.694 I0.017 J-0.5
N1165 G1 X-23.382 Y0.556
N1170 X-26.621 Y-0.094 F#105
N1175 X-27.385 Y-0.248 F#103
N1180 X-27.499 Y-0.271 Z-7.815
N1185 G3 X-27.9 Y-0.743 Z-7.9 I0.098 J-0.49
N1190 X-26.632 Y-2.558 I1.99 J0.04 F#100
N1195 X-22.851 Y-2.27 I1.661 J3.151
N1200 X-22.1 Y-0.094 I-2.044 J1.923
N1205 X-22.617 Y0.389 Z-7.8 I-0.5 J-0.017 F#104
N1210 X-22.693 Y0.38 I0.017 J-0.5
N1215 G1 X-23.383 Y0.249
N1220 X-26.619 Y-0.366 F#105
N1225 X-27.385 Y-0.512 F#103
N1230 X-27.494 Y-0.532 Z-7.814
N1235 G3 X-27.9 Y-1.006 Z-7.9 I0.093 J-0.491
N1240 X-26.761 Y-2.795 I1.896 J-0.05 F#100
N1245 X-22.869 Y-2.592 I1.79 J3.087
N1250 X-22.1 Y-0.434 I-2.045 J1.945
N1255 X-22.617 Y0.049 Z-7.8 I-0.5 J-0.017 F#104
N1260 X-22.69 Y0.041 I0.017 J-0.5
N1265 G1 X-23.384 Y-0.087
N1270 X-26.618 Y-0.68 F#105
N1275 X-27.385 Y-0.82 F#103
N1280 X-27.491 Y-0.84 Z-7.814
N1285 G3 X-27.9 Y-1.314 Z-7.9 I0.09 J-0.492
N1290 X-26.761 Y-3.101 I1.901 J-0.044 F#100
N1295 X-22.856 Y-2.897 I1.796 J3.09
N1300 X-22.1 Y-0.72 I-2.058 J1.935
N1305 X-22.617 Y-0.237 Z-7.8 I-0.5 J-0.017 F#104
N1310 X-22.692 Y-0.246 I0.017 J-0.5
N1315 G1 X-23.384 Y-0.375
N1320 X-26.619 Y-0.982 F#105
N1325 X-27.385 Y-1.126 F#103
N1330 X-27.492 Y-1.146 Z-7.814
N1335 G3 X-27.9 Y-1.62 Z-7.9 I0.092 J-0.491
N1340 X-26.759 Y-3.408 I1.906 J-0.042 F#100
N1345 X-22.868 Y-3.21 I1.794 J3.078
N1350 X-22.1 Y-1.048 I-2.05 J1.946
N1355 X-22.617 Y-0.565 Z-7.8 I-0.5 J-0.017 F#104
N1360 X-22.69 Y-0.573 I0.017 J-0.5
N1365 G1 X-23.384 Y-0.701
N1370 X-26.618 Y-1.294 F#105
N1375 X-27.385 Y-1.434 F#103
N1380 X-27.491 Y-1.454 Z-7.814
N1385 G3 X-27.9 Y-1.928 Z-7.9 I0.09 J-0.492
N1390 X-26.749 Y-3.721 I1.915 J-0.036 F#100
N1395 X-22.862 Y-3.513 I1.785 J3.074
N1400 X-22.1 Y-1.339 I-2.069 J1.946
N1405 X-22.617 Y-0.857 Z-7.8 I-0.5 J-0.017 F#104
N1410 X-22.693 Y-0.866 I0.017 J-0.5
N1415 G1 X-23.383 Y-0.996
N1420 X-26.619 Y-1.608 F#105
N1425 X-27.385 Y-1.752 F#103
N1430 X-27.493 Y-1.773 Z-7.814
N1435 G3 X-27.9 Y-2.247 Z-7.9 I0.093 J-0.491
N1440 X-26.758 Y-4.023 I1.911 J-0.026 F#100
N1445 X-22.867 Y-3.825 I1.795 J3.064
N1450 X-22.1 Y-1.647 I-2.071 J1.954
N1455 X-22.617 Y-1.165 Z-7.8 I-0.5 J-0.017 F#104
N1460 X-22.691 Y-1.173 I0.017 J-0.5
N1465 G1 X-23.384 Y-1.302
N1470 X-26.618 Y-1.906 F#105
N1475 X-27.385 Y-2.049 F#103
N1480 X-27.492 Y-2.069 Z-7.814
N1485 G3 X-27.9 Y-2.543 Z-7.9 I0.092 J-0.492
N1490 X-26.749 Y-4.335 I1.919 J-0.033 F#100
N1495 X-22.862 Y-4.129 I1.786 J3.063
N1500 X-22.1 Y-1.95 I-2.077 J1.949
N1505 X-22.617 Y-1.467 Z-7.8 I-0.5 J-0.017 F#104
N1510 X-22.693 Y-1.476 I0.017 J-0.5
N1515 G1 X-23.383 Y-1.607
N1520 X-26.619 Y-2.221 F#105
N1525 X-27.385 Y-2.366 F#103
N1530 X-27.494 Y-2.387 Z-7.814
N1535 G3 X-27.9 Y-2.861 Z-7.9 I0.093 J-0.491
N1540 X-26.758 Y-4.637 I1.914 J-0.025 F#100
N1545 X-22.868 Y-4.44 I1.796 J3.055
N1550 X-22.1 Y-2.26 I-2.074 J1.956
N1555 X-22.617 Y-1.777 Z-7.8 I-0.5 J-0.017 F#104
N1560 X-22.692 Y-1.785 I0.017 J-0.5
N1565 G1 X-23.384 Y-1.915
N1570 X-26.618 Y-2.519 F#105
N1575 X-27.385 Y-2.663 F#103
N1580 X-27.492 Y-2.683 Z-7.814
N1585 G3 X-27.9 Y-3.157 Z-7.9 I0.092 J-0.491
N1590 X-26.749 Y-4.95 I1.921 J-0.033 F#100
N1595 X-22.854 Y-4.744 I1.791 J3.069
N1600 X-22.1 Y-2.563 I-2.08 J1.94
N1605 X-22.617 Y-2.081 Z-7.8 I-0.5 J-0.017 F#104
N1610 X-22.693 Y-2.089 I0.017 J-0.5
N1615 G1 X-23.383 Y-2.221
N1620 X-26.619 Y-2.835 F#105
N1625 X-27.385 Y-2.98 F#103
N1630 X-27.494 Y-3.001 Z-7.814
N1635 G3 X-27.9 Y-3.475 Z-7.9 I0.093 J-0.491
N1640 X-26.758 Y-5.252 I1.915 J-0.025 F#100
N1645 X-22.868 Y-5.059 I1.798 J3.058
N1650 X-22.1 Y-2.89 I-2.059 J1.95
N1655 X-22.617 Y-2.407 Z-7.8 I-0.5 J-0.017 F#104
N1660 X-22.69 Y-2.415 I0.017 J-0.5
N1665 G1 X-23.384 Y-2.543
N1670 X-26.618 Y-3.136 F#105
N1675 X-27.385 Y-3.277 F#103
N1680 X-27.491 Y-3.296 Z-7.814
N1685 G3 X-27.9 Y-3.771 Z-7.9 I0.09 J-0.492
N1690 X-26.75 Y-5.564 I1.922 J-0.033 F#100
N1695 X-22.859 Y-5.36 I1.791 J3.062
N1700 X-22.1 Y-3.185 I-2.061 J1.939
N1705 X-22.617 Y-2.702 Z-7.8 I-0.5 J-0.017 F#104
N1710 X-22.692 Y-2.711 I0.017 J-0.5
N1715 G1 X-23.384 Y-2.841
N1720 X-26.619 Y-3.45 F#105
N1725 X-27.385 Y-3.594 F#103
N1730 X-27.493 Y-3.615 Z-7.814
N1735 G3 X-27.9 Y-4.089 Z-7.9 I0.093 J-0.491
N1740 X-26.759 Y-5.867 I1.916 J-0.026 F#100
N1745 X-22.869 Y-5.676 I1.8 J3.056
N1750 X-22.1 Y-3.504 I-2.061 J1.952
N1755 X-22.617 Y-3.021 Z-7.8 I-0.5 J-0.017 F#104
N1760 X-22.69 Y-3.029 I0.017 J-0.5
N1765 G1 X-23.384 Y-3.157
N1770 X-26.618 Y-3.75 F#105
N1775 X-27.385 Y-3.891 F#103
N1780 X-27.491 Y-3.91 Z-7.814
N1785 G3 X-27.9 Y-4.385 Z-7.9 I0.09 J-0.492
N1790 X-26.751 Y-6.179 I1.923 J-0.034 F#100
N1795 X-22.86 Y-5.978 I1.792 J3.06
N1800 X-22.1 Y-3.801 I-2.063 J1.942
N1805 X-22.617 Y-3.318 Z-7.8 I-0.5 J-0.017 F#104
N1810 X-22.692 Y-3.327 I0.017 J-0.5
N1815 G1 X-23.384 Y-3.457
N1820 X-26.619 Y-4.065 F#105
N1825 X-27.385 Y-4.208 F#103
N1830 X-27.493 Y-4.229 Z-7.814
N1835 G3 X-27.9 Y-4.703 Z-7.9 I0.092 J-0.491
N1840 X-26.761 Y-6.481 I1.916 J-0.027 F#100
N1845 X-22.87 Y-6.292 I1.802 J3.054
N1850 X-22.1 Y-4.118 I-2.063 J1.954
N1855 X-22.617 Y-3.635 Z-7.8 I-0.5 J-0.017 F#104
N1860 X-22.69 Y-3.643 I0.017 J-0.5
N1865 G1 X-23.384 Y-3.771
N1870 X-26.618 Y-4.364 F#105
N1875 X-27.385 Y-4.505 F#103
N1880 X-27.491 Y-4.524 Z-7.814
N1885 G3 X-27.9 Y-4.999 Z-7.9 I0.09 J-0.492
N1890 X-26.752 Y-6.794 I1.923 J-0.035 F#100
N1895 X-22.862 Y-6.594 I1.793 J3.057
N1900 X-22.1 Y-4.416 I-2.065 J1.944
N1905 X-22.617 Y-3.933 Z-7.8 I-0.5 J-0.017 F#104
N1910 X-22.692 Y-3.942 I0.017 J-0.5
N1915 G1 X-23.384 Y-4.072
N1920 X-26.619 Y-4.679 F#105
N1925 X-27.385 Y-4.823 F#103
N1930 X-27.493 Y-4.843 Z-7.814
N1935 G3 X-27.9 Y-5.317 Z-7.9 I0.092 J-0.491
N1940 X-26.762 Y-7.096 I1.916 J-0.028 F#100
N1945 X-22.87 Y-6.908 I1.803 J3.051
N1950 X-22.1 Y-4.732 I-2.064 J1.955
N1955 X-22.617 Y-4.249 Z-7.8 I-0.5 J-0.017 F#104
N1960 X-22.69 Y-4.257 I0.017 J-0.5
N1965 G1 X-23.384 Y-4.385
N1970 X-26.618 Y-4.978 F#105
N1975 X-27.385 Y-5.119 F#103
N1980 X-27.491 Y-5.138 Z-7.814
N1985 G3 X-27.9 Y-5.613 Z-7.9 I0.09 J-0.492
N1990 X-26.764 Y-7.403 I1.917 J-0.039 F#100
N1995 X-22.867 Y-7.214 I1.805 J3.05
N2000 X-22.1 Y-5.03 I-2.058 J1.949
N2005 X-22.617 Y-4.548 Z-7.8 I-0.5 J-0.017 F#104
N2010 X-22.691 Y-4.556 I0.017 J-0.5
N2015 G1 X-23.384 Y-4.684
N2020 X-26.618 Y-5.282 F#105
N2025 X-27.385 Y-5.424 F#103
N2030 X-27.491 Y-5.444 Z-7.814
N2035 G3 X-27.9 Y-5.918 Z-7.9 I0.091 J-0.492
N2040 X-26.763 Y-7.711 I1.918 J-0.041 F#100
N2045 X-22.871 Y-7.524 I1.804 J3.048
N2050 X-22.1 Y-5.346 I-2.062 J1.956
N2055 X-22.617 Y-4.863 Z-7.8 I-0.5 J-0.017 F#104
N2060 X-22.69 Y-4.871 I0.017 J-0.5
N2065 G1 X-23.384 Y-4.999
N2070 X-26.618 Y-5.592 F#105
N2075 X-27.385 Y-5.733 F#103
N2080 X-27.491 Y-5.752 Z-7.814
N2085 G3 X-27.9 Y-6.227 Z-7.9 I0.09 J-0.492
N2090 X-26.765 Y-8.018 I1.917 J-0.04 F#100
N2095 X-22.868 Y-7.83 I1.806 J3.048
N2100 X-22.1 Y-5.645 I-2.058 J1.95
N2105 X-22.617 Y-5.163 Z-7.8 I-0.5 J-0.017 F#104
N2110 X-22.691 Y-5.171 I0.017 J-0.5
N2115 G1 X-23.384 Y-5.299
N2120 X-26.618 Y-5.897 F#105
N2125 X-27.385 Y-6.038 F#103
N2130 X-27.491 Y-6.058 Z-7.814
N2135 G3 X-27.9 Y-6.532 Z-7.9 I0.091 J-0.492
N2140 X-26.764 Y-8.326 I1.918 J-0.042 F#100
N2145 X-22.872 Y-8.14 I1.805 J3.046
N2150 X-22.1 Y-5.96 I-2.063 J1.958
N2155 X-22.617 Y-5.477 Z-7.8 I-0.5 J-0.017 F#104
N2160 X-22.69 Y-5.485 I0.017 J-0.5
N2165 G1 X-23.384 Y-5.613
N2170 X-26.618 Y-6.206 F#105
N2175 X-27.385 Y-6.346 F#103
N2180 X-27.491 Y-6.366 Z-7.814
N2185 G3 X-27.9 Y-6.84 Z-7.9 I0.09 J-0.492
N2190 X-26.766 Y-8.633 I1.917 J-0.042 F#100
N2195 X-22.869 Y-8.445 I1.806 J3.046
N2200 X-22.1 Y-6.26 I-2.059 J1.952
N2205 X-22.617 Y-5.777 Z-7.8 I-0.5 J-0.017 F#104
N2210 X-22.691 Y-5.785 I0.017 J-0.5
N2215 G1 X-23.384 Y-5.913
N2220 X-26.618 Y-6.511 F#105
N2225 X-27.385 Y-6.652 F#103
N2230 X-27.491 Y-6.672 Z-7.814
N2235 G3 X-27.9 Y-7.146 Z-7.9 I0.091 J-0.492
N2240 X-26.766 Y-8.941 I1.917 J-0.044 F#100
N2245 X-22.873 Y-8.756 I1.806 J3.044
N2250 X-22.1 Y-6.574 I-2.063 J1.959
N2255 X-22.617 Y-6.091 Z-7.8 I-0.5 J-0.017 F#104
N2260 X-22.69 Y-6.099 I0.017 J-0.5
N2265 G1 X-23.384 Y-6.227
N2270 X-26.618 Y-6.82 F#105
N2275 X-27.385 Y-6.96 F#103
N2280 X-27.491 Y-6.98 Z-7.814
N2285 G3 X-27.9 Y-7.454 Z-7.9 I0.09 J-0.492
N2290 X-26.767 Y-9.248 I1.917 J-0.044 F#100
N2295 X-22.87 Y-9.061 I1.807 J3.044
N2300 X-22.1 Y-6.874 I-2.059 J1.953
N2305 X-22.617 Y-6.392 Z-7.8 I-0.5 J-0.017 F#104
N2310 X-22.69 Y-6.4 I0.017 J-0.5
N2315 G1 X-23.384 Y-6.528
N2320 X-26.618 Y-7.125 F#105
N2325 X-27.385 Y-7.266 F#103
N2330 X-27.491 Y-7.286 Z-7.814
N2335 G3 X-27.9 Y-7.76 Z-7.9 I0.091 J-0.492
N2340 X-26.767 Y-9.556 I1.917 J-0.045 F#100
N2345 X-22.874 Y-9.371 I1.807 J3.042
N2350 X-22.1 Y-7.188 I-2.064 J1.96
N2355 X-22.617 Y-6.705 Z-7.8 I-0.5 J-0.017 F#104
N2360 X-22.69 Y-6.713 I0.017 J-0.5
N2365 G1 X-23.384 Y-6.841
N2370 X-26.618 Y-7.434 F#105
N2375 X-27.385 Y-7.575 F#103
N2380 X-27.491 Y-7.594 Z-7.814
N2385 G3 X-27.9 Y-8.068 Z-7.9 I0.09 J-0.492
N2390 X-26.637 Y-9.934 I2.019 J0.006 F#100
N2395 X-22.872 Y-9.674 I1.678 J3.093
N2400 X-22.1 Y-7.488 I-2.046 J1.952
N2405 X-22.617 Y-7.006 Z-7.8 I-0.5 J-0.017 F#104
N2410 X-22.69 Y-7.014 I0.017 J-0.5
N2415 G1 X-23.384 Y-7.142
N2420 X-26.618 Y-7.739 F#105
N2425 X-27.385 Y-7.88 F#103
N2430 X-27.491 Y-7.9 Z-7.814
N2435 G3 X-27.9 Y-8.374 Z-7.9 I0.091 J-0.492
N2440 X-26.636 Y-10.242 I2.019 J0.004 F#100
N2445 X-22.876 Y-9.984 I1.677 J3.091
N2450 X-22.1 Y-7.802 I-2.051 J1.958
N2455 X-22.617 Y-7.319 Z-7.8 I-0.5 J-0.017 F#104
N2460 X-22.69 Y-7.327 I0.017 J-0.5
N2465 G1 X-23.384 Y-7.455
N2470 X-26.618 Y-8.048 F#105
N2475 X-27.385 Y-8.189 F#103
N2480 X-27.491 Y-8.208 Z-7.814
N2485 G3 X-27.9 Y-8.682 Z-7.9 I0.09 J-0.492
N2490 X-26.638 Y-10.549 I2.018 J0.004 F#100
N2495 X-22.872 Y-10.29 I1.679 J3.092
N2500 X-22.1 Y-8.102 I-2.047 J1.953
N2505 X-22.617 Y-7.62 Z-7.8 I-0.5 J-0.017 F#104
N2510 X-22.69 Y-7.628 I0.017 J-0.5
N2515 G1 X-23.384 Y-7.756
N2520 X-26.618 Y-8.353 F#105
N2525 X-27.385 Y-8.494 F#103
N2530 X-27.491 Y-8.514 Z-7.814
N2535 G3 X-27.9 Y-8.988 Z-7.9 I0.091 J-0.492
N2540 X-26.638 Y-10.857 I2.018 J0.003 F#100
N2545 X-22.877 Y-10.6 I1.678 J3.09
N2550 X-22.1 Y-8.416 I-2.051 J1.959
N2555 X-22.617 Y-7.933 Z-7.8 I-0.5 J-0.017 F#104
N2560 X-22.69 Y-7.941 I0.017 J-0.5
N2565 G1 X-23.384 Y-8.069
N2570 X-26.618 Y-8.662 F#105
N2575 X-27.385 Y-8.803 F#103
N2580 X-27.491 Y-8.822 Z-7.814
N2585 G3 X-27.9 Y-9.296 Z-7.9 I0.09 J-0.492
N2590 X-26.639 Y-11.164 I2.017 J0.002 F#100
N2595 X-22.873 Y-10.905 I1.679 J3.09
N2600 X-22.1 Y-8.716 I-2.047 J1.954
N2605 X-22.617 Y-8.234 Z-7.8 I-0.5 J-0.017 F#104
N2610 X-22.69 Y-8.242 I0.017 J-0.5
N2615 G1 X-23.384 Y-8.37
N2620 X-26.618 Y-8.967 F#105
N2625 X-27.385 Y-9.108 F#103
N2630 X-27.491 Y-9.128 Z-7.814
N2635 G3 X-27.9 Y-9.602 Z-7.9 I0.091 J-0.492
N2640 X-26.639 Y-11.472 I2.018 J0.001 F#100
N2645 X-22.877 Y-11.215 I1.679 J3.089
N2650 X-22.1 Y-9.03 I-2.051 J1.96
N2655 X-22.617 Y-8.547 Z-7.8 I-0.5 J-0.017 F#104
N2660 X-22.69 Y-8.555 I0.017 J-0.5
N2665 G1 X-23.384 Y-8.683
N2670 X-26.618 Y-9.276 F#105
N2675 X-27.385 Y-9.417 F#103
N2680 X-27.491 Y-9.436 Z-7.814
N2685 G3 X-27.9 Y-9.91 Z-7.9 I0.09 J-0.492
N2690 X-26.64 Y-11.779 I2.017 J0.001 F#100
N2695 X-22.874 Y-11.52 I1.68 J3.089
N2700 X-22.1 Y-9.33 I-2.047 J1.955
N2705 X-22.617 Y-8.848 Z-7.8 I-0.5 J-0.017 F#104
N2710 X-22.69 Y-8.856 I0.017 J-0.5
N2715 G1 X-23.384 Y-8.984
N2720 X-26.618 Y-9.581 F#105
N2725 X-27.385 Y-9.722 F#103
N2730 X-27.491 Y-9.742 Z-7.814
N2735 G3 X-27.9 Y-10.216 Z-7.9 I0.091 J-0.492
N2740 X-26.64 Y-12.087 I2.017 J-0.001 F#100
N2745 X-22.878 Y-11.83 I1.679 J3.088
N2750 X-22.1 Y-9.644 I-2.052 J1.962
N2755 X-22.617 Y-9.161 Z-7.8 I-0.5 J-0.017 F#104
N2760 X-22.69 Y-9.169 I0.017 J-0.5
N2765 G1 X-23.384 Y-9.297
N2770 X-26.618 Y-9.89 F#105
N2775 X-27.385 Y-10.031 F#103
N2780 X-27.491 Y-10.05 Z-7.814
N2785 G3 X-27.9 Y-10.524 Z-7.9 I0.09 J-0.492
N2790 X-26.641 Y-12.394 I2.016 J-0.001 F#100
N2795 X-22.874 Y-12.135 I1.681 J3.088
N2800 X-22.1 Y-9.944 I-2.048 J1.956
N2805 X-22.617 Y-9.462 Z-7.8 I-0.5 J-0.017 F#104
N2810 X-22.69 Y-9.47 I0.017 J-0.5
N2815 G1 X-23.384 Y-9.598
N2820 X-26.618 Y-10.195 F#105
N2825 X-27.385 Y-10.336 F#103
N2830 X-27.491 Y-10.356 Z-7.814
N2835 G3 X-27.9 Y-10.83 Z-7.9 I0.091 J-0.492
N2840 X-26.641 Y-12.701 I2.016 J-0.002 F#100
N2845 X-22.878 Y-12.445 I1.68 J3.087
N2850 X-22.1 Y-10.258 I-2.052 J1.963
N2855 X-22.617 Y-9.776 Z-7.8 I-0.5 J-0.017 F#104
N2860 X-22.69 Y-9.783 I0.017 J-0.5
N2865 G1 X-23.384 Y-9.911
N2870 X-26.618 Y-10.504 F#105
N2875 X-27.385 Y-10.645 F#103
N2880 X-27.491 Y-10.664 Z-7.814
N2885 G3 X-27.9 Y-11.138 Z-7.9 I0.09 J-0.492
N2890 X-26.642 Y-13.008 I2.016 J-0.002 F#100
N2895 X-22.875 Y-12.751 I1.681 J3.087
N2900 X-22.1 Y-10.558 I-2.048 J1.957
N2905 X-22.617 Y-10.076 Z-7.8 I-0.5 J-0.017 F#104
N2910 X-22.69 Y-10.084 I0.017 J-0.5
N2915 G1 X-23.384 Y-10.212
N2920 X-26.618 Y-10.809 F#105
N2925 X-27.385 Y-10.95 F#103
N2930 X-27.491 Y-10.97 Z-7.814
N2935 G3 X-27.9 Y-11.444 Z-7.9 I0.091 J-0.492
N2940 X-26.642 Y-13.316 I2.016 J-0.004 F#100
N2945 X-22.879 Y-13.06 I1.68 J3.086
N2950 X-22.1 Y-10.872 I-2.052 J1.964
N2955 X-22.617 Y-10.39 Z-7.8 I-0.5 J-0.017 F#104
N2960 X-22.69 Y-10.397 I0.017 J-0.5
N2965 G1 X-23.384 Y-10.525
N2970 X-26.618 Y-11.118 F#105
N2975 X-27.385 Y-11.259 F#103
N2980 X-27.491 Y-11.278 Z-7.814
N2985 G3 X-27.9 Y-11.752 Z-7.9 I0.09 J-0.492
N2990 X-26.643 Y-13.623 I2.015 J-0.004 F#100
N2995 X-22.876 Y-13.366 I1.682 J3.086
N3000 X-22.1 Y-11.172 I-2.048 J1.958
N3005 X-22.617 Y-10.69 Z-7.8 I-0.5 J-0.017 F#104
N3010 X-22.69 Y-10.698 I0.017 J-0.5
N3015 G1 X-23.384 Y-10.826
N3020 X-26.618 Y-11.423 F#105
N3025 X-27.385 Y-11.564 F#103
N3030 X-27.491 Y-11.584 Z-7.814
N3035 G3 X-27.9 Y-12.058 Z-7.9 I0.091 J-0.492
N3040 X-26.643 Y-13.931 I2.015 J-0.005 F#100
N3045 X-22.88 Y-13.675 I1.681 J3.085
N3050 X-22.1 Y-11.486 I-2.053 J1.964
N3055 X-22.617 Y-11.004 Z-7.8 I-0.5 J-0.017 F#104
N3060 X-22.69 Y-11.011 I0.017 J-0.5
N3065 G1 X-23.384 Y-11.139
N3070 X-26.618 Y-11.732 F#105
N3075 X-27.385 Y-11.873 F#103
N3080 X-27.491 Y-11.892 Z-7.814
N3085 G3 X-27.9 Y-12.366 Z-7.9 I0.09 J-0.492
N3090 X-26.644 Y-14.238 I2.014 J-0.005 F#100
N3095 X-22.876 Y-13.981 I1.682 J3.086
N3100 X-22.1 Y-11.786 I-2.049 J1.959
N3105 X-22.617 Y-11.304 Z-7.8 I-0.5 J-0.017 F#104
N3110 X-22.69 Y-11.312 I0.017 J-0.5
N3115 G1 X-23.384 Y-11.44
N3120 X-26.618 Y-12.037 F#105
N3125 X-27.385 Y-12.178 F#103
N3130 X-27.491 Y-12.198 Z-7.814
N3135 G3 X-27.9 Y-12.672 Z-7.9 I0.091 J-0.492
N3140 X-26.644 Y-14.545 I2.015 J-0.006 F#100
N3145 X-22.88 Y-14.29 I1.681 J3.084
N3150 X-22.1 Y-12.1 I-2.053 J1.965
N3155 X-22.617 Y-11.618 Z-7.8 I-0.5 J-0.017 F#104
N3160 X-22.69 Y-11.625 I0.017 J-0.5
N3165 G1 X-23.384 Y-11.753
N3170 X-26.618 Y-12.346 F#105
N3175 X-27.385 Y-12.487 F#103
N3180 X-27.491 Y-12.506 Z-7.814
N3185 G3 X-27.9 Y-12.98 Z-7.9 I0.09 J-0.492
N3190 X-26.645 Y-14.852 I2.014 J-0.006 F#100
N3195 X-22.877 Y-14.596 I1.683 J3.085
N3200 X-22.1 Y-12.4 I-2.049 J1.96
N3205 X-22.617 Y-11.918 Z-7.8 I-0.5 J-0.017 F#104
N3210 X-22.69 Y-11.926 I0.017 J-0.5
N3215 G1 X-23.384 Y-12.054
N3220 X-26.618 Y-12.651 F#105
N3225 X-27.385 Y-12.792 F#103
N3230 X-27.491 Y-12.812 Z-7.814
N3235 G3 X-27.9 Y-13.286 Z-7.9 I0.091 J-0.492
N3240 X-26.644 Y-15.16 I2.014 J-0.008 F#100
N3245 X-22.881 Y-14.905 I1.682 J3.083
N3250 X-22.1 Y-12.714 I-2.053 J1.966
N3255 X-22.617 Y-12.232 Z-7.8 I-0.5 J-0.017 F#104
N3260 X-22.69 Y-12.239 I0.017 J-0.5
N3265 G1 X-23.384 Y-12.367
N3270 X-26.618 Y-12.96 F#105
N3275 X-27.385 Y-13.101 F#103
N3280 X-27.491 Y-13.12 Z-7.814
N3285 G3 X-27.9 Y-13.594 Z-7.9 I0.09 J-0.492
N3290 X-26.646 Y-15.467 I2.013 J-0.008 F#100
N3295 X-22.877 Y-15.211 I1.683 J3.084
N3300 X-22.1 Y-13.014 I-2.049 J1.961
N3305 X-22.617 Y-12.532 Z-7.8 I-0.5 J-0.017 F#104
N3310 X-22.69 Y-12.54 I0.017 J-0.5
N3315 G1 X-23.384 Y-12.668
N3320 X-26.618 Y-13.265 F#105
N3325 X-27.385 Y-13.407 F#103
N3330 X-27.491 Y-13.426 Z-7.814
N3335 G3 X-27.9 Y-13.9 Z-7.9 I0.091 J-0.492
N3340 X-26.645 Y-15.775 I2.014 J-0.009 F#100
N3345 X-22.881 Y-15.52 I1.682 J3.083
N3350 X-22.1 Y-13.328 I-2.053 J1.967
N3355 X-22.617 Y-12.846 Z-7.8 I-0.5 J-0.017 F#104
N3360 X-22.69 Y-12.853 I0.017 J-0.5
N3365 G1 X-23.384 Y-12.981
N3370 X-26.618 Y-13.574 F#105
N3375 X-27.385 Y-13.715 F#103
N3380 X-27.491 Y-13.734 Z-7.814
N3385 G3 X-27.9 Y-14.208 Z-7.9 I0.09 J-0.492
N3390 X-26.647 Y-16.081 I2.013 J-0.009 F#100
N3395 X-22.878 Y-15.825 I1.684 J3.083
N3400 X-22.1 Y-13.629 I-2.049 J1.962
N3405 X-22.617 Y-13.146 Z-7.8 I-0.5 J-0.017 F#104
N3410 X-22.69 Y-13.154 I0.017 J-0.5
N3415 G1 X-23.384 Y-13.282
N3420 X-26.618 Y-13.879 F#105
N3425 X-27.385 Y-14.021 F#103
N3430 X-27.491 Y-14.04 Z-7.814
N3435 G3 X-27.9 Y-14.514 Z-7.9 I0.091 J-0.492
N3440 X-26.646 Y-16.389 I2.013 J-0.01 F#100
N3445 X-22.882 Y-16.135 I1.683 J3.082
N3450 X-22.1 Y-13.942 I-2.054 J1.968
N3455 X-22.617 Y-13.46 Z-7.8 I-0.5 J-0.017 F#104
N3460 X-22.69 Y-13.468 I0.017 J-0.5
N3465 G1 X-23.384 Y-13.595
N3470 X-26.618 Y-14.188 F#105
N3475 X-27.385 Y-14.329 F#103
N3480 X-27.491 Y-14.348 Z-7.814
N3485 G3 X-27.9 Y-14.822 Z-7.9 I0.09 J-0.492
N3490 X-26.647 Y-16.696 I2.012 J-0.01 F#100
N3495 X-22.878 Y-16.44 I1.684 J3.083
N3500 X-22.1 Y-14.243 I-2.05 J1.963
N3505 X-22.617 Y-13.76 Z-7.8 I-0.5 J-0.017 F#104
N3510 X-22.69 Y-13.768 I0.017 J-0.5
N3515 G1 X-23.384 Y-13.896
N3520 X-26.618 Y-14.493 F#105
N3525 X-27.385 Y-14.635 F#103
N3530 X-27.491 Y-14.654 Z-7.814
N3535 G3 X-27.9 Y-15.128 Z-7.9 I0.091 J-0.492
N3540 X-26.647 Y-17.004 I2.013 J-0.011 F#100
N3545 X-22.882 Y-16.75 I1.683 J3.081
N3550 X-22.1 Y-14.556 I-2.054 J1.969
N3555 X-22.617 Y-14.074 Z-7.8 I-0.5 J-0.017 F#104
N3560 X-22.69 Y-14.082 I0.017 J-0.5
N3565 G1 X-23.384 Y-14.209
N3570 X-26.618 Y-14.802 F#105
N3575 X-27.385 Y-14.943 F#103
N3580 X-27.491 Y-14.962 Z-7.814
N3585 G3 X-27.9 Y-15.436 Z-7.9 I0.09 J-0.492
N3590 X-26.648 Y-17.31 I2.012 J-0.011 F#100
N3595 X-22.879 Y-17.055 I1.684 J3.082
N3600 X-22.1 Y-14.857 I-2.05 J1.963
N3605 X-22.617 Y-14.374 Z-7.8 I-0.5 J-0.017 F#104
N3610 X-22.69 Y-14.382 I0.017 J-0.5
N3615 G1 X-23.384 Y-14.51
N3620 X-26.618 Y-15.107 F#105
N3625 X-27.385 Y-15.249 F#103
N3630 X-27.491 Y-15.268 Z-7.814
N3635 G3 X-27.9 Y-15.742 Z-7.9 I0.091 J-0.492
N3640 X-26.648 Y-17.618 I2.012 J-0.012 F#100
N3645 X-22.883 Y-17.365 I1.684 J3.081
N3650 X-22.1 Y-15.17 I-2.054 J1.969
N3655 X-22.617 Y-14.688 Z-7.8 I-0.5 J-0.017 F#104
N3660 X-22.69 Y-14.696 I0.017 J-0.5
N3665 G1 X-23.384 Y-14.823
N3670 X-26.618 Y-15.416 F#105
N3675 X-27.385 Y-15.557 F#103
N3680 X-27.491 Y-15.576 Z-7.814
N3685 G3 X-27.9 Y-16.05 Z-7.9 I0.09 J-0.492
N3690 X-26.649 Y-17.925 I2.011 J-0.012 F#100
N3695 X-22.879 Y-17.67 I1.685 J3.081
N3700 X-22.1 Y-15.471 I-2.05 J1.964
N3705 X-22.617 Y-14.988 Z-7.8 I-0.5 J-0.017 F#104
N3710 X-22.69 Y-14.996 I0.017 J-0.5
N3715 G1 X-23.384 Y-15.124
N3720 X-26.618 Y-15.721 F#105
N3725 X-27.385 Y-15.863 F#103
N3730 X-27.491 Y-15.882 Z-7.814
N3735 G3 X-27.9 Y-16.356 Z-7.9 I0.091 J-0.492
N3740 X-26.648 Y-18.233 I2.012 J-0.013 F#100
N3745 X-22.883 Y-17.979 I1.684 J3.08
N3750 X-22.1 Y-15.784 I-2.054 J1.97
N3755 X-22.617 Y-15.302 Z-7.8 I-0.5 J-0.017 F#104
N3760 X-22.69 Y-15.31 I0.017 J-0.5
N3765 G1 X-23.384 Y-15.437
N3770 X-26.618 Y-16.03 F#105
N3775 X-27.385 Y-16.171 F#103
N3780 X-27.491 Y-16.19 Z-7.814
N3785 G3 X-27.9 Y-16.664 Z-7.9 I0.09 J-0.492
N3790 X-26.649 Y-18.539 I2.011 J-0.013 F#100
N3795 X-22.88 Y-18.284 I1.685 J3.081
N3800 X-22.1 Y-16.085 I-2.05 J1.965
N3805 X-22.617 Y-15.602 Z-7.8 I-0.5 J-0.017 F#104
N3810 X-22.69 Y-15.61 I0.017 J-0.5
N3815 G1 X-23.384 Y-15.738
N3820 X-26.618 Y-16.335 F#105
N3825 X-27.385 Y-16.477 F#103
N3830 X-27.491 Y-16.496 Z-7.814
N3835 G3 X-27.9 Y-16.97 Z-7.9 I0.091 J-0.492
N3840 X-26.649 Y-18.847 I2.011 J-0.014 F#100
N3845 X-22.883 Y-18.594 I1.684 J3.08
N3850 X-22.1 Y-16.398 I-2.054 J1.97
N3855 X-22.617 Y-15.916 Z-7.8 I-0.5 J-0.017 F#104
N3860 X-22.69 Y-15.924 I0.017 J-0.5
N3865 G1 X-23.384 Y-16.051
N3870 X-26.618 Y-16.644 F#105
N3875 X-27.385 Y-16.785 F#103
N3880 X-27.491 Y-16.804 Z-7.814
N3885 G3 X-27.9 Y-17.279 Z-7.9 I0.09 J-0.492
N3890 X-26.748 Y-19.101 I1.93 J-0.055 F#100
N3895 X-22.923 Y-18.938 I1.786 J3.062
N3900 X-22.1 Y-16.699 I-1.994 J2.004
N3905 X-22.617 Y-16.216 Z-7.8 I-0.5 J-0.017 F#104
N3910 X-22.695 Y-16.225 I0.017 J-0.5
N3915 G1 X-23.383 Y-16.358
N3920 X-26.619 Y-16.983 F#105
N3925 X-27.385 Y-17.131 F#103
N3930 X-27.495 Y-17.152 Z-7.814
N3935 G3 X-27.9 Y-17.626 Z-7.9 I0.095 J-0.491
N3940 X-26.747 Y-19.409 I1.925 J-0.02 F#100
N3945 X-22.863 Y-19.197 I1.781 J3.048
N3950 X-22.1 Y-17.012 I-2.059 J1.945
N3955 X-22.617 Y-16.53 Z-7.8 I-0.5 J-0.017 F#104
N3960 X-22.694 Y-16.538 I0.017 J-0.5
N3965 G1 X-23.383 Y-16.671
N3970 X-26.619 Y-17.294 F#105
N3975 X-27.385 Y-17.441 F#103
N3980 X-27.495 Y-17.462 Z-7.814
N3985 G3 X-27.9 Y-17.936 Z-7.9 I0.094 J-0.491
N3990 X-26.75 Y-19.716 I1.922 J-0.019 F#100
N3995 X-22.93 Y-19.559 I1.788 J3.069
N4000 X-22.1 Y-17.333 I-1.978 J2.005
N4005 X-22.617 Y-16.851 Z-7.8 I-0.5 J-0.017 F#104
N4010 X-22.692 Y-16.859 I0.017 J-0.5
N4015 G1 X-23.383 Y-16.99
N4020 X-26.619 Y-17.601 F#105
N4025 X-27.385 Y-17.746 F#103
N4030 X-27.493 Y-17.766 Z-7.814
N4035 G3 X-27.9 Y-18.24 Z-7.9 I0.093 J-0.491
N4040 X-26.748 Y-20.024 I1.923 J-0.023 F#100
N4045 X-22.864 Y-19.813 I1.782 J3.052
N4050 X-22.1 Y-17.626 I-2.058 J1.946
N4055 X-22.617 Y-17.144 Z-7.8 I-0.5 J-0.017 F#104
N4060 X-22.694 Y-17.152 I0.017 J-0.5
N4065 G1 X-23.383 Y-17.285
N4070 X-26.619 Y-17.908 F#105
N4075 X-27.385 Y-18.055 F#103
N4080 X-27.495 Y-18.076 Z-7.814
N4085 G3 X-27.9 Y-18.55 Z-7.9 I0.094 J-0.491
N4090 X-26.751 Y-20.33 I1.921 J-0.022 F#100
N4095 X-22.931 Y-20.175 I1.789 J3.071
N4100 X-22.1 Y-17.949 I-1.979 J2.007
N4105 X-22.617 Y-17.466 Z-7.8 I-0.5 J-0.017 F#104
N4110 X-22.692 Y-17.475 I0.017 J-0.5
N4115 G1 X-23.383 Y-17.605
N4120 X-26.619 Y-18.215 F#105
N4125 X-27.385 Y-18.36 F#103
N4130 X-27.493 Y-18.38 Z-7.814
N4135 G3 X-27.9 Y-18.854 Z-7.9 I0.093 J-0.491
N4140 X-26.749 Y-20.639 I1.921 J-0.025 F#100
N4145 X-22.865 Y-20.428 I1.782 J3.052
N4150 X-22.1 Y-18.24 I-2.059 J1.947
N4155 X-22.617 Y-17.758 Z-7.8 I-0.5 J-0.017 F#104
N4160 X-22.694 Y-17.766 I0.017 J-0.5
N4165 G1 X-23.383 Y-17.899
N4170 X-26.619 Y-18.522 F#105
N4175 X-27.385 Y-18.669 F#103
N4180 X-27.495 Y-18.69 Z-7.814
N4185 G3 X-27.9 Y-19.164 Z-7.9 I0.094 J-0.491
N4190 X-26.752 Y-20.945 I1.919 J-0.023 F#100
N4195 X-22.931 Y-20.79 I1.789 J3.07
N4200 X-22.1 Y-18.563 I-1.979 J2.008
N4205 X-22.617 Y-18.08 Z-7.8 I-0.5 J-0.017 F#104
N4210 X-22.692 Y-18.089 I0.017 J-0.5
N4215 G1 X-23.383 Y-18.219
N4220 X-26.619 Y-18.829 F#105
N4225 X-27.385 Y-18.974 F#103
N4230 X-27.493 Y-18.994 Z-7.814
N4235 G3 X-27.9 Y-19.468 Z-7.9 I0.093 J-0.491
N4240 X-26.75 Y-21.253 I1.92 J-0.026 F#100
N4245 X-22.865 Y-21.043 I1.783 J3.052
N4250 X-22.1 Y-18.854 I-2.059 J1.948
N4255 X-22.617 Y-18.372 Z-7.8 I-0.5 J-0.017 F#104
N4260 X-22.694 Y-18.38 I0.017 J-0.5
N4265 G1 X-23.383 Y-18.513
N4270 X-26.619 Y-19.136 F#105
N4275 X-27.385 Y-19.283 F#103
N4280 X-27.495 Y-19.304 Z-7.814
N4285 G3 X-27.9 Y-19.778 Z-7.9 I0.094 J-0.491
N4290 X-26.753 Y-21.559 I1.919 J-0.025 F#100
N4295 X-22.932 Y-21.405 I1.79 J3.07
N4300 X-22.1 Y-19.177 I-1.98 J2.009
N4305 X-22.617 Y-18.695 Z-7.8 I-0.5 J-0.017 F#104
N4310 X-22.692 Y-18.703 I0.017 J-0.5
N4315 G1 X-23.383 Y-18.833
N4320 X-26.619 Y-19.443 F#105
N4325 X-27.385 Y-19.588 F#103
N4330 X-27.493 Y-19.608 Z-7.814
N4335 G3 X-27.9 Y-20.082 Z-7.9 I0.093 J-0.491
N4340 X-26.751 Y-21.868 I1.92 J-0.027 F#100
N4345 X-22.866 Y-21.658 I1.783 J3.051
N4350 X-22.1 Y-19.468 I-2.059 J1.949
N4355 X-22.617 Y-18.986 Z-7.8 I-0.5 J-0.017 F#104
N4360 X-22.694 Y-18.994 I0.017 J-0.5
N4365 G1 X-23.383 Y-19.127
N4370 X-26.619 Y-19.75 F#105
N4375 X-27.385 Y-19.897 F#103
N4380 X-27.495 Y-19.918 Z-7.814
N4385 G3 X-27.9 Y-20.392 Z-7.9 I0.094 J-0.491
N4390 X-26.754 Y-22.174 I1.918 J-0.026 F#100
N4395 X-22.932 Y-22.02 I1.79 J3.069
N4400 X-22.1 Y-19.791 I-1.98 J2.009
N4405 X-22.617 Y-19.309 Z-7.8 I-0.5 J-0.017 F#104
N4410 X-22.692 Y-19.317 I0.017 J-0.5
N4415 G1 X-23.383 Y-19.447
N4420 X-26.619 Y-20.057 F#105
N4425 X-27.385 Y-20.202 F#103
N4430 X-27.493 Y-20.222 Z-7.814
N4435 G3 X-27.9 Y-20.696 Z-7.9 I0.093 J-0.491
N4440 X-26.752 Y-22.482 I1.92 J-0.028 F#100
N4445 X-22.866 Y-22.273 I1.784 J3.05
N4450 X-22.1 Y-20.082 I-2.06 J1.95
N4455 X-22.617 Y-19.6 Z-7.8 I-0.5 J-0.017 F#104
N4460 X-22.694 Y-19.608 I0.017 J-0.5
N4465 G1 X-23.383 Y-19.741
N4470 X-26.619 Y-20.364 F#105
N4475 X-27.385 Y-20.511 F#103
N4480 X-27.495 Y-20.532 Z-7.814
N4485 G3 X-27.9 Y-21.006 Z-7.9 I0.094 J-0.491
N4490 X-26.754 Y-22.788 I1.918 J-0.027 F#100
N4495 X-22.933 Y-22.635 I1.79 J3.068
N4500 X-22.1 Y-20.405 I-1.98 J2.01
N4505 X-22.617 Y-19.923 Z-7.8 I-0.5 J-0.017 F#104
N4510 X-22.692 Y-19.931 I0.017 J-0.5
N4515 G1 X-23.383 Y-20.061
N4520 X-26.619 Y-20.671 F#105
N4525 X-27.385 Y-20.816 F#103
N4530 X-27.493 Y-20.836 Z-7.814
N4535 G3 X-27.9 Y-21.31 Z-7.9 I0.093 J-0.491
N4540 X-26.753 Y-23.097 I1.919 J-0.029 F#100
N4545 X-22.867 Y-22.887 I1.784 J3.05
N4550 X-22.1 Y-20.696 I-2.06 J1.95
N4555 X-22.617 Y-20.214 Z-7.8 I-0.5 J-0.017 F#104
N4560 X-22.694 Y-20.222 I0.017 J-0.5
N4565 G1 X-23.383 Y-20.355
N4570 X-26.619 Y-20.978 F#105
N4575 X-27.385 Y-21.125 F#103
N4580 X-27.495 Y-21.146 Z-7.814
N4585 G3 X-27.9 Y-21.62 Z-7.9 I0.094 J-0.491
N4590 X-26.755 Y-23.403 I1.917 J-0.028 F#100
N4595 X-22.933 Y-23.25 I1.791 J3.067
N4600 X-22.1 Y-21.019 I-1.98 J2.011
N4605 X-22.617 Y-20.537 Z-7.8 I-0.5 J-0.017 F#104
N4610 X-22.692 Y-20.545 I0.017 J-0.5
N4615 G1 X-23.383 Y-20.675
N4620 X-26.619 Y-21.285 F#105
N4625 X-27.385 Y-21.43 F#103
N4630 X-27.493 Y-21.45 Z-7.814
N4635 G3 X-27.9 Y-21.924 Z-7.9 I0.093 J-0.491
N4640 X-26.753 Y-23.711 I1.919 J-0.03 F#100
N4645 X-22.867 Y-23.502 I1.785 J3.049
N4650 X-22.1 Y-21.31 I-2.06 J1.951
N4655 X-22.617 Y-20.828 Z-7.8 I-0.5 J-0.017 F#104
N4660 X-22.694 Y-20.836 I0.017 J-0.5
N4665 G1 X-23.383 Y-20.969
N4670 X-26.619 Y-21.592 F#105
N4675 X-27.385 Y-21.739 F#103
N4680 X-27.495 Y-21.76 Z-7.814
N4685 G3 X-27.9 Y-22.234 Z-7.9 I0.094 J-0.491
N4690 X-26.756 Y-24.017 I1.917 J-0.029 F#100
N4695 X-22.934 Y-23.864 I1.791 J3.066
N4700 X-22.1 Y-21.633 I-1.98 J2.012
N4705 X-22.617 Y-21.151 Z-7.8 I-0.5 J-0.017 F#104
N4710 X-22.692 Y-21.159 I0.017 J-0.5
N4715 G1 X-23.383 Y-21.29
N4720 X-26.619 Y-21.899 F#105
N4725 X-27.385 Y-22.044 F#103
N4730 X-27.493 Y-22.064 Z-7.814
N4735 G3 X-27.9 Y-22.538 Z-7.9 I0.093 J-0.491
N4740 X-26.754 Y-24.326 I1.919 J-0.031 F#100
N4745 X-22.867 Y-24.117 I1.785 J3.048
N4750 X-22.1 Y-21.924 I-2.06 J1.952
N4755 X-22.617 Y-21.442 Z-7.8 I-0.5 J-0.017 F#104
N4760 X-22.694 Y-21.45 I0.017 J-0.5
N4765 G1 X-23.383 Y-21.583
N4770 X-26.619 Y-22.206 F#105
N4775 X-27.385 Y-22.353 F#103
N4780 X-27.495 Y-22.374 Z-7.814
N4785 G3 X-27.9 Y-22.848 Z-7.9 I0.094 J-0.491
N4790 X-26.756 Y-24.632 I1.917 J-0.03 F#100
N4795 X-22.934 Y-24.479 I1.792 J3.066
N4800 X-22.1 Y-22.247 I-1.98 J2.012
N4805 X-22.617 Y-21.765 Z-7.8 I-0.5 J-0.017 F#104
N4810 X-22.692 Y-21.773 I0.017 J-0.5
N4815 G1 X-23.383 Y-21.904
N4820 X-26.619 Y-22.513 F#105
N4825 X-27.385 Y-22.658 F#103
N4830 X-27.493 Y-22.678 Z-7.814
N4835 G3 X-27.9 Y-23.152 Z-7.9 I0.093 J-0.491
N4840 X-26.754 Y-24.94 I1.918 J-0.032 F#100
N4845 X-22.868 Y-24.731 I1.785 J3.048
N4850 X-22.1 Y-22.538 I-2.06 J1.952
N4855 X-22.617 Y-22.056 Z-7.8 I-0.5 J-0.017 F#104
N4860 X-22.694 Y-22.065 I0.017 J-0.5
N4865 G1 X-23.383 Y-22.197
N4870 X-26.619 Y-22.82 F#105
N4875 X-27.385 Y-22.967 F#103
N4880 X-27.495 Y-22.988 Z-7.814
N4885 G3 X-27.9 Y-23.462 Z-7.9 I0.094 J-0.491
N4890 X-26.757 Y-25.246 I1.917 J-0.03 F#100
N4895 X-22.935 Y-25.094 I1.792 J3.065
N4900 X-22.1 Y-22.861 I-1.981 J2.013
N4905 X-22.617 Y-22.379 Z-7.8 I-0.5 J-0.017 F#104
N4910 X-22.692 Y-22.387 I0.017 J-0.5
N4915 G1 X-23.383 Y-22.518
N4920 X-26.619 Y-23.127 F#105
N4925 X-27.385 Y-23.272 F#103
N4930 X-27.493 Y-23.292 Z-7.814
N4935 G3 X-27.9 Y-23.766 Z-7.9 I0.093 J-0.491
N4940 X-26.755 Y-25.555 I1.918 J-0.033 F#100
N4945 X-22.868 Y-25.346 I1.786 J3.047
N4950 X-22.1 Y-23.152 I-2.06 J1.953
N4955 X-22.617 Y-22.67 Z-7.8 I-0.5 J-0.017 F#104
N4960 X-22.694 Y-22.679 I0.017 J-0.5
N4965 G1 X-23.383 Y-22.811
N4970 X-26.619 Y-23.434 F#105
N4975 X-27.385 Y-23.581 F#103
N4980 X-27.495 Y-23.602 Z-7.814
N4985 G3 X-27.9 Y-24.076 Z-7.9 I0.094 J-0.491
N4990 X-26.757 Y-25.861 I1.916 J-0.031 F#100
N4995 X-22.935 Y-25.708 I1.792 J3.065
N5000 X-22.1 Y-23.475 I-1.981 J2.013
N5005 X-22.617 Y-22.993 Z-7.8 I-0.5 J-0.017 F#104
N5010 X-22.692 Y-23.001 I0.017 J-0.5
N5015 G1 X-23.383 Y-23.132
N5020 X-26.619 Y-23.741 F#105
N5025 X-27.385 Y-23.886 F#103
N5030 X-27.493 Y-23.906 Z-7.814
N5035 G3 X-27.9 Y-24.38 Z-7.9 I0.093 J-0.491
N5040 X-26.755 Y-26.169 I1.918 J-0.034 F#100
N5045 X-22.868 Y-25.961 I1.786 J3.046
N5050 X-22.1 Y-23.766 I-2.06 J1.953
N5055 X-22.617 Y-23.284 Z-7.8 I-0.5 J-0.017 F#104
N5060 X-22.694 Y-23.293 I0.017 J-0.5
N5065 G1 X-23.383 Y-23.425
N5070 X-26.619 Y-24.048 F#105
N5075 X-27.385 Y-24.195 F#103
N5080 X-27.495 Y-24.216 Z-7.814
N5085 G3 X-27.9 Y-24.69 Z-7.9 I0.094 J-0.491
N5090 X-26.758 Y-26.475 I1.916 J-0.032 F#100
N5095 X-22.935 Y-26.323 I1.793 J3.064
N5100 X-22.1 Y-24.089 I-1.981 J2.014
N5105 X-22.617 Y-23.607 Z-7.8 I-0.5 J-0.017 F#104
N5110 X-22.692 Y-23.615 I0.017 J-0.5
N5115 G1 X-23.383 Y-23.746
N5120 X-26.619 Y-24.355 F#105
N5125 X-27.385 Y-24.5 F#103
N5130 X-27.493 Y-24.52 Z-7.814
N5135 G3 X-27.9 Y-24.994 Z-7.9 I0.093 J-0.491
N5140 X-26.756 Y-26.783 I1.918 J-0.034 F#100
N5145 X-22.869 Y-26.575 I1.786 J3.046
N5150 X-22.1 Y-24.38 I-2.06 J1.954
N5155 X-22.617 Y-23.898 Z-7.8 I-0.5 J-0.017 F#104
N5160 X-22.694 Y-23.907 I0.017 J-0.5
N5165 G1 X-23.383 Y-24.039
N5170 X-26.619 Y-24.662 F#105
N5175 X-27.385 Y-24.809 F#103
N5180 X-27.495 Y-24.83 Z-7.814
N5185 G3 X-27.9 Y-25.304 Z-7.9 I0.094 J-0.491
N5190 X-26.758 Y-27.089 I1.916 J-0.033 F#100
N5195 X-22.936 Y-26.938 I1.793 J3.063
N5200 X-22.1 Y-24.703 I-1.981 J2.015
N5205 X-22.617 Y-24.221 Z-7.8 I-0.5 J-0.017 F#104
N5210 X-22.692 Y-24.23 I0.017 J-0.5
N5215 G1 X-23.383 Y-24.36
N5220 X-26.619 Y-24.969 F#105
N5225 X-27.385 Y-25.114 F#103
N5230 X-27.493 Y-25.134 Z-7.814
N5235 G3 X-27.9 Y-25.608 Z-7.9 I0.093 J-0.491
N5240 X-26.756 Y-27.398 I1.917 J-0.035 F#100
N5245 X-22.869 Y-27.19 I1.786 J3.045
N5250 X-22.1 Y-24.994 I-2.06 J1.954
N5255 X-22.617 Y-24.512 Z-7.8 I-0.5 J-0.017 F#104
N5260 X-22.694 Y-24.521 I0.017 J-0.5
N5265 G1 X-23.383 Y-24.653
N5270 X-26.619 Y-25.276 F#105
N5275 X-27.385 Y-25.423 F#103
N5280 X-27.495 Y-25.444 Z-7.814
N5285 G3 X-27.9 Y-25.918 Z-7.9 I0.094 J-0.491
N5290 X-26.759 Y-27.704 I1.916 J-0.033 F#100
N5295 X-22.936 Y-27.552 I1.793 J3.063
N5300 X-22.1 Y-25.317 I-1.981 J2.015
N5305 X-22.617 Y-24.835 Z-7.8 I-0.5 J-0.017 F#104
N5310 X-22.692 Y-24.844 I0.017 J-0.5
N5315 G1 X-23.383 Y-24.974
N5320 X-26.619 Y-25.583 F#105
N5325 X-27.385 Y-25.728 F#103
N5330 X-27.493 Y-25.748 Z-7.814
N5335 G3 X-27.9 Y-26.222 Z-7.9 I0.093 J-0.491
N5340 X-26.757 Y-28.012 I1.917 J-0.036 F#100
N5345 X-22.869 Y-27.804 I1.787 J3.045
N5350 X-22.1 Y-25.608 I-2.06 J1.955
N5355 X-22.617 Y-25.126 Z-7.8 I-0.5 J-0.017 F#104
N5360 X-22.694 Y-25.135 I0.017 J-0.5
N5365 G1 X-23.383 Y-25.267
N5370 X-26.619 Y-25.89 F#105
N5375 X-27.385 Y-26.037 F#103
N5380 X-27.495 Y-26.058 Z-7.814
N5385 G3 X-27.9 Y-26.532 Z-7.9 I0.094 J-0.491
N5390 X-26.759 Y-28.318 I1.915 J-0.034 F#100
N5395 X-22.936 Y-28.167 I1.793 J3.062
N5400 X-22.1 Y-25.932 I-1.981 J2.016
N5405 X-22.617 Y-25.449 Z-7.8 I-0.5 J-0.017 F#104
N5410 X-22.692 Y-25.458 I0.017 J-0.5
N5415 G1 X-23.384 Y-25.588
N5420 X-26.619 Y-26.198 F#105
N5425 X-27.385 Y-26.342 F#103
N5430 X-27.493 Y-26.362 Z-7.814
N5435 G3 X-27.9 Y-26.836 Z-7.9 I0.093 J-0.491
N5440 X-26.757 Y-28.626 I1.917 J-0.036 F#100
N5445 X-22.87 Y-28.419 I1.787 J3.044
N5450 X-22.1 Y-26.222 I-2.061 J1.955
N5455 X-22.617 Y-25.74 Z-7.8 I-0.5 J-0.017 F#104
N5460 X-22.694 Y-25.749 I0.017 J-0.5
N5465 G1 X-23.383 Y-25.881
N5470 X-26.619 Y-26.504 F#105
N5475 X-27.385 Y-26.651 F#103
N5480 X-27.495 Y-26.672 Z-7.814
N5485 G3 X-27.9 Y-27.146 Z-7.9 I0.094 J-0.491
N5490 X-26.76 Y-28.932 I1.915 J-0.035 F#100
N5495 X-22.937 Y-28.781 I1.794 J3.062
N5500 X-22.1 Y-26.546 I-1.981 J2.016
N5505 X-22.617 Y-26.063 Z-7.8 I-0.5 J-0.017 F#104
N5510 X-22.692 Y-26.072 I0.017 J-0.5
N5515 G1 X-23.384 Y-26.202
N5520 X-26.619 Y-26.812 F#105
N5525 X-27.385 Y-26.956 F#103
N5530 X-27.493 Y-26.976 Z-7.814
N5535 G3 X-27.9 Y-27.45 Z-7.9 I0.093 J-0.491
N5540 X-26.758 Y-29.241 I1.917 J-0.037 F#100
N5545 X-22.87 Y-29.033 I1.787 J3.044
N5550 X-22.1 Y-26.836 I-2.061 J1.955
N5555 X-22.617 Y-26.354 Z-7.8 I-0.5 J-0.017 F#104
N5560 X-22.694 Y-26.363 I0.017 J-0.5
N5565 G1 X-23.383 Y-26.495
N5570 X-26.619 Y-27.118 F#105
N5575 X-27.385 Y-27.265 F#103
N5580 X-27.495 Y-27.286 Z-7.814
N5585 G3 X-27.9 Y-27.76 Z-7.9 I0.094 J-0.491
N5590 X-26.76 Y-29.546 I1.915 J-0.035 F#100
N5595 X-22.937 Y-29.396 I1.794 J3.061
N5600 X-22.1 Y-27.16 I-1.982 J2.016
N5605 X-22.617 Y-26.677 Z-7.8 I-0.5 J-0.017 F#104
N5610 X-22.692 Y-26.686 I0.017 J-0.5
N5615 G1 X-23.384 Y-26.816
N5620 X-26.619 Y-27.426 F#105
N5625 X-27.385 Y-27.57 F#103
N5630 X-27.493 Y-27.59 Z-7.814
N5635 G3 X-27.9 Y-28.064 Z-7.9 I0.093 J-0.491
N5640 X-26.758 Y-29.855 I1.916 J-0.037 F#100
N5645 X-22.87 Y-29.648 I1.787 J3.044
N5650 X-22.1 Y-27.45 I-2.061 J1.956
N5655 X-22.617 Y-26.968 Z-7.8 I-0.5 J-0.017 F#104
N5660 X-22.694 Y-26.977 I0.017 J-0.5
N5665 G1 X-23.383 Y-27.109
N5670 X-26.619 Y-27.732 F#105
N5675 X-27.385 Y-27.879 F#103
N5680 X-27.495 Y-27.9 Z-7.814
N5685 G3 X-27.9 Y-28.374 Z-7.9 I0.094 J-0.491
N5690 X-26.761 Y-30.161 I1.915 J-0.036 F#100
N5695 X-22.937 Y-30.01 I1.794 J3.061
N5700 X-22.1 Y-27.774 I-1.982 J2.017
N5705 X-22.617 Y-27.291 Z-7.8 I-0.5 J-0.017 F#104
N5710 X-22.692 Y-27.3 I0.017 J-0.5
N5715 G1 X-23.384 Y-27.43
N5720 X-26.619 Y-28.04 F#105
N5725 X-27.385 Y-28.184 F#103
N5730 X-27.493 Y-28.204 Z-7.814
N5735 G3 X-27.9 Y-28.678 Z-7.9 I0.093 J-0.491
N5740 X-26.759 Y-30.469 I1.916 J-0.038 F#100
N5745 X-22.87 Y-30.262 I1.788 J3.043
N5750 X-22.1 Y-28.064 I-2.061 J1.956
N5755 X-22.617 Y-27.582 Z-7.8 I-0.5 J-0.017 F#104
N5760 X-22.694 Y-27.591 I0.017 J-0.5
N5765 G1 X-23.383 Y-27.723
N5770 X-26.619 Y-28.346 F#105
N5775 X-27.385 Y-28.493 F#103
N5780 X-27.495 Y-28.514 Z-7.814
N5785 G3 X-27.9 Y-28.988 Z-7.9 I0.094 J-0.491
N5790 X-26.761 Y-30.775 I1.915 J-0.036 F#100
N5795 X-22.938 Y-30.624 I1.794 J3.061
N5800 X-22.1 Y-28.388 I-1.982 J2.017
N5805 X-22.617 Y-27.905 Z-7.8 I-0.5 J-0.017 F#104
N5810 X-22.692 Y-27.914 I0.017 J-0.5
N5815 G1 X-23.384 Y-28.044
N5820 X-26.619 Y-28.654 F#105
N5825 X-27.385 Y-28.798 F#103
N5830 X-27.493 Y-28.818 Z-7.814
N5835 G3 X-27.9 Y-29.292 Z-7.9 I0.093 J-0.491
N5840 X-26.759 Y-31.083 I1.916 J-0.038 F#100
N5845 X-22.871 Y-30.877 I1.788 J3.043
N5850 X-22.1 Y-28.678 I-2.061 J1.957
N5855 X-22.617 Y-28.196 Z-7.8 I-0.5 J-0.017 F#104
N5860 X-22.694 Y-28.205 I0.017 J-0.5
N5865 G1 X-23.383 Y-28.337
N5870 X-26.619 Y-28.96 F#105
N5875 X-27.385 Y-29.107 F#103
N5880 X-27.495 Y-29.128 Z-7.814
N5885 G3 X-27.9 Y-29.602 Z-7.9 I0.094 J-0.491
N5890 X-26.761 Y-31.389 I1.914 J-0.037 F#100
N5895 X-22.938 Y-31.239 I1.794 J3.06
N5900 X-22.1 Y-29.002 I-1.982 J2.018
N5905 X-22.617 Y-28.52 Z-7.8 I-0.5 J-0.017 F#104
N5910 X-22.692 Y-28.528 I0.017 J-0.5
N5915 G1 X-23.384 Y-28.658
N5920 X-26.619 Y-29.268 F#105
N5925 X-27.385 Y-29.412 F#103
N5930 X-27.493 Y-29.432 Z-7.814
N5935 G3 X-27.9 Y-29.906 Z-7.9 I0.093 J-0.491
N5940 X-26.759 Y-31.698 I1.916 J-0.039 F#100
N5945 X-22.871 Y-31.491 I1.788 J3.042
N5950 X-22.1 Y-29.292 I-2.061 J1.957
N5955 X-22.617 Y-28.81 Z-7.8 I-0.5 J-0.017 F#104
N5960 X-22.694 Y-28.819 I0.017 J-0.5
N5965 G1 X-23.383 Y-28.951
N5970 X-26.619 Y-29.574 F#105
N5975 X-27.385 Y-29.721 F#103
N5980 X-27.495 Y-29.742 Z-7.814
N5985 G3 X-27.9 Y-30.216 Z-7.9 I0.094 J-0.491
N5990 X-26.762 Y-32.003 I1.914 J-0.037 F#100
N5995 X-22.938 Y-31.853 I1.795 J3.06
N6000 X-22.1 Y-29.616 I-1.982 J2.018
N6005 X-22.617 Y-29.134 Z-7.8 I-0.5 J-0.017 F#104
N6010 X-22.692 Y-29.142 I0.017 J-0.5
N6015 G1 X-23.384 Y-29.272
N6020 X-26.619 Y-29.882 F#105
N6025 X-27.385 Y-30.026 F#103
N6030 X-27.493 Y-30.046 Z-7.814
N6035 G3 X-27.9 Y-30.52 Z-7.9 I0.093 J-0.491
N6040 X-26.759 Y-32.312 I1.916 J-0.039 F#100
N6045 X-22.871 Y-32.105 I1.788 J3.042
N6050 X-22.1 Y-29.906 I-2.061 J1.957
N6055 X-22.617 Y-29.424 Z-7.8 I-0.5 J-0.017 F#104
N6060 X-22.694 Y-29.433 I0.017 J-0.5
N6065 G1 X-23.383 Y-29.565
N6070 X-26.619 Y-30.188 F#105
N6075 X-27.385 Y-30.335 F#103
N6080 X-27.495 Y-30.356 Z-7.814
N6085 G3 X-27.9 Y-30.83 Z-7.9 I0.094 J-0.491
N6090 X-26.762 Y-32.618 I1.914 J-0.037 F#100
N6095 X-22.938 Y-32.468 I1.795 J3.06
N6100 X-22.1 Y-30.23 I-1.982 J2.018
N6105 X-22.617 Y-29.748 Z-7.8 I-0.5 J-0.017 F#104
N6110 X-22.692 Y-29.756 I0.017 J-0.5
N6115 G1 X-23.384 Y-29.886
N6120 X-26.619 Y-30.496 F#105
N6125 X-27.385 Y-30.64 F#103
N6130 X-27.493 Y-30.66 Z-7.814
N6135 G3 X-27.9 Y-31.134 Z-7.9 I0.093 J-0.491
N6140 X-26.76 Y-32.926 I1.916 J-0.04 F#100
N6145 X-22.871 Y-32.72 I1.788 J3.042
N6150 X-22.1 Y-30.52 I-2.061 J1.957
N6155 X-22.617 Y-30.038 Z-7.8 I-0.5 J-0.017 F#104
N6160 X-22.694 Y-30.047 I0.017 J-0.5
N6165 G1 X-23.383 Y-30.179
N6170 X-26.619 Y-30.802 F#105
N6175 X-27.385 Y-30.949 F#103
N6180 X-27.495 Y-30.97 Z-7.814
N6185 G3 X-27.9 Y-31.444 Z-7.9 I0.094 J-0.491
N6190 X-26.762 Y-33.232 I1.914 J-0.038 F#100
N6195 X-22.871 Y-33.029 I1.792 J3.044
N6200 X-22.1 Y-30.844 I-2.068 J1.959
N6205 X-22.617 Y-30.362 Z-7.8 I-0.5 J-0.017 F#104
N6210 X-22.692 Y-30.37 I0.017 J-0.5
N6215 G1 X-23.384 Y-30.5
N6220 X-26.619 Y-31.11 F#105
N6225 X-27.385 Y-31.254 F#103
N6230 X-27.493 Y-31.274 Z-7.814
N6235 G3 X-27.9 Y-31.748 Z-7.9 I0.093 J-0.491
N6240 X-26.76 Y-33.54 I1.915 J-0.04 F#100
N6245 X-22.87 Y-33.336 I1.791 J3.047
N6250 X-22.1 Y-31.147 I-2.077 J1.96
N6255 X-22.617 Y-30.665 Z-7.8 I-0.5 J-0.017 F#104
N6260 X-22.693 Y-30.673 I0.017 J-0.5
N6265 G1 X-23.383 Y-30.804
N6270 X-26.619 Y-31.418 F#105
N6275 X-27.385 Y-31.564 F#103
N6280 X-27.494 Y-31.584 Z-7.814
N6285 G3 X-27.9 Y-32.058 Z-7.9 I0.093 J-0.491
N6290 X-26.762 Y-33.846 I1.914 J-0.038 F#100
N6295 X-22.871 Y-33.645 I1.794 J3.046
N6300 X-22.1 Y-31.455 I-2.079 J1.962
N6305 X-22.617 Y-30.972 Z-7.8 I-0.5 J-0.017 F#104
N6310 X-22.693 Y-30.981 I0.017 J-0.5
N6315 G1 X-23.383 Y-31.111
N6320 X-26.619 Y-31.723 F#105
N6325 X-27.385 Y-31.868 F#103
N6330 X-27.493 Y-31.888 Z-7.814
N6335 G3 X-27.9 Y-32.362 Z-7.9 I0.093 J-0.491
N6340 X-26.76 Y-34.154 I1.915 J-0.04 F#100
N6345 X-22.869 Y-33.952 I1.793 J3.047
N6350 X-22.1 Y-31.762 I-2.081 J1.961
N6355 X-22.617 Y-31.279 Z-7.8 I-0.5 J-0.017 F#104
N6360 X-22.693 Y-31.288 I0.017 J-0.5
N6365 G1 X-23.383 Y-31.419
N6370 X-26.619 Y-32.032 F#105
N6375 X-27.385 Y-32.178 F#103
N6380 X-27.493 Y-32.198 Z-7.814
N6385 G3 X-27.9 Y-32.672 Z-7.9 I0.093 J-0.491
N6390 X-26.763 Y-34.46 I1.914 J-0.039 F#100
N6395 X-22.871 Y-34.261 I1.796 J3.045
N6400 X-22.1 Y-32.07 I-2.08 J1.963
N6405 X-22.617 Y-31.588 Z-7.8 I-0.5 J-0.017 F#104
N6410 X-22.692 Y-31.596 I0.017 J-0.5
N6415 G1 X-23.383 Y-31.727
N6420 X-26.619 Y-32.337 F#105
N6425 X-27.385 Y-32.482 F#103
N6430 X-27.493 Y-32.502 Z-7.814
N6435 G3 X-27.9 Y-32.976 Z-7.9 I0.093 J-0.491
N6440 X-26.761 Y-34.769 I1.915 J-0.041 F#100
N6445 X-22.87 Y-34.568 I1.794 J3.045
N6450 X-22.1 Y-32.377 I-2.081 J1.962
N6455 X-22.617 Y-31.895 Z-7.8 I-0.5 J-0.017 F#104
N6460 X-22.693 Y-31.904 I0.017 J-0.5
N6465 G1 X-23.383 Y-32.034
N6470 X-26.619 Y-32.647 F#105
N6475 X-27.385 Y-32.792 F#103
N6480 X-27.493 Y-32.812 Z-7.814
N6485 G3 X-27.9 Y-33.286 Z-7.9 I0.093 J-0.491
N6490 X-26.763 Y-35.075 I1.914 J-0.039 F#100
N6495 X-22.871 Y-34.877 I1.797 J3.043
N6500 X-22.1 Y-32.686 I-2.08 J1.963
N6505 X-22.617 Y-32.204 Z-7.8 I-0.5 J-0.017 F#104
N6510 X-22.692 Y-32.212 I0.017 J-0.5
N6515 G1 X-23.384 Y-32.342
N6520 X-26.619 Y-32.952 F#105
N6525 X-27.385 Y-33.096 F#103
N6530 X-27.493 Y-33.116 Z-7.814
N6535 G3 X-27.9 Y-33.59 Z-7.9 I0.093 J-0.491
N6540 X-26.761 Y-35.383 I1.916 J-0.041 F#100
N6545 X-22.87 Y-35.184 I1.795 J3.044
N6550 X-22.1 Y-32.993 I-2.08 J1.962
N6555 X-22.617 Y-32.511 Z-7.8 I-0.5 J-0.017 F#104
N6560 X-22.693 Y-32.519 I0.017 J-0.5
N6565 G1 X-23.383 Y-32.65
N6570 X-26.619 Y-33.261 F#105
N6575 X-27.385 Y-33.406 F#103
N6580 X-27.493 Y-33.426 Z-7.814
N6585 G3 X-27.9 Y-33.9 Z-7.9 I0.093 J-0.491
N6590 X-26.764 Y-35.689 I1.915 J-0.039 F#100
N6595 X-22.872 Y-35.493 I1.798 J3.042
N6600 X-22.1 Y-33.302 I-2.079 J1.964
N6605 X-22.617 Y-32.819 Z-7.8 I-0.5 J-0.017 F#104
N6610 X-22.692 Y-32.828 I0.017 J-0.5
N6615 G1 X-23.384 Y-32.958
N6620 X-26.619 Y-33.566 F#105
N6625 X-27.385 Y-33.71 F#103
N6630 X-27.493 Y-33.73 Z-7.814
N6635 G3 X-27.9 Y-34.204 Z-7.9 I0.092 J-0.491
N6640 X-26.761 Y-35.998 I1.917 J-0.041 F#100
N6645 X-22.87 Y-35.8 I1.796 J3.042
N6650 X-22.1 Y-33.608 I-2.08 J1.962
N6655 X-22.617 Y-33.126 Z-7.8 I-0.5 J-0.017 F#104
N6660 X-22.692 Y-33.134 I0.017 J-0.5
N6665 G1 X-23.383 Y-33.265
N6670 X-26.619 Y-33.875 F#105
N6675 X-27.385 Y-34.019 F#103
N6680 X-27.493 Y-34.039 Z-7.814
N6685 G3 X-27.9 Y-34.514 Z-7.9 I0.093 J-0.491
N6690 X-26.509 Y-36.434 I2.074 J0.039 F#100
N6695 X-22.881 Y-36.109 I1.549 J3.12
N6700 X-22.1 Y-33.917 I-2.045 J1.964
N6705 X-22.617 Y-33.435 Z-7.8 I-0.5 J-0.017 F#104
N6710 X-22.7 Y-33.444 I0.017 J-0.5
N6715 G1 X-23.381 Y-33.584
N6720 X-26.638 Y-34.25 F#105
N6725 X-27.402 Y-34.407 F#103
N6730 X-27.469 Y-34.421 Z-7.809
N6735 G3 X-27.868 Y-34.942 Z-7.9 I0.1 J-0.49
N6740 X-25.662 Y-36.859 I2.068 J0.152 F#100
N6745 G1 X-25.58 Y-36.858 Z-7.889 F#104
N6750 X-25.5 Y-36.843 Z-7.878
N6755 X-25.422 Y-36.814 Z-7.867
N6760 X-25.351 Y-36.771 Z-7.856
N6765 X-25.287 Y-36.716 Z-7.844
N6770 X-25.233 Y-36.651 Z-7.833
N6775 X-25.191 Y-36.576 Z-7.822
N6780 X-25.163 Y-36.494 Z-7.811
N6785 X-25.149 Y-36.408 Z-7.8
N6790 G3 X-25.368 Y-35.984 I-0.5 J0.01
N6795 G1 X-25.601 Y-35.825
N6800 X-26.689 Y-35.084 F#105
N6805 X-27.053 Y-34.836 F#103
N6810 G3 X-27.375 Y-34.751 I-0.282 J-0.413
N6815 X-27.833 Y-35.29 Z-7.9 I0.041 J-0.498
N6820 X-25.62 Y-36.862 I1.888 J0.315 F#100
N6825 X-23.636 Y-36.787 I0.821 J4.579
N6830 X-22.122 Y-34.845 I-0.779 J2.169
N6835 X-22.589 Y-34.314 Z-7.8 I-0.499 J0.032 F#104
N6840 X-22.984 Y-34.469 I-0.032 J-0.499
N6845 G1 X-23.219 Y-34.717
N6850 X-24.219 Y-35.769 F#105
N6855 X-24.471 Y-36.035 F#103
N6860 G3 X-24.608 Y-36.412 I0.363 J-0.344
N6865 X-24.076 Y-36.878 Z-7.9 I0.499 J0.033
N6870 X-22.132 Y-34.619 I0.017 J1.951 F#100
N6875 G1 X-22.1 Y-34.219
N6880 G3 X-23.1 Y-34.243 I-0.5 J-0.017 F#104
N6885 G1 X-23.099 Y-34.254
N6890 X-23.096 Y-34.341 Z-7.892
N6895 X-23.093 Y-34.425 Z-7.87
N6900 X-23.091 Y-34.504 Z-7.833
N6905 X-23.088 Y-34.575 Z-7.783
N6910 X-23.086 Y-34.637 Z-7.721
N6915 X-23.084 Y-34.687 Z-7.65
N6920 X-23.083 Y-34.723 Z-7.571
N6925 X-23.082 Y-34.746 Z-7.487
N6930 Y-34.754 Z-7.4
N6935 G0 Z4.
(2D ADAPTIVE3)
N6945 M8
N6950 G0 X-55.077 Y0.318
N6955 #100=330. (CUTTING)
N6960 #103=200. (ENTRY)
N6965 #104=200. (EXIT)
N6970 #105=3000. (DIRECT)
N6975 #106=82.5 (REDUCED)
N6980 Z4.
N6985 Z-3.66
N6990 G1 Z-4.16 F#103
N6995 X-55.069 Y0.316 Z-4.247
N7000 X-55.047 Y0.31 Z-4.331
N7005 X-55.012 Y0.301 Z-4.41
N7010 X-54.963 Y0.289 Z-4.481
N7015 X-54.904 Y0.273 Z-4.543
N7020 X-54.834 Y0.256 Z-4.593
N7025 X-54.758 Y0.236 Z-4.63
N7030 X-54.676 Y0.215 Z-4.652
N7035 X-54.592 Y0.194 Z-4.66
N7040 G3 X-53.037 Y-0.03 I1.809 J7.063
N7045 G1 X-52.927 F#106
N7050 G2 X-49.316 Y2.244 I4.077 J-2.471 F#100
N7055 X-42.237 Y2.469 I5.371 J-57.346
N7060 G1 X-32.489 Y2.47
N7065 G2 X-29.55 Y0.814 I0.137 J-3.195
N7070 X-28.595 Y-3.455 I-7.194 J-3.85
N7075 X-28.53 Y-8.772 I-109.239 J-3.986
N7080 G1 Y-14.975
N7085 G3 X-26.505 Y-17. I2.025 J0.
N7090 X-26.529 Y-16. I-0.017 J0.5 F#104
N7095 G1 X-26.54 Y-16.001
N7100 X-26.627 Y-16.004 Z-4.652
N7105 X-26.711 Y-16.007 Z-4.63
N7110 X-26.79 Y-16.009 Z-4.593
N7115 X-26.861 Y-16.012 Z-4.543
N7120 X-26.923 Y-16.014 Z-4.481
N7125 X-26.973 Y-16.016 Z-4.41
N7130 X-27.01 Y-16.017 Z-4.331
N7135 X-27.032 Y-16.018 Z-4.247
N7140 X-27.04 Z-4.16
N7145 G0 Z2.05
N7150 X-54.908 Y-16.302
N7155 Z-3.66
N7160 G1 Z-4.16 F#103
N7165 X-54.902 Y-16.306 Z-4.247
N7170 X-54.882 Y-16.317 Z-4.331
N7175 X-54.851 Y-16.336 Z-4.41
N7180 X-54.808 Y-16.362 Z-4.481
N7185 X-54.755 Y-16.393 Z-4.543
N7190 X-54.693 Y-16.43 Z-4.593
N7195 X-54.625 Y-16.47 Z-4.63
N7200 X-54.553 Y-16.513 Z-4.652
N7205 X-54.478 Y-16.557 Z-4.66
N7210 G3 X-52.971 Y-17. I1.618 J2.721
N7215 X-52.666 Y-16.012 I-1.332 J0.954 F#100
N7220 X-52.471 Y-9.381 I-57.673 J5.013
N7225 G1 X-52.47 Y-2.292
N7230 G2 X-50.039 Y1.14 I3.972 J-0.237
N7235 X-44.823 Y1.931 I4.531 J-12.281
N7240 X-40.392 Y1.969 I3.348 J-132.222
N7245 G1 X-34.189 Y1.97
N7250 G2 X-29.586 Y-1.342 I0.464 J-4.21
N7255 X-29.053 Y-6.609 I-17.697 J-4.451
N7260 G1 X-29.066 Y-8.22
N7265 Y-9.831
N7270 X-29.055 Y-11.442
N7275 X-29.031 Y-13.053
N7280 X-28.995 Y-14.664
N7285 G3 X-26.457 Y-17.004 I2.563 J0.233
N7290 G1 X-26.37 Y-16.993 F#104
N7295 X-26.287 Y-16.967
N7300 X-26.209 Y-16.928
N7305 X-26.14 Y-16.876
N7310 X-26.08 Y-16.812
N7315 X-26.032 Y-16.739
N7320 X-25.998 Y-16.66
N7325 X-25.978 Y-16.575
N7330 X-25.972 Y-16.488
N7335 X-25.982 Y-16.402
N7340 X-26.007 Y-16.319
N7345 X-26.045 Y-16.241
N7350 X-26.097 Y-16.171
N7355 X-26.159 Y-16.111
N7360 X-26.231 Y-16.063
N7365 X-26.31 Y-16.027
N7370 X-26.394 Y-16.006
N7375 X-26.481 Y-16.
N7380 X-26.492 Y-16.001
N7385 X-26.578 Y-16.004 Z-4.652
N7390 X-26.662 Y-16.007 Z-4.63
N7395 X-26.741 Y-16.009 Z-4.593
N7400 X-26.813 Y-16.012 Z-4.543
N7405 X-26.874 Y-16.014 Z-4.481
N7410 X-26.924 Y-16.016 Z-4.41
N7415 X-26.961 Y-16.017 Z-4.331
N7420 X-26.984 Y-16.018 Z-4.247
N7425 X-26.991 Z-4.16
N7430 G0 Z2.05
N7435 X-54.875 Y-16.302
N7440 Z-3.66
N7445 G1 Z-4.16 F#103
N7450 X-54.868 Y-16.306 Z-4.247
N7455 X-54.849 Y-16.317 Z-4.331
N7460 X-54.817 Y-16.336 Z-4.41
N7465 X-54.774 Y-16.362 Z-4.481
N7470 X-54.721 Y-16.393 Z-4.543
N7475 X-54.66 Y-16.43 Z-4.593
N7480 X-54.592 Y-16.47 Z-4.63
N7485 X-54.52 Y-16.513 Z-4.652
N7490 X-54.445 Y-16.557 Z-4.66
N7495 G3 X-52.938 Y-17. I1.618 J2.721
N7500 G1 X-52.856 Y-16.968 F#100
N7505 X-52.78 Y-16.924
N7510 X-52.713 Y-16.867
N7515 X-52.655 Y-16.801
N7520 X-52.609 Y-16.726
N7525 X-52.576 Y-16.645
N7530 X-52.556 Y-16.559
N7535 X-52.551 Y-16.472
N7540 X-52.435 Y-16.098
N7545 X-52.334 Y-15.721
N7550 X-52.246 Y-15.34
N7555 X-52.172 Y-14.957
N7560 X-52.113 Y-14.57
N7565 X-52.068 Y-14.182
N7570 X-52.037 Y-13.793
N7575 X-52.02 Y-13.402
N7580 X-52.018 Y-13.012
N7585 X-52.03 Y-12.621
N7590 G3 X-51.941 Y-2.873 I-434.478 J8.864
N7595 G2 X-48.561 Y0.842 I4.492 J-0.691
N7600 X-42.418 Y1.427 I4.829 J-18.174
N7605 X-34.441 Y1.464 I5.017 J-219.882
N7610 X-30.084 Y-2.284 I-0.168 J-4.601
N7615 X-29.555 Y-7.555 I-18.646 J-4.533
N7620 G1 X-29.572 Y-8.714
N7625 X-29.575 Y-9.872
N7630 X-29.564 Y-11.031
N7635 X-29.539 Y-12.189
N7640 X-29.5 Y-13.347
N7645 X-29.446 Y-14.504
N7650 G3 X-26.714 Y-17.023 I2.885 J0.387
N7655 G1 X-26.624 Y-17.011 F#104
N7660 X-26.538 Y-16.984
N7665 X-26.458 Y-16.942
N7670 X-26.387 Y-16.888
N7675 X-26.326 Y-16.822
N7680 X-26.278 Y-16.747
N7685 X-26.243 Y-16.664
N7690 X-26.223 Y-16.578
N7695 X-26.219 Y-16.489
N7700 X-26.23 Y-16.401
N7705 X-26.256 Y-16.317
N7710 X-26.296 Y-16.238
N7715 X-26.348 Y-16.168
N7720 X-26.412 Y-16.108
N7725 X-26.486 Y-16.06
N7730 X-26.566 Y-16.025
N7735 X-26.65 Y-16.005
N7740 X-26.737 Y-16.
N7745 X-26.748 Y-16.001
N7750 X-26.835 Y-16.004 Z-4.652
N7755 X-26.919 Y-16.007 Z-4.63
N7760 X-26.998 Y-16.009 Z-4.593
N7765 X-27.069 Y-16.012 Z-4.543
N7770 X-27.131 Y-16.014 Z-4.481
N7775 X-27.181 Y-16.016 Z-4.41
N7780 X-27.217 Y-16.017 Z-4.331
N7785 X-27.24 Y-16.018 Z-4.247
N7790 X-27.248 Z-4.16
N7795 G0 Z2.05
N7800 X-54.775 Y-16.302
N7805 Z-3.66
N7810 G1 Z-4.16 F#103
N7815 X-54.769 Y-16.306 Z-4.247
N7820 X-54.749 Y-16.317 Z-4.331
N7825 X-54.718 Y-16.336 Z-4.41
N7830 X-54.675 Y-16.362 Z-4.481
N7835 X-54.622 Y-16.393 Z-4.543
N7840 X-54.56 Y-16.43 Z-4.593
N7845 X-54.492 Y-16.47 Z-4.63
N7850 X-54.42 Y-16.513 Z-4.652
N7855 X-54.345 Y-16.557 Z-4.66
N7860 G3 X-52.838 Y-17. I1.618 J2.721
N7865 X-52.325 Y-16.519 I-0.107 J0.628 F#100
N7870 X-51.545 Y-11.431 I-10.453 J4.206
N7875 X-51.475 Y-4.339 I-124.253 J4.772
N7880 G2 X-47.97 Y0.265 I4.796 J-0.016
N7885 X-41.838 Y0.922 I4.932 J-17.07
N7890 X-34.748 Y0.925 I3.599 J-138.898
N7895 X-30.577 Y-3.122 I-0.725 J-4.919
N7900 X-30.069 Y-9.281 I-21.196 J-4.848
N7905 G3 X-29.825 Y-14.684 I36.454 J-1.059
N7910 X-27.077 Y-17.034 I2.999 J0.726
N7915 G1 X-26.99 Y-17.022 F#104
N7920 X-26.907 Y-16.997
N7925 X-26.829 Y-16.958
N7930 X-26.759 Y-16.908
N7935 X-26.698 Y-16.846
N7940 X-26.648 Y-16.776
N7945 X-26.61 Y-16.699
N7950 X-26.586 Y-16.617
N7955 X-26.575 Y-16.532
N7960 X-26.579 Y-16.447
N7965 X-26.596 Y-16.364
N7970 X-26.627 Y-16.286
N7975 X-26.67 Y-16.213
N7980 X-26.724 Y-16.149
N7985 X-26.787 Y-16.095
N7990 X-26.859 Y-16.052
N7995 X-26.936 Y-16.022
N8000 X-27.016 Y-16.004
N8005 X-27.099 Y-16.
N8010 X-27.109 Y-16.001
N8015 X-27.196 Y-16.004 Z-4.652
N8020 X-27.28 Y-16.007 Z-4.63
N8025 X-27.359 Y-16.009 Z-4.593
N8030 X-27.431 Y-16.012 Z-4.543
N8035 X-27.492 Y-16.014 Z-4.481
N8040 X-27.542 Y-16.016 Z-4.41
N8045 X-27.579 Y-16.017 Z-4.331
N8050 X-27.602 Y-16.018 Z-4.247
N8055 X-27.609 Z-4.16
N8060 G0 Z2.05
N8065 X-54.646 Y-16.302
N8070 Z-3.66
N8075 G1 Z-4.16 F#103
N8080 X-54.639 Y-16.306 Z-4.247
N8085 X-54.62 Y-16.317 Z-4.331
N8090 X-54.588 Y-16.336 Z-4.41
N8095 X-54.545 Y-16.362 Z-4.481
N8100 X-54.492 Y-16.393 Z-4.543
N8105 X-54.431 Y-16.43 Z-4.593
N8110 X-54.363 Y-16.47 Z-4.63
N8115 X-54.291 Y-16.513 Z-4.652
N8120 X-54.216 Y-16.557 Z-4.66
N8125 G3 X-52.709 Y-17. I1.618 J2.721
N8130 X-52.096 Y-16.548 I-0.031 J0.683 F#100
N8135 X-51.112 Y-12.254 I-7.625 J4.007
N8140 X-50.944 Y-4.282 I-143.316 J7.011
N8145 G2 X-45.955 Y0.076 I5.406 J-1.155
N8150 X-39.774 Y0.438 I4.768 J-28.392
N8155 X-34.476 Y0.23 I1.799 J-21.694
N8160 X-30.927 Y-4.508 I-2.201 J-5.347
N8165 X-30.557 Y-11.573 I-34.734 J-5.361
N8170 G3 X-29.792 Y-15.686 I9.349 J-0.387
N8175 G1 X-29.298 Y-16.428
N8180 G3 X-28.463 Y-17. I0.835 J0.323
N8185 X-28.487 Y-16. I-0.017 J0.5 F#104
N8190 G1 X-28.498 Y-16.001
N8195 X-28.584 Y-16.004 Z-4.652
N8200 X-28.669 Y-16.007 Z-4.63
N8205 X-28.748 Y-16.009 Z-4.593
N8210 X-28.819 Y-16.012 Z-4.543
N8215 X-28.881 Y-16.014 Z-4.481
N8220 X-28.93 Y-16.016 Z-4.41
N8225 X-28.967 Y-16.017 Z-4.331
N8230 X-28.99 Y-16.018 Z-4.247
N8235 X-28.997 Z-4.16
N8240 G0 Z2.05
N8245 X-54.472 Y-16.302
N8250 Z-3.66
N8255 G1 Z-4.16 F#103
N8260 X-54.466 Y-16.306 Z-4.247
N8265 X-54.447 Y-16.317 Z-4.331
N8270 X-54.415 Y-16.336 Z-4.41
N8275 X-54.372 Y-16.362 Z-4.481
N8280 X-54.319 Y-16.393 Z-4.543
N8285 X-54.258 Y-16.43 Z-4.593
N8290 X-54.19 Y-16.47 Z-4.63
N8295 X-54.117 Y-16.513 Z-4.652
N8300 X-54.043 Y-16.557 Z-4.66
N8305 G3 X-52.536 Y-17. I1.618 J2.721
N8310 X-51.869 Y-16.587 I-0.002 J0.747 F#100
N8315 X-50.701 Y-12.655 I-6.195 J3.979
N8320 X-50.485 Y-5.763 I-54.211 J5.154
N8325 G2 X-46.309 Y-0.666 I5.343 J-0.118
N8330 X-40.16 Y-0.075 I5.024 J-20.005
N8335 X-34.875 Y-0.363 I1.682 J-17.785
N8340 X-31.428 Y-5.216 I-2.627 J-5.516
N8345 X-31.019 Y-12.56 I-41.028 J-5.968
N8350 G3 X-29.821 Y-16.249 I7.861 J0.515
N8355 X-27.96 Y-17. I1.903 J2.034
N8360 X-27.984 Y-16. I-0.017 J0.5 F#104
N8365 G1 X-27.994 Y-16.001
N8370 X-28.081 Y-16.004 Z-4.652
N8375 X-28.165 Y-16.007 Z-4.63
N8380 X-28.244 Y-16.009 Z-4.593
N8385 X-28.316 Y-16.012 Z-4.543
N8390 X-28.377 Y-16.014 Z-4.481
N8395 X-28.427 Y-16.016 Z-4.41
N8400 X-28.464 Y-16.017 Z-4.331
N8405 X-28.487 Y-16.018 Z-4.247
N8410 X-28.494 Z-4.16
N8415 G0 Z2.05
N8420 X-54.271 Y-16.302
N8425 Z-3.66
N8430 G1 Z-4.16 F#103
N8435 X-54.265 Y-16.306 Z-4.247
N8440 X-54.245 Y-16.317 Z-4.331
N8445 X-54.214 Y-16.336 Z-4.41
N8450 X-54.171 Y-16.362 Z-4.481
N8455 X-54.118 Y-16.393 Z-4.543
N8460 X-54.056 Y-16.43 Z-4.593
N8465 X-53.989 Y-16.47 Z-4.63
N8470 X-53.916 Y-16.513 Z-4.652
N8475 X-53.842 Y-16.557 Z-4.66
N8480 G3 X-52.334 Y-17. I1.618 J2.721
N8485 X-51.524 Y-16.499 I-0.099 J1.065 F#100
N8490 G1 X-51.335 Y-16.199
N8495 X-51.16 Y-15.891
N8500 X-50.999 Y-15.576
N8505 X-50.853 Y-15.254
N8510 X-50.72 Y-14.925
N8515 X-50.603 Y-14.591
N8520 X-50.5 Y-14.252
N8525 X-50.413 Y-13.909
N8530 X-50.342 Y-13.562
N8535 X-50.285 Y-13.212
N8540 X-50.245 Y-12.861
N8545 X-50.22 Y-12.507
N8550 X-50.211 Y-12.153
N8555 G3 X-49.968 Y-6.102 I-49.292 J5.012
N8560 G2 X-45.571 Y-1.151 I5.507 J-0.463
N8565 X-39.419 Y-0.576 I5.038 J-20.693
N8570 X-35.06 Y-1.087 I1.145 J-9.078
N8575 X-31.89 Y-6.146 I-3.251 J-5.56
N8580 X-31.52 Y-12.045 I-36.914 J-5.275
N8585 G3 X-30.515 Y-15.823 I9.494 J0.502
N8590 X-28.276 Y-17.004 I2.288 J1.627
N8595 G1 X-28.19 Y-16.993 F#104
N8600 X-28.106 Y-16.967
N8605 X-28.029 Y-16.928
N8610 X-27.959 Y-16.876
N8615 X-27.9 Y-16.812
N8620 X-27.852 Y-16.74
N8625 X-27.817 Y-16.66
N8630 X-27.797 Y-16.575
N8635 X-27.792 Y-16.488
N8640 X-27.802 Y-16.402
N8645 X-27.826 Y-16.319
N8650 X-27.865 Y-16.241
N8655 X-27.916 Y-16.171
N8660 X-27.979 Y-16.111
N8665 X-28.051 Y-16.063
N8670 X-28.13 Y-16.027
N8675 X-28.214 Y-16.006
N8680 X-28.3 Y-16.
N8685 X-28.311 Y-16.001
N8690 X-28.398 Y-16.004 Z-4.652
N8695 X-28.482 Y-16.007 Z-4.63
N8700 X-28.561 Y-16.009 Z-4.593
N8705 X-28.632 Y-16.012 Z-4.543
N8710 X-28.694 Y-16.014 Z-4.481
N8715 X-28.744 Y-16.016 Z-4.41
N8720 X-28.781 Y-16.017 Z-4.331
N8725 X-28.803 Y-16.018 Z-4.247
N8730 X-28.811 Z-4.16
N8735 G0 Z2.05
N8740 X-54.104 Y-16.302
N8745 Z-3.66
N8750 G1 Z-4.16 F#103
N8755 X-54.097 Y-16.306 Z-4.247
N8760 X-54.078 Y-16.317 Z-4.331
N8765 X-54.046 Y-16.336 Z-4.41
N8770 X-54.003 Y-16.362 Z-4.481
N8775 X-53.95 Y-16.393 Z-4.543
N8780 X-53.889 Y-16.43 Z-4.593
N8785 X-53.821 Y-16.47 Z-4.63
N8790 X-53.748 Y-16.513 Z-4.652
N8795 X-53.674 Y-16.557 Z-4.66
N8800 G3 X-52.167 Y-17. I1.618 J2.721
N8805 X-51.17 Y-16.425 I-0.036 J1.212 F#100
N8810 X-49.772 Y-12.22 I-6.423 J4.472
N8815 X-49.417 Y-6.355 I-74.565 J7.457
N8820 G2 X-44.764 Y-1.615 I5.611 J-0.854
N8825 X-36.84 Y-1.202 I5.168 J-22.963
N8830 X-32.507 Y-6.269 I-1.504 J-5.673
N8835 X-32.037 Y-11.521 I-24.352 J-4.823
N8840 G3 X-30.85 Y-15.951 I9.944 J0.292
N8845 X-28.677 Y-17. I2.223 J1.828
N8850 X-28.701 Y-16. I-0.017 J0.5 F#104
N8855 G1 X-28.711 Y-16.001
N8860 X-28.798 Y-16.004 Z-4.652
N8865 X-28.882 Y-16.007 Z-4.63
N8870 X-28.961 Y-16.009 Z-4.593
N8875 X-29.033 Y-16.012 Z-4.543
N8880 X-29.094 Y-16.014 Z-4.481
N8885 X-29.144 Y-16.016 Z-4.41
N8890 X-29.181 Y-16.017 Z-4.331
N8895 X-29.204 Y-16.018 Z-4.247
N8900 X-29.211 Z-4.16
N8905 G0 Z2.05
N8910 X-53.869 Y-16.302
N8915 Z-3.66
N8920 G1 Z-4.16 F#103
N8925 X-53.862 Y-16.306 Z-4.247
N8930 X-53.843 Y-16.317 Z-4.331
N8935 X-53.811 Y-16.336 Z-4.41
N8940 X-53.768 Y-16.362 Z-4.481
N8945 X-53.715 Y-16.393 Z-4.543
N8950 X-53.654 Y-16.43 Z-4.593
N8955 X-53.586 Y-16.47 Z-4.63
N8960 X-53.514 Y-16.513 Z-4.652
N8965 X-53.439 Y-16.557 Z-4.66
N8970 G3 X-51.932 Y-17. I1.618 J2.721
N8975 X-50.784 Y-16.303 I0.026 J1.252 F#100
N8980 X-49.302 Y-11.957 I-6.282 J4.568
N8985 X-48.933 Y-6.95 I-37.59 J5.293
N8990 G2 X-44.304 Y-2.151 I5.745 J-0.91
N8995 X-37.273 Y-1.749 I4.544 J-17.77
N9000 X-33.004 Y-6.902 I-1.732 J-5.78
N9005 X-32.537 Y-11.302 I-22.367 J-4.6
N9010 G3 X-31.244 Y-15.964 I10.048 J0.276
N9015 X-29.088 Y-17. I2.201 J1.819
N9020 X-29.112 Y-16. I-0.017 J0.5 F#104
N9025 G1 X-29.122 Y-16.001
N9030 X-29.209 Y-16.004 Z-4.652
N9035 X-29.293 Y-16.007 Z-4.63
N9040 X-29.372 Y-16.009 Z-4.593
N9045 X-29.444 Y-16.012 Z-4.543
N9050 X-29.505 Y-16.014 Z-4.481
N9055 X-29.555 Y-16.016 Z-4.41
N9060 X-29.592 Y-16.017 Z-4.331
N9065 X-29.615 Y-16.018 Z-4.247
N9070 X-29.622 Z-4.16
N9075 G0 Z2.05
N9080 X-53.64 Y-16.302
N9085 Z-3.66
N9090 G1 Z-4.16 F#103
N9095 X-53.633 Y-16.306 Z-4.247
N9100 X-53.614 Y-16.317 Z-4.331
N9105 X-53.582 Y-16.336 Z-4.41
N9110 X-53.539 Y-16.362 Z-4.481
N9115 X-53.486 Y-16.393 Z-4.543
N9120 X-53.425 Y-16.43 Z-4.593
N9125 X-53.357 Y-16.47 Z-4.63
N9130 X-53.285 Y-16.513 Z-4.652
N9135 X-53.21 Y-16.557 Z-4.66
N9140 G3 X-51.703 Y-17. I1.618 J2.721
N9145 X-50.57 Y-16.467 I0.057 J1.348 F#100
N9150 X-48.843 Y-11.829 I-6.189 J4.945
N9155 X-48.472 Y-7.782 I-28.439 J4.653
N9160 G2 X-43.229 Y-2.554 I5.949 J-0.722
N9165 X-37.096 Y-2.498 I3.171 J-11.404
N9170 X-33.392 Y-8.158 I-2.936 J-5.963
N9175 X-32.908 Y-12.229 I-149.182 J-19.797
N9180 G3 X-31.604 Y-16.025 I8.504 J0.8
N9185 X-29.508 Y-17. I2.129 J1.838
N9190 X-29.532 Y-16. I-0.017 J0.5 F#104
N9195 G1 X-29.543 Y-16.001
N9200 X-29.63 Y-16.004 Z-4.652
N9205 X-29.714 Y-16.007 Z-4.63
N9210 X-29.793 Y-16.009 Z-4.593
N9215 X-29.864 Y-16.012 Z-4.543
N9220 X-29.926 Y-16.014 Z-4.481
N9225 X-29.976 Y-16.016 Z-4.41
N9230 X-30.012 Y-16.017 Z-4.331
N9235 X-30.035 Y-16.018 Z-4.247
N9240 X-30.043 Z-4.16
N9245 G0 Z2.05
N9250 X-53.381 Y-16.302
N9255 Z-3.66
N9260 G1 Z-4.16 F#103
N9265 X-53.374 Y-16.306 Z-4.247
N9270 X-53.355 Y-16.317 Z-4.331
N9275 X-53.323 Y-16.336 Z-4.41
N9280 X-53.28 Y-16.362 Z-4.481
N9285 X-53.227 Y-16.393 Z-4.543
N9290 X-53.166 Y-16.43 Z-4.593
N9295 X-53.098 Y-16.47 Z-4.63
N9300 X-53.025 Y-16.513 Z-4.652
N9305 X-52.951 Y-16.557 Z-4.66
N9310 G3 X-51.444 Y-17. I1.618 J2.721
N9315 X-49.831 Y-15.929 I-0.049 J1.823 F#100
N9320 X-48.295 Y-11.101 I-7.537 J5.057
N9325 G2 X-47.855 Y-7.627 I216.542 J-25.691
N9330 X-42.916 Y-3.112 I5.865 J-1.457
N9335 X-36.863 Y-3.416 I2.64 J-7.85
N9340 X-33.888 Y-8.651 I-4.176 J-5.835
N9345 G3 X-33.035 Y-13.971 I62.299 J7.261
N9350 X-31.449 Y-16.58 I5.482 J1.546
N9355 X-29.935 Y-17. I1.603 J2.84
N9360 X-29.959 Y-16. I-0.017 J0.5 F#104
N9365 G1 X-29.97 Y-16.001
N9370 X-30.057 Y-16.004 Z-4.652
N9375 X-30.141 Y-16.007 Z-4.63
N9380 X-30.22 Y-16.009 Z-4.593
N9385 X-30.291 Y-16.012 Z-4.543
N9390 X-30.353 Y-16.014 Z-4.481
N9395 X-30.402 Y-16.016 Z-4.41
N9400 X-30.439 Y-16.017 Z-4.331
N9405 X-30.462 Y-16.018 Z-4.247
N9410 X-30.469 Z-4.16
N9415 G0 Z2.05
N9420 X-53.126 Y-16.302
N9425 Z-3.66
N9430 G1 Z-4.16 F#103
N9435 X-53.12 Y-16.306 Z-4.247
N9440 X-53.1 Y-16.317 Z-4.331
N9445 X-53.069 Y-16.336 Z-4.41
N9450 X-53.026 Y-16.362 Z-4.481
N9455 X-52.973 Y-16.393 Z-4.543
N9460 X-52.911 Y-16.43 Z-4.593
N9465 X-52.843 Y-16.47 Z-4.63
N9470 X-52.771 Y-16.513 Z-4.652
N9475 X-52.696 Y-16.557 Z-4.66
N9480 G3 X-51.189 Y-17. I1.618 J2.721
N9485 X-49.346 Y-15.742 I-0.066 J2.076 F#100
N9490 X-47.807 Y-10.892 I-7.928 J5.184
N9495 G2 X-47.164 Y-7.408 I23.002 J-2.446
N9500 X-41.67 Y-3.48 I6.032 J-2.63
N9505 X-34.807 Y-7.519 I1.459 J-5.371
N9510 X-33.965 Y-11.845 I-19.605 J-6.063
N9515 G3 X-32.437 Y-16.062 I9.877 J1.193
N9520 X-30.368 Y-17. I2.105 J1.891
N9525 X-30.393 Y-16. I-0.017 J0.5 F#104
N9530 G1 X-30.403 Y-16.001
N9535 X-30.49 Y-16.004 Z-4.652
N9540 X-30.574 Y-16.007 Z-4.63
N9545 X-30.653 Y-16.009 Z-4.593
N9550 X-30.725 Y-16.012 Z-4.543
N9555 X-30.786 Y-16.014 Z-4.481
N9560 X-30.836 Y-16.016 Z-4.41
N9565 X-30.873 Y-16.017 Z-4.331
N9570 X-30.895 Y-16.018 Z-4.247
N9575 X-30.903 Z-4.16
N9580 G0 Z2.05
N9585 X-52.863 Y-16.302
N9590 Z-3.66
N9595 G1 Z-4.16 F#103
N9600 X-52.857 Y-16.306 Z-4.247
N9605 X-52.837 Y-16.317 Z-4.331
N9610 X-52.806 Y-16.336 Z-4.41
N9615 X-52.763 Y-16.362 Z-4.481
N9620 X-52.71 Y-16.393 Z-4.543
N9625 X-52.648 Y-16.43 Z-4.593
N9630 X-52.58 Y-16.47 Z-4.63
N9635 X-52.508 Y-16.513 Z-4.652
N9640 X-52.433 Y-16.557 Z-4.66
N9645 G3 X-50.926 Y-17. I1.618 J2.721
N9650 X-48.905 Y-15.632 I-0.03 J2.223 F#100
N9655 X-47.344 Y-10.903 I-7.94 J5.241
N9660 G2 X-46.478 Y-7.473 I12.62 J-1.363
N9665 G1 X-46.316 Y-7.191
N9670 X-46.141 Y-6.918
N9675 X-45.952 Y-6.654
N9680 X-45.751 Y-6.399
N9685 X-45.537 Y-6.154
N9690 X-45.312 Y-5.919
N9695 X-45.076 Y-5.697
N9700 X-44.829 Y-5.485
N9705 X-44.572 Y-5.286
N9710 X-44.306 Y-5.1
N9715 X-44.031 Y-4.927
N9720 X-43.748 Y-4.768
N9725 X-43.458 Y-4.622
N9730 X-43.16 Y-4.491
N9735 X-42.857 Y-4.374
N9740 X-42.549 Y-4.273
N9745 X-42.236 Y-4.186
N9750 X-41.919 Y-4.115
N9755 X-41.599 Y-4.059
N9760 X-41.276 Y-4.019
N9765 X-40.952 Y-3.994
N9770 X-40.627 Y-3.986
N9775 X-40.303 Y-3.993
N9780 X-39.979 Y-4.016
N9785 X-39.656 Y-4.055
N9790 X-39.336 Y-4.109
N9795 X-39.019 Y-4.179
N9800 X-38.705 Y-4.264
N9805 X-38.396 Y-4.365
N9810 X-38.093 Y-4.48
N9815 G2 X-34.906 Y-9.574 I-3.743 J-5.886
N9820 G3 X-33.784 Y-14.436 I40.198 J6.715
N9825 X-31.592 Y-16.931 I4.017 J1.318
N9830 G1 X-31.194 Y-16.972
N9835 X-30.808 Y-17.
N9840 G3 X-30.832 Y-16. I-0.017 J0.5 F#104
N9845 G1 X-30.843 Y-16.001
N9850 X-30.93 Y-16.004 Z-4.652
N9855 X-31.014 Y-16.007 Z-4.63
N9860 X-31.093 Y-16.009 Z-4.593
N9865 X-31.164 Y-16.012 Z-4.543
N9870 X-31.226 Y-16.014 Z-4.481
N9875 X-31.276 Y-16.016 Z-4.41
N9880 X-31.313 Y-16.017 Z-4.331
N9885 X-31.335 Y-16.018 Z-4.247
N9890 X-31.343 Z-4.16
N9895 G0 Z2.05
N9900 X-52.535 Y-16.302
N9905 Z-3.66
N9910 G1 Z-4.16 F#103
N9915 X-52.529 Y-16.306 Z-4.247
N9920 X-52.509 Y-16.317 Z-4.331
N9925 X-52.478 Y-16.336 Z-4.41
N9930 X-52.435 Y-16.362 Z-4.481
N9935 X-52.382 Y-16.393 Z-4.543
N9940 X-52.32 Y-16.43 Z-4.593
N9945 X-52.252 Y-16.47 Z-4.63
N9950 X-52.18 Y-16.513 Z-4.652
N9955 X-52.105 Y-16.557 Z-4.66
N9960 G3 X-50.598 Y-17. I1.618 J2.721
N9965 X-48.485 Y-15.576 I-0.054 J2.361 F#100
N9970 X-46.913 Y-11.152 I-7.788 J5.258
N9975 G2 X-45.892 Y-7.768 I11.208 J-1.534
N9980 X-39.053 Y-4.938 I5.216 J-2.925
N9985 X-35.48 Y-9.723 I-2.763 J-5.79
N9990 G3 X-34.286 Y-14.336 I62.017 J13.586
N9995 X-32.403 Y-16.785 I4.615 J1.602
N10000 G1 X-32.018 Y-16.888
N10005 X-31.64 Y-16.972
N10010 X-31.254 Y-17.
N10015 G3 X-31.278 Y-16. I-0.017 J0.5 F#104
N10020 G1 X-31.289 Y-16.001
N10025 X-31.376 Y-16.004 Z-4.652
N10030 X-31.46 Y-16.007 Z-4.63
N10035 X-31.539 Y-16.009 Z-4.593
N10040 X-31.61 Y-16.012 Z-4.543
N10045 X-31.672 Y-16.014 Z-4.481
N10050 X-31.722 Y-16.016 Z-4.41
N10055 X-31.759 Y-16.017 Z-4.331
N10060 X-31.781 Y-16.018 Z-4.247
N10065 X-31.789 Z-4.16
N10070 G0 Z2.05
N10075 X-52.26 Y-16.302
N10080 Z-3.66
N10085 G1 Z-4.16 F#103
N10090 X-52.253 Y-16.306 Z-4.247
N10095 X-52.234 Y-16.317 Z-4.331
N10100 X-52.202 Y-16.336 Z-4.41
N10105 X-52.159 Y-16.362 Z-4.481
N10110 X-52.106 Y-16.393 Z-4.543
N10115 X-52.045 Y-16.43 Z-4.593
N10120 X-51.977 Y-16.47 Z-4.63
N10125 X-51.905 Y-16.513 Z-4.652
N10130 X-51.83 Y-16.557 Z-4.66
N10135 G3 X-50.323 Y-17. I1.618 J2.721
N10140 X-48.102 Y-15.58 I0.027 J2.406 F#100
N10145 X-46.386 Y-10.884 I-8.281 J5.687
N10150 G2 X-45. Y-7.641 I8.214 J-1.593
N10155 X-40.376 Y-5.506 I4.201 J-3.025
N10160 X-36.167 Y-9.611 I-1.125 J-5.364
N10165 X-35.246 Y-12.853 I-25.253 J-8.93
N10170 G3 X-33.486 Y-16.378 I8.387 J1.985
N10175 X-31.707 Y-17. I1.825 J2.365
N10180 X-31.732 Y-16. I-0.017 J0.5 F#104
N10185 G1 X-31.742 Y-16.001
N10190 X-31.829 Y-16.004 Z-4.652
N10195 X-31.913 Y-16.007 Z-4.63
N10200 X-31.992 Y-16.009 Z-4.593
N10205 X-32.064 Y-16.012 Z-4.543
N10210 X-32.125 Y-16.014 Z-4.481
N10215 X-32.175 Y-16.016 Z-4.41
N10220 X-32.212 Y-16.017 Z-4.331
N10225 X-32.234 Y-16.018 Z-4.247
N10230 X-32.242 Z-4.16
N10235 G0 Z2.05
N10240 X-51.891 Y-16.302
N10245 Z-3.66
N10250 G1 Z-4.16 F#103
N10255 X-51.884 Y-16.306 Z-4.247
N10260 X-51.865 Y-16.317 Z-4.331
N10265 X-51.833 Y-16.336 Z-4.41
N10270 X-51.79 Y-16.362 Z-4.481
N10275 X-51.737 Y-16.393 Z-4.543
N10280 X-51.676 Y-16.43 Z-4.593
N10285 X-51.608 Y-16.47 Z-4.63
N10290 X-51.536 Y-16.513 Z-4.652
N10295 X-51.461 Y-16.557 Z-4.66
N10300 G3 X-49.954 Y-17. I1.618 J2.721
N10305 X-47.719 Y-15.598 I0.02 J2.452 F#100
N10310 X-46.004 Y-11.381 I-7.82 J5.637
N10315 G2 X-44.555 Y-8.165 I8.594 J-1.939
N10320 X-37.733 Y-8.208 I3.396 J-2.411
N10325 X-35.738 Y-13.025 I-10.33 J-7.099
N10330 G3 X-34.142 Y-16.165 I10.124 J3.171
N10335 X-32.17 Y-17. I1.993 J1.96
N10340 X-32.194 Y-16. I-0.017 J0.5 F#104
N10345 G1 X-32.205 Y-16.001
N10350 X-32.292 Y-16.004 Z-4.652
N10355 X-32.376 Y-16.007 Z-4.63
N10360 X-32.455 Y-16.009 Z-4.593
N10365 X-32.526 Y-16.012 Z-4.543
N10370 X-32.588 Y-16.014 Z-4.481
N10375 X-32.638 Y-16.016 Z-4.41
N10380 X-32.675 Y-16.017 Z-4.331
N10385 X-32.697 Y-16.018 Z-4.247
N10390 X-32.705 Z-4.16
N10395 G0 Z2.05
N10400 X-51.529 Y-16.302
N10405 Z-3.66
N10410 G1 Z-4.16 F#103
N10415 X-51.523 Y-16.306 Z-4.247
N10420 X-51.503 Y-16.317 Z-4.331
N10425 X-51.472 Y-16.336 Z-4.41
N10430 X-51.429 Y-16.362 Z-4.481
N10435 X-51.376 Y-16.393 Z-4.543
N10440 X-51.315 Y-16.43 Z-4.593
N10445 X-51.247 Y-16.47 Z-4.63
N10450 X-51.174 Y-16.513 Z-4.652
N10455 X-51.1 Y-16.557 Z-4.66
N10460 G3 X-49.592 Y-17. I1.618 J2.721
N10465 X-47.339 Y-15.627 I0.029 J2.488 F#100
N10470 X-45.388 Y-10.998 I-9.123 J6.57
N10475 G2 X-43.438 Y-8.078 I6.056 J-1.933
N10480 X-38.571 Y-8.643 I2.1 J-3.154
N10485 X-36.453 Y-12.476 I-6.169 J-5.909
N10490 G3 X-34.575 Y-16.205 I11.096 J3.252
N10495 X-32.642 Y-17. I1.955 J2.007
N10500 X-32.666 Y-16. I-0.017 J0.5 F#104
N10505 G1 X-32.677 Y-16.001
N10510 X-32.763 Y-16.004 Z-4.652
N10515 X-32.847 Y-16.007 Z-4.63
N10520 X-32.926 Y-16.009 Z-4.593
N10525 X-32.998 Y-16.012 Z-4.543
N10530 X-33.059 Y-16.014 Z-4.481
N10535 X-33.109 Y-16.016 Z-4.41
N10540 X-33.146 Y-16.017 Z-4.331
N10545 X-33.169 Y-16.018 Z-4.247
N10550 X-33.176 Z-4.16
N10555 G0 Z2.05
N10560 X-51.177 Y-16.302
N10565 Z-3.66
N10570 G1 Z-4.16 F#103
N10575 X-51.17 Y-16.306 Z-4.247
N10580 X-51.151 Y-16.317 Z-4.331
N10585 X-51.119 Y-16.336 Z-4.41
N10590 X-51.076 Y-16.362 Z-4.481
N10595 X-51.023 Y-16.393 Z-4.543
N10600 X-50.962 Y-16.43 Z-4.593
N10605 X-50.894 Y-16.47 Z-4.63
N10610 X-50.822 Y-16.513 Z-4.652
N10615 X-50.747 Y-16.557 Z-4.66
N10620 G3 X-49.24 Y-17. I1.618 J2.721
N10625 X-46.932 Y-15.622 I0.053 J2.533 F#100
N10630 X-45.203 Y-12.046 I-7.51 J5.838
N10635 G1 X-44.869 Y-11.221
N10640 G2 X-42.512 Y-8.746 I3.526 J-0.998
N10645 X-38.529 Y-10.084 I0.946 J-3.78
N10650 X-36.47 Y-13.897 I-9.322 J-7.496
N10655 G3 X-34.738 Y-16.5 I7.566 J3.155
N10660 X-33.125 Y-17. I1.676 J2.555
N10665 X-33.149 Y-16. I-0.017 J0.5 F#104
N10670 G1 X-33.16 Y-16.001
N10675 X-33.247 Y-16.004 Z-4.652
N10680 X-33.331 Y-16.007 Z-4.63
N10685 X-33.41 Y-16.009 Z-4.593
N10690 X-33.481 Y-16.012 Z-4.543
N10695 X-33.543 Y-16.014 Z-4.481
N10700 X-33.593 Y-16.016 Z-4.41
N10705 X-33.63 Y-16.017 Z-4.331
N10710 X-33.652 Y-16.018 Z-4.247
N10715 X-33.66 Z-4.16
N10720 G0 Z2.05
N10725 X-50.782 Y-16.302
N10730 Z-3.66
N10735 G1 Z-4.16 F#103
N10740 X-50.775 Y-16.306 Z-4.247
N10745 X-50.756 Y-16.317 Z-4.331
N10750 X-50.724 Y-16.336 Z-4.41
N10755 X-50.681 Y-16.362 Z-4.481
N10760 X-50.628 Y-16.393 Z-4.543
N10765 X-50.567 Y-16.43 Z-4.593
N10770 X-50.499 Y-16.47 Z-4.63
N10775 X-50.427 Y-16.513 Z-4.652
N10780 X-50.352 Y-16.557 Z-4.66
N10785 G3 X-48.845 Y-17. I1.618 J2.721
N10790 X-46.542 Y-15.651 I0.043 J2.567 F#100
N10795 X-44.493 Y-11.58 I-9.678 J7.424
N10800 G2 X-39.863 Y-10.43 I2.855 J-1.596
N10805 X-37.114 Y-13.809 I-3.838 J-5.929
N10810 G3 X-35.212 Y-16.524 I8.617 J4.015
N10815 X-33.628 Y-17. I1.651 J2.618
N10820 X-33.652 Y-16. I-0.017 J0.5 F#104
N10825 G1 X-33.663 Y-16.001
N10830 X-33.75 Y-16.004 Z-4.652
N10835 X-33.834 Y-16.007 Z-4.63
N10840 X-33.913 Y-16.009 Z-4.593
N10845 X-33.984 Y-16.012 Z-4.543
N10850 X-34.046 Y-16.014 Z-4.481
N10855 X-34.096 Y-16.016 Z-4.41
N10860 X-34.132 Y-16.017 Z-4.331
N10865 X-34.155 Y-16.018 Z-4.247
N10870 X-34.163 Z-4.16
N10875 G0 Z2.05
N10880 X-50.422 Y-16.302
N10885 Z-3.66
N10890 G1 Z-4.16 F#103
N10895 X-50.416 Y-16.306 Z-4.247
N10900 X-50.396 Y-16.317 Z-4.331
N10905 X-50.364 Y-16.336 Z-4.41
N10910 X-50.322 Y-16.362 Z-4.481
N10915 X-50.269 Y-16.393 Z-4.543
N10920 X-50.207 Y-16.43 Z-4.593
N10925 X-50.139 Y-16.47 Z-4.63
N10930 X-50.067 Y-16.513 Z-4.652
N10935 X-49.992 Y-16.557 Z-4.66
N10940 G3 X-48.485 Y-17. I1.618 J2.721
N10945 X-46.12 Y-15.641 I0.07 J2.617 F#100
N10950 G1 X-45.889 Y-15.364
N10955 X-45.671 Y-15.077
N10960 X-45.466 Y-14.78
N10965 X-45.274 Y-14.475
N10970 X-45.095 Y-14.161
N10975 X-44.931 Y-13.84
N10980 X-44.78 Y-13.513
N10985 X-44.644 Y-13.178
N10990 G2 X-40.178 Y-11.663 I2.901 J-1.21
N10995 X-37.181 Y-14.829 I-3.563 J-6.374
N11000 G3 X-34.953 Y-16.924 I4.559 J2.619
N11005 G1 X-34.554 Y-16.972
N11010 X-34.166 Y-17.
N11015 X-33.795 Y-16.815 Z-4.607 F#104
N11020 X-33.702 Y-16.456 Z-4.56
N11025 X-33.691 Y-16.413
N11030 X-33.892 Y-15.707
N11035 X-34.726 Y-12.788 F#105
N11040 G3 X-35.244 Y-11.781 I-2.424 J-0.611
N11045 G1 X-36.477 Y-10.301
N11050 X-37.684 Y-9.314
N11055 G3 X-44.123 Y-8.406 I-4.063 J-5.528
N11060 G1 X-45.13 Y-8.961
N11065 X-49.552 Y-12.545
N11070 G3 X-49.529 Y-16.475 I1.557 J-1.956
N11075 X-48.85 Y-16.851 I1.534 J1.974 F#103
N11080 X-48.082 Y-17. Z-4.66 I0.855 J2.349
N11085 X-45.716 Y-15.669 I0.062 J2.658 F#100
N11090 X-44.624 Y-14.147 I-4.763 J4.573
N11095 G2 X-40.785 Y-12.711 I2.798 J-1.63
N11100 X-37.408 Y-15.462 I-2.541 J-6.569
N11105 G3 X-34.769 Y-17.035 I3.173 J2.321
N11110 G1 X-34.393 Y-16.815 Z-4.607 F#104
N11115 X-34.3 Y-16.456 Z-4.56
N11120 X-34.289 Y-16.413
N11125 X-34.488 Y-15.706
N11130 X-35.14 Y-13.392 F#105
N11135 G3 X-35.672 Y-12.394 I-2.415 J-0.647
N11140 G1 X-36.678 Y-11.38
N11145 X-38.021 Y-10.371
N11150 G3 X-43.517 Y-9.474 I-3.832 J-6.191
N11155 G1 X-48.747 Y-12.27
N11160 G3 X-49.155 Y-16.475 I1.126 J-2.232
N11165 X-48.475 Y-16.851 I1.534 J1.974 F#103
N11170 X-47.708 Y-17. Z-4.66 I0.855 J2.349
N11175 X-45.259 Y-15.634 I0.077 J2.741 F#100
N11180 G1 X-44.65 Y-14.977
N11185 G2 X-39.837 Y-14.279 I2.795 J-2.332
N11190 X-37.524 Y-16.107 I-5.053 J-8.774
N11195 G3 X-35.456 Y-17.012 I2.27 J2.371
N11200 G1 X-35.069 Y-16.795 Z-4.604 F#104
N11205 X-34.991 Y-16.456 Z-4.56
N11210 X-34.98 Y-16.413
N11215 X-35.244 Y-15.727
N11220 X-36.219 Y-13.19 F#105
N11225 G3 X-37.128 Y-12.084 I-2.305 J-0.968
N11230 G1 X-38.69 Y-11.125
N11235 X-39.494 Y-10.819
N11240 X-41.103 Y-10.46
N11245 G3 X-42.31 Y-10.492 I-0.538 J-2.441
N11250 G1 X-47.943 Y-12.109
N11255 G3 X-48.753 Y-16.475 I0.724 J-2.393
N11260 X-48.073 Y-16.851 I1.534 J1.974 F#103
N11265 X-47.306 Y-17. Z-4.66 I0.855 J2.349
N11270 X-45.402 Y-16.269 I0.209 J2.3 F#100
N11275 G1 X-44.72 Y-15.7
N11280 G2 X-39.775 Y-15.276 I2.755 J-3.077
N11285 X-37.758 Y-16.569 I-8.571 J-15.593
N11290 G3 X-36.288 Y-17. I1.485 J2.339
N11295 G1 X-35.917 Y-16.815 Z-4.607 F#104
N11300 X-35.824 Y-16.456 Z-4.56
N11305 X-35.813 Y-16.413
N11310 X-36.127 Y-15.749
N11315 X-37.243 Y-13.392 F#105
N11320 G3 X-38.42 Y-12.312 I-2.085 J-1.091
N11325 G1 X-39.995 Y-11.719
N11330 X-41.305 Y-11.488
N11335 X-46.937 Y-12.3
N11340 G3 X-48.309 Y-16.448 I0.143 J-2.348
N11345 X-47.641 Y-16.843 I1.515 J1.8 F#103
N11350 X-46.875 Y-17. Z-4.66 I0.848 J2.195
N11355 X-44.707 Y-16.204 I0.093 J3.097 F#100
N11360 G2 X-39.629 Y-16.165 I2.572 J-4.281
N11365 G3 X-37.335 Y-17.014 I2.862 J4.212
N11370 G1 X-37.248 Y-17.002 Z-4.649 F#104
N11375 X-37.164 Y-16.976 Z-4.638
N11380 X-37.087 Y-16.936 Z-4.627
N11385 X-37.018 Y-16.883 Z-4.617
N11390 X-36.958 Y-16.82 Z-4.606
N11395 X-36.911 Y-16.748 Z-4.595
N11400 X-36.877 Y-16.669 Z-4.584
N11405 X-36.856 Y-16.586 Z-4.573
N11410 X-36.851 Y-16.5 Z-4.562
N11415 X-36.856 Y-16.484 Z-4.56
N11420 X-36.943 Y-16.211
N11425 X-37.224 Y-15.806
N11430 X-38.891 Y-13.406 F#105
N11435 G3 X-40.405 Y-12.55 I-1.72 J-1.276
N11440 G1 X-41.506 Y-12.42
N11445 X-46.333 Y-12.72
N11450 G3 X-47.883 Y-16.404 I-0.066 J-2.14
N11455 X-47.236 Y-16.831 I1.484 J1.544 F#103
N11460 X-46.474 Y-17. Z-4.66 I0.837 J1.971
N11465 X-44.387 Y-16.519 I0.115 J4.265 F#100
N11470 G2 X-39.375 Y-16.955 I1.978 J-6.288
N11475 G1 X-39.041 Y-16.98
N11480 X-38.72 Y-17.
N11485 G3 X-38.237 Y-16.483 Z-4.56 I-0.017 J0.5 F#104
N11490 X-38.737 Y-16. I-0.5 J-0.017
N11495 G1 X-38.748
N11500 X-46. F#105
N11505 X-46.011 F#103
N11510 G3 X-46.511 Y-16.483 I0. J-0.5
N11515 X-46.029 Y-17. Z-4.66 I0.5 J-0.017
N11520 X-43.241 Y-16.792 I0.012 J18.617 F#100
N11525 G2 X-41.081 Y-17.001 I0.107 J-10.149
N11530 G1 X-40.882 Y-17.
N11535 G3 X-40.399 Y-16.483 Z-4.56 I-0.017 J0.5 F#104
N11540 X-40.899 Y-16. I-0.5 J-0.017
N11545 G1 X-40.91
N11550 X-45.34 F#105
N11555 X-45.351 F#103
N11560 G3 X-45.851 Y-16.483 I0. J-0.5
N11565 X-45.368 Y-17. Z-4.66 I0.5 J-0.017
N11570 G1 X-41.875 F#100
N11575 G2 X-40.902 I0.486 J-2.658 F#103
N11580 G1 X-39.695 F#100
N11585 G2 X-38.73 I0.483 J-2.639 F#103
N11590 G1 X-37.248 F#100
N11595 G3 X-37.272 Y-16. I-0.017 J0.5 F#104
N11600 G1 X-37.283 Y-16.001
N11605 X-37.37 Y-16.004 Z-4.652
N11610 X-37.454 Y-16.007 Z-4.63
N11615 X-37.533 Y-16.009 Z-4.593
N11620 X-37.604 Y-16.012 Z-4.543
N11625 X-37.666 Y-16.014 Z-4.481
N11630 X-37.716 Y-16.016 Z-4.41
N11635 X-37.753 Y-16.017 Z-4.331
N11640 X-37.775 Y-16.018 Z-4.247
N11645 X-37.783 Z-4.16
N11650 G0 Z4.
N11655 X-24.077 Y0.318
N11660 Z-3.66
N11665 G1 Z-4.16 F#103
N11670 X-24.069 Y0.316 Z-4.247
N11675 X-24.047 Y0.31 Z-4.331
N11680 X-24.012 Y0.301 Z-4.41
N11685 X-23.963 Y0.289 Z-4.481
N11690 X-23.904 Y0.273 Z-4.543
N11695 X-23.834 Y0.256 Z-4.593
N11700 X-23.758 Y0.236 Z-4.63
N11705 X-23.676 Y0.215 Z-4.652
N11710 X-23.592 Y0.194 Z-4.66
N11715 G3 X-22.037 Y-0.03 I1.809 J7.063
N11720 G1 X-21.927 F#106
N11725 G2 X-18.316 Y2.244 I4.077 J-2.471 F#100
N11730 X-11.237 Y2.469 I5.371 J-57.346
N11735 G1 X-1.489 Y2.47
N11740 G2 X1.45 Y0.814 I0.137 J-3.195
N11745 X2.405 Y-3.455 I-7.194 J-3.85
N11750 X2.47 Y-8.772 I-109.242 J-3.986
N11755 G1 Y-14.975
N11760 G3 X4.495 Y-17. I2.025 J0.
N11765 X4.471 Y-16. I-0.017 J0.5 F#104
N11770 G1 X4.46 Y-16.001
N11775 X4.373 Y-16.004 Z-4.652
N11780 X4.289 Y-16.007 Z-4.63
N11785 X4.21 Y-16.009 Z-4.593
N11790 X4.139 Y-16.012 Z-4.543
N11795 X4.077 Y-16.014 Z-4.481
N11800 X4.027 Y-16.016 Z-4.41
N11805 X3.99 Y-16.017 Z-4.331
N11810 X3.968 Y-16.018 Z-4.247
N11815 X3.96 Z-4.16
N11820 G0 Z2.05
N11825 X-23.908 Y-16.302
N11830 Z-3.66
N11835 G1 Z-4.16 F#103
N11840 X-23.902 Y-16.306 Z-4.247
N11845 X-23.882 Y-16.317 Z-4.331
N11850 X-23.851 Y-16.336 Z-4.41
N11855 X-23.808 Y-16.362 Z-4.481
N11860 X-23.755 Y-16.393 Z-4.543
N11865 X-23.693 Y-16.43 Z-4.593
N11870 X-23.625 Y-16.47 Z-4.63
N11875 X-23.553 Y-16.513 Z-4.652
N11880 X-23.478 Y-16.557 Z-4.66
N11885 G3 X-21.971 Y-17. I1.618 J2.721
N11890 X-21.666 Y-16.012 I-1.332 J0.954 F#100
N11895 X-21.471 Y-9.381 I-57.673 J5.013
N11900 G1 X-21.47 Y-2.292
N11905 G2 X-19.039 Y1.14 I3.972 J-0.237
N11910 X-13.823 Y1.931 I4.531 J-12.281
N11915 X-9.392 Y1.969 I3.348 J-132.219
N11920 G1 X-3.189 Y1.97
N11925 G2 X1.414 Y-1.342 I0.464 J-4.21
N11930 X1.947 Y-6.609 I-17.697 J-4.451
N11935 G1 X1.934 Y-8.22
N11940 Y-9.831
N11945 X1.945 Y-11.442
N11950 X1.969 Y-13.053
N11955 X2.005 Y-14.664
N11960 G3 X4.543 Y-17.004 I2.563 J0.233
N11965 G1 X4.63 Y-16.993 F#104
N11970 X4.713 Y-16.967
N11975 X4.791 Y-16.928
N11980 X4.861 Y-16.876
N11985 X4.92 Y-16.812
N11990 X4.968 Y-16.739
N11995 X5.002 Y-16.66
N12000 X5.022 Y-16.575
N12005 X5.028 Y-16.488
N12010 X5.018 Y-16.402
N12015 X4.993 Y-16.319
N12020 X4.955 Y-16.241
N12025 X4.903 Y-16.171
N12030 X4.841 Y-16.111
N12035 X4.769 Y-16.063
N12040 X4.69 Y-16.027
N12045 X4.606 Y-16.006
N12050 X4.519 Y-16.
N12055 X4.508 Y-16.001
N12060 X4.422 Y-16.004 Z-4.652
N12065 X4.338 Y-16.007 Z-4.63
N12070 X4.259 Y-16.009 Z-4.593
N12075 X4.187 Y-16.012 Z-4.543
N12080 X4.126 Y-16.014 Z-4.481
N12085 X4.076 Y-16.016 Z-4.41
N12090 X4.039 Y-16.017 Z-4.331
N12095 X4.016 Y-16.018 Z-4.247
N12100 X4.009 Z-4.16
N12105 G0 Z2.05
N12110 X-23.875 Y-16.302
N12115 Z-3.66
N12120 G1 Z-4.16 F#103
N12125 X-23.868 Y-16.306 Z-4.247
N12130 X-23.849 Y-16.317 Z-4.331
N12135 X-23.817 Y-16.336 Z-4.41
N12140 X-23.774 Y-16.362 Z-4.481
N12145 X-23.721 Y-16.393 Z-4.543
N12150 X-23.66 Y-16.43 Z-4.593
N12155 X-23.592 Y-16.47 Z-4.63
N12160 X-23.52 Y-16.513 Z-4.652
N12165 X-23.445 Y-16.557 Z-4.66
N12170 G3 X-21.938 Y-17. I1.618 J2.721
N12175 G1 X-21.856 Y-16.968 F#100
N12180 X-21.78 Y-16.924
N12185 X-21.713 Y-16.867
N12190 X-21.655 Y-16.801
N12195 X-21.609 Y-16.726
N12200 X-21.576 Y-16.645
N12205 X-21.556 Y-16.559
N12210 X-21.551 Y-16.472
N12215 X-21.426 Y-16.054
N12220 X-21.316 Y-15.633
N12225 X-21.222 Y-15.207
N12230 X-21.143 Y-14.779
N12235 X-21.081 Y-14.347
N12240 X-21.033 Y-13.914
N12245 X-21.002 Y-13.48
N12250 X-20.987 Y-13.044
N12255 X-20.988 Y-12.608
N12260 X-21.004 Y-12.173
N12265 X-21.037 Y-11.739
N12270 G3 X-20.961 Y-2.874 I-219.77 J6.301
N12275 G2 X-17.561 Y0.846 I4.567 J-0.762
N12280 X-11.418 Y1.428 I4.839 J-18.359
N12285 X-3.441 Y1.464 I5.005 J-221.347
N12290 X0.916 Y-2.284 I-0.168 J-4.601
N12295 X1.445 Y-7.555 I-18.645 J-4.533
N12300 G1 X1.428 Y-8.714
N12305 X1.425 Y-9.872
N12310 X1.436 Y-11.031
N12315 X1.461 Y-12.189
N12320 X1.5 Y-13.347
N12325 X1.554 Y-14.504
N12330 G3 X4.286 Y-17.023 I2.885 J0.387
N12335 G1 X4.376 Y-17.011 F#104
N12340 X4.462 Y-16.984
N12345 X4.542 Y-16.942
N12350 X4.613 Y-16.888
N12355 X4.674 Y-16.822
N12360 X4.722 Y-16.747
N12365 X4.757 Y-16.664
N12370 X4.777 Y-16.578
N12375 X4.781 Y-16.489
N12380 X4.77 Y-16.401
N12385 X4.744 Y-16.317
N12390 X4.704 Y-16.238
N12395 X4.652 Y-16.168
N12400 X4.588 Y-16.108
N12405 X4.514 Y-16.06
N12410 X4.434 Y-16.025
N12415 X4.35 Y-16.005
N12420 X4.263 Y-16.
N12425 X4.252 Y-16.001
N12430 X4.165 Y-16.004 Z-4.652
N12435 X4.081 Y-16.007 Z-4.63
N12440 X4.002 Y-16.009 Z-4.593
N12445 X3.931 Y-16.012 Z-4.543
N12450 X3.869 Y-16.014 Z-4.481
N12455 X3.819 Y-16.016 Z-4.41
N12460 X3.783 Y-16.017 Z-4.331
N12465 X3.76 Y-16.018 Z-4.247
N12470 X3.752 Z-4.16
N12475 G0 Z2.05
N12480 X-23.775 Y-16.302
N12485 Z-3.66
N12490 G1 Z-4.16 F#103
N12495 X-23.769 Y-16.306 Z-4.247
N12500 X-23.749 Y-16.317 Z-4.331
N12505 X-23.718 Y-16.336 Z-4.41
N12510 X-23.675 Y-16.362 Z-4.481
N12515 X-23.622 Y-16.393 Z-4.543
N12520 X-23.56 Y-16.43 Z-4.593
N12525 X-23.492 Y-16.47 Z-4.63
N12530 X-23.42 Y-16.513 Z-4.652
N12535 X-23.345 Y-16.557 Z-4.66
N12540 G3 X-21.838 Y-17. I1.618 J2.721
N12545 X-21.325 Y-16.519 I-0.107 J0.628 F#100
N12550 X-20.545 Y-11.431 I-10.453 J4.206
N12555 X-20.475 Y-4.339 I-124.249 J4.772
N12560 G2 X-16.97 Y0.265 I4.796 J-0.016
N12565 X-10.838 Y0.922 I4.932 J-17.07
N12570 X-3.748 Y0.925 I3.599 J-138.898
N12575 X0.423 Y-3.122 I-0.725 J-4.919
N12580 X0.931 Y-9.281 I-21.196 J-4.848
N12585 G3 X1.175 Y-14.684 I36.454 J-1.059
N12590 X3.923 Y-17.034 I2.999 J0.726
N12595 G1 X4.01 Y-17.022 F#104
N12600 X4.093 Y-16.997
N12605 X4.171 Y-16.958
N12610 X4.241 Y-16.908
N12615 X4.302 Y-16.846
N12620 X4.352 Y-16.776
N12625 X4.39 Y-16.699
N12630 X4.414 Y-16.617
N12635 X4.425 Y-16.532
N12640 X4.421 Y-16.447
N12645 X4.404 Y-16.364
N12650 X4.373 Y-16.286
N12655 X4.33 Y-16.213
N12660 X4.276 Y-16.149
N12665 X4.213 Y-16.095
N12670 X4.141 Y-16.052
N12675 X4.064 Y-16.022
N12680 X3.984 Y-16.004
N12685 X3.901 Y-16.
N12690 X3.891 Y-16.001
N12695 X3.804 Y-16.004 Z-4.652
N12700 X3.72 Y-16.007 Z-4.63
N12705 X3.641 Y-16.009 Z-4.593
N12710 X3.569 Y-16.012 Z-4.543
N12715 X3.508 Y-16.014 Z-4.481
N12720 X3.458 Y-16.016 Z-4.41
N12725 X3.421 Y-16.017 Z-4.331
N12730 X3.398 Y-16.018 Z-4.247
N12735 X3.391 Z-4.16
N12740 G0 Z2.05
N12745 X-23.646 Y-16.302
N12750 Z-3.66
N12755 G1 Z-4.16 F#103
N12760 X-23.639 Y-16.306 Z-4.247
N12765 X-23.62 Y-16.317 Z-4.331
N12770 X-23.588 Y-16.336 Z-4.41
N12775 X-23.545 Y-16.362 Z-4.481
N12780 X-23.492 Y-16.393 Z-4.543
N12785 X-23.431 Y-16.43 Z-4.593
N12790 X-23.363 Y-16.47 Z-4.63
N12795 X-23.291 Y-16.513 Z-4.652
N12800 X-23.216 Y-16.557 Z-4.66
N12805 G3 X-21.709 Y-17. I1.618 J2.721
N12810 X-21.096 Y-16.548 I-0.031 J0.683 F#100
N12815 X-20.112 Y-12.254 I-7.625 J4.007
N12820 X-19.944 Y-4.282 I-145.287 J7.064
N12825 G2 X-15.817 Y-0.103 I5.225 J-1.033
N12830 X-9.66 Y0.43 I4.963 J-21.485
N12835 X-3.475 Y0.245 I2.195 J-30.113
N12840 X0.075 Y-4.507 I-2.27 J-5.398
N12845 X0.443 Y-11.573 I-35.125 J-5.371
N12850 G3 X1.208 Y-15.686 I9.337 J-0.39
N12855 X1.363 Y-15.979 I3.573 J1.697
N12860 X2.114 Y-16.909 I3.418 J1.99 F#106
N12865 G1 X2.324 Y-16.974 F#100
N12870 X2.537 Y-17.
N12875 G3 X2.513 Y-16. I-0.017 J0.5 F#104
N12880 G1 X2.502 Y-16.001
N12885 X2.415 Y-16.004 Z-4.652
N12890 X2.331 Y-16.007 Z-4.63
N12895 X2.252 Y-16.009 Z-4.593
N12900 X2.181 Y-16.012 Z-4.543
N12905 X2.119 Y-16.014 Z-4.481
N12910 X2.07 Y-16.016 Z-4.41
N12915 X2.033 Y-16.017 Z-4.331
N12920 X2.01 Y-16.018 Z-4.247
N12925 X2.003 Z-4.16
N12930 G0 Z2.05
N12935 X-23.472 Y-16.302
N12940 Z-3.66
N12945 G1 Z-4.16 F#103
N12950 X-23.466 Y-16.306 Z-4.247
N12955 X-23.447 Y-16.317 Z-4.331
N12960 X-23.415 Y-16.336 Z-4.41
N12965 X-23.372 Y-16.362 Z-4.481
N12970 X-23.319 Y-16.393 Z-4.543
N12975 X-23.258 Y-16.43 Z-4.593
N12980 X-23.19 Y-16.47 Z-4.63
N12985 X-23.117 Y-16.513 Z-4.652
N12990 X-23.043 Y-16.557 Z-4.66
N12995 G3 X-21.536 Y-17. I1.618 J2.721
N13000 X-20.869 Y-16.587 I-0.002 J0.747 F#100
N13005 X-19.701 Y-12.655 I-6.195 J3.979
N13010 X-19.485 Y-5.763 I-54.211 J5.154
N13015 G2 X-15.309 Y-0.666 I5.343 J-0.118
N13020 X-9.16 Y-0.075 I5.024 J-20.006
N13025 X-3.875 Y-0.363 I1.682 J-17.785
N13030 X-0.428 Y-5.216 I-2.627 J-5.516
N13035 X-0.019 Y-12.56 I-41.028 J-5.968
N13040 G3 X1.179 Y-16.249 I7.861 J0.515
N13045 X3.04 Y-17. I1.903 J2.034
N13050 X3.016 Y-16. I-0.017 J0.5 F#104
N13055 G1 X3.006 Y-16.001
N13060 X2.919 Y-16.004 Z-4.652
N13065 X2.835 Y-16.007 Z-4.63
N13070 X2.756 Y-16.009 Z-4.593
N13075 X2.684 Y-16.012 Z-4.543
N13080 X2.623 Y-16.014 Z-4.481
N13085 X2.573 Y-16.016 Z-4.41
N13090 X2.536 Y-16.017 Z-4.331
N13095 X2.513 Y-16.018 Z-4.247
N13100 X2.506 Z-4.16
N13105 G0 Z2.05
N13110 X-23.271 Y-16.302
N13115 Z-3.66
N13120 G1 Z-4.16 F#103
N13125 X-23.265 Y-16.306 Z-4.247
N13130 X-23.245 Y-16.317 Z-4.331
N13135 X-23.214 Y-16.336 Z-4.41
N13140 X-23.171 Y-16.362 Z-4.481
N13145 X-23.118 Y-16.393 Z-4.543
N13150 X-23.056 Y-16.43 Z-4.593
N13155 X-22.989 Y-16.47 Z-4.63
N13160 X-22.916 Y-16.513 Z-4.652
N13165 X-22.842 Y-16.557 Z-4.66
N13170 G3 X-21.334 Y-17. I1.618 J2.721
N13175 X-20.372 Y-16.248 I-0.119 J1.144 F#100
N13180 X-19.207 Y-12.153 I-6.789 J4.144
N13185 X-18.967 Y-6.102 I-50.91 J5.05
N13190 G2 X-14.571 Y-1.151 I5.505 J-0.461
N13195 X-8.419 Y-0.576 I5.038 J-20.686
N13200 X-4.06 Y-1.087 I1.145 J-9.078
N13205 X-0.89 Y-6.146 I-3.251 J-5.56
N13210 X-0.52 Y-12.045 I-36.914 J-5.275
N13215 G3 X0.485 Y-15.823 I9.494 J0.502
N13220 X2.724 Y-17.004 I2.288 J1.627
N13225 G1 X2.81 Y-16.993 F#104
N13230 X2.894 Y-16.967
N13235 X2.971 Y-16.928
N13240 X3.041 Y-16.876
N13245 X3.1 Y-16.812
N13250 X3.148 Y-16.74
N13255 X3.183 Y-16.66
N13260 X3.203 Y-16.575
N13265 X3.208 Y-16.488
N13270 X3.198 Y-16.402
N13275 X3.174 Y-16.319
N13280 X3.135 Y-16.241
N13285 X3.084 Y-16.171
N13290 X3.021 Y-16.111
N13295 X2.949 Y-16.063
N13300 X2.87 Y-16.027
N13305 X2.786 Y-16.006
N13310 X2.7 Y-16.
N13315 X2.689 Y-16.001
N13320 X2.602 Y-16.004 Z-4.652
N13325 X2.518 Y-16.007 Z-4.63
N13330 X2.439 Y-16.009 Z-4.593
N13335 X2.368 Y-16.012 Z-4.543
N13340 X2.306 Y-16.014 Z-4.481
N13345 X2.256 Y-16.016 Z-4.41
N13350 X2.219 Y-16.017 Z-4.331
N13355 X2.197 Y-16.018 Z-4.247
N13360 X2.189 Z-4.16
N13365 G0 Z2.05
N13370 X-23.104 Y-16.302
N13375 Z-3.66
N13380 G1 Z-4.16 F#103
N13385 X-23.097 Y-16.306 Z-4.247
N13390 X-23.078 Y-16.317 Z-4.331
N13395 X-23.046 Y-16.336 Z-4.41
N13400 X-23.003 Y-16.362 Z-4.481
N13405 X-22.95 Y-16.393 Z-4.543
N13410 X-22.889 Y-16.43 Z-4.593
N13415 X-22.821 Y-16.47 Z-4.63
N13420 X-22.748 Y-16.513 Z-4.652
N13425 X-22.674 Y-16.557 Z-4.66
N13430 G3 X-21.167 Y-17. I1.618 J2.721
N13435 X-20.102 Y-16.297 I-0.019 J1.187 F#100
N13440 X-18.775 Y-12.221 I-6.215 J4.276
N13445 X-18.49 Y-7.239 I-30.759 J4.258
N13450 G2 X-13.764 Y-1.614 I5.697 J0.011
N13455 X-5.84 Y-1.202 I5.169 J-23.017
N13460 X-1.507 Y-6.269 I-1.504 J-5.673
N13465 X-1.037 Y-11.521 I-24.357 J-4.823
N13470 G3 X0.15 Y-15.951 I9.943 J0.292
N13475 X2.323 Y-17.007 I2.273 J1.913
N13480 G1 X2.41 Y-16.996 F#104
N13485 X2.494 Y-16.97
N13490 X2.572 Y-16.93
N13495 X2.642 Y-16.878
N13500 X2.702 Y-16.814
N13505 X2.75 Y-16.741
N13510 X2.784 Y-16.66
N13515 X2.804 Y-16.575
N13520 X2.809 Y-16.488
N13525 X2.799 Y-16.402
N13530 X2.775 Y-16.318
N13535 X2.736 Y-16.24
N13540 X2.684 Y-16.17
N13545 X2.621 Y-16.11
N13550 X2.549 Y-16.062
N13555 X2.47 Y-16.027
N13560 X2.386 Y-16.006
N13565 X2.299 Y-16.
N13570 X2.289 Y-16.001
N13575 X2.202 Y-16.004 Z-4.652
N13580 X2.118 Y-16.007 Z-4.63
N13585 X2.039 Y-16.009 Z-4.593
N13590 X1.967 Y-16.012 Z-4.543
N13595 X1.906 Y-16.014 Z-4.481
N13600 X1.856 Y-16.016 Z-4.41
N13605 X1.819 Y-16.017 Z-4.331
N13610 X1.796 Y-16.018 Z-4.247
N13615 X1.789 Z-4.16
N13620 G0 Z2.05
N13625 X-22.869 Y-16.302
N13630 Z-3.66
N13635 G1 Z-4.16 F#103
N13640 X-22.862 Y-16.306 Z-4.247
N13645 X-22.843 Y-16.317 Z-4.331
N13650 X-22.811 Y-16.336 Z-4.41
N13655 X-22.768 Y-16.362 Z-4.481
N13660 X-22.715 Y-16.393 Z-4.543
N13665 X-22.654 Y-16.43 Z-4.593
N13670 X-22.586 Y-16.47 Z-4.63
N13675 X-22.514 Y-16.513 Z-4.652
N13680 X-22.439 Y-16.557 Z-4.66
N13685 G3 X-20.932 Y-17. I1.618 J2.721
N13690 X-19.784 Y-16.303 I0.026 J1.252 F#100
N13695 X-18.302 Y-11.957 I-6.282 J4.568
N13700 X-17.933 Y-6.95 I-37.589 J5.293
N13705 G2 X-13.304 Y-2.151 I5.745 J-0.91
N13710 X-6.273 Y-1.749 I4.544 J-17.77
N13715 X-2.004 Y-6.902 I-1.732 J-5.78
N13720 X-1.537 Y-11.302 I-22.367 J-4.6
N13725 G3 X-0.244 Y-15.964 I10.048 J0.276
N13730 X1.912 Y-17.006 I2.245 J1.894
N13735 G1 X1.999 Y-16.995 F#104
N13740 X2.083 Y-16.969
N13745 X2.161 Y-16.93
N13750 X2.231 Y-16.877
N13755 X2.29 Y-16.813
N13760 X2.338 Y-16.74
N13765 X2.373 Y-16.66
N13770 X2.393 Y-16.575
N13775 X2.398 Y-16.488
N13780 X2.388 Y-16.402
N13785 X2.363 Y-16.318
N13790 X2.325 Y-16.241
N13795 X2.273 Y-16.171
N13800 X2.21 Y-16.111
N13805 X2.138 Y-16.062
N13810 X2.059 Y-16.027
N13815 X1.975 Y-16.006
N13820 X1.888 Y-16.
N13825 X1.878 Y-16.001
N13830 X1.791 Y-16.004 Z-4.652
N13835 X1.707 Y-16.007 Z-4.63
N13840 X1.628 Y-16.009 Z-4.593
N13845 X1.556 Y-16.012 Z-4.543
N13850 X1.495 Y-16.014 Z-4.481
N13855 X1.445 Y-16.016 Z-4.41
N13860 X1.408 Y-16.017 Z-4.331
N13865 X1.385 Y-16.018 Z-4.247
N13870 X1.378 Z-4.16
N13875 G0 Z2.05
N13880 X-22.64 Y-16.302
N13885 Z-3.66
N13890 G1 Z-4.16 F#103
N13895 X-22.633 Y-16.306 Z-4.247
N13900 X-22.614 Y-16.317 Z-4.331
N13905 X-22.582 Y-16.336 Z-4.41
N13910 X-22.539 Y-16.362 Z-4.481
N13915 X-22.486 Y-16.393 Z-4.543
N13920 X-22.425 Y-16.43 Z-4.593
N13925 X-22.357 Y-16.47 Z-4.63
N13930 X-22.285 Y-16.513 Z-4.652
N13935 X-22.21 Y-16.557 Z-4.66
N13940 G3 X-20.703 Y-17. I1.618 J2.721
N13945 X-19.57 Y-16.467 I0.057 J1.348 F#100
N13950 X-17.843 Y-11.829 I-6.189 J4.945
N13955 X-17.472 Y-7.782 I-28.439 J4.653
N13960 G2 X-12.229 Y-2.554 I5.949 J-0.722
N13965 X-6.096 Y-2.498 I3.171 J-11.404
N13970 X-2.392 Y-8.158 I-2.936 J-5.963
N13975 X-1.908 Y-12.229 I-149.16 J-19.794
N13980 G3 X-0.604 Y-16.025 I8.504 J0.8
N13985 X1.492 Y-17.004 I2.162 J1.895
N13990 G1 X1.579 Y-16.994 F#104
N13995 X1.662 Y-16.968
N14000 X1.74 Y-16.928
N14005 X1.81 Y-16.876
N14010 X1.869 Y-16.813
N14015 X1.917 Y-16.74
N14020 X1.951 Y-16.66
N14025 X1.971 Y-16.575
N14030 X1.977 Y-16.488
N14035 X1.967 Y-16.402
N14040 X1.942 Y-16.319
N14045 X1.904 Y-16.241
N14050 X1.852 Y-16.171
N14055 X1.79 Y-16.111
N14060 X1.718 Y-16.062
N14065 X1.638 Y-16.027
N14070 X1.554 Y-16.006
N14075 X1.468 Y-16.
N14080 X1.457 Y-16.001
N14085 X1.37 Y-16.004 Z-4.652
N14090 X1.286 Y-16.007 Z-4.63
N14095 X1.207 Y-16.009 Z-4.593
N14100 X1.136 Y-16.012 Z-4.543
N14105 X1.074 Y-16.014 Z-4.481
N14110 X1.024 Y-16.016 Z-4.41
N14115 X0.988 Y-16.017 Z-4.331
N14120 X0.965 Y-16.018 Z-4.247
N14125 X0.957 Z-4.16
N14130 G0 Z2.05
N14135 X-22.381 Y-16.302
N14140 Z-3.66
N14145 G1 Z-4.16 F#103
N14150 X-22.374 Y-16.306 Z-4.247
N14155 X-22.355 Y-16.317 Z-4.331
N14160 X-22.323 Y-16.336 Z-4.41
N14165 X-22.28 Y-16.362 Z-4.481
N14170 X-22.227 Y-16.393 Z-4.543
N14175 X-22.166 Y-16.43 Z-4.593
N14180 X-22.098 Y-16.47 Z-4.63
N14185 X-22.025 Y-16.513 Z-4.652
N14190 X-21.951 Y-16.557 Z-4.66
N14195 G3 X-20.444 Y-17. I1.618 J2.721
N14200 X-18.831 Y-15.929 I-0.049 J1.823 F#100
N14205 X-17.295 Y-11.101 I-7.537 J5.057
N14210 G2 X-16.855 Y-7.627 I216.577 J-25.695
N14215 X-11.916 Y-3.112 I5.865 J-1.457
N14220 X-5.863 Y-3.416 I2.64 J-7.85
N14225 X-2.888 Y-8.651 I-4.176 J-5.835
N14230 G3 X-2.035 Y-13.971 I62.299 J7.261
N14235 X-0.449 Y-16.58 I5.482 J1.546
N14240 X1.065 Y-17. I1.603 J2.84
N14245 X1.041 Y-16. I-0.017 J0.5 F#104
N14250 G1 X1.03 Y-16.001
N14255 X0.943 Y-16.004 Z-4.652
N14260 X0.859 Y-16.007 Z-4.63
N14265 X0.78 Y-16.009 Z-4.593
N14270 X0.709 Y-16.012 Z-4.543
N14275 X0.647 Y-16.014 Z-4.481
N14280 X0.598 Y-16.016 Z-4.41
N14285 X0.561 Y-16.017 Z-4.331
N14290 X0.538 Y-16.018 Z-4.247
N14295 X0.531 Z-4.16
N14300 G0 Z2.05
N14305 X-22.126 Y-16.302
N14310 Z-3.66
N14315 G1 Z-4.16 F#103
N14320 X-22.12 Y-16.306 Z-4.247
N14325 X-22.1 Y-16.317 Z-4.331
N14330 X-22.069 Y-16.336 Z-4.41
N14335 X-22.026 Y-16.362 Z-4.481
N14340 X-21.973 Y-16.393 Z-4.543
N14345 X-21.911 Y-16.43 Z-4.593
N14350 X-21.843 Y-16.47 Z-4.63
N14355 X-21.771 Y-16.513 Z-4.652
N14360 X-21.696 Y-16.557 Z-4.66
N14365 G3 X-20.189 Y-17. I1.618 J2.721
N14370 X-18.346 Y-15.742 I-0.066 J2.076 F#100
N14375 X-16.807 Y-10.892 I-7.928 J5.184
N14380 G2 X-16.164 Y-7.408 I23.001 J-2.446
N14385 X-10.67 Y-3.48 I6.032 J-2.63
N14390 X-3.807 Y-7.519 I1.459 J-5.371
N14395 X-2.965 Y-11.845 I-19.605 J-6.063
N14400 G3 X-1.437 Y-16.062 I9.877 J1.193
N14405 X0.631 Y-17.005 I2.141 J1.956
N14410 G1 X0.718 Y-16.994 F#104
N14415 X0.802 Y-16.968
N14420 X0.879 Y-16.929
N14425 X0.949 Y-16.876
N14430 X1.009 Y-16.813
N14435 X1.057 Y-16.74
N14440 X1.091 Y-16.66
N14445 X1.111 Y-16.575
N14450 X1.116 Y-16.488
N14455 X1.106 Y-16.402
N14460 X1.082 Y-16.319
N14465 X1.043 Y-16.241
N14470 X0.992 Y-16.171
N14475 X0.929 Y-16.111
N14480 X0.857 Y-16.062
N14485 X0.778 Y-16.027
N14490 X0.694 Y-16.006
N14495 X0.607 Y-16.
N14500 X0.597 Y-16.001
N14505 X0.51 Y-16.004 Z-4.652
N14510 X0.426 Y-16.007 Z-4.63
N14515 X0.347 Y-16.009 Z-4.593
N14520 X0.275 Y-16.012 Z-4.543
N14525 X0.214 Y-16.014 Z-4.481
N14530 X0.164 Y-16.016 Z-4.41
N14535 X0.127 Y-16.017 Z-4.331
N14540 X0.105 Y-16.018 Z-4.247
N14545 X0.097 Z-4.16
N14550 G0 Z2.05
N14555 X-21.863 Y-16.302
N14560 Z-3.66
N14565 G1 Z-4.16 F#103
N14570 X-21.857 Y-16.306 Z-4.247
N14575 X-21.837 Y-16.317 Z-4.331
N14580 X-21.806 Y-16.336 Z-4.41
N14585 X-21.763 Y-16.362 Z-4.481
N14590 X-21.71 Y-16.393 Z-4.543
N14595 X-21.648 Y-16.43 Z-4.593
N14600 X-21.58 Y-16.47 Z-4.63
N14605 X-21.508 Y-16.513 Z-4.652
N14610 X-21.433 Y-16.557 Z-4.66
N14615 G3 X-19.926 Y-17. I1.618 J2.721
N14620 X-17.905 Y-15.632 I-0.03 J2.223 F#100
N14625 X-16.344 Y-10.903 I-7.94 J5.241
N14630 G2 X-15.478 Y-7.473 I12.62 J-1.363
N14635 X-7.093 Y-4.48 I5.865 J-3.188
N14640 X-3.906 Y-9.574 I-3.743 J-5.886
N14645 G3 X-2.784 Y-14.436 I40.199 J6.715
N14650 X-0.592 Y-16.931 I4.017 J1.319
N14655 G1 X-0.194 Y-16.972
N14660 X0.192 Y-17.
N14665 G3 X0.168 Y-16. I-0.017 J0.5 F#104
N14670 G1 X0.157 Y-16.001
N14675 X0.07 Y-16.004 Z-4.652
N14680 X-0.014 Y-16.007 Z-4.63
N14685 X-0.093 Y-16.009 Z-4.593
N14690 X-0.164 Y-16.012 Z-4.543
N14695 X-0.226 Y-16.014 Z-4.481
N14700 X-0.276 Y-16.016 Z-4.41
N14705 X-0.313 Y-16.017 Z-4.331
N14710 X-0.335 Y-16.018 Z-4.247
N14715 X-0.343 Z-4.16
N14720 G0 Z2.05
N14725 X-21.535 Y-16.302
N14730 Z-3.66
N14735 G1 Z-4.16 F#103
N14740 X-21.529 Y-16.306 Z-4.247
N14745 X-21.509 Y-16.317 Z-4.331
N14750 X-21.478 Y-16.336 Z-4.41
N14755 X-21.435 Y-16.362 Z-4.481
N14760 X-21.382 Y-16.393 Z-4.543
N14765 X-21.32 Y-16.43 Z-4.593
N14770 X-21.252 Y-16.47 Z-4.63
N14775 X-21.18 Y-16.513 Z-4.652
N14780 X-21.105 Y-16.557 Z-4.66
N14785 G3 X-19.598 Y-17. I1.618 J2.721
N14790 X-17.485 Y-15.576 I-0.054 J2.361 F#100
N14795 X-15.913 Y-11.152 I-7.788 J5.258
N14800 G2 X-14.892 Y-7.768 I11.208 J-1.534
N14805 X-8.053 Y-4.938 I5.216 J-2.925
N14810 X-4.48 Y-9.723 I-2.763 J-5.79
N14815 G3 X-3.286 Y-14.336 I62.019 J13.586
N14820 X-1.403 Y-16.785 I4.615 J1.602
N14825 G1 X-1.018 Y-16.888
N14830 X-0.64 Y-16.972
N14835 X-0.254 Y-17.
N14840 G3 X-0.278 Y-16. I-0.017 J0.5 F#104
N14845 G1 X-0.289 Y-16.001
N14850 X-0.376 Y-16.004 Z-4.652
N14855 X-0.46 Y-16.007 Z-4.63
N14860 X-0.539 Y-16.009 Z-4.593
N14865 X-0.61 Y-16.012 Z-4.543
N14870 X-0.672 Y-16.014 Z-4.481
N14875 X-0.722 Y-16.016 Z-4.41
N14880 X-0.759 Y-16.017 Z-4.331
N14885 X-0.781 Y-16.018 Z-4.247
N14890 X-0.789 Z-4.16
N14895 G0 Z2.05
N14900 X-21.26 Y-16.302
N14905 Z-3.66
N14910 G1 Z-4.16 F#103
N14915 X-21.253 Y-16.306 Z-4.247
N14920 X-21.234 Y-16.317 Z-4.331
N14925 X-21.202 Y-16.336 Z-4.41
N14930 X-21.159 Y-16.362 Z-4.481
N14935 X-21.106 Y-16.393 Z-4.543
N14940 X-21.045 Y-16.43 Z-4.593
N14945 X-20.977 Y-16.47 Z-4.63
N14950 X-20.905 Y-16.513 Z-4.652
N14955 X-20.83 Y-16.557 Z-4.66
N14960 G3 X-19.323 Y-17. I1.618 J2.721
N14965 X-17.102 Y-15.58 I0.027 J2.406 F#100
N14970 X-15.386 Y-10.884 I-8.281 J5.687
N14975 G2 X-13.421 Y-6.969 I7.704 J-1.417
N14980 X-8.512 Y-5.716 I3.484 J-3.406
N14985 X-5.152 Y-9.608 I-2.326 J-5.405
N14990 G3 X-3.956 Y-13.745 I279.978 J78.681
N14995 X-2.176 Y-16.609 I5.84 J1.644
N15000 X-0.707 Y-17. I1.558 J2.897
N15005 X-0.732 Y-16. I-0.017 J0.5 F#104
N15010 G1 X-0.742 Y-16.001
N15015 X-0.829 Y-16.004 Z-4.652
N15020 X-0.913 Y-16.007 Z-4.63
N15025 X-0.992 Y-16.009 Z-4.593
N15030 X-1.064 Y-16.012 Z-4.543
N15035 X-1.125 Y-16.014 Z-4.481
N15040 X-1.175 Y-16.016 Z-4.41
N15045 X-1.212 Y-16.017 Z-4.331
N15050 X-1.234 Y-16.018 Z-4.247
N15055 X-1.242 Z-4.16
N15060 G0 Z2.05
N15065 X-20.891 Y-16.302
N15070 Z-3.66
N15075 G1 Z-4.16 F#103
N15080 X-20.884 Y-16.306 Z-4.247
N15085 X-20.865 Y-16.317 Z-4.331
N15090 X-20.833 Y-16.336 Z-4.41
N15095 X-20.79 Y-16.362 Z-4.481
N15100 X-20.737 Y-16.393 Z-4.543
N15105 X-20.676 Y-16.43 Z-4.593
N15110 X-20.608 Y-16.47 Z-4.63
N15115 X-20.536 Y-16.513 Z-4.652
N15120 X-20.461 Y-16.557 Z-4.66
N15125 G3 X-18.954 Y-17. I1.618 J2.721
N15130 X-16.719 Y-15.598 I0.02 J2.452 F#100
N15135 X-15.004 Y-11.381 I-7.82 J5.637
N15140 G2 X-12.964 Y-7.504 I7.872 J-1.665
N15145 X-6.735 Y-8.209 I2.808 J-3.056
N15150 X-4.739 Y-13.025 I-10.243 J-7.068
N15155 G3 X-3.142 Y-16.165 I10.142 J3.181
N15160 X-1.17 Y-17. I1.993 J1.96
N15165 X-1.194 Y-16. I-0.017 J0.5 F#104
N15170 G1 X-1.205 Y-16.001
N15175 X-1.292 Y-16.004 Z-4.652
N15180 X-1.376 Y-16.007 Z-4.63
N15185 X-1.455 Y-16.009 Z-4.593
N15190 X-1.526 Y-16.012 Z-4.543
N15195 X-1.588 Y-16.014 Z-4.481
N15200 X-1.638 Y-16.016 Z-4.41
N15205 X-1.675 Y-16.017 Z-4.331
N15210 X-1.697 Y-16.018 Z-4.247
N15215 X-1.705 Z-4.16
N15220 G0 Z2.05
N15225 X-20.529 Y-16.302
N15230 Z-3.66
N15235 G1 Z-4.16 F#103
N15240 X-20.523 Y-16.306 Z-4.247
N15245 X-20.503 Y-16.317 Z-4.331
N15250 X-20.472 Y-16.336 Z-4.41
N15255 X-20.429 Y-16.362 Z-4.481
