%
(C-HEAD-BASE)
(6MM TWO FLUTE)
(T1  D=6. CR=0. - ZMIN=-2. - FLAT END MILL)
N10 G90 G94 G17 G91.1
N15 G21
N20 G53 G0 Z0.
(FACE1)
N25 M9
N30 T1 M6
N35 S3200 M3
N40 G54
N45 M8
N55 G0 X-53.9 Y-1.754
N60 G43 Z4. H1
N65 #100=330. (CUTTING)
N70 #102=330. (FINISH)
N75 #103=200. (ENTRY)
N80 #104=200. (EXIT)
N85 G0 Z2.
N90 G1 Z-1.4 F#103
N95 G18 G2 X-53.3 Z-2. I0.6 K0.
N100 G1 X-50. F#100
N105 X0. F#102
N110 G17 G2 Y-6.458 I0. J-2.352 F#100
N115 G1 X-50. F#102
N120 G3 Y-11.162 I0. J-2.352 F#100
N125 G1 X0. F#102
N130 G2 Y-15.865 I0. J-2.352 F#100
N135 G1 X-50. F#102
N140 G3 Y-20.569 I0. J-2.352 F#100
N145 G1 X0. F#102
N150 G2 Y-25.273 I0. J-2.352 F#100
N155 G1 X-50. F#102
N160 G3 Y-29.977 I0. J-2.352 F#100
N165 G1 X0. F#102
N170 G2 Y-34.681 I0. J-2.352 F#100
N175 G1 X-50. F#102
N180 G3 Y-39.385 I0. J-2.352 F#100
N185 G1 X0. F#102
N190 G2 Y-44.088 I0. J-2.352 F#100
N195 G1 X-50. F#102
N200 G3 Y-48.792 I0. J-2.352 F#100
N205 G1 X0. F#102
N210 G2 Y-53.496 I0. J-2.352 F#100
N215 G1 X-50. F#102
N220 G3 Y-58.2 I0. J-2.352 F#100
N225 G1 X0. F#102
N230 G18 G2 X0.6 Z-1.4 I0. K0.6 F#104
N235 G0 Z4.
N240 G17
N245 M9
N250 G53 G0 Z0.
N255 M30
%
