%
(POCKET)
(6MM TWO FLUTE)
(T1  D=6. CR=0. - ZMIN=-6.5 - FLAT END MILL)
N10 G90 G94 G17 G91.1
N15 G21
N20 G53 G0 Z0.
(2D POCKET1)
N25 M9
N30 T1 M6
N35 S3200 M3
N40 G54
N45 M8
N55 G0 X-26.462 Y3.078
N60 G43 Z6. H1
N65 #100=330. (CUTTING)
N70 #103=200. (ENTRY)
N75 #104=200. (EXIT)
N80 #106=82.5 (REDUCED)
N85 G0 Z3.
N90 G1 Z-6. F#103
N95 X-26.454 Y3.076 Z-6.087
N100 X-26.432 Y3.071 Z-6.171
N105 X-26.397 Y3.062 Z-6.25
N110 X-26.348 Y3.051 Z-6.321
N115 X-26.288 Y3.036 Z-6.383
N120 X-26.219 Y3.019 Z-6.433
N125 X-26.142 Y3.001 Z-6.47
N130 X-26.06 Y2.981 Z-6.492
N135 X-25.976 Y2.961 Z-6.5
N140 X-25.927 Y2.949
N145 G2 X-25.628 Y2.874 I-3.922 J-16.278 F#100
N150 G3 X-24.372 I0.628 J2.412
N155 G2 X-24.074 Y2.949 I4.221 J-16.203
N160 G1 X-24.051 Y2.954 F#104
N165 G0 Z3.
N170 X-53.879 Y0.487
N175 G1 Z-6. F#103
N180 X-53.872 Y0.491 Z-6.087
N185 X-53.852 Y0.501 Z-6.171
N190 X-53.82 Y0.518 Z-6.25
N195 X-53.775 Y0.541 Z-6.321
N200 X-53.72 Y0.569 Z-6.383
N205 X-53.657 Y0.601 Z-6.433
N210 X-53.586 Y0.637 Z-6.47
N215 X-53.511 Y0.675 Z-6.492
N220 X-53.434 Y0.715 Z-6.5
N225 X-52.72 Y1.08
N230 G2 X-47. Y2.45 I5.697 J-11.157 F#100
N235 G1 X-29.
N240 G2 X-27.273 Y2.307 I0. J-10.529
N245 X-25.581 Y1.929 I-2.567 J-15.435
N250 G3 X-24.419 I0.581 J2.055
N255 G2 X-22.727 Y2.307 I4.258 J-15.057
N260 X-21. Y2.45 I1.727 J-10.387
N265 G1 X-2.978
N270 G2 X2.72 Y1.08 I0. J-12.528
N275 G1 X2.741 Y1.069 F#104
N280 G0 Z3.
N285 X-53.951 Y-0.667
N290 G1 Z-6. F#103
N295 X-53.944 Y-0.663 Z-6.087
N300 X-53.925 Y-0.651 Z-6.171
N305 X-53.893 Y-0.633 Z-6.25
N310 X-53.85 Y-0.607 Z-6.321
N315 X-53.797 Y-0.576 Z-6.383
N320 X-53.736 Y-0.539 Z-6.433
N325 X-53.668 Y-0.499 Z-6.47
N330 X-53.595 Y-0.456 Z-6.492
N335 X-53.521 Y-0.412 Z-6.5
N340 X-52.945 Y-0.071
N345 G2 X-47. Y1.55 I5.922 J-10.006 F#100
N350 G1 X-29.
N355 G2 X-27.249 Y1.395 I0. J-9.998
N360 X-25.541 Y0.978 I-2.415 J-13.573
N365 G3 X-24.459 I0.541 J1.725
N370 G2 X-22.751 Y1.395 I4.123 J-13.155
N375 X-21. Y1.55 I1.751 J-9.843
N380 G1 X-2.978
N385 G2 X2.944 Y-0.071 I0. J-11.628
N390 G1 X2.964 Y-0.083 F#104
N395 G0 Z3.
N400 X-53.951 Y-1.799
N405 G1 Z-6. F#103
N410 X-53.945 Y-1.795 Z-6.087
N415 X-53.926 Y-1.783 Z-6.171
N420 X-53.895 Y-1.762 Z-6.25
N425 X-53.853 Y-1.735 Z-6.321
N430 X-53.802 Y-1.701 Z-6.383
N435 X-53.743 Y-1.661 Z-6.433
N440 X-53.677 Y-1.618 Z-6.47
N445 X-53.606 Y-1.571 Z-6.492
N450 X-53.534 Y-1.523 Z-6.5
N455 X-52.945 Y-1.133
N460 G2 X-47. Y0.65 I5.923 J-8.944 F#100
N465 G1 X-29.
N470 G2 X-27.221 Y0.479 I0. J-9.337
N475 X-25.494 Y0.015 I-2.408 J-12.405
N480 G3 X-24.506 I0.494 J1.428
N485 G2 X-22.779 Y0.479 I4.134 J-11.941
N490 X-21. Y0.65 I1.779 J-9.166
N495 G1 X-2.978
N500 G2 X2.944 Y-1.132 I0. J-10.728
N505 G1 X2.963 Y-1.145 F#104
N510 G0 Z3.
N515 X-53.951 Y-2.996
N520 G1 Z-6. F#103
N525 X-53.945 Y-2.991 Z-6.087
N530 X-53.927 Y-2.977 Z-6.171
N535 X-53.898 Y-2.955 Z-6.25
N540 X-53.858 Y-2.925 Z-6.321
N545 X-53.809 Y-2.888 Z-6.383
N550 X-53.752 Y-2.845 Z-6.433
N555 X-53.689 Y-2.797 Z-6.47
N560 X-53.621 Y-2.746 Z-6.492
N565 X-53.552 Y-2.694 Z-6.5
N570 X-52.948 Y-2.238
N575 G2 X-47. Y-0.25 I5.926 J-7.84 F#100
N580 G1 X-29.
N585 G2 X-27.192 Y-0.441 I0. J-8.666
N590 X-25.449 Y-0.96 I-2.388 J-11.189
N595 G3 X-24.551 I0.449 J1.159
N600 G2 X-22.808 Y-0.441 I4.13 J-10.669
N605 X-21. Y-0.25 I1.808 J-8.475
N610 G1 X-2.978
N615 G2 X2.946 Y-2.236 I0. J-9.828
N620 G1 X2.965 Y-2.25 F#104
N625 G0 Z3.
N630 X-53.95 Y-4.29
N635 G1 Z-6. F#103
N640 X-53.945 Y-4.285 Z-6.087
N645 X-53.928 Y-4.27 Z-6.171
N650 X-53.9 Y-4.245 Z-6.25
N655 X-53.863 Y-4.212 Z-6.321
N660 X-53.817 Y-4.171 Z-6.383
N665 X-53.763 Y-4.124 Z-6.433
N670 X-53.704 Y-4.071 Z-6.47
N675 X-53.641 Y-4.016 Z-6.492
N680 X-53.577 Y-3.958 Z-6.5
N685 X-52.949 Y-3.401
N690 G2 X-47. Y-1.15 I5.927 J-6.677 F#100
N695 G1 X-29.
N700 G2 X-27.16 Y-1.365 I0. J-7.991
N705 X-25.404 Y-1.953 I-2.346 J-9.916
N710 G3 X-24.596 I0.404 J0.918
N715 G2 X-22.84 Y-1.365 I4.103 J-9.328
N720 X-21. Y-1.15 I1.84 J-7.776
N725 G1 X-2.978
N730 G2 X2.946 Y-3.398 I0. J-8.928
N735 G1 X2.964 Y-3.414 F#104
N740 G0 Z3.
N745 X-53.95 Y-5.757
N750 G1 Z-6. F#103
N755 X-53.945 Y-5.752 Z-6.087
N760 X-53.93 Y-5.735 Z-6.171
N765 X-53.905 Y-5.708 Z-6.25
N770 X-53.871 Y-5.671 Z-6.321
N775 X-53.83 Y-5.626 Z-6.383
N780 X-53.782 Y-5.573 Z-6.433
N785 X-53.728 Y-5.515 Z-6.47
N790 X-53.672 Y-5.453 Z-6.492
N795 X-53.613 Y-5.389 Z-6.5
N800 X-52.945 Y-4.659
N805 G2 X-47. Y-2.05 I5.923 J-5.419 F#100
N810 G1 X-29.
N815 G2 X-27.125 Y-2.294 I0. J-7.316
N820 X-25.359 Y-2.971 I-2.278 J-8.593
N825 G3 X-24.641 I0.359 J0.703
N830 G2 X-22.875 Y-2.294 I4.044 J-7.917
N835 X-21. Y-2.05 I1.875 J-7.072
N840 G1 X-2.978
N845 G2 X2.947 Y-4.661 I0. J-8.028
N850 G1 X2.963 Y-4.678 F#104
N855 G0 Z3.
N860 X-53.951 Y-7.616
N865 G1 Z-6. F#103
N870 X-53.947 Y-7.61 Z-6.087
N875 X-53.934 Y-7.591 Z-6.171
N880 X-53.914 Y-7.561 Z-6.25
N885 X-53.886 Y-7.519 Z-6.321
N890 X-53.852 Y-7.468 Z-6.383
N895 X-53.812 Y-7.408 Z-6.433
N900 X-53.768 Y-7.343 Z-6.47
N905 X-53.721 Y-7.273 Z-6.492
N910 X-53.673 Y-7.201 Z-6.5
N915 X-52.947 Y-6.115
N920 G2 X-47. Y-2.95 I5.925 J-3.962 F#100
N925 G1 X-29.
N930 G2 X-27.082 Y-3.237 I0. J-6.561
N935 X-25.311 Y-4.028 I-2.304 J-7.535
N940 G3 X-24.689 I0.311 J0.515
N945 G2 X-22.918 Y-3.237 I4.074 J-6.744
N950 X-21. Y-2.95 I1.918 J-6.274
N955 G1 X-2.978
N960 G2 X2.948 Y-6.117 I0. J-7.128
N965 G1 X2.962 Y-6.137 F#104
N970 G0 Z3.
N975 X-53.118 Y-8.689
N980 G1 Z-6. F#103
N985 X-53.116 Y-8.682 Z-6.087
N990 X-53.109 Y-8.661 Z-6.171
N995 X-53.098 Y-8.626 Z-6.25
N1000 X-53.082 Y-8.578 Z-6.321
N1005 X-53.063 Y-8.519 Z-6.383
N1010 X-53.041 Y-8.451 Z-6.433
N1015 X-53.017 Y-8.376 Z-6.47
N1020 X-52.991 Y-8.296 Z-6.492
N1025 X-52.965 Y-8.213 Z-6.5
N1030 X-52.949 Y-8.166
N1035 G2 X-47. Y-3.85 I5.927 J-1.912 F#100
N1040 G1 X-29.
N1045 G2 X-27.026 Y-4.194 I0. J-5.836
N1050 X-25.264 Y-5.146 I-2.265 J-6.302
N1055 G3 X-24.736 I0.264 J0.35
N1060 G2 X-22.974 Y-4.194 I4.027 J-5.35
N1065 X-21. Y-3.85 I1.974 J-5.492
N1070 G1 X-2.978
N1075 G2 X2.95 Y-8.167 I0. J-6.228
N1080 G1 X2.957 Y-8.19 F#104
N1085 G0 Z3.
N1090 X-52.331 Y-64.238
N1095 G1 Z-6. F#103
N1100 Y-64.231 Z-6.087
N1105 Y-64.208 Z-6.171
N1110 Y-64.171 Z-6.25
N1115 Y-64.121 Z-6.321
N1120 Y-64.06 Z-6.383
N1125 Y-63.988 Z-6.433
N1130 Y-63.909 Z-6.47
N1135 Y-63.825 Z-6.492
N1140 Y-63.738 Z-6.5
N1145 X-52.332 Y-62.888
N1150 X-52.35 Y-10.078 F#100
N1155 G2 X-47. Y-4.75 I5.328 J0.
N1160 G1 X-29.
N1165 G2 X-26.941 Y-5.185 I0. J-5.09
N1170 X-26.137 Y-5.623 I-2.249 J-5.084
N1175 X-25.213 Y-6.385 I-3.053 J-4.646 F#106
N1180 G3 X-24.787 I0.213 J0.208
N1185 G2 X-23.059 Y-5.185 I3.977 J-3.884 F#100
N1190 X-21. Y-4.75 I2.059 J-4.655
N1195 G1 X-2.978
N1200 G2 X2.35 Y-10.1 I0. J-5.328
N1205 G1 X2.332 Y-62.888
N1210 X2.331 Y-64.177 F#104
N1215 G0 Z3.
N1220 X-51.659 Y-64.649
N1225 G1 Z-6.05 F#103
N1230 X-51.658 Y-64.642 Z-6.128
N1235 X-51.655 Y-64.622 Z-6.204
N1240 X-51.65 Y-64.589 Z-6.275
N1245 X-51.643 Y-64.545 Z-6.339
N1250 X-51.634 Y-64.49 Z-6.395
N1255 X-51.624 Y-64.426 Z-6.44
N1260 X-51.613 Y-64.356 Z-6.473
N1265 X-51.601 Y-64.281 Z-6.493
N1270 X-51.589 Y-64.204 Z-6.5
N1275 X-51.506 Y-63.683
N1280 X-51.502 Y-63.644
N1285 X-51.5 Y-63.605
N1290 Y-10.078 F#100
N1295 G2 X-47. Y-5.6 I4.5 J-0.022
N1300 G1 X-29.
N1305 G2 X-25.811 Y-6.925 I0. J-4.5
N1310 X-25.087 Y-7.877 I-3.189 J-3.175 F#106
N1315 G3 X-24.913 I0.087 J0.049
N1320 G2 X-21. Y-5.6 I3.913 J-2.223 F#100
N1325 G1 X-3.
N1330 G2 X1.5 Y-10.1 I0. J-4.5
N1335 G1 Y-63.604
N1340 X1.8 Z-6.47 F#104
N1345 G0 Z6.
N1355 M9
N1360 G53 Z0.
N1365 M30
%
