%
(POCKET)
(6MM TWO FLUTE)
(T3  D=3. CR=0. TAPER=118DEG - ZMIN=-10. - DRILL)
(T4  D=1.6 CR=0. TAPER=118DEG - ZMIN=-3. - DRILL)
N10 G90 G94 G17 G91.1
N15 G21
N20 G53 G0 Z0.
(DRILL1 2)
N25 M9
N30 T3 M6
N35 T4
N40 S2500 M3
N45 G54
N50 M9
N60 G0 X-9.5 Y-4.1
N65 G43 Z10. H3
N75 G0 Z5.
N80 Z-2.
N85 Z-5.
N90 G1 Z-8. F125.
N95 G0 Z-6.
N100 G1 Z-9. F125.
N105 G0 Z-7.
N110 G1 Z-10. F125.
N115 G0 Z5.
N120 X-14.5
N125 Z-2.
N130 Z-5.
N135 G1 Z-8. F125.
N140 G0 Z-6.
N145 G1 Z-9. F125.
N150 G0 Z-7.
N155 G1 Z-10. F125.
N160 G0 Z5.
N165 X-35.5
N170 Z-2.
N175 Z-5.
N180 G1 Z-8. F125.
N185 G0 Z-6.
N190 G1 Z-9. F125.
N195 G0 Z-7.
N200 G1 Z-10. F125.
N205 G0 Z5.
N210 X-40.5
N215 Z-2.
N220 Z-5.
N225 G1 Z-8. F125.
N230 G0 Z-6.
N235 G1 Z-9. F125.
N240 G0 Z-7.
N245 G1 Z-10. F125.
N250 G0 Z5.
N255 Y-44.1
N260 Z-2.
N265 Z-5.
N270 G1 Z-8. F125.
N275 G0 Z-6.
N280 G1 Z-9. F125.
N285 G0 Z-7.
N290 G1 Z-10. F125.
N295 G0 Z5.
N300 X-35.5
N305 Z-2.
N310 Z-5.
N315 G1 Z-8. F125.
N320 G0 Z-6.
N325 G1 Z-9. F125.
N330 G0 Z-7.
N335 G1 Z-10. F125.
N340 G0 Z5.
N345 X-14.5
N350 Z-2.
N355 Z-5.
N360 G1 Z-8. F125.
N365 G0 Z-6.
N370 G1 Z-9. F125.
N375 G0 Z-7.
N380 G1 Z-10. F125.
N385 G0 Z5.
N390 X-9.5
N395 Z-2.
N400 Z-5.
N405 G1 Z-8. F125.
N410 G0 Z-6.
N415 G1 Z-9. F125.
N420 G0 Z-7.
N425 G1 Z-10. F125.
N430 G0 Z5.
N440 X-5. Y-57.1
N445 Z3.
N450 Z0.
N455 G1 Z-3. F125.
N460 G0 Z-1.
N465 G1 Z-4. F125.
N470 G0 Z-2.
N475 G1 Z-5. F125.
N480 G0 Z-3.
N485 G1 Z-6. F125.
N490 G0 Z-4.
N495 G1 Z-7. F125.
N500 G0 Z5.
N505 Z-5.
N510 G1 Z-8. F125.
N515 G0 Z-6.
N520 G1 Z-9. F125.
N525 G0 Z-7.
N530 G1 Z-10. F125.
N535 G0 Z5.
N540 X-19.
N545 Z3.
N550 Z0.
N555 G1 Z-3. F125.
N560 G0 Z-1.
N565 G1 Z-4. F125.
N570 G0 Z-2.
N575 G1 Z-5. F125.
N580 G0 Z-3.
N585 G1 Z-6. F125.
N590 G0 Z-4.
N595 G1 Z-7. F125.
N600 G0 Z5.
N605 Z-5.
N610 G1 Z-8. F125.
N615 G0 Z-6.
N620 G1 Z-9. F125.
N625 G0 Z-7.
N630 G1 Z-10. F125.
N635 G0 Z5.
N640 X-31.
N645 Z3.
N650 Z0.
N655 G1 Z-3. F125.
N660 G0 Z-1.
N665 G1 Z-4. F125.
N670 G0 Z-2.
N675 G1 Z-5. F125.
N680 G0 Z-3.
N685 G1 Z-6. F125.
N690 G0 Z-4.
N695 G1 Z-7. F125.
N700 G0 Z5.
N705 Z-5.
N710 G1 Z-8. F125.
N715 G0 Z-6.
N720 G1 Z-9. F125.
N725 G0 Z-7.
N730 G1 Z-10. F125.
N735 G0 Z5.
N740 X-45.
N745 Z3.
N750 Z0.
N755 G1 Z-3. F125.
N760 G0 Z-1.
N765 G1 Z-4. F125.
N770 G0 Z-2.
N775 G1 Z-5. F125.
N780 G0 Z-3.
N785 G1 Z-6. F125.
N790 G0 Z-4.
N795 G1 Z-7. F125.
N800 G0 Z5.
N805 Z-5.
N810 G1 Z-8. F125.
N815 G0 Z-6.
N820 G1 Z-9. F125.
N825 G0 Z-7.
N830 G1 Z-10. F125.
N835 G0 Z5.
N840 Z10.
N850 M5
N855 G53 Z0.
(DRILL1 3)
N860 M9
N865 M1
N870 T4 M6
N875 T3
N880 S2900 M3
N885 M9
N895 G0 X-41.25 Y-12.1
N900 G43 Z10. H4
N910 G0 Z5.
N915 Z3.
N920 Z0.
N925 G1 Z-3. F87.
N930 G0 Z5.
N935 X-34.75
N940 Z3.
N945 Z0.
N950 G1 Z-3. F87.
N955 G0 Z5.
N960 X-15.25
N965 Z3.
N970 Z0.
N975 G1 Z-3. F87.
N980 G0 Z5.
N985 X-8.75
N990 Z3.
N995 Z0.
N1000 G1 Z-3. F87.
N1005 G0 Z5.
N1010 Z10.
N1020 M9
N1025 G53 Z0.
N1030 M30
%
