%
(CONTOUR CUTOUT)
(6MM TWO FLUTE)
(T1  D=6. CR=0. - ZMIN=-8. - FLAT END MILL)
N10 G90 G94 G17 G91.1
N15 G21
N20 G53 G0 Z0.
(2D CONTOUR1)
N25 M9
N30 T1 M6
N35 S3200 M3
N40 G54
N45 M8
N55 G0 X-51. Y-60.1
N60 G43 Z4. H1
N65 #100=330. (CUTTING)
N70 #107=270. (RAMPING)
N75 G0 Z2.
N80 S3000
N85 G1 Y-8.757 Z1.726 F#107
N90 G2 X-48.95 Y-3.807 Z1.697 I7. J0.
N95 G1 X-44.293 Y0.85 Z1.662
N100 G2 X-39.343 Y2.9 Z1.632 I4.95 J-4.95
N105 G1 X-36.657 Z1.618
N110 G2 X-31.707 Y0.85 Z1.588 I0. J-7.
N115 G1 X-27.05 Y-3.807 Z1.553
N120 G2 X-25. Y-8.757 Z1.524 I-4.95 J-4.95
N125 G1 Y-60.1 Z1.25
N130 Y-8.757 Z0.976
N135 G3 X-27.05 Y-3.807 Z0.947 I-7. J0.
N140 G1 X-31.707 Y0.85 Z0.912
N145 G3 X-36.657 Y2.9 Z0.882 I-4.95 J-4.95
N150 G1 X-39.343 Z0.868
N155 G3 X-44.293 Y0.85 Z0.838 I0. J-7.
N160 G1 X-48.95 Y-3.807 Z0.803
N165 G3 X-51. Y-8.757 Z0.774 I4.95 J-4.95
N170 G1 Y-60.1 Z0.5
N175 Y-8.757 Z0.226
N180 G2 X-48.95 Y-3.807 Z0.197 I7. J0.
N185 G1 X-44.293 Y0.85 Z0.162
N190 G2 X-39.343 Y2.9 Z0.132 I4.95 J-4.95
N195 G1 X-36.657 Z0.118
N200 G2 X-31.707 Y0.85 Z0.088 I0. J-7.
N205 G1 X-27.05 Y-3.807 Z0.053
N210 G2 X-25. Y-8.757 Z0.024 I-4.95 J-4.95
N215 G1 Y-60.1 Z-0.25
N220 Y-8.757 Z-0.524
N225 G3 X-27.05 Y-3.807 Z-0.553 I-7. J0.
N230 G1 X-31.707 Y0.85 Z-0.588
N235 G3 X-36.657 Y2.9 Z-0.618 I-4.95 J-4.95
N240 G1 X-39.343 Z-0.632
N245 G3 X-44.293 Y0.85 Z-0.662 I0. J-7.
N250 G1 X-48.95 Y-3.807 Z-0.697
N255 G3 X-51. Y-8.757 Z-0.726 I4.95 J-4.95
N260 G1 Y-60.1 Z-1.
N265 S3200
N270 Y-8.757 F#100
N275 G2 X-48.95 Y-3.807 I7. J0.
N280 G1 X-44.293 Y0.85
N285 G2 X-39.343 Y2.9 I4.95 J-4.95
N290 G1 X-36.657
N295 G2 X-31.707 Y0.85 I0. J-7.
N300 G1 X-27.05 Y-3.807
N305 G2 X-25. Y-8.757 I-4.95 J-4.95
N310 G1 Y-60.1
N315 S3000
N320 Y-8.757 Z-1.365 F#107
N325 G3 X-27.05 Y-3.807 Z-1.404 I-7. J0.
N330 G1 X-31.707 Y0.85 Z-1.451
N335 G3 X-36.657 Y2.9 Z-1.49 I-4.95 J-4.95
N340 G1 X-39.343 Z-1.51
N345 G3 X-44.293 Y0.85 Z-1.549 I0. J-7.
N350 G1 X-48.95 Y-3.807 Z-1.596
N355 G3 X-51. Y-8.757 Z-1.635 I4.95 J-4.95
N360 G1 Y-60.1 Z-2.
N365 S3200
N370 Y-8.757 F#100
N375 G2 X-48.95 Y-3.807 I7. J0.
N380 G1 X-44.293 Y0.85
N385 G2 X-39.343 Y2.9 I4.95 J-4.95
N390 G1 X-36.657
N395 G2 X-31.707 Y0.85 I0. J-7.
N400 G1 X-27.05 Y-3.807
N405 G2 X-25. Y-8.757 I-4.95 J-4.95
N410 G1 Y-60.1
N415 S3000
N420 Y-8.757 Z-2.365 F#107
N425 G3 X-27.05 Y-3.807 Z-2.404 I-7. J0.
N430 G1 X-31.707 Y0.85 Z-2.451
N435 G3 X-36.657 Y2.9 Z-2.49 I-4.95 J-4.95
N440 G1 X-39.343 Z-2.51
N445 G3 X-44.293 Y0.85 Z-2.549 I0. J-7.
N450 G1 X-48.95 Y-3.807 Z-2.596
N455 G3 X-51. Y-8.757 Z-2.635 I4.95 J-4.95
N460 G1 Y-60.1 Z-3.
N465 S3200
N470 Y-8.757 F#100
N475 G2 X-48.95 Y-3.807 I7. J0.
N480 G1 X-44.293 Y0.85
N485 G2 X-39.343 Y2.9 I4.95 J-4.95
N490 G1 X-36.657
N495 G2 X-31.707 Y0.85 I0. J-7.
N500 G1 X-27.05 Y-3.807
N505 G2 X-25. Y-8.757 I-4.95 J-4.95
N510 G1 Y-60.1
N515 S3000
N520 Y-8.757 Z-3.365 F#107
N525 G3 X-27.05 Y-3.807 Z-3.404 I-7. J0.
N530 G1 X-31.707 Y0.85 Z-3.451
N535 G3 X-36.657 Y2.9 Z-3.49 I-4.95 J-4.95
N540 G1 X-39.343 Z-3.51
N545 G3 X-44.293 Y0.85 Z-3.549 I0. J-7.
N550 G1 X-48.95 Y-3.807 Z-3.596
N555 G3 X-51. Y-8.757 Z-3.635 I4.95 J-4.95
N560 G1 Y-60.1 Z-4.
N565 S3200
N570 Y-8.757 F#100
N575 G2 X-48.95 Y-3.807 I7. J0.
N580 G1 X-44.293 Y0.85
N585 G2 X-39.343 Y2.9 I4.95 J-4.95
N590 G1 X-36.657
N595 G2 X-31.707 Y0.85 I0. J-7.
N600 G1 X-27.05 Y-3.807
N605 G2 X-25. Y-8.757 I-4.95 J-4.95
N610 G1 Y-60.1
N615 S3000
N620 Y-8.757 Z-4.365 F#107
N625 G3 X-27.05 Y-3.807 Z-4.404 I-7. J0.
N630 G1 X-31.707 Y0.85 Z-4.451
N635 G3 X-36.657 Y2.9 Z-4.49 I-4.95 J-4.95
N640 G1 X-39.343 Z-4.51
N645 G3 X-44.293 Y0.85 Z-4.549 I0. J-7.
N650 G1 X-48.95 Y-3.807 Z-4.596
N655 G3 X-51. Y-8.757 Z-4.635 I4.95 J-4.95
N660 G1 Y-60.1 Z-5.
N665 S3200
N670 Y-8.757 F#100
N675 G2 X-48.95 Y-3.807 I7. J0.
N680 G1 X-44.293 Y0.85
N685 G2 X-39.343 Y2.9 I4.95 J-4.95
N690 G1 X-36.657
N695 G2 X-31.707 Y0.85 I0. J-7.
N700 G1 X-27.05 Y-3.807
N705 G2 X-25. Y-8.757 I-4.95 J-4.95
N710 G1 Y-60.1
N715 S3000
N720 Y-8.757 Z-5.365 F#107
N725 G3 X-27.05 Y-3.807 Z-5.404 I-7. J0.
N730 G1 X-31.707 Y0.85 Z-5.451
N735 G3 X-36.657 Y2.9 Z-5.49 I-4.95 J-4.95
N740 G1 X-39.343 Z-5.51
N745 G3 X-44.293 Y0.85 Z-5.549 I0. J-7.
N750 G1 X-48.95 Y-3.807 Z-5.596
N755 G3 X-51. Y-8.757 Z-5.635 I4.95 J-4.95
N760 G1 Y-60.1 Z-6.
N765 S3200
N770 Y-8.757 F#100
N775 G2 X-48.95 Y-3.807 I7. J0.
N780 G1 X-44.293 Y0.85
N785 G2 X-39.343 Y2.9 I4.95 J-4.95
N790 G1 X-36.657
N795 G2 X-31.707 Y0.85 I0. J-7.
N800 G1 X-27.05 Y-3.807
N805 G2 X-25. Y-8.757 I-4.95 J-4.95
N810 G1 Y-60.1
N815 S3000
N820 Y-8.757 Z-6.365 F#107
N825 G3 X-27.05 Y-3.807 Z-6.404 I-7. J0.
N830 G1 X-31.707 Y0.85 Z-6.451
N835 G3 X-36.657 Y2.9 Z-6.49 I-4.95 J-4.95
N840 G1 X-39.343 Z-6.51
N845 G3 X-44.293 Y0.85 Z-6.549 I0. J-7.
N850 G1 X-48.95 Y-3.807 Z-6.596
N855 G3 X-51. Y-8.757 Z-6.635 I4.95 J-4.95
N860 G1 Y-60.1 Z-7.
N865 S3200
N870 Y-8.757 F#100
N875 G2 X-48.95 Y-3.807 I7. J0.
N880 G1 X-44.293 Y0.85
N885 G2 X-39.343 Y2.9 I4.95 J-4.95
N890 G1 X-36.657
N895 G2 X-31.707 Y0.85 I0. J-7.
N900 G1 X-27.05 Y-3.807
N905 G2 X-25. Y-8.757 I-4.95 J-4.95
N910 G1 Y-60.1
N915 S3000
N920 Y-8.757 Z-7.365 F#107
N925 G3 X-27.05 Y-3.807 Z-7.404 I-7. J0.
N930 G1 X-31.707 Y0.85 Z-7.451
N935 G3 X-36.657 Y2.9 Z-7.49 I-4.95 J-4.95
N940 G1 X-39.343 Z-7.51
N945 G3 X-44.293 Y0.85 Z-7.549 I0. J-7.
N950 G1 X-48.95 Y-3.807 Z-7.596
N955 G3 X-51. Y-8.757 Z-7.635 I4.95 J-4.95
N960 G1 Y-60.1 Z-8.
N965 S3200
N970 Y-8.757 F#100
N975 G2 X-48.95 Y-3.807 I7. J0.
N980 G1 X-44.293 Y0.85
N985 G2 X-39.343 Y2.9 I4.95 J-4.95
N990 G1 X-36.657
N995 G2 X-31.707 Y0.85 I0. J-7.
N1000 G1 X-27.05 Y-3.807
N1005 G2 X-25. Y-8.757 I-4.95 J-4.95
N1010 G1 Y-60.1
N1015 G0 Z4.
(2D CONTOUR1 2)
N1025 M8
N1030 G0 X-25. Y-63.1
N1035 #100=330. (CUTTING)
N1040 #107=270. (RAMPING)
N1045 Z4.
N1050 Z2.
N1055 S3000
N1060 G1 X-51. Z1.25 F#107
N1065 X-25. Z0.5
N1070 X-51. Z-0.25
N1075 X-25. Z-1.
N1080 S3200
N1085 X-51. F#100
N1090 S3000
N1095 X-25. Z-1.333 F#107
N1100 X-51. Z-1.667
N1105 X-25. Z-2.
N1110 S3200
N1115 X-51. F#100
N1120 S3000
N1125 X-25. Z-2.333 F#107
N1130 X-51. Z-2.667
N1135 X-25. Z-3.
N1140 S3200
N1145 X-51. F#100
N1150 S3000
N1155 X-25. Z-3.333 F#107
N1160 X-51. Z-3.667
N1165 X-25. Z-4.
N1170 S3200
N1175 X-51. F#100
N1180 S3000
N1185 X-25. Z-4.333 F#107
N1190 X-51. Z-4.667
N1195 X-25. Z-5.
N1200 S3200
N1205 X-51. F#100
N1210 S3000
N1215 X-25. Z-5.333 F#107
N1220 X-51. Z-5.667
N1225 X-25. Z-6.
N1230 S3200
N1235 X-51. F#100
N1240 S3000
N1245 X-25. Z-6.333 F#107
N1250 X-51. Z-6.667
N1255 X-25. Z-7.
N1260 S3200
N1265 X-51. F#100
N1270 S3000
N1275 X-25. Z-7.9 F#107
N1280 S3200
N1285 X-51. F#100
N1290 G0 Z4.
(2D CONTOUR1)
N1300 M8
N1305 G0 X-25. Y-60.1
N1310 #100=330. (CUTTING)
N1315 #107=270. (RAMPING)
N1320 Z4.
N1325 Z2.
N1330 S3000
N1335 G1 Y-8.757 Z1.726 F#107
N1340 G2 X-22.95 Y-3.807 Z1.697 I7. J0.
N1345 G1 X-18.293 Y0.85 Z1.662
N1350 G2 X-13.343 Y2.9 Z1.632 I4.95 J-4.95
N1355 G1 X-10.657 Z1.618
N1360 G2 X-5.707 Y0.85 Z1.588 I0. J-7.
N1365 G1 X-1.05 Y-3.807 Z1.553
N1370 G2 X1. Y-8.757 Z1.524 I-4.95 J-4.95
N1375 G1 Y-60.1 Z1.25
N1380 Y-8.757 Z0.976
N1385 G3 X-1.05 Y-3.807 Z0.947 I-7. J0.
N1390 G1 X-5.707 Y0.85 Z0.912
N1395 G3 X-10.657 Y2.9 Z0.882 I-4.95 J-4.95
N1400 G1 X-13.343 Z0.868
N1405 G3 X-18.293 Y0.85 Z0.838 I0. J-7.
N1410 G1 X-22.95 Y-3.807 Z0.803
N1415 G3 X-25. Y-8.757 Z0.774 I4.95 J-4.95
N1420 G1 Y-60.1 Z0.5
N1425 Y-8.757 Z0.226
N1430 G2 X-22.95 Y-3.807 Z0.197 I7. J0.
N1435 G1 X-18.293 Y0.85 Z0.162
N1440 G2 X-13.343 Y2.9 Z0.132 I4.95 J-4.95
N1445 G1 X-10.657 Z0.118
N1450 G2 X-5.707 Y0.85 Z0.088 I0. J-7.
N1455 G1 X-1.05 Y-3.807 Z0.053
N1460 G2 X1. Y-8.757 Z0.024 I-4.95 J-4.95
N1465 G1 Y-60.1 Z-0.25
N1470 Y-8.757 Z-0.524
N1475 G3 X-1.05 Y-3.807 Z-0.553 I-7. J0.
N1480 G1 X-5.707 Y0.85 Z-0.588
N1485 G3 X-10.657 Y2.9 Z-0.618 I-4.95 J-4.95
N1490 G1 X-13.343 Z-0.632
N1495 G3 X-18.293 Y0.85 Z-0.662 I0. J-7.
N1500 G1 X-22.95 Y-3.807 Z-0.697
N1505 G3 X-25. Y-8.757 Z-0.726 I4.95 J-4.95
N1510 G1 Y-60.1 Z-1.
N1515 S3200
N1520 Y-8.757 F#100
N1525 G2 X-22.95 Y-3.807 I7. J0.
N1530 G1 X-18.293 Y0.85
N1535 G2 X-13.343 Y2.9 I4.95 J-4.95
N1540 G1 X-10.657
N1545 G2 X-5.707 Y0.85 I0. J-7.
N1550 G1 X-1.05 Y-3.807
N1555 G2 X1. Y-8.757 I-4.95 J-4.95
N1560 G1 Y-60.1
N1565 S3000
N1570 Y-8.757 Z-1.365 F#107
N1575 G3 X-1.05 Y-3.807 Z-1.404 I-7. J0.
N1580 G1 X-5.707 Y0.85 Z-1.451
N1585 G3 X-10.657 Y2.9 Z-1.49 I-4.95 J-4.95
N1590 G1 X-13.343 Z-1.51
N1595 G3 X-18.293 Y0.85 Z-1.549 I0. J-7.
N1600 G1 X-22.95 Y-3.807 Z-1.596
N1605 G3 X-25. Y-8.757 Z-1.635 I4.95 J-4.95
N1610 G1 Y-60.1 Z-2.
N1615 S3200
N1620 Y-8.757 F#100
N1625 G2 X-22.95 Y-3.807 I7. J0.
N1630 G1 X-18.293 Y0.85
N1635 G2 X-13.343 Y2.9 I4.95 J-4.95
N1640 G1 X-10.657
N1645 G2 X-5.707 Y0.85 I0. J-7.
N1650 G1 X-1.05 Y-3.807
N1655 G2 X1. Y-8.757 I-4.95 J-4.95
N1660 G1 Y-60.1
N1665 S3000
N1670 Y-8.757 Z-2.365 F#107
N1675 G3 X-1.05 Y-3.807 Z-2.404 I-7. J0.
N1680 G1 X-5.707 Y0.85 Z-2.451
N1685 G3 X-10.657 Y2.9 Z-2.49 I-4.95 J-4.95
N1690 G1 X-13.343 Z-2.51
N1695 G3 X-18.293 Y0.85 Z-2.549 I0. J-7.
N1700 G1 X-22.95 Y-3.807 Z-2.596
N1705 G3 X-25. Y-8.757 Z-2.635 I4.95 J-4.95
N1710 G1 Y-60.1 Z-3.
N1715 S3200
N1720 Y-8.757 F#100
N1725 G2 X-22.95 Y-3.807 I7. J0.
N1730 G1 X-18.293 Y0.85
N1735 G2 X-13.343 Y2.9 I4.95 J-4.95
N1740 G1 X-10.657
N1745 G2 X-5.707 Y0.85 I0. J-7.
N1750 G1 X-1.05 Y-3.807
N1755 G2 X1. Y-8.757 I-4.95 J-4.95
N1760 G1 Y-60.1
N1765 S3000
N1770 Y-8.757 Z-3.365 F#107
N1775 G3 X-1.05 Y-3.807 Z-3.404 I-7. J0.
N1780 G1 X-5.707 Y0.85 Z-3.451
N1785 G3 X-10.657 Y2.9 Z-3.49 I-4.95 J-4.95
N1790 G1 X-13.343 Z-3.51
N1795 G3 X-18.293 Y0.85 Z-3.549 I0. J-7.
N1800 G1 X-22.95 Y-3.807 Z-3.596
N1805 G3 X-25. Y-8.757 Z-3.635 I4.95 J-4.95
N1810 G1 Y-60.1 Z-4.
N1815 S3200
N1820 Y-8.757 F#100
N1825 G2 X-22.95 Y-3.807 I7. J0.
N1830 G1 X-18.293 Y0.85
N1835 G2 X-13.343 Y2.9 I4.95 J-4.95
N1840 G1 X-10.657
N1845 G2 X-5.707 Y0.85 I0. J-7.
N1850 G1 X-1.05 Y-3.807
N1855 G2 X1. Y-8.757 I-4.95 J-4.95
N1860 G1 Y-60.1
N1865 S3000
N1870 Y-8.757 Z-4.365 F#107
N1875 G3 X-1.05 Y-3.807 Z-4.404 I-7. J0.
N1880 G1 X-5.707 Y0.85 Z-4.451
N1885 G3 X-10.657 Y2.9 Z-4.49 I-4.95 J-4.95
N1890 G1 X-13.343 Z-4.51
N1895 G3 X-18.293 Y0.85 Z-4.549 I0. J-7.
N1900 G1 X-22.95 Y-3.807 Z-4.596
N1905 G3 X-25. Y-8.757 Z-4.635 I4.95 J-4.95
N1910 G1 Y-60.1 Z-5.
N1915 S3200
N1920 Y-8.757 F#100
N1925 G2 X-22.95 Y-3.807 I7. J0.
N1930 G1 X-18.293 Y0.85
N1935 G2 X-13.343 Y2.9 I4.95 J-4.95
N1940 G1 X-10.657
N1945 G2 X-5.707 Y0.85 I0. J-7.
N1950 G1 X-1.05 Y-3.807
N1955 G2 X1. Y-8.757 I-4.95 J-4.95
N1960 G1 Y-60.1
N1965 S3000
N1970 Y-8.757 Z-5.365 F#107
N1975 G3 X-1.05 Y-3.807 Z-5.404 I-7. J0.
N1980 G1 X-5.707 Y0.85 Z-5.451
N1985 G3 X-10.657 Y2.9 Z-5.49 I-4.95 J-4.95
N1990 G1 X-13.343 Z-5.51
N1995 G3 X-18.293 Y0.85 Z-5.549 I0. J-7.
N2000 G1 X-22.95 Y-3.807 Z-5.596
N2005 G3 X-25. Y-8.757 Z-5.635 I4.95 J-4.95
N2010 G1 Y-60.1 Z-6.
N2015 S3200
N2020 Y-8.757 F#100
N2025 G2 X-22.95 Y-3.807 I7. J0.
N2030 G1 X-18.293 Y0.85
N2035 G2 X-13.343 Y2.9 I4.95 J-4.95
N2040 G1 X-10.657
N2045 G2 X-5.707 Y0.85 I0. J-7.
N2050 G1 X-1.05 Y-3.807
N2055 G2 X1. Y-8.757 I-4.95 J-4.95
N2060 G1 Y-60.1
N2065 S3000
N2070 Y-8.757 Z-6.365 F#107
N2075 G3 X-1.05 Y-3.807 Z-6.404 I-7. J0.
N2080 G1 X-5.707 Y0.85 Z-6.451
N2085 G3 X-10.657 Y2.9 Z-6.49 I-4.95 J-4.95
N2090 G1 X-13.343 Z-6.51
N2095 G3 X-18.293 Y0.85 Z-6.549 I0. J-7.
N2100 G1 X-22.95 Y-3.807 Z-6.596
N2105 G3 X-25. Y-8.757 Z-6.635 I4.95 J-4.95
N2110 G1 Y-60.1 Z-7.
N2115 S3200
N2120 Y-8.757 F#100
N2125 G2 X-22.95 Y-3.807 I7. J0.
N2130 G1 X-18.293 Y0.85
N2135 G2 X-13.343 Y2.9 I4.95 J-4.95
N2140 G1 X-10.657
N2145 G2 X-5.707 Y0.85 I0. J-7.
N2150 G1 X-1.05 Y-3.807
N2155 G2 X1. Y-8.757 I-4.95 J-4.95
N2160 G1 Y-60.1
N2165 S3000
N2170 Y-8.757 Z-7.365 F#107
N2175 G3 X-1.05 Y-3.807 Z-7.404 I-7. J0.
N2180 G1 X-5.707 Y0.85 Z-7.451
N2185 G3 X-10.657 Y2.9 Z-7.49 I-4.95 J-4.95
N2190 G1 X-13.343 Z-7.51
N2195 G3 X-18.293 Y0.85 Z-7.549 I0. J-7.
N2200 G1 X-22.95 Y-3.807 Z-7.596
N2205 G3 X-25. Y-8.757 Z-7.635 I4.95 J-4.95
N2210 G1 Y-60.1 Z-8.
N2215 S3200
N2220 Y-8.757 F#100
N2225 G2 X-22.95 Y-3.807 I7. J0.
N2230 G1 X-18.293 Y0.85
N2235 G2 X-13.343 Y2.9 I4.95 J-4.95
N2240 G1 X-10.657
N2245 G2 X-5.707 Y0.85 I0. J-7.
N2250 G1 X-1.05 Y-3.807
N2255 G2 X1. Y-8.757 I-4.95 J-4.95
N2260 G1 Y-60.1
N2265 G0 Z4.
(2D CONTOUR1 2)
N2275 M8
N2280 G0 X1. Y-63.1
N2285 #100=330. (CUTTING)
N2290 #107=270. (RAMPING)
N2295 Z4.
N2300 Z2.
N2305 S3000
N2310 G1 X-25. Z1.25 F#107
N2315 X1. Z0.5
N2320 X-25. Z-0.25
N2325 X1. Z-1.
N2330 S3200
N2335 X-25. F#100
N2340 S3000
N2345 X1. Z-1.333 F#107
N2350 X-25. Z-1.667
N2355 X1. Z-2.
N2360 S3200
N2365 X-25. F#100
N2370 S3000
N2375 X1. Z-2.333 F#107
N2380 X-25. Z-2.667
N2385 X1. Z-3.
N2390 S3200
N2395 X-25. F#100
N2400 S3000
N2405 X1. Z-3.333 F#107
N2410 X-25. Z-3.667
N2415 X1. Z-4.
N2420 S3200
N2425 X-25. F#100
N2430 S3000
N2435 X1. Z-4.333 F#107
N2440 X-25. Z-4.667
N2445 X1. Z-5.
N2450 S3200
N2455 X-25. F#100
N2460 S3000
N2465 X1. Z-5.333 F#107
N2470 X-25. Z-5.667
N2475 X1. Z-6.
N2480 S3200
N2485 X-25. F#100
N2490 S3000
N2495 X1. Z-6.333 F#107
N2500 X-25. Z-6.667
N2505 X1. Z-7.
N2510 S3200
N2515 X-25. F#100
N2520 S3000
N2525 X1. Z-7.9 F#107
N2530 S3200
N2535 X-25. F#100
N2540 G0 Z4.
N2550 M9
N2555 G53 Z0.
N2560 M30
%
