%
(C-HEAD-BASE)
(6MM TWO FLUTE)
(T1  D=6. CR=0. - ZMIN=-8. - FLAT END MILL)
(T3  D=3. CR=0. TAPER=118DEG - ZMIN=-10. - DRILL)
N10 G90 G94 G17 G91.1
N15 G21
N20 G53 G0 Z0.
(FACE1)
N25 M9
N30 T1 M6
N35 T3
N40 S3200 M3
N45 G54
N50 M8
N60 G0 X-53.9 Y-1.754
N65 G43 Z4. H1
N70 #100=330. (CUTTING)
N75 #102=330. (FINISH)
N80 #103=200. (ENTRY)
N85 #104=200. (EXIT)
N90 G0 Z2.
N95 G1 Z-1.4 F#103
N100 G18 G2 X-53.3 Z-2. I0.6 K0.
N105 G1 X-50. F#100
N110 X0. F#102
N115 G17 G2 Y-6.458 I0. J-2.352 F#100
N120 G1 X-50. F#102
N125 G3 Y-11.162 I0. J-2.352 F#100
N130 G1 X0. F#102
N135 G2 Y-15.865 I0. J-2.352 F#100
N140 G1 X-50. F#102
N145 G3 Y-20.569 I0. J-2.352 F#100
N150 G1 X0. F#102
N155 G2 Y-25.273 I0. J-2.352 F#100
N160 G1 X-50. F#102
N165 G3 Y-29.977 I0. J-2.352 F#100
N170 G1 X0. F#102
N175 G2 Y-34.681 I0. J-2.352 F#100
N180 G1 X-50. F#102
N185 G3 Y-39.385 I0. J-2.352 F#100
N190 G1 X0. F#102
N195 G2 Y-44.088 I0. J-2.352 F#100
N200 G1 X-50. F#102
N205 G3 Y-48.792 I0. J-2.352 F#100
N210 G1 X0. F#102
N215 G2 Y-53.496 I0. J-2.352 F#100
N220 G1 X-50. F#102
N225 G3 Y-58.2 I0. J-2.352 F#100
N230 G1 X0. F#102
N235 G18 G2 X0.6 Z-1.4 I0. K0.6 F#104
N240 G0 Z4.
N245 G17
(2D ADAPTIVE1)
N250 M8
N255 G0 X-37.862 Y-51.738
N260 #100=330. (CUTTING)
N265 #103=200. (ENTRY)
N270 #104=200. (EXIT)
N275 #105=4000. (DIRECT)
N280 #107=270. (RAMPING)
N285 Z4.
N290 Z1.55
N295 G1 Z1.05 F#103
N300 S3000
N305 G3 X-36.046 Y-48.613 Z0.826 I-0.138 J2.171 F#107
N310 X-39.596 Y-48.13 Z0.603 I-1.937 J-0.947
N315 X-38.698 Y-51.564 Z0.379 I1.599 J-1.417
N320 X-35.89 Y-49.445 Z0.156 I0.694 J1.999
N325 X-38.892 Y-47.673 Z-0.068 I-2.094 J-0.119
N330 X-39.382 Y-51.091 Z-0.292 I0.899 J-1.873
N335 X-36.066 Y-50.25 Z-0.515 I1.376 J1.531
N340 X-38.088 Y-47.531 Z-0.739 I-1.921 J0.683
N345 X-39.815 Y-50.409 Z-0.962 I0.1 J-2.017
N350 X-36.528 Y-50.904 Z-1.186 I1.809 J0.853
N355 X-37.315 Y-47.708 Z-1.41 I-1.463 J1.334
N360 X-39.944 Y-49.634 Z-1.633 I-0.67 J-1.843
N365 X-37.189 Y-51.314 Z-1.857 I1.94 J0.082
N370 X-36.691 Y-48.158 Z-2.081 I-0.807 J1.744
N375 X-39.766 Y-48.893 Z-2.304 I-1.292 J-1.397
N380 X-37.934 Y-51.43 Z-2.528 I1.765 J-0.655
N385 X-36.304 Y-48.797 Z-2.751 I-0.066 J1.862
N390 X-39.327 Y-48.298 Z-2.975 I-1.679 J-0.763
N395 X-38.644 Y-51.252 Z-3.199 I1.331 J-1.248
N400 X-36.199 Y-49.513 Z-3.422 I0.64 J1.688
N405 X-38.711 Y-47.933 Z-3.646 I-1.785 J-0.051
N410 X-39.21 Y-50.826 Z-3.869 I0.719 J-1.613
N415 X-36.377 Y-50.191 Z-4.093 I1.204 J1.265
N420 X-38.024 Y-47.84 Z-4.317 I-1.611 J0.624
N425 X-39.553 Y-50.232 Z-4.54 I0.036 J-1.707
N430 X-36.791 Y-50.728 Z-4.764 I1.547 J0.676
N435 X-37.378 Y-48.017 Z-4.988 I-1.201 J1.159
N440 X-39.634 Y-49.574 Z-5.211 I-0.607 J-1.534
N445 X-37.362 Y-51.049 Z-5.435 I1.63 J0.023
N450 X-36.87 Y-48.418 Z-5.658 I-0.635 J1.48
N455 X-39.458 Y-48.96 Z-5.882 I-1.113 J-1.137
N460 X-37.99 Y-51.12 Z-6.106 I1.457 J-0.589
N465 X-36.57 Y-48.966 Z-6.329 I-0.011 J1.552
N470 X-39.07 Y-48.48 Z-6.553 I-1.413 J-0.594
N475 X-38.573 Y-50.945 Z-6.776 I1.074 J-1.066
N480 X-36.51 Y-49.564 Z-7. I0.569 J1.381
N485 X-39.498 I-1.494 J0.
N490 X-36.51 I1.494 J0.
N495 S3200
N500 X-38.661 Y-48.033 I-1.432 J0.264 F#100
N505 G1 X-38.809 Y-48.104
N510 X-38.949 Y-48.188
N515 X-39.08 Y-48.285
N520 X-39.201 Y-48.394
N525 X-39.312 Y-48.515
N530 X-39.409 Y-48.646
N535 X-39.494 Y-48.785
N540 X-39.565 Y-48.932
N545 X-39.622 Y-49.086
N550 X-39.663 Y-49.244
N555 X-39.689 Y-49.405
N560 X-39.699 Y-49.568
N565 X-39.694 Y-49.731
N570 X-39.673 Y-49.893
N575 X-39.636 Y-50.052
N580 X-39.584 Y-50.207
N585 X-39.517 Y-50.356
N590 X-39.437 Y-50.498
N595 X-39.342 Y-50.632
N600 X-39.236 Y-50.756
N605 X-39.118 Y-50.868
N610 X-38.99 Y-50.969
N615 X-38.852 Y-51.058
N620 X-38.707 Y-51.132
N625 X-38.555 Y-51.192
N630 X-38.398 Y-51.237
N635 X-38.237 Y-51.267
N640 X-38.075 Y-51.281
N645 X-37.911 Y-51.28
N650 X-37.749 Y-51.262
N655 X-37.589 Y-51.229
N660 X-37.433 Y-51.181
N665 X-37.282 Y-51.118
N670 X-37.138 Y-51.04
N675 X-37.003 Y-50.95
N680 X-36.876 Y-50.846
N685 X-36.761 Y-50.731
N690 X-36.657 Y-50.605
N695 X-36.565 Y-50.469
N700 X-36.487 Y-50.326
N705 X-36.424 Y-50.176
N710 X-36.375 Y-50.02
N715 X-36.341 Y-49.86
N720 G3 X-39.236 Y-48.138 I-1.652 J0.517
N725 G1 X-39.363 Y-48.254
N730 X-39.478 Y-48.381
N735 X-39.581 Y-48.518
N740 X-39.672 Y-48.663
N745 X-39.75 Y-48.816
N750 X-39.813 Y-48.975
N755 X-39.862 Y-49.139
N760 X-39.896 Y-49.307
N765 X-39.915 Y-49.477
N770 X-39.918 Y-49.649
N775 X-39.906 Y-49.82
N780 X-39.879 Y-49.989
N785 X-39.837 Y-50.155
N790 X-39.78 Y-50.316
N795 X-39.709 Y-50.472
N800 X-39.624 Y-50.621
N805 X-39.526 Y-50.762
N810 X-39.416 Y-50.893
N815 X-39.294 Y-51.014
N820 X-39.162 Y-51.123
N825 X-39.021 Y-51.22
N830 X-38.872 Y-51.305
N835 X-38.716 Y-51.375
N840 X-38.554 Y-51.431
N845 X-38.388 Y-51.473
N850 X-38.218 Y-51.499
N855 X-38.047 Y-51.51
N860 X-37.876 Y-51.506
N865 X-37.706 Y-51.486
N870 X-37.538 Y-51.451
N875 X-37.374 Y-51.401
N880 X-37.215 Y-51.337
N885 X-37.063 Y-51.259
N890 X-36.918 Y-51.167
N895 X-36.782 Y-51.063
N900 X-36.656 Y-50.947
N905 X-36.541 Y-50.82
N910 X-36.437 Y-50.683
N915 X-36.347 Y-50.538
N920 X-36.269 Y-50.385
N925 X-36.206 Y-50.226
N930 X-36.139 Y-50.064
N935 X-36.086 Y-49.896
N940 X-36.048 Y-49.724
N945 X-36.025 Y-49.55
N950 X-36.017 Y-49.374
N955 X-36.025 Y-49.199
N960 X-36.049 Y-49.024
N965 X-36.087 Y-48.853
N970 X-36.141 Y-48.685
N975 X-36.209 Y-48.523
N980 X-36.291 Y-48.368
N985 X-36.386 Y-48.22
N990 X-36.494 Y-48.081
N995 X-36.614 Y-47.952
N1000 X-36.744 Y-47.835
N1005 X-36.885 Y-47.729
N1010 X-37.034 Y-47.635
N1015 X-37.19 Y-47.556
N1020 X-37.353 Y-47.49
N1025 X-37.522 Y-47.439
N1030 X-37.694 Y-47.403
N1035 X-37.868 Y-47.382
N1040 X-38.044 Y-47.376
N1045 X-38.219 Y-47.386
N1050 X-38.393 Y-47.412
N1055 X-38.564 Y-47.452
N1060 X-38.731 Y-47.507
N1065 X-38.893 Y-47.577
N1070 X-39.047 Y-47.661
N1075 X-39.194 Y-47.758
N1080 X-39.332 Y-47.867
N1085 X-39.459 Y-47.988
N1090 X-39.575 Y-48.12
N1095 X-39.68 Y-48.261
N1100 X-39.788 Y-48.409
N1105 X-39.882 Y-48.564
N1110 X-39.964 Y-48.727
N1115 X-40.031 Y-48.897
N1120 X-40.084 Y-49.071
N1125 X-40.121 Y-49.25
N1130 X-40.144 Y-49.431
N1135 X-40.151 Y-49.613
N1140 X-40.142 Y-49.795
N1145 X-40.118 Y-49.976
N1150 X-40.079 Y-50.154
N1155 X-40.025 Y-50.328
N1160 X-39.956 Y-50.497
N1165 X-39.874 Y-50.659
N1170 X-39.777 Y-50.814
N1175 X-39.668 Y-50.96
N1180 X-39.547 Y-51.096
N1185 X-39.415 Y-51.222
N1190 X-39.273 Y-51.336
N1195 X-39.121 Y-51.438
N1200 X-38.962 Y-51.526
N1205 X-38.796 Y-51.6
N1210 X-38.623 Y-51.66
N1215 X-38.447 Y-51.706
N1220 X-38.267 Y-51.736
N1225 X-38.085 Y-51.75
N1230 X-37.903
N1235 X-37.721 Y-51.734
N1240 X-37.542 Y-51.702
N1245 X-37.366 Y-51.655
N1250 X-37.194 Y-51.594
N1255 X-37.028 Y-51.518
N1260 X-36.869 Y-51.429
N1265 X-36.719 Y-51.326
N1270 X-36.577 Y-51.211
N1275 X-36.446 Y-51.085
N1280 X-36.326 Y-50.947
N1285 X-36.218 Y-50.8
N1290 X-36.123 Y-50.645
N1295 X-36.042 Y-50.482
N1300 X-35.974 Y-50.312
N1305 X-35.904 Y-50.139
N1310 X-35.849 Y-49.961
N1315 X-35.808 Y-49.778
N1320 X-35.783 Y-49.593
N1325 X-35.773 Y-49.407
N1330 X-35.779 Y-49.22
N1335 X-35.8 Y-49.034
N1340 X-35.836 Y-48.851
N1345 X-35.888 Y-48.671
N1350 X-35.954 Y-48.497
N1355 X-36.034 Y-48.328
N1360 X-36.128 Y-48.167
N1365 X-36.236 Y-48.014
N1370 X-36.355 Y-47.87
N1375 X-36.486 Y-47.737
N1380 X-36.628 Y-47.615
N1385 X-36.779 Y-47.505
N1390 X-36.939 Y-47.408
N1395 X-37.106 Y-47.325
N1400 X-37.279 Y-47.256
N1405 X-37.458 Y-47.201
N1410 X-37.641 Y-47.162
N1415 X-37.826 Y-47.138
N1420 X-38.013 Y-47.129
N1425 X-38.199 Y-47.136
N1430 X-38.385 Y-47.158
N1435 X-38.568 Y-47.195
N1440 X-38.747 Y-47.248
N1445 X-38.921 Y-47.315
N1450 X-39.09 Y-47.396
N1455 X-39.25 Y-47.491
N1460 X-39.403 Y-47.599
N1465 X-39.546 Y-47.72
N1470 X-39.678 Y-47.851
N1475 X-39.799 Y-47.994
N1480 X-39.908 Y-48.145
N1485 X-40.019 Y-48.303
N1490 X-40.117 Y-48.468
N1495 X-40.201 Y-48.641
N1500 X-40.271 Y-48.82
N1505 X-40.327 Y-49.004
N1510 X-40.367 Y-49.192
N1515 X-40.393 Y-49.383
N1520 X-40.403 Y-49.575
N1525 X-40.398 Y-49.767
N1530 X-40.377 Y-49.958
N1535 X-40.341 Y-50.147
N1540 X-40.29 Y-50.333
N1545 X-40.224 Y-50.513
N1550 X-40.145 Y-50.688
N1555 X-40.051 Y-50.856
N1560 X-39.944 Y-51.016
N1565 X-39.825 Y-51.167
N1570 X-39.694 Y-51.308
N1575 X-39.552 Y-51.438
N1580 X-39.4 Y-51.556
N1585 X-39.24 Y-51.661
N1590 X-39.071 Y-51.754
N1595 X-38.896 Y-51.832
N1600 X-38.714 Y-51.897
N1605 X-38.529 Y-51.946
N1610 X-38.339 Y-51.981
N1615 X-38.148 Y-52.
N1620 X-37.956 Y-52.004
N1625 X-37.764 Y-51.993
N1630 X-37.574 Y-51.966
N1635 X-37.386 Y-51.924
N1640 X-37.202 Y-51.867
N1645 X-37.024 Y-51.796
N1650 X-36.851 Y-51.71
N1655 X-36.687 Y-51.611
N1660 X-36.53 Y-51.499
N1665 X-36.383 Y-51.375
N1670 X-36.247 Y-51.24
N1675 X-36.121 Y-51.094
N1680 X-36.008 Y-50.938
N1685 X-35.908 Y-50.774
N1690 X-35.821 Y-50.603
N1695 G3 X-40.191 Y-48.171 I-2.185 J1.216
N1700 X-40.507 Y-49.359 I2.185 J-1.216
N1705 G1 X-40.535 Y-49.541
N1710 X-40.549 Y-49.725
N1715 X-40.548 Y-49.909
N1720 X-40.532 Y-50.093
N1725 X-40.502 Y-50.275
N1730 X-40.457 Y-50.454
N1735 X-40.398 Y-50.628
N1740 X-40.325 Y-50.797
N1745 X-40.239 Y-50.96
N1750 X-40.14 Y-51.116
N1755 X-40.029 Y-51.263
N1760 X-39.907 Y-51.401
N1765 X-39.774 Y-51.528
N1770 X-39.631 Y-51.645
N1775 X-39.479 Y-51.749
N1780 X-39.32 Y-51.842
N1785 X-39.153 Y-51.921
N1790 X-38.981 Y-51.986
N1795 X-38.804 Y-52.038
N1800 X-38.624 Y-52.075
N1805 X-38.441 Y-52.097
N1810 X-38.257 Y-52.105
N1815 X-38.169 Y-52.094 Z-6.989 F#104
N1820 X-38.086 Y-52.068 Z-6.978
N1825 X-38.008 Y-52.027 Z-6.967
N1830 X-37.938 Y-51.974 Z-6.956
N1835 X-37.878 Y-51.91 Z-6.944
N1840 X-37.831 Y-51.836 Z-6.933
N1845 X-37.798 Y-51.756 Z-6.922
N1850 X-37.778 Y-51.67 Z-6.911
N1855 X-37.774 Y-51.583 Z-6.9
N1860 G3 X-37.94 Y-51.228 I-0.5 J-0.017
N1865 G1 X-38.22 Y-50.976
N1870 X-39.346 Y-49.965 F#105
N1875 X-39.666 Y-49.677 F#103
N1880 G3 X-39.983 Y-49.549 I-0.334 J-0.372
N1885 X-40.5 Y-50.031 Z-7. I-0.017 J-0.5
N1890 X-38.715 Y-52.091 I1.719 J-0.313 F#100
N1895 G1 X-38.63 Y-52.081 Z-6.989 F#104
N1900 X-38.548 Y-52.057 Z-6.978
N1905 X-38.471 Y-52.019 Z-6.967
N1910 X-38.401 Y-51.968 Z-6.956
N1915 X-38.342 Y-51.906 Z-6.944
N1920 X-38.294 Y-51.834 Z-6.933
N1925 X-38.259 Y-51.754 Z-6.922
N1930 X-38.238 Y-51.67 Z-6.911
N1935 X-38.233 Y-51.583 Z-6.9
N1940 G3 X-38.413 Y-51.215 I-0.5 J-0.017
N1945 G1 X-38.688 Y-50.988
N1950 X-39.334 Y-50.453 F#105
N1955 X-39.682 Y-50.166 F#103
N1960 G3 X-39.983 Y-50.051 I-0.319 J-0.385
N1965 X-40.5 Y-50.533 Z-7. I-0.017 J-0.5
N1970 X-39.121 Y-52.088 I1.301 J-0.235 F#100
N1975 G1 X-39.036 Y-52.079 Z-6.989 F#104
N1980 X-38.954 Y-52.056 Z-6.978
N1985 X-38.877 Y-52.018 Z-6.967
N1990 X-38.808 Y-51.967 Z-6.956
N1995 X-38.748 Y-51.905 Z-6.944
N2000 X-38.7 Y-51.834 Z-6.933
N2005 X-38.665 Y-51.754 Z-6.922
N2010 X-38.644 Y-51.67 Z-6.911
N2015 X-38.638 Y-51.583 Z-6.9
N2020 G3 X-38.838 Y-51.2 I-0.5 J-0.017
N2025 G1 X-39.104 Y-51.001
N2030 X-39.321 Y-50.838 F#105
N2035 X-39.7 Y-50.553 F#103
N2040 G3 X-39.983 Y-50.454 I-0.3 J-0.4
N2045 X-40.5 Y-50.936 Z-7. I-0.017 J-0.5
N2050 G1 X-40.515 Y-51.054 F#100
N2055 Y-51.172
N2060 X-40.501 Y-51.29
N2065 X-40.473 Y-51.405
N2070 X-40.431 Y-51.516
N2075 X-40.376 Y-51.621
N2080 X-40.309 Y-51.719
N2085 X-40.23 Y-51.808
N2090 X-40.141 Y-51.886
N2095 X-40.044 Y-51.954
N2100 X-39.938 Y-52.009
N2105 X-39.827 Y-52.051
N2110 X-39.712 Y-52.079
N2115 X-39.594 Y-52.093
N2120 X-39.476 Y-52.092
N2125 X-39.365 Y-52.082 Z-6.986 F#104
N2130 X-39.256 Y-52.058 Z-6.971
N2135 X-39.151 Y-52.021 Z-6.957
N2140 X-39.052 Y-51.97 Z-6.943
N2145 X-38.959 Y-51.907 Z-6.929
N2150 X-38.876 Y-51.833 Z-6.914
N2155 X-38.802 Y-51.749 Z-6.9
N2160 G3 X-38.651 Y-51.01 I-0.704 J0.528
N2165 X-38.698 Y-50.87 I-0.855 J-0.211 F#105
N2170 X-39.44 Y-50.312 I-0.862 J-0.374
N2175 X-40.167 Y-50.526 I-0.121 J-0.932 F#103
N2180 X-40.5 Y-51.211 Z-7. I0.606 J-0.718
N2185 X-39.758 Y-52.096 I0.702 J-0.165 F#100
N2190 G1 X-39.661 Y-52.086 Z-6.988 F#104
N2195 X-39.567 Y-52.061 Z-6.975
N2200 X-39.477 Y-52.022 Z-6.963
N2205 X-39.394 Y-51.971 Z-6.95
N2210 X-39.32 Y-51.907 Z-6.938
N2215 X-39.256 Y-51.833 Z-6.925
N2220 X-39.204 Y-51.75 Z-6.913
N2225 X-39.165 Y-51.66 Z-6.9
N2230 G3 X-39.178 Y-51.208 I-0.615 J0.209
N2235 X-40.076 Y-50.83 I-0.637 J-0.256
N2240 X-40.5 Y-51.44 Z-7. I0.262 J-0.634 F#103
N2245 X-40.433 Y-51.832 I0.658 J-0.089 F#100
N2250 X-40.058 Y-51.946 I0.261 J0.186 F#104
N2255 X-40.286 Y-51.348 I-0.114 J0.299 F#103
N2260 X-40.489 Y-51.684 I0.114 J-0.299
N2265 X-39.987 Y-52.101 I0.519 J0.114 F#100
N2270 G1 X-37.612 Y-52.1
N2275 G3 X-35.509 Y-49.865 I-0.074 J2.177
N2280 G1 X-35.519 Y-49.78 Z-6.989 F#104
N2285 X-35.543 Y-49.698 Z-6.978
N2290 X-35.581 Y-49.621 Z-6.967
N2295 X-35.632 Y-49.551 Z-6.956
N2300 X-35.694 Y-49.492 Z-6.944
N2305 X-35.766 Y-49.444 Z-6.933
N2310 X-35.846 Y-49.409 Z-6.922
N2315 X-35.93 Y-49.388 Z-6.911
N2320 X-36.017 Y-49.383 Z-6.9
N2325 G3 X-36.366 Y-49.542 I0.017 J-0.5
N2330 G1 X-36.628 Y-49.825
N2335 X-37.674 Y-50.951 F#105
N2340 X-37.961 Y-51.26 F#103
N2345 G3 X-38.095 Y-51.583 I0.366 J-0.34
N2350 X-37.612 Y-52.1 Z-7. I0.5 J-0.017
N2355 X-35.506 Y-50.299 I0.325 J1.752 F#100
N2360 G1 X-35.516 Y-50.214 Z-6.989 F#104
N2365 X-35.541 Y-50.131 Z-6.978
N2370 X-35.579 Y-50.054 Z-6.967
N2375 X-35.631 Y-49.984 Z-6.956
N2380 X-35.693 Y-49.925 Z-6.944
N2385 X-35.766 Y-49.877 Z-6.933
N2390 X-35.845 Y-49.842 Z-6.922
N2395 X-35.93 Y-49.822 Z-6.911
N2400 X-36.017 Y-49.817 Z-6.9
N2405 G3 X-36.38 Y-49.992 I0.017 J-0.5
N2410 G1 X-36.616 Y-50.269
N2415 X-37.186 Y-50.938 F#105
N2420 X-37.474 Y-51.276 F#103
N2425 G3 X-37.593 Y-51.583 I0.381 J-0.324
N2430 X-37.11 Y-52.1 Z-7. I0.5 J-0.017
N2435 X-35.508 Y-50.706 I0.247 J1.334 F#100
N2440 G1 X-35.518 Y-50.621 Z-6.989 F#104
N2445 X-35.542 Y-50.539 Z-6.978
N2450 X-35.58 Y-50.462 Z-6.967
N2455 X-35.631 Y-50.392 Z-6.956
N2460 X-35.694 Y-50.333 Z-6.944
N2465 X-35.766 Y-50.285 Z-6.933
N2470 X-35.845 Y-50.25 Z-6.922
N2475 X-35.93 Y-50.229 Z-6.911
N2480 X-36.017 Y-50.224 Z-6.9
N2485 G3 X-36.392 Y-50.414 I0.017 J-0.5
N2490 G1 X-36.606 Y-50.685
N2495 X-36.797 Y-50.927 F#105
N2500 X-37.083 Y-51.291 F#103
N2505 G3 X-37.19 Y-51.583 I0.393 J-0.309
N2510 X-36.708 Y-52.1 Z-7. I0.5 J-0.017
N2515 X-35.507 Y-51.043 I0.179 J1.008 F#100
N2520 G1 X-35.516 Y-50.932 Z-6.986 F#104
N2525 X-35.539 Y-50.823 Z-6.971
N2530 X-35.576 Y-50.718 Z-6.957
N2535 X-35.625 Y-50.617 Z-6.943
N2540 X-35.685 Y-50.523 Z-6.929
N2545 X-35.757 Y-50.438 Z-6.914
N2550 X-35.839 Y-50.361 Z-6.9
N2555 G3 X-36.57 Y-50.167 I-0.581 J-0.714
N2560 X-36.77 Y-50.224 I0.151 J-0.908 F#105
N2565 X-37.371 Y-51.059 I0.371 J-0.902
N2570 X-37.125 Y-51.776 I0.973 J-0.067 F#103
N2575 X-36.433 Y-52.1 Z-7. I0.726 J0.651
N2580 X-35.503 Y-51.319 I0.165 J0.747 F#100
N2585 G1 X-35.513 Y-51.222 Z-6.988 F#104
N2590 X-35.537 Y-51.127 Z-6.975
N2595 X-35.574 Y-51.036 Z-6.963
N2600 X-35.623 Y-50.952 Z-6.95
N2605 X-35.683 Y-50.875 Z-6.938
N2610 X-35.754 Y-50.808 Z-6.925
N2615 X-35.834 Y-50.751 Z-6.913
N2620 X-35.921 Y-50.706 Z-6.9
N2625 G3 X-36.44 Y-50.697 I-0.27 J-0.637
N2630 X-36.652 Y-50.824 I0.261 J-0.677
N2635 X-36.77 Y-50.953 I0.473 J-0.551 F#105
N2640 X-36.831 Y-51.693 I0.591 J-0.421 F#103
N2645 X-36.204 Y-52.1 Z-7. I0.652 J0.319
N2650 X-35.776 Y-52.041 I0.112 J0.767 F#100
N2655 X-36.148 Y-51.468 I-0.186 J0.286 F#104
N2660 X-36.25 Y-51.938 I0.186 J-0.286
N2665 X-35.963 Y-52.098 I0.291 J0.185 F#103
N2670 G1 X-35.913 Y-52.09 F#100
N2675 X-35.863 Y-52.077
N2680 X-35.82 Y-52.062
N2685 X-35.776 Y-52.041
N2690 X-35.753 Y-52.027
N2695 X-35.708 Y-51.996
N2700 X-35.69 Y-51.983
N2705 G3 X-35.655 Y-51.6 I-0.206 J0.212 F#104
N2710 X-36.135 Y-51.939 I-0.24 J-0.169 F#103
N2715 X-35.753 Y-52.027 I0.24 J0.169
N2720 X-35.5 Y-51.58 I-0.278 J0.453 F#100
N2725 G1 Y-49.435
N2730 Y-49.367 F#103
N2735 G3 X-39.675 Y-47.278 I-2.469 J0.282 F#100
N2740 X-40.5 Y-49.359 I1.453 J-1.78
N2745 X-39.983 Y-49.842 Z-6.9 I0.5 J0.017 F#104
N2750 X-39.923 Y-49.836 I-0.017 J0.5
N2755 G1 X-39.213 Y-49.724
N2760 X-36.786 Y-49.342 F#105
N2765 X-36.016 Y-49.221 F#103
N2770 X-35.922 Y-49.206 Z-6.912
N2775 G3 X-35.5 Y-48.729 Z-7. I-0.078 J0.494
N2780 X-37.385 Y-46.422 I-2.212 J0.116 F#100
N2785 X-40.501 Y-49.021 I-0.657 J-2.38
N2790 G1 X-40.491 Y-49.107 Z-6.989 F#104
N2795 X-40.465 Y-49.191 Z-6.978
N2800 X-40.425 Y-49.268 Z-6.967
N2805 X-40.373 Y-49.338 Z-6.956
N2810 X-40.309 Y-49.397 Z-6.944
N2815 X-40.235 Y-49.445 Z-6.933
N2820 X-40.155 Y-49.479 Z-6.922
N2825 X-40.07 Y-49.498 Z-6.911
N2830 X-39.983 Y-49.503 Z-6.9
N2835 G3 X-39.912 Y-49.495 I-0.017 J0.5
N2840 G1 X-39.215 Y-49.37
N2845 X-36.783 Y-48.931 F#105
N2850 X-36.016 Y-48.793 F#103
N2855 X-35.911 Y-48.774 Z-6.914
N2860 G3 X-35.5 Y-48.3 Z-7. I-0.089 J0.492
N2865 X-37.024 Y-46.246 I-2.057 J0.066 F#100
N2870 X-40.515 Y-48.755 I-0.98 J-2.318
N2875 G1 X-40.502 Y-48.843 Z-6.989 F#104
N2880 X-40.474 Y-48.928 Z-6.978
N2885 X-40.432 Y-49.007 Z-6.967
N2890 X-40.378 Y-49.076 Z-6.956
N2895 X-40.312 Y-49.135 Z-6.944
N2900 X-40.237 Y-49.182 Z-6.933
N2905 X-40.156 Y-49.215 Z-6.922
N2910 X-40.07 Y-49.233 Z-6.911
N2915 X-39.983 Y-49.236 Z-6.9
N2920 G3 X-39.899 Y-49.226 I-0.017 J0.5
N2925 G1 X-39.219 Y-49.085
N2930 X-36.778 Y-48.579 F#105
N2935 X-36.015 Y-48.421 F#103
N2940 X-35.898 Y-48.397 Z-6.915
N2945 G3 X-35.5 Y-47.924 Z-7. I-0.101 J0.49
N2950 X-36.914 Y-46.002 I-1.952 J0.045 F#100
N2955 X-40.522 Y-48.459 I-1.076 J-2.298
N2960 G1 X-40.508 Y-48.549 Z-6.989 F#104
N2965 X-40.48 Y-48.634 Z-6.978
N2970 X-40.437 Y-48.713 Z-6.967
N2975 X-40.381 Y-48.783 Z-6.956
N2980 X-40.314 Y-48.842 Z-6.944
N2985 X-40.239 Y-48.888 Z-6.933
N2990 X-40.156 Y-48.92 Z-6.922
N2995 X-40.071 Y-48.938 Z-6.911
N3000 X-39.983 Y-48.94 Z-6.9
N3005 G3 X-39.895 Y-48.929 I-0.017 J0.5
N3010 G1 X-39.22 Y-48.784
N3015 X-36.777 Y-48.258 F#105
N3020 X-36.015 Y-48.093 F#103
N3025 X-35.894 Y-48.068 Z-6.916
N3030 G3 X-35.5 Y-47.596 Z-7. I-0.105 J0.489
N3035 X-36.925 Y-45.713 I-1.93 J0.021 F#100
N3040 X-40.523 Y-48.169 I-1.063 J-2.307
N3045 G1 X-40.51 Y-48.259 Z-6.989 F#104
N3050 X-40.481 Y-48.345 Z-6.978
N3055 X-40.437 Y-48.424 Z-6.967
N3060 X-40.381 Y-48.494 Z-6.956
N3065 X-40.315 Y-48.553 Z-6.944
N3070 X-40.239 Y-48.599 Z-6.933
N3075 X-40.157 Y-48.631 Z-6.922
N3080 X-40.071 Y-48.648 Z-6.911
N3085 X-39.983 Y-48.65 Z-6.9
N3090 G3 X-39.894 Y-48.639 I-0.017 J0.5
N3095 G1 X-39.221 Y-48.492
N3100 X-36.776 Y-47.957 F#105
N3105 X-36.015 Y-47.791 F#103
N3110 X-35.893 Y-47.764 Z-6.916
N3115 G3 X-35.5 Y-47.293 Z-7. I-0.107 J0.488
N3120 X-36.695 Y-45.525 I-1.81 J0.064 F#100
N3125 X-40.538 Y-47.883 I-1.267 J-2.246
N3130 G1 X-40.524 Y-47.966 Z-6.99 F#104
N3135 X-40.498 Y-48.045 Z-6.98
N3140 X-40.461 Y-48.119 Z-6.97
N3145 X-40.412 Y-48.186 Z-6.96
N3150 X-40.354 Y-48.243 Z-6.95
N3155 X-40.288 Y-48.291 Z-6.94
N3160 X-40.217 Y-48.327 Z-6.93
N3165 X-40.14 Y-48.352 Z-6.92
N3170 X-40.062 Y-48.364 Z-6.91
N3175 X-39.983 Z-6.9
N3180 G3 X-39.887 Y-48.351 I-0.017 J0.5
N3185 G1 X-39.222 Y-48.196
N3190 X-36.774 Y-47.627 F#105
N3195 X-36.014 Y-47.451 F#103
N3200 X-35.887 Y-47.421 Z-6.917
N3205 G3 X-35.5 Y-46.952 Z-7. I-0.113 J0.487
N3210 X-36.81 Y-45.188 I-1.876 J-0.025 F#100
N3215 X-40.527 Y-47.582 I-1.157 J-2.287
N3220 G1 X-40.515 Y-47.664 Z-6.99 F#104
N3225 X-40.491 Y-47.742 Z-6.98
N3230 X-40.454 Y-47.815 Z-6.97
N3235 X-40.407 Y-47.882 Z-6.96
N3240 X-40.351 Y-47.939 Z-6.95
N3245 X-40.286 Y-47.987 Z-6.94
N3250 X-40.215 Y-48.024 Z-6.93
N3255 X-40.14 Y-48.05 Z-6.92
N3260 X-40.062 Y-48.063 Z-6.91
N3265 X-39.983 Z-6.9
N3270 G3 X-39.892 Y-48.052 I-0.017 J0.5
N3275 G1 X-39.221 Y-47.902
N3280 X-36.775 Y-47.357 F#105
N3285 X-36.015 Y-47.188 F#103
N3290 X-35.891 Y-47.16 Z-6.916
N3295 G3 X-35.5 Y-46.69 Z-7. I-0.109 J0.488
N3300 X-36.685 Y-44.959 I-1.786 J0.049 F#100
N3305 X-40.537 Y-47.333 I-1.269 J-2.252
N3310 G1 X-40.524 Y-47.416 Z-6.99 F#104
N3315 X-40.498 Y-47.496 Z-6.98
N3320 X-40.46 Y-47.569 Z-6.97
N3325 X-40.412 Y-47.636 Z-6.96
N3330 X-40.354 Y-47.693 Z-6.95
N3335 X-40.288 Y-47.741 Z-6.94
N3340 X-40.216 Y-47.777 Z-6.93
N3345 X-40.14 Y-47.802 Z-6.92
N3350 X-40.062 Y-47.814 Z-6.91
N3355 X-39.983 Z-6.9
N3360 G3 X-39.886 Y-47.801 I-0.017 J0.5
N3365 G1 X-39.223 Y-47.645
N3370 X-36.773 Y-47.067 F#105
N3375 X-36.014 Y-46.888 F#103
N3380 X-35.885 Y-46.858 Z-6.917
N3385 G3 X-35.5 Y-46.389 Z-7. I-0.115 J0.487
N3390 X-36.813 Y-44.616 I-1.866 J-0.01 F#100
N3395 X-40.53 Y-47.022 I-1.153 J-2.293
N3400 G1 X-40.517 Y-47.103 Z-6.99 F#104
N3405 X-40.492 Y-47.182 Z-6.98
N3410 X-40.456 Y-47.255 Z-6.97
N3415 X-40.408 Y-47.322 Z-6.96
N3420 X-40.351 Y-47.379 Z-6.95
N3425 X-40.287 Y-47.427 Z-6.94
N3430 X-40.216 Y-47.464 Z-6.93
N3435 X-40.14 Y-47.489 Z-6.92
N3440 X-40.062 Y-47.502 Z-6.91
N3445 X-39.983 Y-47.503 Z-6.9
N3450 G3 X-39.89 Y-47.49 I-0.017 J0.5
N3455 G1 X-39.222 Y-47.339
N3460 X-36.775 Y-46.784 F#105
N3465 X-36.014 Y-46.612 F#103
N3470 X-35.889 Y-46.583 Z-6.916
N3475 G3 X-35.5 Y-46.113 Z-7. I-0.111 J0.488
N3480 X-36.712 Y-44.375 I-1.791 J0.042 F#100
N3485 X-40.532 Y-46.752 I-1.238 J-2.269
N3490 G1 X-40.519 Y-46.834 Z-6.99 F#104
N3495 X-40.494 Y-46.913 Z-6.98
N3500 X-40.457 Y-46.986 Z-6.97
N3505 X-40.409 Y-47.053 Z-6.96
N3510 X-40.352 Y-47.11 Z-6.95
N3515 X-40.287 Y-47.158 Z-6.94
N3520 X-40.216 Y-47.195 Z-6.93
N3525 X-40.14 Y-47.22 Z-6.92
N3530 X-40.062 Y-47.232 Z-6.91
N3535 X-39.983 Y-47.233 Z-6.9
N3540 G3 X-39.883 Y-47.219 I-0.017 J0.5
N3545 G1 X-39.224 Y-47.06
N3550 X-36.772 Y-46.468 F#105
N3555 X-36.014 Y-46.285 F#103
N3560 X-35.882 Y-46.254 Z-6.917
N3565 G3 X-35.5 Y-45.785 Z-7. I-0.117 J0.486
N3570 X-36.703 Y-44.094 I-1.783 J0.005 F#100
N3575 X-40.537 Y-46.483 I-1.248 J-2.267
N3580 G1 X-40.524 Y-46.566 Z-6.99 F#104
N3585 X-40.498 Y-46.645 Z-6.98
N3590 X-40.46 Y-46.719 Z-6.97
N3595 X-40.412 Y-46.785 Z-6.96
N3600 X-40.354 Y-46.843 Z-6.95
N3605 X-40.288 Y-46.89 Z-6.94
N3610 X-40.216 Y-46.927 Z-6.93
N3615 X-40.14 Y-46.951 Z-6.92
N3620 X-40.062 Y-46.964 Z-6.91
N3625 X-39.983 Y-46.963 Z-6.9
N3630 G3 X-39.882 Y-46.95 I-0.017 J0.5
N3635 G1 X-39.224 Y-46.79
N3640 X-36.771 Y-46.194 F#105
N3645 X-36.014 Y-46.01 F#103
N3650 X-35.882 Y-45.978 Z-6.917
N3655 G3 X-35.5 Y-45.509 Z-7. I-0.118 J0.486
N3660 X-36.692 Y-43.815 I-1.775 J0.018 F#100
N3665 X-40.533 Y-46.17 I-1.253 J-2.267
N3670 G1 X-40.52 Y-46.252 Z-6.99 F#104
N3675 X-40.495 Y-46.331 Z-6.98
N3680 X-40.458 Y-46.405 Z-6.97
N3685 X-40.41 Y-46.471 Z-6.96
N3690 X-40.353 Y-46.529 Z-6.95
N3695 X-40.287 Y-46.576 Z-6.94
N3700 X-40.216 Y-46.613 Z-6.93
N3705 X-40.14 Y-46.638 Z-6.92
N3710 X-40.062 Y-46.651 Z-6.91
N3715 X-39.983 Z-6.9
N3720 G3 X-39.887 Y-46.638 I-0.017 J0.5
N3725 G1 X-39.223 Y-46.484
N3730 X-36.774 Y-45.914 F#105
N3735 X-36.014 Y-45.738 F#103
N3740 X-35.886 Y-45.708 Z-6.917
N3745 G3 X-35.5 Y-45.238 Z-7. I-0.113 J0.487
N3750 X-36.704 Y-43.525 I-1.779 J0.03 F#100
N3755 X-40.529 Y-45.92 I-1.24 J-2.273
N3760 G1 X-40.517 Y-46.002 Z-6.99 F#104
N3765 X-40.492 Y-46.08 Z-6.98
N3770 X-40.456 Y-46.153 Z-6.97
N3775 X-40.408 Y-46.22 Z-6.96
N3780 X-40.351 Y-46.277 Z-6.95
N3785 X-40.287 Y-46.325 Z-6.94
N3790 X-40.216 Y-46.362 Z-6.93
N3795 X-40.14 Y-46.387 Z-6.92
N3800 X-40.062 Y-46.4 Z-6.91
N3805 X-39.983 Y-46.401 Z-6.9
N3810 G3 X-39.881 Y-46.387 I-0.017 J0.5
N3815 G1 X-39.224 Y-46.226
N3820 X-36.771 Y-45.625 F#105
N3825 X-36.014 Y-45.44 F#103
N3830 X-35.881 Y-45.407 Z-6.917
N3835 G3 X-35.5 Y-44.939 Z-7. I-0.119 J0.486
N3840 X-36.72 Y-43.233 I-1.784 J0.014 F#100
N3845 X-40.532 Y-45.646 I-1.227 J-2.279
N3850 G1 X-40.519 Y-45.728 Z-6.99 F#104
N3855 X-40.494 Y-45.807 Z-6.98
N3860 X-40.457 Y-45.88 Z-6.97
N3865 X-40.409 Y-45.946 Z-6.96
N3870 X-40.352 Y-46.004 Z-6.95
N3875 X-40.287 Y-46.052 Z-6.94
N3880 X-40.216 Y-46.088 Z-6.93
N3885 X-40.14 Y-46.113 Z-6.92
N3890 X-40.062 Y-46.126 Z-6.91
N3895 X-39.983 Z-6.9
N3900 G3 X-39.878 Y-46.112 I-0.017 J0.5
N3905 G1 X-39.226 Y-45.947
N3910 X-36.769 Y-45.327 F#105
N3915 X-36.014 Y-45.136 F#103
N3920 X-35.877 Y-45.102 Z-6.918
N3925 G3 X-35.5 Y-44.635 Z-7. I-0.122 J0.485
N3930 X-36.698 Y-42.958 I-1.773 J0. F#100
N3935 X-40.529 Y-45.343 I-1.241 J-2.276
N3940 G1 X-40.517 Y-45.425 Z-6.99 F#104
N3945 X-40.492 Y-45.503 Z-6.98
N3950 X-40.456 Y-45.577 Z-6.97
N3955 X-40.408 Y-45.643 Z-6.96
N3960 X-40.351 Y-45.701 Z-6.95
N3965 X-40.287 Y-45.748 Z-6.94
N3970 X-40.216 Y-45.785 Z-6.93
N3975 X-40.14 Y-45.81 Z-6.92
N3980 X-40.062 Y-45.823 Z-6.91
N3985 X-39.983 Y-45.824 Z-6.9
N3990 G3 X-39.883 Y-45.81 I-0.017 J0.5
N3995 G1 X-39.224 Y-45.651
N4000 X-36.772 Y-45.059 F#105
N4005 X-36.014 Y-44.877 F#103
N4010 X-35.882 Y-44.845 Z-6.917
N4015 G3 X-35.5 Y-44.376 Z-7. I-0.117 J0.486
N4020 X-36.69 Y-42.677 I-1.769 J0.027 F#100
N4025 X-40.535 Y-45.085 I-1.252 J-2.275
N4030 G1 X-40.522 Y-45.168 Z-6.99 F#104
N4035 X-40.496 Y-45.247 Z-6.98
N4040 X-40.459 Y-45.321 Z-6.97
N4045 X-40.411 Y-45.387 Z-6.96
N4050 X-40.353 Y-45.445 Z-6.95
N4055 X-40.288 Y-45.492 Z-6.94
N4060 X-40.216 Y-45.529 Z-6.93
N4065 X-40.14 Y-45.553 Z-6.92
N4070 X-40.062 Y-45.566 Z-6.91
N4075 X-39.983 Z-6.9
N4080 G3 X-39.881 Y-45.552 I-0.017 J0.5
N4085 G1 X-39.224 Y-45.39
N4090 X-36.771 Y-44.788 F#105
N4095 X-36.014 Y-44.602 F#103
N4100 X-35.88 Y-44.569 Z-6.918
N4105 G3 X-35.5 Y-44.101 Z-7. I-0.119 J0.486
N4110 X-36.686 Y-42.395 I-1.767 J0.037 F#100
N4115 X-40.531 Y-44.768 I-1.251 J-2.275
N4120 G1 X-40.518 Y-44.85 Z-6.99 F#104
N4125 X-40.493 Y-44.929 Z-6.98
N4130 X-40.457 Y-45.003 Z-6.97
N4135 X-40.409 Y-45.069 Z-6.96
N4140 X-40.352 Y-45.127 Z-6.95
N4145 X-40.287 Y-45.174 Z-6.94
N4150 X-40.216 Y-45.211 Z-6.93
N4155 X-40.14 Y-45.236 Z-6.92
N4160 X-40.062 Y-45.249 Z-6.91
N4165 X-39.983 Z-6.9
N4170 G3 X-39.885 Y-45.236 I-0.017 J0.5
N4175 G1 X-39.223 Y-45.08
N4180 X-36.773 Y-44.501 F#105
N4185 X-36.014 Y-44.322 F#103
N4190 X-35.885 Y-44.291 Z-6.917
N4195 G3 X-35.5 Y-43.822 Z-7. I-0.115 J0.487
N4200 X-36.692 Y-42.108 I-1.769 J0.041 F#100
N4205 X-40.536 Y-44.516 I-1.25 J-2.276
N4210 G1 X-40.523 Y-44.599 Z-6.99 F#104
N4215 X-40.497 Y-44.678 Z-6.98
N4220 X-40.459 Y-44.751 Z-6.97
N4225 X-40.411 Y-44.818 Z-6.96
N4230 X-40.353 Y-44.875 Z-6.95
N4235 X-40.288 Y-44.923 Z-6.94
N4240 X-40.216 Y-44.959 Z-6.93
N4245 X-40.14 Y-44.984 Z-6.92
N4250 X-40.062 Y-44.996 Z-6.91
N4255 X-39.983 Z-6.9
N4260 G3 X-39.881 Y-44.982 I-0.017 J0.5
N4265 G1 X-39.225 Y-44.821
N4270 X-36.771 Y-44.218 F#105
N4275 X-36.014 Y-44.031 F#103
N4280 X-35.88 Y-43.999 Z-6.918
N4285 G3 X-35.5 Y-43.53 Z-7. I-0.119 J0.486
N4290 X-36.71 Y-41.817 I-1.776 J0.03 F#100
N4295 X-40.532 Y-44.199 I-1.234 J-2.278
N4300 G1 X-40.519 Y-44.281 Z-6.99 F#104
N4305 X-40.494 Y-44.36 Z-6.98
N4310 X-40.457 Y-44.433 Z-6.97
N4315 X-40.409 Y-44.499 Z-6.96
N4320 X-40.352 Y-44.557 Z-6.95
N4325 X-40.287 Y-44.605 Z-6.94
N4330 X-40.216 Y-44.642 Z-6.93
N4335 X-40.14 Y-44.667 Z-6.92
N4340 X-40.062 Y-44.679 Z-6.91
N4345 X-39.983 Y-44.68 Z-6.9
N4350 G3 X-39.882 Y-44.666 I-0.017 J0.5
N4355 G1 X-39.224 Y-44.506
N4360 X-36.771 Y-43.91 F#105
N4365 X-36.014 Y-43.726 F#103
N4370 X-35.882 Y-43.694 Z-6.917
N4375 G3 X-35.5 Y-43.226 Z-7. I-0.118 J0.486
N4380 X-36.722 Y-41.527 I-1.78 J0.009 F#100
N4385 X-40.53 Y-43.934 I-1.22 J-2.286
N4390 G1 X-40.517 Y-44.016 Z-6.99 F#104
N4395 X-40.492 Y-44.095 Z-6.98
N4400 X-40.456 Y-44.168 Z-6.97
N4405 X-40.408 Y-44.234 Z-6.96
N4410 X-40.351 Y-44.292 Z-6.95
N4415 X-40.287 Y-44.34 Z-6.94
N4420 X-40.216 Y-44.377 Z-6.93
N4425 X-40.14 Y-44.402 Z-6.92
N4430 X-40.062 Y-44.415 Z-6.91
N4435 X-39.983 Z-6.9
N4440 G3 X-39.878 Y-44.4 I-0.017 J0.5
N4445 G1 X-39.225 Y-44.236
N4450 X-36.77 Y-43.619 F#105
N4455 X-36.014 Y-43.428 F#103
N4460 X-35.878 Y-43.394 Z-6.918
N4465 G3 X-35.5 Y-42.927 Z-7. I-0.122 J0.485
N4470 X-36.704 Y-41.251 I-1.771 J-0.002 F#100
N4475 X-40.536 Y-43.659 I-1.24 J-2.28
N4480 G1 X-40.523 Y-43.742 Z-6.99 F#104
N4485 X-40.497 Y-43.821 Z-6.98
N4490 X-40.46 Y-43.895 Z-6.97
N4495 X-40.411 Y-43.961 Z-6.96
N4500 X-40.354 Y-44.019 Z-6.95
N4505 X-40.288 Y-44.066 Z-6.94
N4510 X-40.216 Y-44.103 Z-6.93
N4515 X-40.14 Y-44.128 Z-6.92
N4520 X-40.062 Y-44.14 Z-6.91
N4525 X-39.983 Z-6.9
N4530 G3 X-39.88 Y-44.125 I-0.017 J0.5
N4535 G1 X-39.225 Y-43.963
N4540 X-36.77 Y-43.353 F#105
N4545 X-36.014 Y-43.165 F#103
N4550 X-35.879 Y-43.132 Z-6.918
N4555 G3 X-35.5 Y-42.664 Z-7. I-0.12 J0.485
N4560 X-36.717 Y-40.961 I-1.777 J0.017 F#100
N4565 X-40.531 Y-43.343 I-1.224 J-2.284
N4570 G1 X-40.519 Y-43.425 Z-6.99 F#104
N4575 X-40.494 Y-43.504 Z-6.98
N4580 X-40.457 Y-43.577 Z-6.97
N4585 X-40.409 Y-43.643 Z-6.96
N4590 X-40.352 Y-43.701 Z-6.95
N4595 X-40.287 Y-43.749 Z-6.94
N4600 X-40.216 Y-43.786 Z-6.93
N4605 X-40.14 Y-43.811 Z-6.92
N4610 X-40.062 Y-43.823 Z-6.91
N4615 X-39.983 Y-43.824 Z-6.9
N4620 G3 X-39.882 Y-43.81 I-0.017 J0.5
N4625 G1 X-39.224 Y-43.649
N4630 X-36.771 Y-43.05 F#105
N4635 X-36.014 Y-42.864 F#103
N4640 X-35.881 Y-42.832 Z-6.917
N4645 G3 X-35.5 Y-42.364 Z-7. I-0.119 J0.486
N4650 X-36.71 Y-40.68 I-1.774 J0.002 F#100
N4655 X-40.537 Y-43.088 I-1.236 J-2.281
N4660 G1 X-40.524 Y-43.17 Z-6.99 F#104
N4665 X-40.498 Y-43.25 Z-6.98
N4670 X-40.46 Y-43.323 Z-6.97
N4675 X-40.412 Y-43.39 Z-6.96
N4680 X-40.354 Y-43.447 Z-6.95
N4685 X-40.288 Y-43.495 Z-6.94
N4690 X-40.216 Y-43.531 Z-6.93
N4695 X-40.14 Y-43.556 Z-6.92
N4700 X-40.062 Y-43.568 Z-6.91
N4705 X-39.983 Z-6.9
N4710 G3 X-39.879 Y-43.553 I-0.017 J0.5
N4715 G1 X-39.225 Y-43.39
N4720 X-36.77 Y-42.778 F#105
N4725 X-36.014 Y-42.59 F#103
N4730 X-35.879 Y-42.556 Z-6.918
N4735 G3 X-35.5 Y-42.088 Z-7. I-0.121 J0.485
N4740 X-36.699 Y-40.401 I-1.769 J0.013 F#100
N4745 X-40.533 Y-42.769 I-1.241 J-2.277
N4750 G1 X-40.52 Y-42.851 Z-6.99 F#104
N4755 X-40.495 Y-42.93 Z-6.98
N4760 X-40.458 Y-43.004 Z-6.97
N4765 X-40.41 Y-43.07 Z-6.96
N4770 X-40.353 Y-43.128 Z-6.95
N4775 X-40.287 Y-43.176 Z-6.94
N4780 X-40.216 Y-43.212 Z-6.93
N4785 X-40.14 Y-43.237 Z-6.92
N4790 X-40.062 Y-43.25 Z-6.91
N4795 X-39.983 Z-6.9
N4800 G3 X-39.885 Y-43.237 I-0.017 J0.5
N4805 G1 X-39.223 Y-43.08
N4810 X-36.773 Y-42.497 F#105
N4815 X-36.014 Y-42.317 F#103
N4820 X-35.884 Y-42.286 Z-6.917
N4825 G3 X-35.5 Y-41.817 Z-7. I-0.116 J0.486
N4830 X-36.712 Y-40.111 I-1.775 J0.023 F#100
N4835 X-40.529 Y-42.516 I-1.229 J-2.282
N4840 G1 X-40.517 Y-42.598 Z-6.99 F#104
N4845 X-40.492 Y-42.677 Z-6.98
N4850 X-40.456 Y-42.75 Z-6.97
N4855 X-40.408 Y-42.816 Z-6.96
N4860 X-40.351 Y-42.874 Z-6.95
N4865 X-40.287 Y-42.922 Z-6.94
N4870 X-40.216 Y-42.959 Z-6.93
N4875 X-40.14 Y-42.984 Z-6.92
N4880 X-40.062 Y-42.997 Z-6.91
N4885 X-39.983 Z-6.9
N4890 G3 X-39.879 Y-42.983 I-0.017 J0.5
N4895 G1 X-39.225 Y-42.82
N4900 X-36.77 Y-42.208 F#105
N4905 X-36.014 Y-42.019 F#103
N4910 X-35.879 Y-41.986 Z-6.918
N4915 G3 X-35.5 Y-41.518 Z-7. I-0.121 J0.485
N4920 X-36.693 Y-39.835 I-1.766 J0.012 F#100
N4925 X-40.536 Y-42.24 I-1.25 J-2.276
N4930 G1 X-40.523 Y-42.323 Z-6.99 F#104
N4935 X-40.497 Y-42.402 Z-6.98
N4940 X-40.459 Y-42.476 Z-6.97
N4945 X-40.411 Y-42.542 Z-6.96
N4950 X-40.353 Y-42.6 Z-6.95
N4955 X-40.288 Y-42.647 Z-6.94
N4960 X-40.216 Y-42.684 Z-6.93
N4965 X-40.14 Y-42.708 Z-6.92
N4970 X-40.062 Y-42.721 Z-6.91
N4975 X-39.983 Z-6.9
N4980 G3 X-39.881 Y-42.707 I-0.017 J0.5
N4985 G1 X-39.224 Y-42.545
N4990 X-36.771 Y-41.943 F#105
N4995 X-36.014 Y-41.757 F#103
N5000 X-35.88 Y-41.724 Z-6.918
N5005 G3 X-35.5 Y-41.256 Z-7. I-0.119 J0.486
N5010 X-36.708 Y-39.545 I-1.774 J0.03 F#100
N5015 X-40.531 Y-41.925 I-1.233 J-2.281
N5020 G1 X-40.518 Y-42.007 Z-6.99 F#104
N5025 X-40.493 Y-42.086 Z-6.98
N5030 X-40.457 Y-42.159 Z-6.97
N5035 X-40.409 Y-42.226 Z-6.96
N5040 X-40.352 Y-42.283 Z-6.95
N5045 X-40.287 Y-42.331 Z-6.94
N5050 X-40.216 Y-42.368 Z-6.93
N5055 X-40.14 Y-42.393 Z-6.92
N5060 X-40.062 Y-42.406 Z-6.91
N5065 X-39.983 Z-6.9
N5070 G3 X-39.883 Y-42.392 I-0.017 J0.5
N5075 G1 X-39.224 Y-42.233
N5080 X-36.772 Y-41.639 F#105
N5085 X-36.014 Y-41.455 F#103
N5090 X-35.882 Y-41.424 Z-6.917
N5095 G3 X-35.5 Y-40.955 Z-7. I-0.118 J0.486
N5100 X-36.7 Y-39.264 I-1.771 J0.015 F#100
N5105 X-40.536 Y-41.671 I-1.244 J-2.278
N5110 G1 X-40.523 Y-41.753 Z-6.99 F#104
N5115 X-40.497 Y-41.833 Z-6.98
N5120 X-40.46 Y-41.906 Z-6.97
N5125 X-40.411 Y-41.973 Z-6.96
N5130 X-40.354 Y-42.03 Z-6.95
N5135 X-40.288 Y-42.078 Z-6.94
N5140 X-40.216 Y-42.114 Z-6.93
N5145 X-40.14 Y-42.139 Z-6.92
N5150 X-40.062 Y-42.151 Z-6.91
N5155 X-39.983 Z-6.9
N5160 G3 X-39.88 Y-42.137 I-0.017 J0.5
N5165 G1 X-39.225 Y-41.975
N5170 X-36.771 Y-41.368 F#105
N5175 X-36.014 Y-41.181 F#103
N5180 X-35.88 Y-41.147 Z-6.918
N5185 G3 X-35.5 Y-40.68 Z-7. I-0.12 J0.485
N5190 X-36.696 Y-38.982 I-1.769 J0.024 F#100
N5195 X-40.532 Y-41.353 I-1.244 J-2.277
N5200 G1 X-40.519 Y-41.435 Z-6.99 F#104
N5205 X-40.494 Y-41.514 Z-6.98
N5210 X-40.457 Y-41.587 Z-6.97
N5215 X-40.409 Y-41.654 Z-6.96
N5220 X-40.352 Y-41.712 Z-6.95
N5225 X-40.287 Y-41.759 Z-6.94
N5230 X-40.216 Y-41.796 Z-6.93
N5235 X-40.14 Y-41.821 Z-6.92
N5240 X-40.062 Y-41.834 Z-6.91
N5245 X-39.983 Z-6.9
N5250 G3 X-39.885 Y-41.821 I-0.017 J0.5
N5255 G1 X-39.223 Y-41.664
N5260 X-36.773 Y-41.081 F#105
N5265 X-36.014 Y-40.901 F#103
N5270 X-35.884 Y-40.87 Z-6.917
N5275 G3 X-35.5 Y-40.401 Z-7. I-0.116 J0.486
N5280 X-36.703 Y-38.695 I-1.772 J0.028 F#100
N5285 X-40.529 Y-41.1 I-1.236 J-2.28
N5290 G1 X-40.516 Y-41.182 Z-6.99 F#104
N5295 X-40.492 Y-41.26 Z-6.98
N5300 X-40.455 Y-41.333 Z-6.97
N5305 X-40.408 Y-41.4 Z-6.96
N5310 X-40.351 Y-41.457 Z-6.95
N5315 X-40.286 Y-41.505 Z-6.94
N5320 X-40.215 Y-41.542 Z-6.93
N5325 X-40.14 Y-41.567 Z-6.92
N5330 X-40.062 Y-41.58 Z-6.91
N5335 X-39.983 Y-41.581 Z-6.9
N5340 G3 X-39.88 Y-41.567 I-0.017 J0.5
N5345 G1 X-39.225 Y-41.404
N5350 X-36.771 Y-40.798 F#105
N5355 X-36.014 Y-40.61 F#103
N5360 X-35.88 Y-40.577 Z-6.918
N5365 G3 X-35.5 Y-40.109 Z-7. I-0.12 J0.485
N5370 X-36.72 Y-38.403 I-1.779 J0.017 F#100
N5375 X-40.532 Y-40.826 I-1.224 J-2.285
N5380 G1 X-40.52 Y-40.908 Z-6.99 F#104
N5385 X-40.494 Y-40.987 Z-6.98
N5390 X-40.457 Y-41.06 Z-6.97
N5395 X-40.41 Y-41.127 Z-6.96
N5400 X-40.352 Y-41.184 Z-6.95
N5405 X-40.287 Y-41.232 Z-6.94
N5410 X-40.216 Y-41.268 Z-6.93
N5415 X-40.14 Y-41.293 Z-6.92
N5420 X-40.062 Y-41.306 Z-6.91
N5425 X-39.983 Z-6.9
N5430 G3 X-39.877 Y-41.291 I-0.017 J0.5
N5435 G1 X-39.226 Y-41.125
N5440 X-36.769 Y-40.499 F#105
N5445 X-36.014 Y-40.307 F#103
N5450 X-35.876 Y-40.272 Z-6.918
N5455 G3 X-35.5 Y-39.805 Z-7. I-0.123 J0.485
N5460 X-36.698 Y-38.129 I-1.768 J0.002 F#100
N5465 X-40.53 Y-40.513 I-1.239 J-2.281
N5470 G1 X-40.518 Y-40.595 Z-6.99 F#104
N5475 X-40.493 Y-40.674 Z-6.98
N5480 X-40.456 Y-40.747 Z-6.97
N5485 X-40.409 Y-40.813 Z-6.96
N5490 X-40.352 Y-40.871 Z-6.95
N5495 X-40.287 Y-40.919 Z-6.94
N5500 X-40.216 Y-40.956 Z-6.93
N5505 X-40.14 Y-40.981 Z-6.92
N5510 X-40.062 Y-40.994 Z-6.91
N5515 X-39.983 Z-6.9
N5520 G3 X-39.883 Y-40.98 I-0.017 J0.5
N5525 G1 X-39.224 Y-40.821
N5530 X-36.772 Y-40.23 F#105
N5535 X-36.014 Y-40.047 F#103
N5540 X-35.882 Y-40.015 Z-6.917
N5545 G3 X-35.5 Y-39.546 Z-7. I-0.117 J0.486
N5550 X-36.691 Y-37.848 I-1.766 J0.028 F#100
N5555 X-40.535 Y-40.258 I-1.25 J-2.278
N5560 G1 X-40.522 Y-40.341 Z-6.99 F#104
N5565 X-40.497 Y-40.42 Z-6.98
N5570 X-40.459 Y-40.494 Z-6.97
N5575 X-40.411 Y-40.56 Z-6.96
N5580 X-40.353 Y-40.618 Z-6.95
N5585 X-40.288 Y-40.665 Z-6.94
N5590 X-40.216 Y-40.702 Z-6.93
N5595 X-40.14 Y-40.727 Z-6.92
N5600 X-40.062 Y-40.739 Z-6.91
N5605 X-39.983 Z-6.9
N5610 G3 X-39.881 Y-40.725 I-0.017 J0.5
N5615 G1 X-39.225 Y-40.563
N5620 X-36.771 Y-39.958 F#105
N5625 X-36.014 Y-39.772 F#103
N5630 X-35.88 Y-39.739 Z-6.918
N5635 G3 X-35.5 Y-39.271 Z-7. I-0.12 J0.485
N5640 X-36.686 Y-37.566 I-1.764 J0.037 F#100
N5645 X-40.531 Y-39.942 I-1.249 J-2.277
N5650 G1 X-40.518 Y-40.024 Z-6.99 F#104
N5655 X-40.493 Y-40.103 Z-6.98
N5660 X-40.457 Y-40.176 Z-6.97
N5665 X-40.409 Y-40.242 Z-6.96
N5670 X-40.352 Y-40.3 Z-6.95
N5675 X-40.287 Y-40.348 Z-6.94
N5680 X-40.216 Y-40.385 Z-6.93
N5685 X-40.14 Y-40.41 Z-6.92
N5690 X-40.062 Y-40.422 Z-6.91
N5695 X-39.983 Y-40.423 Z-6.9
N5700 G3 X-39.885 Y-40.41 I-0.017 J0.5
N5705 G1 X-39.223 Y-40.253
N5710 X-36.773 Y-39.672 F#105
N5715 X-36.014 Y-39.492 F#103
N5720 X-35.884 Y-39.461 Z-6.917
N5725 G3 X-35.5 Y-38.992 Z-7. I-0.115 J0.487
N5730 X-36.693 Y-37.28 I-1.768 J0.041 F#100
N5735 X-40.536 Y-39.689 I-1.248 J-2.278
N5740 G1 X-40.523 Y-39.772 Z-6.99 F#104
N5745 X-40.497 Y-39.851 Z-6.98
N5750 X-40.459 Y-39.925 Z-6.97
N5755 X-40.411 Y-39.991 Z-6.96
N5760 X-40.353 Y-40.049 Z-6.95
N5765 X-40.288 Y-40.096 Z-6.94
N5770 X-40.216 Y-40.133 Z-6.93
N5775 X-40.14 Y-40.157 Z-6.92
N5780 X-40.062 Y-40.17 Z-6.91
N5785 X-39.983 Z-6.9
N5790 G3 X-39.881 Y-40.155 I-0.017 J0.5
N5795 G1 X-39.225 Y-39.994
N5800 X-36.771 Y-39.388 F#105
N5805 X-36.014 Y-39.202 F#103
N5810 X-35.88 Y-39.169 Z-6.918
N5815 G3 X-35.5 Y-38.701 Z-7. I-0.12 J0.485
N5820 X-36.711 Y-36.988 I-1.775 J0.03 F#100
N5825 X-40.532 Y-39.372 I-1.232 J-2.28
N5830 G1 X-40.52 Y-39.454 Z-6.99 F#104
N5835 X-40.495 Y-39.533 Z-6.98
N5840 X-40.457 Y-39.606 Z-6.97
N5845 X-40.41 Y-39.673 Z-6.96
N5850 X-40.352 Y-39.73 Z-6.95
N5855 X-40.287 Y-39.778 Z-6.94
N5860 X-40.216 Y-39.815 Z-6.93
N5865 X-40.14 Y-39.84 Z-6.92
N5870 X-40.062 Y-39.852 Z-6.91
N5875 X-39.983 Y-39.853 Z-6.9
N5880 G3 X-39.882 Y-39.839 I-0.017 J0.5
N5885 G1 X-39.224 Y-39.679
N5890 X-36.771 Y-39.081 F#105
N5895 X-36.014 Y-38.897 F#103
N5900 X-35.881 Y-38.864 Z-6.917
N5905 G3 X-35.5 Y-38.396 Z-7. I-0.118 J0.486
N5910 X-36.689 Y-36.714 I-1.764 J0.015 F#100
N5915 X-40.529 Y-39.104 I-1.247 J-2.277
N5920 G1 X-40.517 Y-39.186 Z-6.99 F#104
N5925 X-40.492 Y-39.265 Z-6.98
N5930 X-40.456 Y-39.338 Z-6.97
N5935 X-40.408 Y-39.404 Z-6.96
N5940 X-40.351 Y-39.462 Z-6.95
N5945 X-40.287 Y-39.51 Z-6.94
N5950 X-40.216 Y-39.547 Z-6.93
N5955 X-40.14 Y-39.572 Z-6.92
N5960 X-40.062 Y-39.585 Z-6.91
N5965 X-39.983 Z-6.9
N5970 G3 X-39.883 Y-39.572 I-0.017 J0.5
N5975 G1 X-39.224 Y-39.413
N5980 X-36.772 Y-38.821 F#105
N5985 X-36.014 Y-38.638 F#103
N5990 X-35.882 Y-38.606 Z-6.917
N5995 G3 X-35.5 Y-38.138 Z-7. I-0.117 J0.486
N6000 X-36.706 Y-36.422 I-1.773 J0.035 F#100
N6005 X-40.536 Y-38.842 I-1.241 J-2.277
N6010 G1 X-40.523 Y-38.925 Z-6.99 F#104
N6015 X-40.497 Y-39.004 Z-6.98
N6020 X-40.459 Y-39.078 Z-6.97
N6025 X-40.411 Y-39.144 Z-6.96
N6030 X-40.353 Y-39.202 Z-6.95
N6035 X-40.288 Y-39.249 Z-6.94
N6040 X-40.216 Y-39.286 Z-6.93
N6045 X-40.14 Y-39.31 Z-6.92
N6050 X-40.062 Y-39.323 Z-6.91
N6055 X-39.983 Z-6.9
N6060 G3 X-39.878 Y-39.308 I-0.017 J0.5
N6065 G1 X-39.225 Y-39.144
N6070 X-36.77 Y-38.526 F#105
N6075 X-36.014 Y-38.336 F#103
N6080 X-35.878 Y-38.302 Z-6.918
N6085 G3 X-35.5 Y-37.834 Z-7. I-0.122 J0.485
N6090 X-36.719 Y-36.132 I-1.778 J0.014 F#100
N6095 X-40.536 Y-38.516 I-1.226 J-2.285
N6100 G1 X-40.523 Y-38.599 Z-6.99 F#104
N6105 X-40.497 Y-38.678 Z-6.98
N6110 X-40.46 Y-38.752 Z-6.97
N6115 X-40.412 Y-38.818 Z-6.96
N6120 X-40.354 Y-38.876 Z-6.95
N6125 X-40.288 Y-38.924 Z-6.94
N6130 X-40.216 Y-38.96 Z-6.93
N6135 X-40.14 Y-38.985 Z-6.92
N6140 X-40.062 Y-38.997 Z-6.91
N6145 X-39.983 Z-6.9
N6150 G3 X-39.881 Y-38.983 I-0.017 J0.5
N6155 G1 X-39.224 Y-38.822
N6160 X-36.771 Y-38.22 F#105
N6165 X-36.014 Y-38.035 F#103
N6170 X-35.881 Y-38.002 Z-6.917
N6175 G3 X-35.5 Y-37.534 Z-7. I-0.119 J0.486
N6180 X-36.712 Y-35.851 I-1.774 J0. F#100
N6185 X-40.541 Y-38.233 I-1.237 J-2.28
N6190 G1 X-40.527 Y-38.317 Z-6.99 F#104
N6195 X-40.501 Y-38.396 Z-6.98
N6200 X-40.463 Y-38.47 Z-6.97
N6205 X-40.414 Y-38.537 Z-6.96
N6210 X-40.355 Y-38.595 Z-6.95
N6215 X-40.289 Y-38.642 Z-6.94
N6220 X-40.217 Y-38.678 Z-6.93
N6225 X-40.141 Y-38.703 Z-6.92
N6230 X-40.062 Y-38.714 Z-6.91
N6235 X-39.983 Z-6.9
N6240 G3 X-39.882 Y-38.7 I-0.017 J0.5
N6245 G1 X-39.224 Y-38.54
N6250 X-36.771 Y-37.943 F#105
N6255 X-36.014 Y-37.759 F#103
N6260 X-35.882 Y-37.727 Z-6.917
N6265 G3 X-35.5 Y-37.258 Z-7. I-0.118 J0.486
N6270 X-36.701 Y-35.572 I-1.769 J0.01 F#100
N6275 X-40.535 Y-37.925 I-1.242 J-2.275
N6280 G1 X-40.522 Y-38.007 Z-6.99 F#104
N6285 X-40.496 Y-38.087 Z-6.98
N6290 X-40.459 Y-38.16 Z-6.97
N6295 X-40.411 Y-38.227 Z-6.96
N6300 X-40.353 Y-38.284 Z-6.95
N6305 X-40.288 Y-38.332 Z-6.94
N6310 X-40.216 Y-38.369 Z-6.93
N6315 X-40.14 Y-38.394 Z-6.92
N6320 X-40.062 Y-38.406 Z-6.91
N6325 X-39.983 Z-6.9
N6330 G3 X-39.886 Y-38.393 I-0.017 J0.5
N6335 G1 X-39.223 Y-38.238
N6340 X-36.773 Y-37.664 F#105
N6345 X-36.014 Y-37.487 F#103
N6350 X-35.886 Y-37.457 Z-6.917
N6355 G3 X-35.5 Y-36.987 Z-7. I-0.114 J0.487
N6360 X-36.714 Y-35.282 I-1.776 J0.02 F#100
N6365 X-40.531 Y-37.677 I-1.23 J-2.279
N6370 G1 X-40.518 Y-37.759 Z-6.99 F#104
N6375 X-40.493 Y-37.838 Z-6.98
N6380 X-40.456 Y-37.911 Z-6.97
N6385 X-40.409 Y-37.978 Z-6.96
N6390 X-40.352 Y-38.035 Z-6.95
N6395 X-40.287 Y-38.083 Z-6.94
N6400 X-40.216 Y-38.12 Z-6.93
N6405 X-40.14 Y-38.145 Z-6.92
N6410 X-40.062 Y-38.158 Z-6.91
N6415 X-39.983 Z-6.9
N6420 G3 X-39.88 Y-38.144 I-0.017 J0.5
N6425 G1 X-39.225 Y-37.982
N6430 X-36.771 Y-37.376 F#105
N6435 X-36.014 Y-37.189 F#103
N6440 X-35.88 Y-37.156 Z-6.918
N6445 G3 X-35.5 Y-36.688 Z-7. I-0.12 J0.485
N6450 X-36.695 Y-35.007 I-1.767 J0.009 F#100
N6455 X-40.537 Y-37.403 I-1.251 J-2.272
N6460 G1 X-40.523 Y-37.486 Z-6.99 F#104
N6465 X-40.498 Y-37.565 Z-6.98
N6470 X-40.46 Y-37.639 Z-6.97
N6475 X-40.412 Y-37.706 Z-6.96
N6480 X-40.354 Y-37.763 Z-6.95
N6485 X-40.288 Y-37.811 Z-6.94
N6490 X-40.216 Y-37.847 Z-6.93
N6495 X-40.14 Y-37.872 Z-6.92
N6500 X-40.062 Y-37.884 Z-6.91
N6505 X-39.983 Z-6.9
N6510 G3 X-39.882 Y-37.87 I-0.017 J0.5
N6515 G1 X-39.224 Y-37.709
N6520 X-36.771 Y-37.111 F#105
N6525 X-36.014 Y-36.927 F#103
N6530 X-35.881 Y-36.894 Z-6.917
N6535 G3 X-35.5 Y-36.426 Z-7. I-0.118 J0.486
N6540 X-36.709 Y-34.716 I-1.776 J0.027 F#100
N6545 X-40.532 Y-37.09 I-1.234 J-2.278
N6550 G1 X-40.519 Y-37.172 Z-6.99 F#104
N6555 X-40.494 Y-37.251 Z-6.98
N6560 X-40.457 Y-37.324 Z-6.97
N6565 X-40.409 Y-37.39 Z-6.96
N6570 X-40.352 Y-37.448 Z-6.95
N6575 X-40.287 Y-37.496 Z-6.94
N6580 X-40.216 Y-37.533 Z-6.93
N6585 X-40.14 Y-37.558 Z-6.92
N6590 X-40.062 Y-37.57 Z-6.91
N6595 X-39.983 Y-37.571 Z-6.9
N6600 G3 X-39.883 Y-37.557 I-0.017 J0.5
N6605 G1 X-39.224 Y-37.398
N6610 X-36.772 Y-36.808 F#105
N6615 X-36.014 Y-36.625 F#103
N6620 X-35.883 Y-36.594 Z-6.917
N6625 G3 X-35.5 Y-36.125 Z-7. I-0.117 J0.486
N6630 X-36.702 Y-34.435 I-1.773 J0.012 F#100
N6635 X-40.537 Y-36.836 I-1.245 J-2.275
N6640 G1 X-40.524 Y-36.919 Z-6.99 F#104
N6645 X-40.498 Y-36.999 Z-6.98
N6650 X-40.46 Y-37.072 Z-6.97
N6655 X-40.412 Y-37.139 Z-6.96
N6660 X-40.354 Y-37.196 Z-6.95
N6665 X-40.288 Y-37.244 Z-6.94
N6670 X-40.216 Y-37.28 Z-6.93
N6675 X-40.14 Y-37.305 Z-6.92
N6680 X-40.062 Y-37.317 Z-6.91
N6685 X-39.983 Z-6.9
N6690 G3 X-39.881 Y-37.303 I-0.017 J0.5
N6695 G1 X-39.225 Y-37.141
N6700 X-36.771 Y-36.537 F#105
N6705 X-36.014 Y-36.351 F#103
N6710 X-35.88 Y-36.318 Z-6.918
N6715 G3 X-35.5 Y-35.85 Z-7. I-0.12 J0.486
N6720 X-36.697 Y-34.153 I-1.771 J0.021 F#100
N6725 X-40.532 Y-36.52 I-1.244 J-2.274
N6730 G1 X-40.52 Y-36.602 Z-6.99 F#104
N6735 X-40.494 Y-36.681 Z-6.98
N6740 X-40.457 Y-36.754 Z-6.97
N6745 X-40.41 Y-36.821 Z-6.96
N6750 X-40.352 Y-36.878 Z-6.95
N6755 X-40.287 Y-36.926 Z-6.94
N6760 X-40.216 Y-36.963 Z-6.93
N6765 X-40.14 Y-36.988 Z-6.92
N6770 X-40.062 Y-37. Z-6.91
N6775 X-39.983 Y-37.001 Z-6.9
N6780 G3 X-39.885 Y-36.988 I-0.017 J0.5
N6785 G1 X-39.223 Y-36.831
N6790 X-36.773 Y-36.251 F#105
N6795 X-36.014 Y-36.071 F#103
N6800 X-35.884 Y-36.04 Z-6.917
N6805 G3 X-35.5 Y-35.571 Z-7. I-0.115 J0.487
N6810 X-36.704 Y-33.866 I-1.774 J0.026 F#100
N6815 X-40.529 Y-36.267 I-1.237 J-2.278
N6820 G1 X-40.517 Y-36.349 Z-6.99 F#104
N6825 X-40.492 Y-36.428 Z-6.98
N6830 X-40.455 Y-36.501 Z-6.97
N6835 X-40.408 Y-36.567 Z-6.96
N6840 X-40.351 Y-36.625 Z-6.95
N6845 X-40.286 Y-36.673 Z-6.94
N6850 X-40.215 Y-36.709 Z-6.93
N6855 X-40.14 Y-36.735 Z-6.92
N6860 X-40.062 Y-36.748 Z-6.91
N6865 X-39.983 Z-6.9
N6870 G3 X-39.881 Y-36.734 I-0.017 J0.5
N6875 G1 X-39.225 Y-36.572
N6880 X-36.771 Y-35.967 F#105
N6885 X-36.014 Y-35.78 F#103
N6890 X-35.88 Y-35.747 Z-6.918
N6895 G3 X-35.5 Y-35.279 Z-7. I-0.12 J0.485
N6900 X-36.72 Y-33.574 I-1.781 J0.015 F#100
N6905 X-40.532 Y-35.993 I-1.225 J-2.283
N6910 G1 X-40.52 Y-36.076 Z-6.99 F#104
N6915 X-40.494 Y-36.154 Z-6.98
N6920 X-40.457 Y-36.228 Z-6.97
N6925 X-40.41 Y-36.294 Z-6.96
N6930 X-40.352 Y-36.352 Z-6.95
N6935 X-40.287 Y-36.399 Z-6.94
N6940 X-40.216 Y-36.436 Z-6.93
N6945 X-40.14 Y-36.461 Z-6.92
N6950 X-40.062 Y-36.474 Z-6.91
N6955 X-39.983 Z-6.9
N6960 G3 X-39.877 Y-36.459 I-0.017 J0.5
N6965 G1 X-39.226 Y-36.293
N6970 X-36.769 Y-35.669 F#105
N6975 X-36.014 Y-35.477 F#103
N6980 X-35.877 Y-35.442 Z-6.918
N6985 G3 X-35.5 Y-34.975 Z-7. I-0.123 J0.485
N6990 X-36.699 Y-33.299 I-1.77 J0. F#100
N6995 X-40.53 Y-35.683 I-1.239 J-2.28
N7000 G1 X-40.518 Y-35.765 Z-6.99 F#104
N7005 X-40.493 Y-35.844 Z-6.98
N7010 X-40.456 Y-35.917 Z-6.97
N7015 X-40.409 Y-35.983 Z-6.96
N7020 X-40.352 Y-36.041 Z-6.95
N7025 X-40.287 Y-36.089 Z-6.94
N7030 X-40.216 Y-36.126 Z-6.93
N7035 X-40.14 Y-36.151 Z-6.92
N7040 X-40.062 Y-36.164 Z-6.91
N7045 X-39.983 Z-6.9
N7050 G3 X-39.883 Y-36.15 I-0.017 J0.5
N7055 G1 X-39.224 Y-35.991
N7060 X-36.772 Y-35.4 F#105
N7065 X-36.014 Y-35.217 F#103
N7070 X-35.882 Y-35.185 Z-6.917
N7075 G3 X-35.5 Y-34.716 Z-7. I-0.117 J0.486
N7080 X-36.692 Y-33.018 I-1.768 J0.027 F#100
N7085 X-40.535 Y-35.428 I-1.25 J-2.277
N7090 G1 X-40.522 Y-35.51 Z-6.99 F#104
N7095 X-40.497 Y-35.589 Z-6.98
N7100 X-40.459 Y-35.663 Z-6.97
N7105 X-40.411 Y-35.729 Z-6.96
N7110 X-40.353 Y-35.787 Z-6.95
N7115 X-40.288 Y-35.835 Z-6.94
N7120 X-40.216 Y-35.871 Z-6.93
N7125 X-40.14 Y-35.896 Z-6.92
N7130 X-40.062 Y-35.908 Z-6.91
N7135 X-39.983 Z-6.9
N7140 G3 X-39.881 Y-35.894 I-0.017 J0.5
N7145 G1 X-39.225 Y-35.732
N7150 X-36.771 Y-35.128 F#105
N7155 X-36.014 Y-34.942 F#103
N7160 X-35.88 Y-34.909 Z-6.918
N7165 G3 X-35.5 Y-34.441 Z-7. I-0.12 J0.486
N7170 X-36.687 Y-32.737 I-1.765 J0.036 F#100
N7175 X-40.531 Y-35.111 I-1.249 J-2.276
N7180 G1 X-40.519 Y-35.193 Z-6.99 F#104
N7185 X-40.493 Y-35.272 Z-6.98
N7190 X-40.457 Y-35.345 Z-6.97
N7195 X-40.409 Y-35.412 Z-6.96
N7200 X-40.352 Y-35.469 Z-6.95
N7205 X-40.287 Y-35.517 Z-6.94
N7210 X-40.216 Y-35.554 Z-6.93
N7215 X-40.14 Y-35.579 Z-6.92
N7220 X-40.062 Y-35.592 Z-6.91
N7225 X-39.983 Z-6.9
N7230 G3 X-39.885 Y-35.579 I-0.017 J0.5
N7235 G1 X-39.223 Y-35.422
N7240 X-36.773 Y-34.842 F#105
N7245 X-36.014 Y-34.662 F#103
N7250 X-35.884 Y-34.631 Z-6.917
N7255 G3 X-35.5 Y-34.162 Z-7. I-0.115 J0.487
N7260 X-36.694 Y-32.45 I-1.769 J0.039 F#100
N7265 X-40.536 Y-34.859 I-1.248 J-2.277
N7270 G1 X-40.523 Y-34.941 Z-6.99 F#104
N7275 X-40.497 Y-35.02 Z-6.98
N7280 X-40.459 Y-35.094 Z-6.97
N7285 X-40.411 Y-35.16 Z-6.96
N7290 X-40.353 Y-35.218 Z-6.95
N7295 X-40.288 Y-35.266 Z-6.94
N7300 X-40.216 Y-35.302 Z-6.93
N7305 X-40.14 Y-35.327 Z-6.92
N7310 X-40.062 Y-35.339 Z-6.91
N7315 X-39.983 Z-6.9
N7320 G3 X-39.881 Y-35.325 I-0.017 J0.5
N7325 G1 X-39.225 Y-35.163
N7330 X-36.771 Y-34.558 F#105
N7335 X-36.014 Y-34.372 F#103
N7340 X-35.88 Y-34.339 Z-6.918
N7345 G3 X-35.5 Y-33.871 Z-7. I-0.12 J0.485
N7350 X-36.711 Y-32.158 I-1.776 J0.029 F#100
N7355 X-40.532 Y-34.541 I-1.232 J-2.28
N7360 G1 X-40.52 Y-34.623 Z-6.99 F#104
N7365 X-40.494 Y-34.702 Z-6.98
N7370 X-40.457 Y-34.776 Z-6.97
N7375 X-40.41 Y-34.842 Z-6.96
N7380 X-40.352 Y-34.9 Z-6.95
N7385 X-40.287 Y-34.948 Z-6.94
N7390 X-40.216 Y-34.984 Z-6.93
N7395 X-40.14 Y-35.009 Z-6.92
N7400 X-40.062 Y-35.022 Z-6.91
N7405 X-39.983 Z-6.9
N7410 G3 X-39.882 Y-35.008 I-0.017 J0.5
N7415 G1 X-39.224 Y-34.848
N7420 X-36.771 Y-34.251 F#105
N7425 X-36.014 Y-34.067 F#103
N7430 X-35.881 Y-34.034 Z-6.917
N7435 G3 X-35.5 Y-33.566 Z-7. I-0.118 J0.486
N7440 X-36.689 Y-31.884 I-1.764 J0.014 F#100
N7445 X-40.529 Y-34.274 I-1.247 J-2.277
N7450 G1 X-40.517 Y-34.356 Z-6.99 F#104
N7455 X-40.492 Y-34.435 Z-6.98
N7460 X-40.456 Y-34.508 Z-6.97
N7465 X-40.408 Y-34.574 Z-6.96
N7470 X-40.351 Y-34.632 Z-6.95
N7475 X-40.287 Y-34.68 Z-6.94
N7480 X-40.216 Y-34.717 Z-6.93
N7485 X-40.14 Y-34.742 Z-6.92
N7490 X-40.062 Y-34.755 Z-6.91
N7495 X-39.983 Z-6.9
N7500 G3 X-39.883 Y-34.742 I-0.017 J0.5
N7505 G1 X-39.224 Y-34.583
N7510 X-36.772 Y-33.991 F#105
N7515 X-36.014 Y-33.808 F#103
N7520 X-35.882 Y-33.776 Z-6.917
N7525 G3 X-35.5 Y-33.308 Z-7. I-0.117 J0.486
N7530 X-36.706 Y-31.593 I-1.773 J0.035 F#100
N7535 X-40.536 Y-34.012 I-1.241 J-2.277
N7540 G1 X-40.523 Y-34.095 Z-6.99 F#104
N7545 X-40.497 Y-34.174 Z-6.98
N7550 X-40.459 Y-34.248 Z-6.97
N7555 X-40.411 Y-34.314 Z-6.96
N7560 X-40.353 Y-34.372 Z-6.95
N7565 X-40.288 Y-34.419 Z-6.94
N7570 X-40.216 Y-34.456 Z-6.93
N7575 X-40.14 Y-34.48 Z-6.92
N7580 X-40.062 Y-34.493 Z-6.91
N7585 X-39.983 Y-34.492 Z-6.9
N7590 G3 X-39.878 Y-34.478 I-0.017 J0.5
N7595 G1 X-39.225 Y-34.313
N7600 X-36.77 Y-33.696 F#105
N7605 X-36.014 Y-33.506 F#103
N7610 X-35.878 Y-33.472 Z-6.918
N7615 G3 X-35.5 Y-33.004 Z-7. I-0.122 J0.485
N7620 X-36.72 Y-31.302 I-1.778 J0.013 F#100
N7625 X-40.536 Y-33.686 I-1.226 J-2.285
N7630 G1 X-40.523 Y-33.769 Z-6.99 F#104
N7635 X-40.497 Y-33.848 Z-6.98
N7640 X-40.46 Y-33.922 Z-6.97
N7645 X-40.412 Y-33.988 Z-6.96
N7650 X-40.354 Y-34.046 Z-6.95
N7655 X-40.288 Y-34.093 Z-6.94
N7660 X-40.216 Y-34.13 Z-6.93
N7665 X-40.14 Y-34.154 Z-6.92
N7670 X-40.062 Y-34.167 Z-6.91
N7675 X-39.983 Z-6.9
N7680 G3 X-39.881 Y-34.153 I-0.017 J0.5
N7685 G1 X-39.224 Y-33.992
N7690 X-36.771 Y-33.39 F#105
N7695 X-36.014 Y-33.205 F#103
N7700 X-35.881 Y-33.172 Z-6.917
N7705 G3 X-35.5 Y-32.704 Z-7. I-0.119 J0.486
N7710 X-36.712 Y-31.022 I-1.775 J-0.001 F#100
N7715 X-40.541 Y-33.403 I-1.237 J-2.279
N7720 G1 X-40.527 Y-33.487 Z-6.99 F#104
N7725 X-40.501 Y-33.566 Z-6.98
N7730 X-40.463 Y-33.64 Z-6.97
N7735 X-40.414 Y-33.707 Z-6.96
N7740 X-40.355 Y-33.765 Z-6.95
N7745 X-40.289 Y-33.812 Z-6.94
N7750 X-40.217 Y-33.848 Z-6.93
N7755 X-40.141 Y-33.872 Z-6.92
N7760 X-40.062 Y-33.884 Z-6.91
N7765 X-39.983 Z-6.9
N7770 G3 X-39.882 Y-33.87 I-0.017 J0.5
N7775 G1 X-39.224 Y-33.71
N7780 X-36.771 Y-33.113 F#105
N7785 X-36.014 Y-32.929 F#103
N7790 X-35.882 Y-32.897 Z-6.917
N7795 G3 X-35.5 Y-32.428 Z-7. I-0.118 J0.486
N7800 X-36.701 Y-30.742 I-1.77 J0.01 F#100
N7805 X-40.535 Y-33.095 I-1.242 J-2.275
N7810 G1 X-40.522 Y-33.177 Z-6.99 F#104
N7815 X-40.496 Y-33.257 Z-6.98
N7820 X-40.459 Y-33.33 Z-6.97
N7825 X-40.411 Y-33.397 Z-6.96
N7830 X-40.353 Y-33.454 Z-6.95
N7835 X-40.288 Y-33.502 Z-6.94
N7840 X-40.216 Y-33.539 Z-6.93
N7845 X-40.14 Y-33.563 Z-6.92
N7850 X-40.062 Y-33.576 Z-6.91
N7855 X-39.983 Z-6.9
N7860 G3 X-39.886 Y-33.563 I-0.017 J0.5
N7865 G1 X-39.223 Y-33.408
N7870 X-36.773 Y-32.834 F#105
N7875 X-36.014 Y-32.657 F#103
N7880 X-35.886 Y-32.627 Z-6.917
N7885 G3 X-35.5 Y-32.157 Z-7. I-0.114 J0.487
N7890 X-36.714 Y-30.453 I-1.776 J0.02 F#100
N7895 X-40.531 Y-32.847 I-1.23 J-2.279
N7900 G1 X-40.518 Y-32.929 Z-6.99 F#104
N7905 X-40.493 Y-33.008 Z-6.98
N7910 X-40.457 Y-33.081 Z-6.97
N7915 X-40.409 Y-33.148 Z-6.96
N7920 X-40.352 Y-33.205 Z-6.95
N7925 X-40.287 Y-33.253 Z-6.94
N7930 X-40.216 Y-33.29 Z-6.93
N7935 X-40.14 Y-33.315 Z-6.92
N7940 X-40.062 Y-33.328 Z-6.91
N7945 X-39.983 Z-6.9
N7950 G3 X-39.88 Y-33.314 I-0.017 J0.5
N7955 G1 X-39.225 Y-33.152
N7960 X-36.771 Y-32.546 F#105
N7965 X-36.014 Y-32.359 F#103
N7970 X-35.88 Y-32.326 Z-6.918
N7975 G3 X-35.5 Y-31.858 Z-7. I-0.12 J0.485
N7980 X-36.695 Y-30.177 I-1.768 J0.009 F#100
N7985 X-40.537 Y-32.573 I-1.251 J-2.272
N7990 G1 X-40.524 Y-32.656 Z-6.99 F#104
N7995 X-40.498 Y-32.735 Z-6.98
N8000 X-40.46 Y-32.809 Z-6.97
N8005 X-40.412 Y-32.876 Z-6.96
N8010 X-40.354 Y-32.933 Z-6.95
N8015 X-40.288 Y-32.981 Z-6.94
N8020 X-40.216 Y-33.017 Z-6.93
N8025 X-40.14 Y-33.042 Z-6.92
N8030 X-40.062 Y-33.054 Z-6.91
N8035 X-39.983 Z-6.9
N8040 G3 X-39.882 Y-33.04 I-0.017 J0.5
N8045 G1 X-39.224 Y-32.879
N8050 X-36.771 Y-32.281 F#105
N8055 X-36.014 Y-32.097 F#103
N8060 X-35.881 Y-32.064 Z-6.917
N8065 G3 X-35.5 Y-31.596 Z-7. I-0.118 J0.486
N8070 X-36.71 Y-29.886 I-1.776 J0.027 F#100
N8075 X-40.532 Y-32.26 I-1.233 J-2.278
N8080 G1 X-40.519 Y-32.342 Z-6.99 F#104
N8085 X-40.494 Y-32.421 Z-6.98
N8090 X-40.457 Y-32.494 Z-6.97
N8095 X-40.409 Y-32.56 Z-6.96
N8100 X-40.352 Y-32.618 Z-6.95
N8105 X-40.287 Y-32.666 Z-6.94
N8110 X-40.216 Y-32.703 Z-6.93
N8115 X-40.14 Y-32.728 Z-6.92
N8120 X-40.062 Y-32.74 Z-6.91
N8125 X-39.983 Y-32.741 Z-6.9
N8130 G3 X-39.883 Y-32.727 I-0.017 J0.5
N8135 G1 X-39.224 Y-32.568
N8140 X-36.772 Y-31.978 F#105
N8145 X-36.014 Y-31.795 F#103
N8150 X-35.883 Y-31.764 Z-6.917
N8155 G3 X-35.5 Y-31.295 Z-7. I-0.117 J0.486
N8160 X-36.702 Y-29.605 I-1.773 J0.012 F#100
N8165 X-40.537 Y-32.006 I-1.245 J-2.275
N8170 G1 X-40.524 Y-32.089 Z-6.99 F#104
N8175 X-40.498 Y-32.169 Z-6.98
N8180 X-40.46 Y-32.242 Z-6.97
N8185 X-40.412 Y-32.309 Z-6.96
N8190 X-40.354 Y-32.366 Z-6.95
N8195 X-40.288 Y-32.414 Z-6.94
N8200 X-40.216 Y-32.45 Z-6.93
N8205 X-40.14 Y-32.475 Z-6.92
N8210 X-40.062 Y-32.487 Z-6.91
N8215 X-39.983 Z-6.9
N8220 G3 X-39.881 Y-32.473 I-0.017 J0.5
N8225 G1 X-39.225 Y-32.311
N8230 X-36.771 Y-31.707 F#105
N8235 X-36.014 Y-31.521 F#103
N8240 X-35.88 Y-31.488 Z-6.918
N8245 G3 X-35.5 Y-31.02 Z-7. I-0.12 J0.486
N8250 X-36.697 Y-29.323 I-1.771 J0.021 F#100
N8255 X-40.532 Y-31.69 I-1.244 J-2.274
N8260 G1 X-40.52 Y-31.772 Z-6.99 F#104
N8265 X-40.494 Y-31.851 Z-6.98
N8270 X-40.457 Y-31.924 Z-6.97
N8275 X-40.41 Y-31.991 Z-6.96
N8280 X-40.352 Y-32.048 Z-6.95
N8285 X-40.287 Y-32.096 Z-6.94
N8290 X-40.216 Y-32.133 Z-6.93
N8295 X-40.14 Y-32.158 Z-6.92
N8300 X-40.062 Y-32.17 Z-6.91
N8305 X-39.983 Y-32.171 Z-6.9
N8310 G3 X-39.885 Y-32.158 I-0.017 J0.5
N8315 G1 X-39.223 Y-32.001
N8320 X-36.773 Y-31.421 F#105
N8325 X-36.014 Y-31.241 F#103
N8330 X-35.884 Y-31.21 Z-6.917
N8335 G3 X-35.5 Y-30.741 Z-7. I-0.115 J0.487
N8340 X-36.704 Y-29.036 I-1.774 J0.025 F#100
N8345 X-40.529 Y-31.437 I-1.237 J-2.277
N8350 G1 X-40.517 Y-31.519 Z-6.99 F#104
N8355 X-40.492 Y-31.598 Z-6.98
N8360 X-40.455 Y-31.671 Z-6.97
N8365 X-40.408 Y-31.737 Z-6.96
N8370 X-40.351 Y-31.795 Z-6.95
N8375 X-40.286 Y-31.843 Z-6.94
N8380 X-40.215 Y-31.879 Z-6.93
N8385 X-40.14 Y-31.905 Z-6.92
N8390 X-40.062 Y-31.918 Z-6.91
N8395 X-39.983 Z-6.9
N8400 G3 X-39.881 Y-31.904 I-0.017 J0.5
N8405 G1 X-39.225 Y-31.742
N8410 X-36.771 Y-31.137 F#105
N8415 X-36.014 Y-30.95 F#103
N8420 X-35.88 Y-30.917 Z-6.918
N8425 G3 X-35.5 Y-30.449 Z-7. I-0.12 J0.485
N8430 X-36.721 Y-28.744 I-1.781 J0.015 F#100
N8435 X-40.532 Y-31.163 I-1.225 J-2.283
N8440 G1 X-40.52 Y-31.246 Z-6.99 F#104
N8445 X-40.494 Y-31.324 Z-6.98
N8450 X-40.457 Y-31.398 Z-6.97
N8455 X-40.41 Y-31.464 Z-6.96
N8460 X-40.352 Y-31.522 Z-6.95
N8465 X-40.287 Y-31.569 Z-6.94
N8470 X-40.216 Y-31.606 Z-6.93
N8475 X-40.14 Y-31.631 Z-6.92
N8480 X-40.062 Y-31.644 Z-6.91
N8485 X-39.983 Z-6.9
N8490 G3 X-39.877 Y-31.629 I-0.017 J0.5
N8495 G1 X-39.226 Y-31.463
N8500 X-36.769 Y-30.839 F#105
N8505 X-36.014 Y-30.647 F#103
N8510 X-35.877 Y-30.612 Z-6.918
N8515 G3 X-35.5 Y-30.145 Z-7. I-0.123 J0.485
N8520 X-36.699 Y-28.469 I-1.77 J0. F#100
N8525 X-40.53 Y-30.853 I-1.239 J-2.28
N8530 G1 X-40.518 Y-30.935 Z-6.99 F#104
N8535 X-40.493 Y-31.014 Z-6.98
N8540 X-40.456 Y-31.087 Z-6.97
N8545 X-40.409 Y-31.153 Z-6.96
N8550 X-40.352 Y-31.211 Z-6.95
N8555 X-40.287 Y-31.259 Z-6.94
N8560 X-40.216 Y-31.296 Z-6.93
N8565 X-40.14 Y-31.321 Z-6.92
N8570 X-40.062 Y-31.334 Z-6.91
N8575 X-39.983 Z-6.9
N8580 G3 X-39.883 Y-31.32 I-0.017 J0.5
N8585 G1 X-39.224 Y-31.161
N8590 X-36.772 Y-30.57 F#105
N8595 X-36.014 Y-30.387 F#103
N8600 X-35.882 Y-30.355 Z-6.917
N8605 G3 X-35.5 Y-29.886 Z-7. I-0.117 J0.486
N8610 X-36.692 Y-28.189 I-1.768 J0.026 F#100
N8615 X-40.535 Y-30.598 I-1.25 J-2.277
N8620 G1 X-40.522 Y-30.68 Z-6.99 F#104
N8625 X-40.497 Y-30.76 Z-6.98
N8630 X-40.459 Y-30.833 Z-6.97
N8635 X-40.411 Y-30.9 Z-6.96
N8640 X-40.353 Y-30.957 Z-6.95
N8645 X-40.288 Y-31.005 Z-6.94
N8650 X-40.216 Y-31.041 Z-6.93
N8655 X-40.14 Y-31.066 Z-6.92
N8660 X-40.062 Y-31.078 Z-6.91
N8665 X-39.983 Z-6.9
N8670 G3 X-39.881 Y-31.064 I-0.017 J0.5
N8675 G1 X-39.225 Y-30.902
N8680 X-36.771 Y-30.298 F#105
N8685 X-36.014 Y-30.112 F#103
N8690 X-35.88 Y-30.079 Z-6.918
N8695 G3 X-35.5 Y-29.611 Z-7. I-0.12 J0.485
N8700 X-36.687 Y-27.907 I-1.765 J0.036 F#100
N8705 X-40.531 Y-30.281 I-1.249 J-2.276
N8710 G1 X-40.519 Y-30.363 Z-6.99 F#104
N8715 X-40.493 Y-30.442 Z-6.98
N8720 X-40.457 Y-30.515 Z-6.97
N8725 X-40.409 Y-30.582 Z-6.96
N8730 X-40.352 Y-30.639 Z-6.95
N8735 X-40.287 Y-30.687 Z-6.94
N8740 X-40.216 Y-30.724 Z-6.93
N8745 X-40.14 Y-30.749 Z-6.92
N8750 X-40.062 Y-30.762 Z-6.91
N8755 X-39.983 Z-6.9
N8760 G3 X-39.885 Y-30.749 I-0.017 J0.5
N8765 G1 X-39.223 Y-30.592
N8770 X-36.773 Y-30.012 F#105
N8775 X-36.014 Y-29.832 F#103
N8780 X-35.884 Y-29.802 Z-6.917
N8785 G3 X-35.5 Y-29.332 Z-7. I-0.115 J0.487
N8790 X-36.694 Y-27.62 I-1.769 J0.039 F#100
N8795 X-40.536 Y-30.029 I-1.248 J-2.277
N8800 G1 X-40.523 Y-30.111 Z-6.99 F#104
N8805 X-40.497 Y-30.19 Z-6.98
N8810 X-40.459 Y-30.264 Z-6.97
N8815 X-40.411 Y-30.33 Z-6.96
N8820 X-40.353 Y-30.388 Z-6.95
N8825 X-40.288 Y-30.436 Z-6.94
N8830 X-40.216 Y-30.472 Z-6.93
N8835 X-40.14 Y-30.497 Z-6.92
N8840 X-40.062 Y-30.509 Z-6.91
N8845 X-39.983 Z-6.9
N8850 G3 X-39.881 Y-30.495 I-0.017 J0.5
N8855 G1 X-39.225 Y-30.333
N8860 X-36.771 Y-29.728 F#105
N8865 X-36.014 Y-29.542 F#103
N8870 X-35.88 Y-29.509 Z-6.918
N8875 G3 X-35.5 Y-29.041 Z-7. I-0.12 J0.485
N8880 X-36.711 Y-27.328 I-1.776 J0.029 F#100
N8885 X-40.532 Y-29.711 I-1.232 J-2.28
N8890 G1 X-40.52 Y-29.793 Z-6.99 F#104
N8895 X-40.494 Y-29.872 Z-6.98
N8900 X-40.457 Y-29.946 Z-6.97
N8905 X-40.41 Y-30.012 Z-6.96
N8910 X-40.352 Y-30.07 Z-6.95
N8915 X-40.287 Y-30.118 Z-6.94
N8920 X-40.216 Y-30.154 Z-6.93
N8925 X-40.14 Y-30.179 Z-6.92
N8930 X-40.062 Y-30.192 Z-6.91
N8935 X-39.983 Z-6.9
N8940 G3 X-39.882 Y-30.178 I-0.017 J0.5
N8945 G1 X-39.224 Y-30.018
N8950 X-36.771 Y-29.421 F#105
N8955 X-36.014 Y-29.237 F#103
N8960 X-35.881 Y-29.204 Z-6.917
N8965 G3 X-35.5 Y-28.736 Z-7. I-0.118 J0.486
N8970 X-36.69 Y-27.054 I-1.764 J0.014 F#100
N8975 X-40.529 Y-29.444 I-1.247 J-2.277
N8980 G1 X-40.517 Y-29.526 Z-6.99 F#104
N8985 X-40.492 Y-29.605 Z-6.98
N8990 X-40.456 Y-29.678 Z-6.97
N8995 X-40.408 Y-29.744 Z-6.96
N9000 X-40.351 Y-29.802 Z-6.95
N9005 X-40.287 Y-29.85 Z-6.94
N9010 X-40.216 Y-29.887 Z-6.93
N9015 X-40.14 Y-29.912 Z-6.92
N9020 X-40.062 Y-29.925 Z-6.91
N9025 X-39.983 Z-6.9
N9030 G3 X-39.883 Y-29.912 I-0.017 J0.5
N9035 G1 X-39.224 Y-29.753
N9040 X-36.772 Y-29.161 F#105
N9045 X-36.014 Y-28.978 F#103
N9050 X-35.882 Y-28.946 Z-6.917
N9055 G3 X-35.5 Y-28.478 Z-7. I-0.117 J0.486
N9060 X-36.706 Y-26.763 I-1.773 J0.034 F#100
N9065 X-40.536 Y-29.182 I-1.241 J-2.277
N9070 G1 X-40.523 Y-29.265 Z-6.99 F#104
N9075 X-40.497 Y-29.344 Z-6.98
N9080 X-40.459 Y-29.418 Z-6.97
N9085 X-40.411 Y-29.484 Z-6.96
N9090 X-40.353 Y-29.542 Z-6.95
N9095 X-40.288 Y-29.589 Z-6.94
N9100 X-40.216 Y-29.626 Z-6.93
N9105 X-40.14 Y-29.65 Z-6.92
N9110 X-40.062 Y-29.663 Z-6.91
N9115 X-39.983 Y-29.662 Z-6.9
N9120 G3 X-39.878 Y-29.648 I-0.017 J0.5
N9125 G1 X-39.225 Y-29.483
N9130 X-36.77 Y-28.866 F#105
N9135 X-36.014 Y-28.676 F#103
N9140 X-35.878 Y-28.642 Z-6.918
N9145 G3 X-35.5 Y-28.174 Z-7. I-0.122 J0.485
N9150 X-36.72 Y-26.473 I-1.778 J0.013 F#100
N9155 X-40.536 Y-28.856 I-1.226 J-2.285
N9160 G1 X-40.523 Y-28.939 Z-6.99 F#104
N9165 X-40.497 Y-29.018 Z-6.98
N9170 X-40.46 Y-29.092 Z-6.97
N9175 X-40.412 Y-29.158 Z-6.96
N9180 X-40.354 Y-29.216 Z-6.95
N9185 X-40.288 Y-29.263 Z-6.94
N9190 X-40.216 Y-29.3 Z-6.93
N9195 X-40.14 Y-29.325 Z-6.92
N9200 X-40.062 Y-29.337 Z-6.91
N9205 X-39.983 Z-6.9
N9210 G3 X-39.881 Y-29.323 I-0.017 J0.5
N9215 G1 X-39.224 Y-29.162
N9220 X-36.771 Y-28.56 F#105
N9225 X-36.014 Y-28.375 F#103
N9230 X-35.881 Y-28.342 Z-6.917
N9235 G3 X-35.5 Y-27.874 Z-7. I-0.119 J0.486
N9240 X-36.712 Y-26.192 I-1.775 J-0.001 F#100
N9245 X-40.541 Y-28.573 I-1.237 J-2.279
N9250 G1 X-40.527 Y-28.657 Z-6.99 F#104
N9255 X-40.501 Y-28.736 Z-6.98
N9260 X-40.463 Y-28.81 Z-6.97
N9265 X-40.414 Y-28.877 Z-6.96
N9270 X-40.355 Y-28.935 Z-6.95
N9275 X-40.289 Y-28.982 Z-6.94
N9280 X-40.217 Y-29.018 Z-6.93
N9285 X-40.141 Y-29.042 Z-6.92
N9290 X-40.062 Y-29.054 Z-6.91
N9295 X-39.983 Z-6.9
N9300 G3 X-39.882 Y-29.04 I-0.017 J0.5
N9305 G1 X-39.224 Y-28.88
N9310 X-36.771 Y-28.283 F#105
N9315 X-36.014 Y-28.099 F#103
N9320 X-35.882 Y-28.067 Z-6.917
N9325 G3 X-35.5 Y-27.598 Z-7. I-0.118 J0.486
N9330 X-36.701 Y-25.913 I-1.77 J0.01 F#100
N9335 X-40.535 Y-28.265 I-1.242 J-2.275
N9340 G1 X-40.522 Y-28.347 Z-6.99 F#104
N9345 X-40.496 Y-28.427 Z-6.98
N9350 X-40.459 Y-28.5 Z-6.97
N9355 X-40.411 Y-28.567 Z-6.96
N9360 X-40.353 Y-28.624 Z-6.95
N9365 X-40.288 Y-28.672 Z-6.94
N9370 X-40.216 Y-28.709 Z-6.93
N9375 X-40.14 Y-28.734 Z-6.92
N9380 X-40.062 Y-28.746 Z-6.91
N9385 X-39.983 Z-6.9
N9390 G3 X-39.886 Y-28.733 I-0.017 J0.5
N9395 G1 X-39.223 Y-28.578
N9400 X-36.773 Y-28.004 F#105
N9405 X-36.014 Y-27.827 F#103
N9410 X-35.886 Y-27.797 Z-6.917
N9415 G3 X-35.5 Y-27.327 Z-7. I-0.114 J0.487
N9420 X-36.714 Y-25.623 I-1.776 J0.02 F#100
N9425 X-40.531 Y-28.017 I-1.23 J-2.279
N9430 G1 X-40.518 Y-28.099 Z-6.99 F#104
N9435 X-40.493 Y-28.178 Z-6.98
N9440 X-40.457 Y-28.251 Z-6.97
N9445 X-40.409 Y-28.318 Z-6.96
N9450 X-40.352 Y-28.375 Z-6.95
N9455 X-40.287 Y-28.423 Z-6.94
N9460 X-40.216 Y-28.46 Z-6.93
N9465 X-40.14 Y-28.485 Z-6.92
N9470 X-40.062 Y-28.498 Z-6.91
N9475 X-39.983 Z-6.9
N9480 G3 X-39.88 Y-28.484 I-0.017 J0.5
N9485 G1 X-39.225 Y-28.322
N9490 X-36.771 Y-27.716 F#105
N9495 X-36.014 Y-27.529 F#103
N9500 X-35.88 Y-27.496 Z-6.918
N9505 G3 X-35.5 Y-27.028 Z-7. I-0.12 J0.485
N9510 X-36.696 Y-25.347 I-1.768 J0.009 F#100
N9515 X-40.537 Y-27.743 I-1.251 J-2.272
N9520 G1 X-40.524 Y-27.826 Z-6.99 F#104
N9525 X-40.498 Y-27.905 Z-6.98
N9530 X-40.46 Y-27.979 Z-6.97
N9535 X-40.412 Y-28.046 Z-6.96
N9540 X-40.354 Y-28.103 Z-6.95
N9545 X-40.288 Y-28.151 Z-6.94
N9550 X-40.216 Y-28.187 Z-6.93
N9555 X-40.14 Y-28.212 Z-6.92
N9560 X-40.062 Y-28.224 Z-6.91
N9565 X-39.983 Z-6.9
N9570 G3 X-39.882 Y-28.21 I-0.017 J0.5
N9575 G1 X-39.224 Y-28.049
N9580 X-36.771 Y-27.451 F#105
N9585 X-36.014 Y-27.267 F#103
N9590 X-35.881 Y-27.234 Z-6.917
N9595 G3 X-35.5 Y-26.766 Z-7. I-0.118 J0.486
N9600 X-36.71 Y-25.056 I-1.776 J0.026 F#100
N9605 X-40.532 Y-27.43 I-1.233 J-2.278
N9610 G1 X-40.519 Y-27.512 Z-6.99 F#104
N9615 X-40.494 Y-27.591 Z-6.98
N9620 X-40.457 Y-27.664 Z-6.97
N9625 X-40.409 Y-27.73 Z-6.96
N9630 X-40.352 Y-27.788 Z-6.95
N9635 X-40.287 Y-27.836 Z-6.94
N9640 X-40.216 Y-27.873 Z-6.93
N9645 X-40.14 Y-27.898 Z-6.92
N9650 X-40.062 Y-27.91 Z-6.91
N9655 X-39.983 Y-27.911 Z-6.9
N9660 G3 X-39.883 Y-27.897 I-0.017 J0.5
N9665 G1 X-39.224 Y-27.738
N9670 X-36.772 Y-27.148 F#105
N9675 X-36.014 Y-26.965 F#103
N9680 X-35.883 Y-26.934 Z-6.917
N9685 G3 X-35.5 Y-26.465 Z-7. I-0.117 J0.486
N9690 X-36.702 Y-24.775 I-1.773 J0.012 F#100
N9695 X-40.537 Y-27.177 I-1.245 J-2.275
N9700 G1 X-40.524 Y-27.259 Z-6.99 F#104
N9705 X-40.498 Y-27.339 Z-6.98
N9710 X-40.46 Y-27.412 Z-6.97
N9715 X-40.412 Y-27.479 Z-6.96
N9720 X-40.354 Y-27.536 Z-6.95
N9725 X-40.288 Y-27.584 Z-6.94
N9730 X-40.216 Y-27.62 Z-6.93
N9735 X-40.14 Y-27.645 Z-6.92
N9740 X-40.062 Y-27.657 Z-6.91
N9745 X-39.983 Z-6.9
N9750 G3 X-39.881 Y-27.643 I-0.017 J0.5
N9755 G1 X-39.225 Y-27.481
N9760 X-36.771 Y-26.877 F#105
N9765 X-36.014 Y-26.691 F#103
N9770 X-35.88 Y-26.658 Z-6.918
N9775 G3 X-35.5 Y-26.19 Z-7. I-0.12 J0.486
N9780 X-36.698 Y-24.493 I-1.771 J0.021 F#100
N9785 X-40.532 Y-26.86 I-1.244 J-2.274
N9790 G1 X-40.52 Y-26.942 Z-6.99 F#104
N9795 X-40.494 Y-27.021 Z-6.98
N9800 X-40.457 Y-27.094 Z-6.97
N9805 X-40.41 Y-27.161 Z-6.96
N9810 X-40.352 Y-27.218 Z-6.95
N9815 X-40.287 Y-27.266 Z-6.94
N9820 X-40.216 Y-27.303 Z-6.93
N9825 X-40.14 Y-27.328 Z-6.92
N9830 X-40.062 Y-27.34 Z-6.91
N9835 X-39.983 Y-27.341 Z-6.9
N9840 G3 X-39.885 Y-27.328 I-0.017 J0.5
N9845 G1 X-39.223 Y-27.171
N9850 X-36.773 Y-26.591 F#105
N9855 X-36.014 Y-26.411 F#103
N9860 X-35.884 Y-26.38 Z-6.917
N9865 G3 X-35.5 Y-25.911 Z-7. I-0.115 J0.487
N9870 X-36.704 Y-24.206 I-1.774 J0.025 F#100
N9875 X-40.529 Y-26.607 I-1.237 J-2.277
N9880 G1 X-40.517 Y-26.689 Z-6.99 F#104
N9885 X-40.492 Y-26.768 Z-6.98
N9890 X-40.455 Y-26.841 Z-6.97
N9895 X-40.408 Y-26.907 Z-6.96
N9900 X-40.351 Y-26.965 Z-6.95
N9905 X-40.286 Y-27.013 Z-6.94
N9910 X-40.215 Y-27.05 Z-6.93
N9915 X-40.14 Y-27.075 Z-6.92
N9920 X-40.062 Y-27.088 Z-6.91
N9925 X-39.983 Z-6.9
N9930 G3 X-39.881 Y-27.074 I-0.017 J0.5
N9935 G1 X-39.225 Y-26.912
N9940 X-36.771 Y-26.307 F#105
N9945 X-36.014 Y-26.12 F#103
N9950 X-35.88 Y-26.087 Z-6.918
N9955 G3 X-35.5 Y-25.619 Z-7. I-0.12 J0.485
N9960 X-36.721 Y-23.914 I-1.781 J0.015 F#100
N9965 X-40.532 Y-26.333 I-1.225 J-2.283
N9970 G1 X-40.52 Y-26.416 Z-6.99 F#104
N9975 X-40.494 Y-26.494 Z-6.98
N9980 X-40.457 Y-26.568 Z-6.97
N9985 X-40.41 Y-26.634 Z-6.96
N9990 X-40.352 Y-26.692 Z-6.95
N9995 X-40.287 Y-26.74 Z-6.94
N10000 X-40.216 Y-26.776 Z-6.93
N10005 X-40.14 Y-26.801 Z-6.92
N10010 X-40.062 Y-26.814 Z-6.91
N10015 X-39.983 Z-6.9
N10020 G3 X-39.877 Y-26.799 I-0.017 J0.5
N10025 G1 X-39.226 Y-26.633
N10030 X-36.769 Y-26.009 F#105
N10035 X-36.014 Y-25.817 F#103
N10040 X-35.877 Y-25.782 Z-6.918
N10045 G3 X-35.5 Y-25.315 Z-7. I-0.123 J0.485
N10050 X-36.699 Y-23.64 I-1.77 J0. F#100
N10055 X-40.53 Y-26.023 I-1.239 J-2.28
N10060 G1 X-40.518 Y-26.105 Z-6.99 F#104
N10065 X-40.493 Y-26.184 Z-6.98
N10070 X-40.456 Y-26.257 Z-6.97
N10075 X-40.409 Y-26.323 Z-6.96
N10080 X-40.352 Y-26.381 Z-6.95
N10085 X-40.287 Y-26.429 Z-6.94
N10090 X-40.216 Y-26.466 Z-6.93
N10095 X-40.14 Y-26.491 Z-6.92
N10100 X-40.062 Y-26.504 Z-6.91
N10105 X-39.983 Z-6.9
N10110 G3 X-39.883 Y-26.491 I-0.017 J0.5
N10115 G1 X-39.224 Y-26.331
N10120 X-36.772 Y-25.74 F#105
N10125 X-36.014 Y-25.557 F#103
N10130 X-35.882 Y-25.525 Z-6.917
N10135 G3 X-35.5 Y-25.056 Z-7. I-0.117 J0.486
N10140 X-36.692 Y-23.359 I-1.768 J0.026 F#100
N10145 X-40.535 Y-25.768 I-1.25 J-2.277
N10150 G1 X-40.522 Y-25.851 Z-6.99 F#104
N10155 X-40.497 Y-25.93 Z-6.98
N10160 X-40.459 Y-26.003 Z-6.97
N10165 X-40.411 Y-26.07 Z-6.96
N10170 X-40.353 Y-26.127 Z-6.95
N10175 X-40.288 Y-26.175 Z-6.94
N10180 X-40.216 Y-26.211 Z-6.93
N10185 X-40.14 Y-26.236 Z-6.92
N10190 X-40.062 Y-26.248 Z-6.91
N10195 X-39.983 Z-6.9
N10200 G3 X-39.881 Y-26.234 I-0.017 J0.5
N10205 G1 X-39.225 Y-26.073
N10210 X-36.771 Y-25.468 F#105
N10215 X-36.014 Y-25.282 F#103
N10220 X-35.88 Y-25.249 Z-6.918
N10225 G3 X-35.5 Y-24.781 Z-7. I-0.12 J0.486
N10230 X-36.687 Y-23.077 I-1.765 J0.035 F#100
N10235 X-40.531 Y-25.451 I-1.249 J-2.276
N10240 G1 X-40.519 Y-25.533 Z-6.99 F#104
N10245 X-40.494 Y-25.612 Z-6.98
N10250 X-40.457 Y-25.685 Z-6.97
N10255 X-40.409 Y-25.752 Z-6.96
N10260 X-40.352 Y-25.809 Z-6.95
N10265 X-40.287 Y-25.857 Z-6.94
N10270 X-40.216 Y-25.894 Z-6.93
N10275 X-40.14 Y-25.919 Z-6.92
N10280 X-40.062 Y-25.932 Z-6.91
N10285 X-39.983 Z-6.9
N10290 G3 X-39.885 Y-25.919 I-0.017 J0.5
N10295 G1 X-39.223 Y-25.762
N10300 X-36.773 Y-25.182 F#105
N10305 X-36.014 Y-25.002 F#103
N10310 X-35.884 Y-24.972 Z-6.917
N10315 G3 X-35.5 Y-24.503 Z-7. I-0.115 J0.487
N10320 X-36.694 Y-22.79 I-1.769 J0.039 F#100
N10325 X-40.536 Y-25.199 I-1.248 J-2.277
N10330 G1 X-40.523 Y-25.281 Z-6.99 F#104
N10335 X-40.497 Y-25.361 Z-6.98
N10340 X-40.459 Y-25.434 Z-6.97
N10345 X-40.411 Y-25.501 Z-6.96
N10350 X-40.353 Y-25.558 Z-6.95
N10355 X-40.288 Y-25.606 Z-6.94
N10360 X-40.216 Y-25.642 Z-6.93
N10365 X-40.14 Y-25.667 Z-6.92
N10370 X-40.062 Y-25.679 Z-6.91
N10375 X-39.983 Z-6.9
N10380 G3 X-39.881 Y-25.665 I-0.017 J0.5
N10385 G1 X-39.225 Y-25.503
N10390 X-36.771 Y-24.898 F#105
N10395 X-36.014 Y-24.712 F#103
N10400 X-35.88 Y-24.679 Z-6.918
N10405 G3 X-35.5 Y-24.211 Z-7. I-0.12 J0.485
N10410 X-36.711 Y-22.498 I-1.776 J0.028 F#100
N10415 X-40.532 Y-24.881 I-1.232 J-2.28
N10420 G1 X-40.52 Y-24.964 Z-6.99 F#104
N10425 X-40.495 Y-25.042 Z-6.98
N10430 X-40.457 Y-25.116 Z-6.97
N10435 X-40.41 Y-25.182 Z-6.96
N10440 X-40.352 Y-25.24 Z-6.95
N10445 X-40.287 Y-25.288 Z-6.94
N10450 X-40.216 Y-25.324 Z-6.93
N10455 X-40.14 Y-25.349 Z-6.92
N10460 X-40.062 Y-25.362 Z-6.91
N10465 X-39.983 Z-6.9
N10470 G3 X-39.882 Y-25.348 I-0.017 J0.5
N10475 G1 X-39.224 Y-25.188
N10480 X-36.771 Y-24.591 F#105
N10485 X-36.014 Y-24.407 F#103
N10490 X-35.881 Y-24.374 Z-6.917
N10495 G3 X-35.5 Y-23.906 Z-7. I-0.118 J0.486
N10500 X-36.69 Y-22.224 I-1.764 J0.014 F#100
N10505 X-40.529 Y-24.614 I-1.247 J-2.277
N10510 G1 X-40.517 Y-24.696 Z-6.99 F#104
N10515 X-40.492 Y-24.775 Z-6.98
N10520 X-40.456 Y-24.848 Z-6.97
N10525 X-40.408 Y-24.914 Z-6.96
N10530 X-40.351 Y-24.972 Z-6.95
N10535 X-40.287 Y-25.02 Z-6.94
N10540 X-40.216 Y-25.057 Z-6.93
N10545 X-40.14 Y-25.082 Z-6.92
N10550 X-40.062 Y-25.095 Z-6.91
N10555 X-39.983 Z-6.9
N10560 G3 X-39.883 Y-25.082 I-0.017 J0.5
N10565 G1 X-39.224 Y-24.923
N10570 X-36.772 Y-24.331 F#105
N10575 X-36.014 Y-24.148 F#103
N10580 X-35.882 Y-24.116 Z-6.917
N10585 G3 X-35.5 Y-23.648 Z-7. I-0.117 J0.486
N10590 X-36.706 Y-21.933 I-1.773 J0.034 F#100
N10595 X-40.536 Y-24.352 I-1.241 J-2.277
N10600 G1 X-40.523 Y-24.435 Z-6.99 F#104
N10605 X-40.497 Y-24.514 Z-6.98
N10610 X-40.459 Y-24.588 Z-6.97
N10615 X-40.411 Y-24.654 Z-6.96
N10620 X-40.353 Y-24.712 Z-6.95
N10625 X-40.288 Y-24.759 Z-6.94
N10630 X-40.216 Y-24.796 Z-6.93
N10635 X-40.14 Y-24.82 Z-6.92
N10640 X-40.062 Y-24.833 Z-6.91
N10645 X-39.983 Z-6.9
N10650 G3 X-39.878 Y-24.818 I-0.017 J0.5
N10655 G1 X-39.225 Y-24.654
N10660 X-36.77 Y-24.036 F#105
N10665 X-36.014 Y-23.846 F#103
N10670 X-35.878 Y-23.812 Z-6.918
N10675 G3 X-35.5 Y-23.344 Z-7. I-0.122 J0.485
N10680 X-36.72 Y-21.643 I-1.778 J0.013 F#100
N10685 X-40.536 Y-24.026 I-1.226 J-2.285
N10690 G1 X-40.523 Y-24.109 Z-6.99 F#104
N10695 X-40.497 Y-24.188 Z-6.98
N10700 X-40.46 Y-24.262 Z-6.97
N10705 X-40.412 Y-24.328 Z-6.96
N10710 X-40.354 Y-24.386 Z-6.95
N10715 X-40.288 Y-24.434 Z-6.94
N10720 X-40.216 Y-24.47 Z-6.93
N10725 X-40.14 Y-24.495 Z-6.92
N10730 X-40.062 Y-24.507 Z-6.91
N10735 X-39.983 Z-6.9
N10740 G3 X-39.881 Y-24.493 I-0.017 J0.5
N10745 G1 X-39.224 Y-24.332
N10750 X-36.771 Y-23.73 F#105
N10755 X-36.014 Y-23.545 F#103
N10760 X-35.881 Y-23.512 Z-6.917
N10765 G3 X-35.5 Y-23.044 Z-7. I-0.119 J0.486
N10770 X-36.712 Y-21.362 I-1.775 J-0.001 F#100
N10775 X-40.541 Y-23.743 I-1.237 J-2.279
N10780 G1 X-40.527 Y-23.827 Z-6.99 F#104
N10785 X-40.501 Y-23.906 Z-6.98
N10790 X-40.463 Y-23.98 Z-6.97
N10795 X-40.414 Y-24.047 Z-6.96
N10800 X-40.355 Y-24.105 Z-6.95
N10805 X-40.289 Y-24.152 Z-6.94
N10810 X-40.217 Y-24.188 Z-6.93
N10815 X-40.141 Y-24.213 Z-6.92
N10820 X-40.062 Y-24.224 Z-6.91
N10825 X-39.983 Z-6.9
N10830 G3 X-39.882 Y-24.21 I-0.017 J0.5
N10835 G1 X-39.224 Y-24.05
N10840 X-36.771 Y-23.453 F#105
N10845 X-36.014 Y-23.269 F#103
N10850 X-35.882 Y-23.237 Z-6.917
N10855 G3 X-35.5 Y-22.768 Z-7. I-0.118 J0.486
N10860 X-36.701 Y-21.083 I-1.77 J0.01 F#100
N10865 X-40.535 Y-23.435 I-1.242 J-2.275
N10870 G1 X-40.522 Y-23.518 Z-6.99 F#104
N10875 X-40.496 Y-23.597 Z-6.98
N10880 X-40.459 Y-23.67 Z-6.97
N10885 X-40.411 Y-23.737 Z-6.96
N10890 X-40.353 Y-23.795 Z-6.95
N10895 X-40.288 Y-23.842 Z-6.94
N10900 X-40.216 Y-23.879 Z-6.93
N10905 X-40.14 Y-23.904 Z-6.92
N10910 X-40.062 Y-23.916 Z-6.91
N10915 X-39.983 Z-6.9
N10920 G3 X-39.886 Y-23.903 I-0.017 J0.5
N10925 G1 X-39.223 Y-23.748
N10930 X-36.773 Y-23.175 F#105
N10935 X-36.014 Y-22.997 F#103
N10940 X-35.886 Y-22.967 Z-6.917
N10945 G3 X-35.5 Y-22.497 Z-7. I-0.114 J0.487
N10950 X-36.714 Y-20.793 I-1.776 J0.02 F#100
N10955 X-40.531 Y-23.187 I-1.23 J-2.279
N10960 G1 X-40.518 Y-23.269 Z-6.99 F#104
N10965 X-40.493 Y-23.348 Z-6.98
N10970 X-40.457 Y-23.422 Z-6.97
N10975 X-40.409 Y-23.488 Z-6.96
N10980 X-40.352 Y-23.546 Z-6.95
N10985 X-40.287 Y-23.593 Z-6.94
N10990 X-40.216 Y-23.63 Z-6.93
N10995 X-40.14 Y-23.655 Z-6.92
N11000 X-40.062 Y-23.668 Z-6.91
N11005 X-39.983 Z-6.9
N11010 G3 X-39.88 Y-23.654 I-0.017 J0.5
N11015 G1 X-39.225 Y-23.492
N11020 X-36.771 Y-22.886 F#105
N11025 X-36.014 Y-22.699 F#103
N11030 X-35.88 Y-22.666 Z-6.918
N11035 G3 X-35.5 Y-22.198 Z-7. I-0.12 J0.485
N11040 X-36.696 Y-20.517 I-1.768 J0.009 F#100
N11045 X-40.537 Y-22.913 I-1.251 J-2.272
N11050 G1 X-40.524 Y-22.996 Z-6.99 F#104
N11055 X-40.498 Y-23.075 Z-6.98
N11060 X-40.46 Y-23.149 Z-6.97
N11065 X-40.412 Y-23.216 Z-6.96
N11070 X-40.354 Y-23.273 Z-6.95
N11075 X-40.288 Y-23.321 Z-6.94
N11080 X-40.216 Y-23.357 Z-6.93
N11085 X-40.14 Y-23.382 Z-6.92
N11090 X-40.062 Y-23.394 Z-6.91
N11095 X-39.983 Z-6.9
N11100 G3 X-39.882 Y-23.38 I-0.017 J0.5
N11105 G1 X-39.224 Y-23.22
N11110 X-36.771 Y-22.621 F#105
N11115 X-36.014 Y-22.437 F#103
N11120 X-35.881 Y-22.404 Z-6.917
N11125 G3 X-35.5 Y-21.936 Z-7. I-0.118 J0.486
N11130 X-36.71 Y-20.226 I-1.776 J0.026 F#100
N11135 X-40.532 Y-22.6 I-1.233 J-2.278
N11140 G1 X-40.519 Y-22.682 Z-6.99 F#104
N11145 X-40.494 Y-22.761 Z-6.98
N11150 X-40.457 Y-22.834 Z-6.97
N11155 X-40.409 Y-22.901 Z-6.96
N11160 X-40.352 Y-22.958 Z-6.95
N11165 X-40.287 Y-23.006 Z-6.94
N11170 X-40.216 Y-23.043 Z-6.93
N11175 X-40.14 Y-23.068 Z-6.92
N11180 X-40.062 Y-23.08 Z-6.91
N11185 X-39.983 Y-23.081 Z-6.9
N11190 G3 X-39.883 Y-23.067 I-0.017 J0.5
N11195 G1 X-39.224 Y-22.908
N11200 X-36.772 Y-22.318 F#105
N11205 X-36.014 Y-22.136 F#103
N11210 X-35.883 Y-22.104 Z-6.917
N11215 G3 X-35.5 Y-21.635 Z-7. I-0.117 J0.486
N11220 X-36.702 Y-19.945 I-1.773 J0.011 F#100
N11225 X-40.537 Y-22.347 I-1.245 J-2.275
N11230 G1 X-40.524 Y-22.43 Z-6.99 F#104
N11235 X-40.498 Y-22.509 Z-6.98
N11240 X-40.46 Y-22.582 Z-6.97
N11245 X-40.412 Y-22.649 Z-6.96
N11250 X-40.354 Y-22.707 Z-6.95
N11255 X-40.288 Y-22.754 Z-6.94
N11260 X-40.216 Y-22.79 Z-6.93
N11265 X-40.14 Y-22.815 Z-6.92
N11270 X-40.062 Y-22.827 Z-6.91
N11275 X-39.983 Z-6.9
N11280 G3 X-39.881 Y-22.813 I-0.017 J0.5
N11285 G1 X-39.225 Y-22.651
N11290 X-36.771 Y-22.047 F#105
N11295 X-36.014 Y-21.861 F#103
N11300 X-35.88 Y-21.828 Z-6.918
N11305 G3 X-35.5 Y-21.36 Z-7. I-0.12 J0.485
N11310 X-36.698 Y-19.663 I-1.771 J0.021 F#100
N11315 X-40.532 Y-22.03 I-1.244 J-2.274
N11320 G1 X-40.52 Y-22.112 Z-6.99 F#104
N11325 X-40.494 Y-22.191 Z-6.98
N11330 X-40.457 Y-22.264 Z-6.97
N11335 X-40.41 Y-22.331 Z-6.96
N11340 X-40.352 Y-22.388 Z-6.95
N11345 X-40.287 Y-22.436 Z-6.94
N11350 X-40.216 Y-22.473 Z-6.93
N11355 X-40.14 Y-22.498 Z-6.92
N11360 X-40.062 Y-22.511 Z-6.91
N11365 X-39.983 Z-6.9
N11370 G3 X-39.885 Y-22.498 I-0.017 J0.5
N11375 G1 X-39.223 Y-22.341
N11380 X-36.773 Y-21.761 F#105
N11385 X-36.014 Y-21.581 F#103
N11390 X-35.884 Y-21.55 Z-6.917
N11395 G3 X-35.5 Y-21.081 Z-7. I-0.115 J0.487
N11400 X-36.704 Y-19.376 I-1.774 J0.025 F#100
N11405 X-40.529 Y-21.777 I-1.237 J-2.277
N11410 G1 X-40.517 Y-21.859 Z-6.99 F#104
N11415 X-40.492 Y-21.938 Z-6.98
N11420 X-40.455 Y-22.011 Z-6.97
N11425 X-40.408 Y-22.077 Z-6.96
N11430 X-40.351 Y-22.135 Z-6.95
N11435 X-40.286 Y-22.183 Z-6.94
N11440 X-40.215 Y-22.22 Z-6.93
N11445 X-40.14 Y-22.245 Z-6.92
N11450 X-40.062 Y-22.258 Z-6.91
N11455 X-39.983 Z-6.9
N11460 G3 X-39.881 Y-22.244 I-0.017 J0.5
N11465 G1 X-39.225 Y-22.082
N11470 X-36.771 Y-21.477 F#105
N11475 X-36.014 Y-21.291 F#103
N11480 X-35.88 Y-21.258 Z-6.918
N11485 G3 X-35.5 Y-20.789 Z-7. I-0.12 J0.485
N11490 X-36.721 Y-19.084 I-1.781 J0.015 F#100
N11495 X-40.532 Y-21.503 I-1.225 J-2.283
N11500 G1 X-40.52 Y-21.586 Z-6.99 F#104
N11505 X-40.494 Y-21.665 Z-6.98
N11510 X-40.457 Y-21.738 Z-6.97
N11515 X-40.41 Y-21.804 Z-6.96
N11520 X-40.352 Y-21.862 Z-6.95
N11525 X-40.287 Y-21.91 Z-6.94
N11530 X-40.216 Y-21.946 Z-6.93
N11535 X-40.14 Y-21.971 Z-6.92
N11540 X-40.062 Y-21.984 Z-6.91
N11545 X-39.983 Z-6.9
N11550 G3 X-39.877 Y-21.969 I-0.017 J0.5
N11555 G1 X-39.226 Y-21.803
N11560 X-36.769 Y-21.179 F#105
N11565 X-36.014 Y-20.987 F#103
N11570 X-35.877 Y-20.952 Z-6.918
N11575 G3 X-35.5 Y-20.485 Z-7. I-0.123 J0.485
N11580 X-36.699 Y-18.81 I-1.77 J0. F#100
N11585 X-40.53 Y-21.193 I-1.239 J-2.28
N11590 G1 X-40.518 Y-21.275 Z-6.99 F#104
N11595 X-40.493 Y-21.354 Z-6.98
N11600 X-40.456 Y-21.427 Z-6.97
N11605 X-40.409 Y-21.493 Z-6.96
N11610 X-40.352 Y-21.551 Z-6.95
N11615 X-40.287 Y-21.599 Z-6.94
N11620 X-40.216 Y-21.636 Z-6.93
N11625 X-40.14 Y-21.661 Z-6.92
N11630 X-40.062 Y-21.674 Z-6.91
N11635 X-39.983 Z-6.9
N11640 G3 X-39.883 Y-21.661 I-0.017 J0.5
N11645 G1 X-39.224 Y-21.502
N11650 X-36.772 Y-20.91 F#105
N11655 X-36.014 Y-20.727 F#103
N11660 X-35.882 Y-20.695 Z-6.917
N11665 G3 X-35.5 Y-20.227 Z-7. I-0.117 J0.486
N11670 X-36.692 Y-18.529 I-1.768 J0.026 F#100
N11675 X-40.535 Y-20.938 I-1.25 J-2.277
N11680 G1 X-40.522 Y-21.021 Z-6.99 F#104
N11685 X-40.497 Y-21.1 Z-6.98
N11690 X-40.459 Y-21.173 Z-6.97
N11695 X-40.411 Y-21.24 Z-6.96
N11700 X-40.353 Y-21.297 Z-6.95
N11705 X-40.288 Y-21.345 Z-6.94
N11710 X-40.216 Y-21.381 Z-6.93
N11715 X-40.14 Y-21.406 Z-6.92
N11720 X-40.062 Y-21.418 Z-6.91
N11725 X-39.983 Z-6.9
N11730 G3 X-39.881 Y-21.404 I-0.017 J0.5
N11735 G1 X-39.225 Y-21.243
N11740 X-36.771 Y-20.638 F#105
N11745 X-36.014 Y-20.452 F#103
N11750 X-35.88 Y-20.419 Z-6.918
N11755 G3 X-35.5 Y-19.951 Z-7. I-0.12 J0.485
N11760 X-37.187 Y-18.171 I-1.718 J0.061 F#100
N11765 G1 X-37.603 Y-18.1
N11770 G3 X-38.085 Y-18.617 Z-6.9 I0.017 J-0.5 F#104
N11775 X-37.862 Y-19.016 I0.5 J0.017
N11780 G1 X-37.609 Y-19.185
N11785 X-36.695 Y-19.793 F#105
N11790 X-36.277 Y-20.071 F#103
N11795 G3 X-36.017 Y-20.155 I0.277 J0.416
N11800 X-35.5 Y-19.673 Z-7. I0.017 J0.5
N11805 G1 X-35.493 Y-19.525 F#100
N11810 X-35.502 Y-19.377
N11815 X-35.526 Y-19.231
N11820 X-35.565 Y-19.088
N11825 X-35.618 Y-18.95
N11830 X-35.686 Y-18.819
N11835 X-35.767 Y-18.695
N11840 X-35.861 Y-18.58
N11845 X-35.966 Y-18.476
N11850 X-36.081 Y-18.383
N11855 X-36.206 Y-18.303
N11860 X-36.338 Y-18.237
N11865 X-36.476 Y-18.184
N11870 X-36.619 Y-18.146
N11875 X-36.766 Y-18.123
N11880 X-36.913 Y-18.116
N11885 X-37.061 Y-18.124
N11890 X-37.144 Y-18.131 Z-6.989 F#104
N11895 X-37.225 Y-18.153 Z-6.978
N11900 X-37.302 Y-18.189 Z-6.967
N11905 X-37.371 Y-18.237 Z-6.956
N11910 X-37.431 Y-18.298 Z-6.944
N11915 X-37.48 Y-18.368 Z-6.933
N11920 X-37.517 Y-18.446 Z-6.922
N11925 X-37.539 Y-18.53 Z-6.911
N11930 X-37.546 Y-18.617 Z-6.9
N11935 G3 X-37.341 Y-19.004 I0.5 J0.017
N11940 G1 X-37.077 Y-19.196
N11945 X-36.683 Y-19.484 F#105
N11950 X-36.294 Y-19.767 F#103
N11955 G3 X-36.017 Y-19.863 I0.295 J0.404
N11960 X-35.5 Y-19.381 Z-7. I0.017 J0.5
N11965 X-36.676 Y-18.113 I-1.09 J0.168 F#100
N11970 G1 X-36.787 Y-18.121 Z-6.986 F#104
N11975 X-36.896 Y-18.142 Z-6.971
N11980 X-37.002 Y-18.176 Z-6.957
N11985 X-37.103 Y-18.221 Z-6.943
N11990 X-37.2 Y-18.278 Z-6.929
N11995 X-37.289 Y-18.345 Z-6.914
N12000 X-37.37 Y-18.423 Z-6.9
N12005 G3 X-37.619 Y-19.14 I0.727 J-0.655
N12010 X-37.521 Y-19.508 I0.976 J0.062 F#105
N12015 X-36.493 Y-20.102 I0.957 J0.469
N12020 X-35.801 Y-19.782 I-0.072 J1.063 F#103
N12025 X-35.5 Y-19.076 Z-7. I-0.763 J0.743
N12030 X-36.363 Y-18.106 I-0.816 J0.143 F#100
N12035 G1 X-36.46 Y-18.115 Z-6.988 F#104
N12040 X-36.555 Y-18.136 Z-6.975
N12045 X-36.647 Y-18.17 Z-6.963
N12050 X-36.733 Y-18.215 Z-6.95
N12055 X-36.813 Y-18.271 Z-6.938
N12060 X-36.885 Y-18.337 Z-6.925
N12065 X-36.949 Y-18.412 Z-6.913
N12070 X-37.001 Y-18.495 Z-6.9
N12075 G3 X-37.038 Y-19.138 I0.664 J-0.361
N12080 X-36.988 Y-19.24 I0.741 J0.298
N12085 X-36.626 Y-19.567 I0.691 J0.4 F#105
N12090 X-35.879 Y-19.519 I0.328 J0.728 F#103
N12095 X-35.5 Y-18.868 Z-7. I-0.419 J0.68
N12100 X-35.521 Y-18.475 I-1.247 J0.131 F#100
N12105 X-35.919 Y-18.242 I-0.348 J-0.138 F#104
N12110 X-35.82 Y-18.972 I0.05 J-0.365
N12115 X-35.501 Y-18.617 I-0.05 J0.365
N12120 G1 X-35.502 Y-18.576 F#100
N12125 X-35.508 Y-18.525
N12130 X-35.521 Y-18.475
N12135 X-35.53 Y-18.447
N12140 X-35.553 Y-18.396
N12145 X-35.563 Y-18.375
N12150 G3 X-35.903 Y-18.28 I-0.227 J-0.159 F#104
N12155 X-35.68 Y-18.781 I0.111 J-0.25 F#103
N12160 X-35.53 Y-18.447 I-0.111 J0.25
N12165 G1 X-35.538 Y-18.425 F#100
N12170 X-35.563 Y-18.375
N12175 X-35.586 Y-18.338
N12180 X-35.619 Y-18.293
N12185 G3 X-35.991 Y-18.255 I-0.207 J-0.19 F#104
N12190 X-35.663 Y-18.71 I0.164 J-0.227 F#103
N12195 X-35.586 Y-18.338 I-0.164 J0.227
N12200 G1 X-35.605 Y-18.309 F#100
N12205 X-35.636 Y-18.273
N12210 X-35.668 Y-18.24
N12215 X-35.706 Y-18.204
N12220 G3 X-36.1 Y-18.249 I-0.169 J-0.265 F#104
N12225 X-35.657 Y-18.682 I0.221 J-0.216 F#103
N12230 X-35.636 Y-18.273 I-0.221 J0.216
N12235 G1 X-35.662 Y-18.243 F#100
N12240 G3 X-36.064 Y-18.101 I-0.357 J-0.369
N12245 G1 X-38.386 Y-18.1
N12250 G3 X-40.493 Y-20.275 I0.027 J-2.134
N12255 G1 X-40.484 Y-20.361 Z-6.989 F#104
N12260 X-40.459 Y-20.443 Z-6.978
N12265 X-40.421 Y-20.521 Z-6.967
N12270 X-40.369 Y-20.59 Z-6.956
N12275 X-40.306 Y-20.65 Z-6.944
N12280 X-40.234 Y-20.697 Z-6.933
N12285 X-40.155 Y-20.732 Z-6.922
N12290 X-40.07 Y-20.752 Z-6.911
N12295 X-39.983 Y-20.758 Z-6.9
N12300 G3 X-39.64 Y-20.605 I-0.017 J0.5
N12305 G1 X-39.367 Y-20.321
N12310 X-38.331 Y-19.244 F#105
N12315 X-38.044 Y-18.946 F#103
N12320 G3 X-37.905 Y-18.617 I-0.36 J0.347
N12325 X-38.387 Y-18.1 Z-7. I-0.5 J0.017
N12330 X-40.497 Y-19.857 I-0.345 J-1.732 F#100
N12335 G1 X-40.487 Y-19.944 Z-6.989 F#104
N12340 X-40.462 Y-20.027 Z-6.978
N12345 X-40.423 Y-20.104 Z-6.967
N12350 X-40.371 Y-20.174 Z-6.956
N12355 X-40.308 Y-20.233 Z-6.944
N12360 X-40.235 Y-20.281 Z-6.933
N12365 X-40.155 Y-20.315 Z-6.922
N12370 X-40.07 Y-20.335 Z-6.911
N12375 X-39.983 Y-20.34 Z-6.9
N12380 G3 X-39.617 Y-20.162 I-0.017 J0.5
N12385 G1 X-39.386 Y-19.886
N12390 X-38.863 Y-19.264 F#105
N12395 X-38.576 Y-18.921 F#103
N12400 G3 X-38.459 Y-18.617 I-0.383 J0.322
N12405 X-38.941 Y-18.1 Z-7. I-0.5 J0.017
N12410 X-40.492 Y-19.475 I-0.22 J-1.314 F#100
N12415 G1 X-40.482 Y-19.56 Z-6.989 F#104
N12420 X-40.458 Y-19.643 Z-6.978
N12425 X-40.42 Y-19.72 Z-6.967
N12430 X-40.369 Y-19.789 Z-6.956
N12435 X-40.306 Y-19.849 Z-6.944
N12440 X-40.234 Y-19.897 Z-6.933
N12445 X-40.155 Y-19.932 Z-6.922
N12450 X-40.07 Y-19.952 Z-6.911
N12455 X-39.983 Y-19.958 Z-6.9
N12460 G3 X-39.613 Y-19.774 I-0.017 J0.5
N12465 G1 X-39.39 Y-19.5
N12470 X-39.2 Y-19.268 F#105
N12475 X-38.913 Y-18.916 F#103
N12480 G3 X-38.8 Y-18.617 I-0.387 J0.316
N12485 X-39.282 Y-18.1 Z-7. I-0.5 J0.017
N12490 G1 X-39.404 Y-18.082 F#100
N12495 X-39.526 Y-18.079
N12500 X-39.648 Y-18.091
N12505 X-39.767 Y-18.118
N12510 X-39.883 Y-18.158
N12515 X-39.992 Y-18.213
N12520 X-40.094 Y-18.28
N12525 X-40.187 Y-18.36
N12530 X-40.27 Y-18.45
N12535 X-40.342 Y-18.549
N12540 X-40.4 Y-18.657
N12545 X-40.446 Y-18.77
N12550 X-40.477 Y-18.889
N12555 X-40.493 Y-19.01
N12560 X-40.495 Y-19.132
N12565 X-40.485 Y-19.243 Z-6.986 F#104
N12570 X-40.461 Y-19.352 Z-6.971
N12575 X-40.424 Y-19.458 Z-6.957
N12580 X-40.374 Y-19.558 Z-6.943
N12585 X-40.312 Y-19.651 Z-6.929
N12590 X-40.238 Y-19.735 Z-6.914
N12595 X-40.155 Y-19.81 Z-6.9
N12600 G3 X-39.42 Y-19.983 I0.555 J0.709
N12605 X-39.26 Y-19.934 I-0.18 J0.882 F#105
N12610 X-38.673 Y-19.153 I-0.361 J0.882
N12615 X-38.899 Y-18.43 I-0.948 J0.101 F#103
N12620 X-39.587 Y-18.1 Z-7. I-0.721 J-0.623
N12625 X-40.497 Y-18.844 I-0.18 J-0.708 F#100
N12630 G1 X-40.486 Y-18.941 Z-6.988 F#104
N12635 X-40.461 Y-19.036 Z-6.975
N12640 X-40.422 Y-19.125 Z-6.963
N12645 X-40.37 Y-19.208 Z-6.95
N12650 X-40.306 Y-19.282 Z-6.938
N12655 X-40.232 Y-19.345 Z-6.925
N12660 X-40.148 Y-19.397 Z-6.913
N12665 X-40.058 Y-19.435 Z-6.9
N12670 G3 X-39.606 Y-19.419 I0.204 J0.613
N12675 X-39.235 Y-18.524 I-0.263 J0.633
N12680 X-39.845 Y-18.1 Z-7. I-0.634 J-0.262 F#103
N12685 X-40.377 Y-18.29 I-0.086 J-0.598 F#100
N12690 G1 X-40.417 Y-18.357 F#104
N12695 X-40.444 Y-18.431
N12700 X-40.457 Y-18.508
N12705 X-40.456 Y-18.586
N12710 X-40.441 Y-18.663
N12715 X-40.412 Y-18.736
N12720 X-40.371 Y-18.802
N12725 X-40.318 Y-18.86
N12730 X-40.255 Y-18.907
N12735 X-40.185 Y-18.942
N12740 G3 X-39.603 Y-18.483 I0.156 J0.401 F#103
N12745 X-40.087 Y-18.111 I-0.43 J-0.059
N12750 X-40.495 Y-18.776 I0.133 J-0.539 F#100
N12755 G1 X-40.5 Y-20.62
N12760 G3 X-39.5 Y-20.596 I0.5 J0.017 F#104
N12765 G1 X-39.501 Y-20.585
N12770 X-39.504 Y-20.498 Z-6.992
N12775 X-39.507 Y-20.414 Z-6.97
N12780 X-39.509 Y-20.335 Z-6.933
N12785 X-39.512 Y-20.264 Z-6.883
N12790 X-39.514 Y-20.202 Z-6.821
N12795 X-39.516 Y-20.152 Z-6.75
N12800 X-39.517 Y-20.116 Z-6.671
N12805 X-39.518 Y-20.093 Z-6.587
N12810 Y-20.085 Z-6.5
N12815 G0 Z4.
(2D ADAPTIVE1)
N12825 M8
N12830 G0 X-11.862 Y-51.738
N12835 Z4.
N12840 Z1.55
N12845 G1 Z1.05 F#103
N12850 S3000
N12855 G3 X-10.046 Y-48.613 Z0.826 I-0.138 J2.171 F#107
N12860 X-13.596 Y-48.13 Z0.603 I-1.937 J-0.947
N12865 X-12.698 Y-51.564 Z0.379 I1.599 J-1.417
N12870 X-9.89 Y-49.445 Z0.156 I0.694 J1.999
N12875 X-12.892 Y-47.673 Z-0.068 I-2.094 J-0.119
N12880 X-13.382 Y-51.091 Z-0.292 I0.899 J-1.873
N12885 X-10.066 Y-50.25 Z-0.515 I1.376 J1.531
N12890 X-12.088 Y-47.531 Z-0.739 I-1.921 J0.683
N12895 X-13.815 Y-50.409 Z-0.962 I0.1 J-2.017
N12900 X-10.528 Y-50.904 Z-1.186 I1.809 J0.853
N12905 X-11.315 Y-47.708 Z-1.41 I-1.463 J1.334
N12910 X-13.944 Y-49.634 Z-1.633 I-0.67 J-1.843
N12915 X-11.189 Y-51.314 Z-1.857 I1.94 J0.082
N12920 X-10.691 Y-48.158 Z-2.081 I-0.807 J1.744
N12925 X-13.766 Y-48.893 Z-2.304 I-1.292 J-1.397
N12930 X-11.934 Y-51.43 Z-2.528 I1.765 J-0.655
N12935 X-10.304 Y-48.797 Z-2.751 I-0.066 J1.862
N12940 X-13.327 Y-48.298 Z-2.975 I-1.679 J-0.763
N12945 X-12.644 Y-51.252 Z-3.199 I1.331 J-1.248
N12950 X-10.199 Y-49.513 Z-3.422 I0.64 J1.688
N12955 X-12.711 Y-47.933 Z-3.646 I-1.785 J-0.051
N12960 X-13.21 Y-50.826 Z-3.869 I0.719 J-1.613
N12965 X-10.377 Y-50.191 Z-4.093 I1.204 J1.265
N12970 X-12.024 Y-47.84 Z-4.317 I-1.611 J0.624
N12975 X-13.553 Y-50.232 Z-4.54 I0.036 J-1.707
N12980 X-10.791 Y-50.728 Z-4.764 I1.547 J0.676
N12985 X-11.378 Y-48.017 Z-4.988 I-1.201 J1.159
N12990 X-13.634 Y-49.574 Z-5.211 I-0.607 J-1.534
N12995 X-11.362 Y-51.049 Z-5.435 I1.63 J0.023
N13000 X-10.87 Y-48.418 Z-5.658 I-0.635 J1.48
N13005 X-13.458 Y-48.96 Z-5.882 I-1.113 J-1.137
N13010 X-11.99 Y-51.12 Z-6.106 I1.457 J-0.589
N13015 X-10.57 Y-48.966 Z-6.329 I-0.011 J1.552
N13020 X-13.07 Y-48.48 Z-6.553 I-1.413 J-0.594
N13025 X-12.573 Y-50.945 Z-6.776 I1.074 J-1.066
N13030 X-10.51 Y-49.564 Z-7. I0.569 J1.381
N13035 X-13.498 I-1.494 J0.
N13040 X-10.51 I1.494 J0.
N13045 S3200
N13050 X-12.661 Y-48.033 I-1.432 J0.264 F#100
N13055 G1 X-12.809 Y-48.104
N13060 X-12.949 Y-48.188
N13065 X-13.08 Y-48.285
N13070 X-13.201 Y-48.394
N13075 X-13.312 Y-48.515
N13080 X-13.409 Y-48.646
N13085 X-13.494 Y-48.785
N13090 X-13.565 Y-48.932
N13095 X-13.622 Y-49.086
N13100 X-13.663 Y-49.244
N13105 X-13.689 Y-49.405
N13110 X-13.699 Y-49.568
N13115 X-13.694 Y-49.731
N13120 X-13.673 Y-49.893
N13125 X-13.636 Y-50.052
N13130 X-13.584 Y-50.207
N13135 X-13.517 Y-50.356
N13140 X-13.437 Y-50.498
N13145 X-13.342 Y-50.632
N13150 X-13.236 Y-50.756
N13155 X-13.118 Y-50.868
N13160 X-12.99 Y-50.969
N13165 X-12.852 Y-51.058
N13170 X-12.707 Y-51.132
N13175 X-12.555 Y-51.192
N13180 X-12.398 Y-51.237
N13185 X-12.237 Y-51.267
N13190 X-12.075 Y-51.281
N13195 X-11.911 Y-51.28
N13200 X-11.749 Y-51.262
N13205 X-11.589 Y-51.229
N13210 X-11.433 Y-51.181
N13215 X-11.282 Y-51.118
N13220 X-11.138 Y-51.04
N13225 X-11.003 Y-50.95
N13230 X-10.876 Y-50.846
N13235 X-10.761 Y-50.731
N13240 X-10.657 Y-50.605
N13245 X-10.565 Y-50.469
N13250 X-10.487 Y-50.326
N13255 X-10.424 Y-50.176
N13260 X-10.375 Y-50.02
N13265 X-10.341 Y-49.86
N13270 G3 X-13.236 Y-48.138 I-1.652 J0.517
N13275 G1 X-13.363 Y-48.254
N13280 X-13.478 Y-48.381
N13285 X-13.581 Y-48.518
N13290 X-13.672 Y-48.663
N13295 X-13.75 Y-48.816
N13300 X-13.813 Y-48.975
N13305 X-13.862 Y-49.139
N13310 X-13.896 Y-49.307
N13315 X-13.915 Y-49.477
N13320 X-13.918 Y-49.649
N13325 X-13.906 Y-49.82
N13330 X-13.879 Y-49.989
N13335 X-13.837 Y-50.155
N13340 X-13.78 Y-50.316
N13345 X-13.709 Y-50.472
N13350 X-13.624 Y-50.621
N13355 X-13.526 Y-50.762
N13360 X-13.416 Y-50.893
N13365 X-13.294 Y-51.014
N13370 X-13.162 Y-51.123
N13375 X-13.021 Y-51.22
N13380 X-12.872 Y-51.305
N13385 X-12.716 Y-51.375
N13390 X-12.554 Y-51.431
N13395 X-12.388 Y-51.473
N13400 X-12.218 Y-51.499
N13405 X-12.047 Y-51.51
N13410 X-11.876 Y-51.506
N13415 X-11.706 Y-51.486
N13420 X-11.538 Y-51.451
N13425 X-11.374 Y-51.401
N13430 X-11.215 Y-51.337
N13435 X-11.063 Y-51.259
N13440 X-10.918 Y-51.167
N13445 X-10.782 Y-51.063
N13450 X-10.656 Y-50.947
N13455 X-10.541 Y-50.82
N13460 X-10.437 Y-50.683
N13465 X-10.347 Y-50.538
N13470 X-10.269 Y-50.385
N13475 X-10.206 Y-50.226
N13480 X-10.139 Y-50.064
N13485 X-10.086 Y-49.896
N13490 X-10.048 Y-49.724
N13495 X-10.025 Y-49.55
N13500 X-10.017 Y-49.374
N13505 X-10.025 Y-49.199
N13510 X-10.049 Y-49.024
N13515 X-10.087 Y-48.853
N13520 X-10.141 Y-48.685
N13525 X-10.209 Y-48.523
N13530 X-10.291 Y-48.368
N13535 X-10.386 Y-48.22
N13540 X-10.494 Y-48.081
N13545 X-10.614 Y-47.952
N13550 X-10.744 Y-47.835
N13555 X-10.885 Y-47.729
N13560 X-11.034 Y-47.635
N13565 X-11.19 Y-47.556
N13570 X-11.353 Y-47.49
N13575 X-11.522 Y-47.439
N13580 X-11.694 Y-47.403
N13585 X-11.868 Y-47.382
N13590 X-12.044 Y-47.376
N13595 X-12.219 Y-47.386
N13600 X-12.393 Y-47.412
N13605 X-12.564 Y-47.452
N13610 X-12.731 Y-47.507
N13615 X-12.893 Y-47.577
N13620 X-13.047 Y-47.661
N13625 X-13.194 Y-47.758
N13630 X-13.332 Y-47.867
N13635 X-13.459 Y-47.988
N13640 X-13.575 Y-48.12
N13645 X-13.68 Y-48.261
N13650 X-13.788 Y-48.409
N13655 X-13.882 Y-48.564
N13660 X-13.964 Y-48.727
N13665 X-14.031 Y-48.897
N13670 X-14.084 Y-49.071
N13675 X-14.121 Y-49.25
N13680 X-14.144 Y-49.431
N13685 X-14.151 Y-49.613
N13690 X-14.142 Y-49.795
N13695 X-14.118 Y-49.976
N13700 X-14.079 Y-50.154
N13705 X-14.025 Y-50.328
N13710 X-13.956 Y-50.497
N13715 X-13.874 Y-50.659
N13720 X-13.777 Y-50.814
N13725 X-13.668 Y-50.96
N13730 X-13.547 Y-51.096
N13735 X-13.415 Y-51.222
N13740 X-13.273 Y-51.336
N13745 X-13.121 Y-51.438
N13750 X-12.962 Y-51.526
N13755 X-12.796 Y-51.6
N13760 X-12.623 Y-51.66
N13765 X-12.447 Y-51.706
N13770 X-12.267 Y-51.736
N13775 X-12.085 Y-51.75
N13780 X-11.903
N13785 X-11.721 Y-51.734
N13790 X-11.542 Y-51.702
N13795 X-11.366 Y-51.655
N13800 X-11.194 Y-51.594
N13805 X-11.028 Y-51.518
N13810 X-10.869 Y-51.429
N13815 X-10.719 Y-51.326
N13820 X-10.577 Y-51.211
N13825 X-10.446 Y-51.085
N13830 X-10.326 Y-50.947
N13835 X-10.218 Y-50.8
N13840 X-10.123 Y-50.645
N13845 X-10.042 Y-50.482
N13850 X-9.974 Y-50.312
N13855 X-9.904 Y-50.139
N13860 X-9.849 Y-49.961
N13865 X-9.808 Y-49.778
N13870 X-9.783 Y-49.593
N13875 X-9.773 Y-49.407
N13880 X-9.779 Y-49.22
N13885 X-9.8 Y-49.034
N13890 X-9.836 Y-48.851
N13895 X-9.888 Y-48.671
N13900 X-9.954 Y-48.497
N13905 X-10.034 Y-48.328
N13910 X-10.128 Y-48.167
N13915 X-10.236 Y-48.014
N13920 X-10.355 Y-47.87
N13925 X-10.486 Y-47.737
N13930 X-10.628 Y-47.615
N13935 X-10.779 Y-47.505
N13940 X-10.939 Y-47.408
N13945 X-11.106 Y-47.325
N13950 X-11.279 Y-47.256
N13955 X-11.458 Y-47.201
N13960 X-11.641 Y-47.162
N13965 X-11.826 Y-47.138
N13970 X-12.013 Y-47.129
N13975 X-12.199 Y-47.136
N13980 X-12.385 Y-47.158
N13985 X-12.568 Y-47.195
N13990 X-12.747 Y-47.248
N13995 X-12.921 Y-47.315
N14000 X-13.09 Y-47.396
N14005 X-13.25 Y-47.491
N14010 X-13.403 Y-47.599
N14015 X-13.546 Y-47.72
N14020 X-13.678 Y-47.851
N14025 X-13.799 Y-47.994
N14030 X-13.908 Y-48.145
N14035 X-14.019 Y-48.303
N14040 X-14.117 Y-48.468
N14045 X-14.201 Y-48.641
N14050 X-14.271 Y-48.82
N14055 X-14.327 Y-49.004
N14060 X-14.367 Y-49.192
N14065 X-14.393 Y-49.383
N14070 X-14.403 Y-49.575
N14075 X-14.398 Y-49.767
N14080 X-14.377 Y-49.958
N14085 X-14.341 Y-50.147
N14090 X-14.29 Y-50.333
N14095 X-14.224 Y-50.513
N14100 X-14.145 Y-50.688
N14105 X-14.051 Y-50.856
N14110 X-13.944 Y-51.016
N14115 X-13.825 Y-51.167
N14120 X-13.694 Y-51.308
N14125 X-13.552 Y-51.438
N14130 X-13.4 Y-51.556
N14135 X-13.24 Y-51.661
N14140 X-13.071 Y-51.754
N14145 X-12.896 Y-51.832
N14150 X-12.714 Y-51.897
N14155 X-12.529 Y-51.946
N14160 X-12.339 Y-51.981
N14165 X-12.148 Y-52.
N14170 X-11.956 Y-52.004
N14175 X-11.764 Y-51.993
N14180 X-11.574 Y-51.966
N14185 X-11.386 Y-51.924
N14190 X-11.202 Y-51.867
N14195 X-11.024 Y-51.796
N14200 X-10.851 Y-51.71
N14205 X-10.687 Y-51.611
N14210 X-10.53 Y-51.499
N14215 X-10.383 Y-51.375
N14220 X-10.247 Y-51.24
N14225 X-10.121 Y-51.094
N14230 X-10.008 Y-50.938
N14235 X-9.908 Y-50.774
N14240 X-9.821 Y-50.603
N14245 G3 X-14.191 Y-48.171 I-2.185 J1.216
N14250 X-14.507 Y-49.359 I2.185 J-1.216
N14255 G1 X-14.535 Y-49.541
N14260 X-14.549 Y-49.725
N14265 X-14.548 Y-49.909
N14270 X-14.532 Y-50.093
N14275 X-14.502 Y-50.275
N14280 X-14.457 Y-50.454
N14285 X-14.398 Y-50.628
N14290 X-14.325 Y-50.797
N14295 X-14.239 Y-50.96
N14300 X-14.14 Y-51.116
N14305 X-14.029 Y-51.263
N14310 X-13.907 Y-51.401
N14315 X-13.774 Y-51.528
N14320 X-13.631 Y-51.645
N14325 X-13.479 Y-51.749
N14330 X-13.32 Y-51.842
N14335 X-13.153 Y-51.921
N14340 X-12.981 Y-51.986
N14345 X-12.804 Y-52.038
N14350 X-12.624 Y-52.075
N14355 X-12.441 Y-52.097
N14360 X-12.257 Y-52.105
N14365 X-12.169 Y-52.094 Z-6.989 F#104
N14370 X-12.086 Y-52.068 Z-6.978
N14375 X-12.008 Y-52.027 Z-6.967
N14380 X-11.938 Y-51.974 Z-6.956
N14385 X-11.878 Y-51.91 Z-6.944
N14390 X-11.831 Y-51.836 Z-6.933
N14395 X-11.798 Y-51.756 Z-6.922
N14400 X-11.778 Y-51.67 Z-6.911
N14405 X-11.774 Y-51.583 Z-6.9
N14410 G3 X-11.94 Y-51.228 I-0.5 J-0.017
N14415 G1 X-12.22 Y-50.976
N14420 X-13.346 Y-49.965 F#105
N14425 X-13.666 Y-49.677 F#103
N14430 G3 X-13.983 Y-49.549 I-0.334 J-0.372
N14435 X-14.5 Y-50.031 Z-7. I-0.017 J-0.5
N14440 X-12.715 Y-52.091 I1.719 J-0.313 F#100
N14445 G1 X-12.63 Y-52.081 Z-6.989 F#104
N14450 X-12.548 Y-52.057 Z-6.978
N14455 X-12.471 Y-52.019 Z-6.967
N14460 X-12.401 Y-51.968 Z-6.956
N14465 X-12.342 Y-51.906 Z-6.944
N14470 X-12.294 Y-51.834 Z-6.933
N14475 X-12.259 Y-51.754 Z-6.922
N14480 X-12.238 Y-51.67 Z-6.911
N14485 X-12.233 Y-51.583 Z-6.9
N14490 G3 X-12.413 Y-51.215 I-0.5 J-0.017
N14495 G1 X-12.688 Y-50.988
N14500 X-13.334 Y-50.453 F#105
N14505 X-13.682 Y-50.166 F#103
N14510 G3 X-13.983 Y-50.051 I-0.319 J-0.385
N14515 X-14.5 Y-50.533 Z-7. I-0.017 J-0.5
N14520 X-13.121 Y-52.088 I1.301 J-0.235 F#100
N14525 G1 X-13.036 Y-52.079 Z-6.989 F#104
N14530 X-12.954 Y-52.056 Z-6.978
N14535 X-12.877 Y-52.018 Z-6.967
N14540 X-12.808 Y-51.967 Z-6.956
N14545 X-12.748 Y-51.905 Z-6.944
N14550 X-12.7 Y-51.834 Z-6.933
N14555 X-12.665 Y-51.754 Z-6.922
N14560 X-12.644 Y-51.67 Z-6.911
N14565 X-12.638 Y-51.583 Z-6.9
N14570 G3 X-12.838 Y-51.2 I-0.5 J-0.017
N14575 G1 X-13.104 Y-51.001
N14580 X-13.321 Y-50.838 F#105
N14585 X-13.7 Y-50.553 F#103
N14590 G3 X-13.983 Y-50.454 I-0.3 J-0.4
N14595 X-14.5 Y-50.936 Z-7. I-0.017 J-0.5
N14600 G1 X-14.515 Y-51.054 F#100
N14605 Y-51.172
N14610 X-14.501 Y-51.29
N14615 X-14.473 Y-51.405
N14620 X-14.431 Y-51.516
N14625 X-14.376 Y-51.621
N14630 X-14.309 Y-51.719
N14635 X-14.23 Y-51.808
N14640 X-14.141 Y-51.886
N14645 X-14.044 Y-51.954
N14650 X-13.938 Y-52.009
N14655 X-13.827 Y-52.051
N14660 X-13.712 Y-52.079
N14665 X-13.594 Y-52.093
N14670 X-13.476 Y-52.092
N14675 X-13.365 Y-52.082 Z-6.986 F#104
N14680 X-13.256 Y-52.058 Z-6.971
N14685 X-13.151 Y-52.021 Z-6.957
N14690 X-13.052 Y-51.97 Z-6.943
N14695 X-12.959 Y-51.907 Z-6.929
N14700 X-12.876 Y-51.833 Z-6.914
N14705 X-12.802 Y-51.749 Z-6.9
N14710 G3 X-12.651 Y-51.01 I-0.704 J0.528
N14715 X-12.698 Y-50.87 I-0.855 J-0.211 F#105
N14720 X-13.44 Y-50.312 I-0.862 J-0.374
N14725 X-14.167 Y-50.526 I-0.121 J-0.932 F#103
N14730 X-14.5 Y-51.211 Z-7. I0.606 J-0.718
N14735 X-13.758 Y-52.096 I0.702 J-0.165 F#100
N14740 G1 X-13.661 Y-52.086 Z-6.988 F#104
N14745 X-13.567 Y-52.061 Z-6.975
N14750 X-13.477 Y-52.022 Z-6.963
N14755 X-13.394 Y-51.971 Z-6.95
N14760 X-13.32 Y-51.907 Z-6.938
N14765 X-13.256 Y-51.833 Z-6.925
N14770 X-13.204 Y-51.75 Z-6.913
N14775 X-13.165 Y-51.66 Z-6.9
N14780 G3 X-13.178 Y-51.208 I-0.615 J0.209
N14785 X-14.076 Y-50.83 I-0.637 J-0.256
N14790 X-14.5 Y-51.44 Z-7. I0.262 J-0.634 F#103
N14795 X-14.433 Y-51.832 I0.658 J-0.089 F#100
N14800 X-14.058 Y-51.946 I0.261 J0.186 F#104
N14805 X-14.286 Y-51.348 I-0.114 J0.299 F#103
N14810 X-14.489 Y-51.684 I0.114 J-0.299
N14815 X-13.987 Y-52.101 I0.519 J0.114 F#100
N14820 G1 X-11.612 Y-52.1
N14825 G3 X-9.509 Y-49.865 I-0.074 J2.177
N14830 G1 X-9.519 Y-49.78 Z-6.989 F#104
N14835 X-9.543 Y-49.698 Z-6.978
N14840 X-9.581 Y-49.621 Z-6.967
N14845 X-9.632 Y-49.551 Z-6.956
N14850 X-9.694 Y-49.492 Z-6.944
N14855 X-9.766 Y-49.444 Z-6.933
N14860 X-9.846 Y-49.409 Z-6.922
N14865 X-9.93 Y-49.388 Z-6.911
N14870 X-10.017 Y-49.383 Z-6.9
N14875 G3 X-10.366 Y-49.542 I0.017 J-0.5
N14880 G1 X-10.628 Y-49.825
N14885 X-11.674 Y-50.951 F#105
N14890 X-11.961 Y-51.26 F#103
N14895 G3 X-12.095 Y-51.583 I0.366 J-0.34
N14900 X-11.612 Y-52.1 Z-7. I0.5 J-0.017
N14905 X-9.506 Y-50.299 I0.325 J1.752 F#100
N14910 G1 X-9.516 Y-50.214 Z-6.989 F#104
N14915 X-9.541 Y-50.131 Z-6.978
N14920 X-9.579 Y-50.054 Z-6.967
N14925 X-9.631 Y-49.984 Z-6.956
N14930 X-9.693 Y-49.925 Z-6.944
N14935 X-9.766 Y-49.877 Z-6.933
N14940 X-9.845 Y-49.842 Z-6.922
N14945 X-9.93 Y-49.822 Z-6.911
N14950 X-10.017 Y-49.817 Z-6.9
N14955 G3 X-10.38 Y-49.992 I0.017 J-0.5
N14960 G1 X-10.616 Y-50.269
N14965 X-11.186 Y-50.938 F#105
N14970 X-11.474 Y-51.276 F#103
N14975 G3 X-11.593 Y-51.583 I0.381 J-0.324
N14980 X-11.11 Y-52.1 Z-7. I0.5 J-0.017
N14985 X-9.508 Y-50.706 I0.247 J1.334 F#100
N14990 G1 X-9.518 Y-50.621 Z-6.989 F#104
N14995 X-9.542 Y-50.539 Z-6.978
N15000 X-9.58 Y-50.462 Z-6.967
N15005 X-9.631 Y-50.392 Z-6.956
N15010 X-9.694 Y-50.333 Z-6.944
N15015 X-9.766 Y-50.285 Z-6.933
N15020 X-9.845 Y-50.25 Z-6.922
N15025 X-9.93 Y-50.229 Z-6.911
N15030 X-10.017 Y-50.224 Z-6.9
N15035 G3 X-10.392 Y-50.414 I0.017 J-0.5
N15040 G1 X-10.606 Y-50.685
N15045 X-10.797 Y-50.927 F#105
N15050 X-11.083 Y-51.291 F#103
N15055 G3 X-11.19 Y-51.583 I0.393 J-0.309
N15060 X-10.708 Y-52.1 Z-7. I0.5 J-0.017
N15065 X-9.507 Y-51.043 I0.179 J1.008 F#100
N15070 G1 X-9.516 Y-50.932 Z-6.986 F#104
N15075 X-9.539 Y-50.823 Z-6.971
N15080 X-9.576 Y-50.718 Z-6.957
N15085 X-9.625 Y-50.617 Z-6.943
N15090 X-9.685 Y-50.523 Z-6.929
N15095 X-9.757 Y-50.438 Z-6.914
N15100 X-9.839 Y-50.361 Z-6.9
N15105 G3 X-10.57 Y-50.167 I-0.581 J-0.714
N15110 X-10.77 Y-50.224 I0.151 J-0.908 F#105
N15115 X-11.371 Y-51.059 I0.371 J-0.902
N15120 X-11.125 Y-51.776 I0.973 J-0.067 F#103
N15125 X-10.433 Y-52.1 Z-7. I0.726 J0.651
N15130 X-9.503 Y-51.319 I0.165 J0.747 F#100
N15135 G1 X-9.513 Y-51.222 Z-6.988 F#104
N15140 X-9.537 Y-51.127 Z-6.975
N15145 X-9.574 Y-51.036 Z-6.963
N15150 X-9.623 Y-50.952 Z-6.95
N15155 X-9.683 Y-50.875 Z-6.938
N15160 X-9.754 Y-50.808 Z-6.925
N15165 X-9.834 Y-50.751 Z-6.913
N15170 X-9.921 Y-50.706 Z-6.9
N15175 G3 X-10.44 Y-50.697 I-0.27 J-0.637
N15180 X-10.652 Y-50.824 I0.261 J-0.677
N15185 X-10.77 Y-50.953 I0.473 J-0.551 F#105
N15190 X-10.831 Y-51.693 I0.591 J-0.421 F#103
N15195 X-10.204 Y-52.1 Z-7. I0.652 J0.319
N15200 X-9.776 Y-52.041 I0.112 J0.767 F#100
N15205 X-10.148 Y-51.468 I-0.186 J0.286 F#104
N15210 X-10.25 Y-51.938 I0.186 J-0.286
N15215 X-9.963 Y-52.098 I0.291 J0.185 F#103
N15220 G1 X-9.913 Y-52.09 F#100
N15225 X-9.863 Y-52.077
N15230 X-9.82 Y-52.062
N15235 X-9.776 Y-52.041
N15240 X-9.753 Y-52.027
N15245 X-9.708 Y-51.996
N15250 X-9.69 Y-51.983
N15255 G3 X-9.655 Y-51.6 I-0.206 J0.212 F#104
N15260 X-10.135 Y-51.939 I-0.24 J-0.169 F#103
N15265 X-9.753 Y-52.027 I0.24 J0.169
N15270 X-9.5 Y-51.58 I-0.278 J0.453 F#100
N15275 G1 Y-49.435
N15280 Y-49.367 F#103
N15285 G3 X-13.675 Y-47.278 I-2.469 J0.282 F#100
N15290 X-14.5 Y-49.359 I1.453 J-1.78
N15295 X-13.983 Y-49.842 Z-6.9 I0.5 J0.017 F#104
N15300 X-13.923 Y-49.836 I-0.017 J0.5
N15305 G1 X-13.213 Y-49.724
N15310 X-10.786 Y-49.342 F#105
N15315 X-10.016 Y-49.221 F#103
N15320 X-9.922 Y-49.206 Z-6.912
N15325 G3 X-9.5 Y-48.729 Z-7. I-0.078 J0.494
N15330 X-11.385 Y-46.422 I-2.212 J0.116 F#100
N15335 X-14.501 Y-49.021 I-0.657 J-2.38
N15340 G1 X-14.491 Y-49.107 Z-6.989 F#104
N15345 X-14.465 Y-49.191 Z-6.978
N15350 X-14.425 Y-49.268 Z-6.967
N15355 X-14.373 Y-49.338 Z-6.956
N15360 X-14.309 Y-49.397 Z-6.944
N15365 X-14.235 Y-49.445 Z-6.933
N15370 X-14.155 Y-49.479 Z-6.922
N15375 X-14.07 Y-49.498 Z-6.911
N15380 X-13.983 Y-49.503 Z-6.9
N15385 G3 X-13.912 Y-49.495 I-0.017 J0.5
N15390 G1 X-13.215 Y-49.37
N15395 X-10.783 Y-48.931 F#105
N15400 X-10.016 Y-48.793 F#103
N15405 X-9.911 Y-48.774 Z-6.914
N15410 G3 X-9.5 Y-48.3 Z-7. I-0.089 J0.492
N15415 X-11.024 Y-46.246 I-2.057 J0.066 F#100
N15420 X-14.515 Y-48.755 I-0.98 J-2.318
N15425 G1 X-14.502 Y-48.843 Z-6.989 F#104
N15430 X-14.474 Y-48.928 Z-6.978
N15435 X-14.432 Y-49.007 Z-6.967
N15440 X-14.378 Y-49.076 Z-6.956
N15445 X-14.312 Y-49.135 Z-6.944
N15450 X-14.237 Y-49.182 Z-6.933
N15455 X-14.156 Y-49.215 Z-6.922
N15460 X-14.07 Y-49.233 Z-6.911
N15465 X-13.983 Y-49.236 Z-6.9
N15470 G3 X-13.899 Y-49.226 I-0.017 J0.5
N15475 G1 X-13.219 Y-49.085
N15480 X-10.778 Y-48.579 F#105
N15485 X-10.015 Y-48.421 F#103
N15490 X-9.898 Y-48.397 Z-6.915
N15495 G3 X-9.5 Y-47.924 Z-7. I-0.101 J0.49
N15500 X-10.914 Y-46.002 I-1.952 J0.045 F#100
N15505 X-14.522 Y-48.459 I-1.076 J-2.298
N15510 G1 X-14.508 Y-48.549 Z-6.989 F#104
N15515 X-14.48 Y-48.634 Z-6.978
N15520 X-14.437 Y-48.713 Z-6.967
N15525 X-14.381 Y-48.783 Z-6.956
N15530 X-14.314 Y-48.842 Z-6.944
N15535 X-14.239 Y-48.888 Z-6.933
N15540 X-14.156 Y-48.92 Z-6.922
N15545 X-14.071 Y-48.938 Z-6.911
N15550 X-13.983 Y-48.94 Z-6.9
N15555 G3 X-13.895 Y-48.929 I-0.017 J0.5
N15560 G1 X-13.22 Y-48.784
N15565 X-10.777 Y-48.258 F#105
N15570 X-10.015 Y-48.093 F#103
N15575 X-9.894 Y-48.068 Z-6.916
N15580 G3 X-9.5 Y-47.596 Z-7. I-0.105 J0.489
N15585 X-10.925 Y-45.713 I-1.93 J0.021 F#100
N15590 X-14.523 Y-48.169 I-1.063 J-2.307
N15595 G1 X-14.51 Y-48.259 Z-6.989 F#104
N15600 X-14.481 Y-48.345 Z-6.978
N15605 X-14.437 Y-48.424 Z-6.967
N15610 X-14.381 Y-48.494 Z-6.956
