%
(1001)
(T3  D=3. CR=0. TAPER=118DEG - ZMIN=-2. - DRILL)
N10 G90 G94 G17 G91.1
N15 G21
N20 G53 G0 Z0.
(DRILL1)
N25 M9
N30 T3 M6
N35 S2500 M3
N40 G54
N45 M9
N55 G0 X-57.552 Y-76.518
N60 G43 Z4. H3
N70 G0 Z2.
N75 G98 G81 X-57.552 Y-76.518 Z-2. R2. F125.
N80 X-30.031 Y-72.018
N85 X-2.552 Y-76.518
N90 X-14.023 Y-36.03
N95 X-30.011 Y-45.018
N100 X-46.023 Y-36.007
N105 X-30.011 Y-20.018
N110 X-13.999 Y-4.03
N115 X-2.503 Y-9.518
N120 X-45.999 Y-4.007
N125 X-57.503 Y-9.518
N130 G80
N135 G0 Z4.
N145 M9
N150 G53 Z0.
N155 M30
%
