%
(1001)
(T5  D=2. CR=0. - ZMIN=-2. - FLAT END MILL)
N10 G90 G94 G17 G91.1
N15 G21
N20 G53 G0 Z0.
(2D CONTOUR1)
N25 M9
N30 T5 M6
N35 S3700 M3
N40 G54
N45 M9
N55 G0 X-2.503 Y-9.518
N60 G43 Z4. H5
N65 #100=150. (CUTTING)
N70 #101=150. (PREDRILLING)
N75 #103=130. (ENTRY)
N80 #104=150. (EXIT)
N85 #107=150. (RAMPING)
N90 G0 Z2.7
N95 G1 Z2. F#103
N100 Z-1. F#101
N105 G3 X-2.603 Y-9.418 I-0.1 J0. F#100
N110 G1 X-2.903
N115 G3 X-3.003 Y-9.518 I0. J-0.1
N120 G1 X-3.052 Y-76.518
N125 G3 X-2.052 Y-76.519 I0.5 J0.
N130 G1 X-2.003 Y-9.519
N135 G3 X-2.503 Y-9.018 I-0.5 J0.
N140 X-3.003 Y-9.518 I0. J-0.5
N145 S3300
N150 G1 X-3.024 Y-38.154 Z-2. F#107
N155 S3700
N160 X-3.052 Y-76.518 F#100
N165 G3 X-2.052 Y-76.519 I0.5 J0.
N170 G1 X-2.003 Y-9.519
N175 G3 X-2.503 Y-9.018 I-0.5 J0.
N180 X-3.003 Y-9.518 I0. J-0.5
N185 G1 X-3.024 Y-38.154
N190 G3 X-2.824 Y-38.354 I0.2 J0. F#104
N195 G1 X-2.624 Y-38.355
N200 X-2.573 Z-1.993
N205 X-2.524 Z-1.973
N210 X-2.483 Z-1.941
N215 X-2.451 Z-1.9
N220 X-2.431 Z-1.852
N225 X-2.424 Z-1.8
N230 G0 Z2.7
N235 X-57.503 Y-9.518
N240 G1 Z2. F#103
N245 Z-1. F#101
N250 G3 X-57.403 Y-9.418 I0. J0.1 F#100
N255 G1 Y-9.118
N260 G3 X-57.503 Y-9.018 I-0.1 J0.
N265 X-58.003 Y-9.518 I0. J-0.5
N270 G1 X-58.052 Y-76.518
N275 G3 X-57.553 Y-77.018 I0.5 J0.
N280 X-57.052 Y-76.519 I0. J0.5
N285 G1 X-57.003 Y-9.519
N290 G3 X-57.503 Y-9.018 I-0.5 J0.
N295 S3300
N300 X-58.003 Y-9.518 Z-1.027 I0. J-0.5 F#107
N305 G1 X-58.024 Y-37.369 Z-2.
N310 S3700
N315 X-58.052 Y-76.518 F#100
N320 G3 X-57.553 Y-77.018 I0.5 J0.
N325 X-57.052 Y-76.519 I0. J0.5
N330 G1 X-57.003 Y-9.519
N335 G3 X-58.003 Y-9.518 I-0.5 J0.
N340 G1 X-58.024 Y-37.369
N345 G3 X-57.824 Y-37.569 I0.2 J0. F#104
N350 G1 X-57.624
N355 X-57.572 Z-1.993
N360 X-57.524 Z-1.973
N365 X-57.482 Z-1.941
N370 X-57.451 Z-1.9
N375 X-57.431 Z-1.852
N380 X-57.424 Z-1.8
N385 G0 Z4.
N395 M9
N400 G53 Z0.
N405 M30
%
