%
(1001)
(6MM TWO FLUTE)
(T1  D=6. CR=0. - ZMIN=-2. - FLAT END MILL)
N10 G90 G94 G17 G91.1
N15 G21
N20 G53 G0 Z0.
(2D CONTOUR3)
N25 M9
N30 T1 M6
N35 S3200 M3
N40 G54
N45 M8
N55 G0 X-29.97 Y-57.754
N60 G43 Z4. H1
N65 #100=330. (CUTTING)
N70 #103=200. (ENTRY)
N75 #104=200. (EXIT)
N80 #106=82.5 (REDUCED)
N85 #107=270. (RAMPING)
N90 #108=100. (PLUNGE)
N95 G0 Z3.1
N100 S3000
N105 G1 Y-57.747 Z3.008 F#107
N110 Y-57.726 Z2.918
N115 Y-57.691 Z2.833
N120 Y-57.644 Z2.754
N125 Y-57.585 Z2.683
N130 Y-57.516 Z2.622
N135 Y-57.439 Z2.572
N140 Y-57.355 Z2.534
N145 Y-57.266 Z2.51
N150 Y-57.175 Z2.5
N155 X-29.961 Y-45.018 Z2.075
N160 G3 X-30.011 Y-44.968 Z2.073 I-0.05 J0.
N165 X-30.061 Y-45.018 Z2.07 I0. J-0.05
N170 G1 X-30.082 Y-74.018 Z1.057
N175 G3 X-30.032 Y-74.068 Z1.055 I0.05 J0.
N180 X-29.982 Y-74.018 Z1.052 I0. J0.05
N185 G1 X-29.961 Y-45.018 Z0.039
N190 G3 X-30.011 Y-44.968 Z0.036 I-0.05 J0.
N195 X-30.061 Y-45.018 Z0.034 I0. J-0.05
N200 G1 X-30.082 Y-74.018 Z-0.979
N205 G3 X-30.032 Y-74.068 Z-0.982 I0.05 J0.
N210 X-29.982 Y-74.018 Z-0.985 I0. J0.05
N215 G1 X-29.961 Y-45.018 Z-1.997
N220 G3 X-30.011 Y-44.968 Z-2. I-0.05 J0.
N225 S3200
N230 X-30.061 Y-45.018 I0. J-0.05 F#106
N235 G1 X-30.081 Y-72.818 F#100
N240 X-30.082 Y-74.018 F#106
N245 G3 X-30.032 Y-74.068 I0.05 J0.
N250 X-29.982 Y-74.018 I0. J0.05
N255 G1 X-29.962 Y-46.218 F#100
N260 X-29.961 Y-45.018 F#106
N265 G3 X-30.011 Y-44.968 I-0.05 J0.
N270 G1 X-30.014 F#104
N275 X-30.016 Y-44.969 Z-1.999
N280 X-30.019 Y-44.97
N285 X-30.021 Y-44.971 Z-1.998
N290 X-30.023 Y-44.972 Z-1.996
N295 X-30.025 Y-44.973 Z-1.995
N300 X-30.026 Y-44.974 Z-1.993
N305 X-30.028 Y-44.975 Z-1.991
N310 X-30.029 Y-44.976 Z-1.989
N315 X-30.03 Y-44.977 Z-1.987
N320 Y-44.978 Z-1.984
N325 X-30.031 Y-44.979 Z-1.982
N330 Z-1.979
N335 Z-1.976
N340 G0 Z3.1
N345 X-40.03 Y-22.023
N350 G1 X-40.037 Y-22.025 Z3.006 F#108
N355 X-40.058 Y-22.031 Z2.915
N360 X-40.093 Y-22.04 Z2.828
N365 X-40.141 Y-22.052 Z2.747
N370 X-40.2 Y-22.068 Z2.676
N375 X-40.269 Y-22.086 Z2.615
N380 X-40.347 Y-22.106 Z2.565
N385 X-40.431 Y-22.128 Z2.529
N390 X-40.52 Y-22.151 Z2.507
N395 X-40.61 Y-22.175 Z2.5
N400 X-41.191 Y-22.327 F#103
N405 G3 X-41.619 Y-23.06 I0.152 J-0.58
N410 S3000
N415 X-18.403 Y-16.977 Z1.184 I11.608 J3.041 F#107
N420 X-41.619 Y-23.06 Z-0.133 I-11.608 J-3.041
N425 X-18.403 Y-16.977 Z-1.449 I11.608 J3.041
N430 X-30.002 Y-8.018 Z-2. I-11.608 J-3.041
N435 S3200
N440 X-30.02 Y-32.018 I-0.009 J-12. F#100
N445 X-30.002 Y-8.018 I0.009 J12.
N450 X-30.603 Y-8.618 I0. J-0.6 F#104
N455 G1 Y-9.218
N460 Y-9.312 Z-1.993
N465 Y-9.403 Z-1.971
N470 Y-9.49 Z-1.935
N475 Y-9.571 Z-1.885
N480 Y-9.642 Z-1.824
N485 Y-9.703 Z-1.753
N490 Y-9.752 Z-1.672
N495 Y-9.788 Z-1.585
N500 X-30.604 Y-9.81 Z-1.494
N505 Y-9.818 Z-1.4
N510 G0 Z4.
N520 M9
N525 G53 Z0.
N530 M30
%
