%
(1001)
(T2  D=4. CR=0. - ZMIN=-2. - FLAT END MILL)
N10 G90 G94 G17 G91.1
N15 G21
N20 G53 G0 Z0.
(2D CONTOUR3)
N25 M9
N30 T2 M6
N35 S3300 M3
N40 G54
N45 M9
N55 G0 X-30.011 Y-45.018
N60 G43 Z4. H2
N65 #100=220. (CUTTING)
N70 #101=220. (PREDRILLING)
N75 #103=210. (ENTRY)
N80 #104=210. (EXIT)
N85 #107=200. (RAMPING)
N90 #108=120. (PLUNGE)
N95 G0 Z2.9
N100 G1 Z1. F#103
N105 Z-2. F#101
N110 G3 X-30.211 Y-44.818 I-0.2 J0. F#100
N115 G1 X-30.411
N120 G3 X-30.611 Y-45.018 I0. J-0.2
N125 G1 X-30.631 Y-72.018
N130 G3 X-30.031 Y-72.618 I0.6 J0.
N135 X-29.431 Y-72.019 I0. J0.6
N140 G1 X-29.411 Y-45.019
N145 G3 X-30.611 Y-45.018 I-0.6 J0.
N150 X-30.608 Y-45.07 Z-1.997 I0.4 J0. F#104
N155 X-30.598 Y-45.12 Z-1.986 I0.397 J0.052
N160 X-30.582 Y-45.167 Z-1.97 I0.387 J0.102
N165 X-30.562 Y-45.21 Z-1.946 I0.371 J0.149
N170 X-30.539 Y-45.247 Z-1.917 I0.351 J0.192
N175 X-30.515 Y-45.278 Z-1.883 I0.328 J0.229
N180 G1 X-30.492 Y-45.303 Z-1.844
N185 X-30.47 Y-45.323 Z-1.8
N190 X-30.452 Y-45.337 Z-1.753
N195 X-30.439 Y-45.347 Z-1.704
N200 X-30.43 Y-45.353 Z-1.652
N205 X-30.427 Y-45.355 Z-1.6
N210 G0 Z2.9
N215 X-40.243 Y-14.127
N220 G1 X-40.25 Y-14.124 Z2.822 F#108
N225 X-40.27 Y-14.113 Z2.747
N230 X-40.303 Y-14.096 Z2.678
N235 X-40.347 Y-14.072 Z2.617
N240 X-40.4 Y-14.044 Z2.567
N245 X-40.461 Y-14.011 Z2.53
N250 X-40.527 Y-13.976 Z2.508
N255 X-40.596 Y-13.94 Z2.5
N260 X-40.95 Y-13.752 F#103
N265 G3 X-41.49 Y-13.917 I-0.188 J-0.353
N270 S3100
N275 X-18.532 Y-26.119 Z1.074 I11.479 J-6.101 F#107
N280 X-41.49 Y-13.917 Z-0.352 I-11.479 J6.101
N285 X-18.532 Y-26.119 Z-1.779 I11.479 J-6.101
N290 X-17.011 Y-20.028 Z-2. I-11.479 J6.101
N295 S3300
N300 X-43.011 Y-20.009 I-13. J0.01 F#100
N305 X-17.011 Y-20.028 I13. J-0.01
N310 X-17.411 Y-19.628 I-0.4 J0. F#104
N315 G1 X-17.811 Y-19.627
N320 X-17.889 Z-1.992
N325 X-17.964 Z-1.97
N330 X-18.033 Z-1.933
N335 X-18.094 Z-1.883
N340 X-18.143 Z-1.822
N345 X-18.18 Z-1.753
N350 X-18.203 Z-1.678
N355 X-18.211 Z-1.6
N360 G0 Z2.9
N365 X-63.216 Y-27.408
N370 G1 X-63.209 Z2.822 F#108
N375 X-63.186 Z2.747
N380 X-63.149 Z2.678
N385 X-63.099 Z2.617
N390 X-63.039 Z2.567
N395 X-62.97 Z2.53
N400 X-62.894 Z2.508
N405 X-62.816 Z2.5
N410 X-62.416 F#103
N415 G3 X-62.016 Y-27.008 I0. J0.4
N420 S3100
N425 G1 X-62. Y-4.995 Z1.731 F#107
N430 G2 X-59.238 Y0.571 Z1.506 I7. J-0.005
N435 X-54.995 Y2. Z1.347 I4.238 J-5.571
N440 G1 X-4.995 Y1.963 Z-0.399
N445 G2 X2. Y-5.042 Z-0.783 I-0.005 J-7.
N450 G1 X1.974 Y-39.9 Z-2.
N455 S3300
N460 X1.947 Y-77.022 F#100
N465 G2 X-3.053 Y-82.018 I-5. J0.004
N470 G1 X-57.053
N475 G2 X-62.053 Y-77.015 I0. J5.
N480 G1 X-62. Y-4.995
N485 G2 X-59.238 Y0.571 I7. J-0.005
N490 X-54.995 Y2. I4.238 J-5.571
N495 G1 X-4.995 Y1.963
N500 G2 X2. Y-5.042 I-0.005 J-7.
N505 G1 X1.974 Y-39.9
N510 G3 X2.374 Y-40.3 I0.4 J0. F#104
N515 G1 X2.774 Y-40.301
N520 X2.852 Z-1.992
N525 X2.927 Z-1.97
N530 X2.996 Z-1.933
N535 X3.057 Z-1.883
N540 X3.107 Z-1.822
N545 X3.144 Z-1.753
N550 X3.166 Z-1.678
N555 X3.174 Z-1.6
N560 G0 Z4.
N570 M9
N575 G53 Z0.
N580 M30
%
