%
(1001)
(6MM TWO FLUTE)
(T1  D=6. CR=0. - ZMIN=-2. - FLAT END MILL)
N10 G90 G94 G17 G91.1
N15 G21
N20 G53 G0 Z0.
(2D CONTOUR3 2)
N25 M9
N30 T1 M6
N35 S3200 M3
N40 G54
N45 M8
N55 G0 X-64.814 Y-24.465
N60 G43 Z4. H1
N65 #100=330. (CUTTING)
N70 #103=200. (ENTRY)
N75 #104=200. (EXIT)
N80 #107=270. (RAMPING)
N85 #108=100. (PLUNGE)
N90 G0 Z3.1
N95 G1 X-64.807 Z3.006 F#108
N100 X-64.785 Z2.915
N105 X-64.749 Z2.828
N110 X-64.7 Z2.747
N115 X-64.639 Z2.676
N120 X-64.567 Z2.615
N125 X-64.487 Z2.565
N130 X-64.4 Z2.529
N135 X-64.308 Z2.507
N140 X-64.214 Z2.5
N145 X-63.614 Y-24.466 F#103
N150 G3 X-63.014 Y-23.866 I0. J0.6
N155 S3000
N160 G1 X-63. Y-4.994 Z1.841 F#107
N165 G2 X-54.994 Y3. Z1.402 I8. J-0.006
N170 G1 X-4.994 Y2.963 Z-0.344
N175 G2 X3. Y-5.043 Z-0.783 I-0.006 J-8.
N180 G1 X2.974 Y-39.901 Z-2.
N185 S3200
N190 X2.947 Y-77.023 F#100
N195 G2 X-3.053 Y-83.018 I-6. J0.004
N200 G1 X-57.053
N205 G2 X-63.053 Y-77.014 I0. J6.
N210 G1 X-63. Y-4.994
N215 G2 X-54.994 Y3. I8. J-0.006
N220 G1 X-4.994 Y2.963
N225 G2 X3. Y-5.043 I-0.006 J-8.
N230 G1 X2.974 Y-39.901
N235 G3 X3.574 Y-40.501 I0.6 J0. F#104
N240 G1 X4.174 Y-40.502
N245 X4.268 Z-1.993
N250 X4.359 Z-1.971
N255 X4.446 Z-1.935
N260 X4.527 Z-1.885
N265 X4.598 Z-1.824
N270 X4.659 Z-1.753
N275 X4.709 Z-1.672
N280 X4.745 Z-1.585
N285 X4.767 Z-1.494
N290 X4.774 Z-1.4
N295 G0 Z4.
N305 M9
N310 G53 Z0.
N315 M30
%
