%
(1001)
(T1  D=6. CR=0. - ZMIN=-2. - FLAT END MILL)
N10 G90 G94 G17 G91.1
N15 G21
N20 G53 G0 Z0.
(2D ADAPTIVE1)
N25 M9
N30 T1 M6
N35 S3200 M3
N40 G54
N45 M8
N55 G0 X-65.023 Y-76.175
N60 G43 Z4. H1
N65 #100=330. (CUTTING)
N70 #103=200. (ENTRY)
N75 #104=200. (EXIT)
N80 #105=3000. (DIRECT)
N85 G0 Z-1.
N90 G1 Z-1.5 F#103
N95 X-65.016 Y-76.178 Z-1.587
N100 X-64.995 Y-76.186 Z-1.671
N105 X-64.961 Y-76.199 Z-1.75
N110 X-64.914 Y-76.217 Z-1.821
N115 X-64.856 Y-76.239 Z-1.883
N120 X-64.79 Y-76.264 Z-1.933
N125 X-64.716 Y-76.292 Z-1.97
N130 X-64.637 Y-76.322 Z-1.992
N135 X-64.556 Y-76.353 Z-2.
N140 G3 X-62.995 Y-76.528 I1.123 J2.959
N145 X-62.736 Y-75.931 I-0.437 J0.544 F#100
N150 X-62.474 Y-68.808 I-47.15 J5.307
N155 G1 X-62.473 Y-43.111
N160 Y-13.869
N165 G3 X-64.347 Y-11.993 I-1.875 J0.
N170 X-64.324 Y-12.993 I0.017 J-0.5 F#104
N175 G1 X-64.313
N180 X-64.226 Y-12.99 Z-1.992
N185 X-64.142 Y-12.987 Z-1.97
N190 X-64.063 Y-12.984 Z-1.933
N195 X-63.992 Y-12.982 Z-1.883
N200 X-63.93 Y-12.979 Z-1.821
N205 X-63.88 Y-12.978 Z-1.75
N210 X-63.843 Y-12.977 Z-1.671
N215 X-63.821 Y-12.976 Z-1.587
N220 X-63.813 Y-12.975 Z-1.5
N225 G0 Z-1.
N230 X-64.981 Y-76.168
N235 G1 Z-1.5 F#103
N240 X-64.974 Y-76.171 Z-1.587
N245 X-64.953 Y-76.179 Z-1.671
N250 X-64.918 Y-76.192 Z-1.75
N255 X-64.872 Y-76.21 Z-1.821
N260 X-64.814 Y-76.231 Z-1.883
N265 X-64.747 Y-76.257 Z-1.933
N270 X-64.673 Y-76.285 Z-1.97
N275 X-64.595 Y-76.315 Z-1.992
N280 X-64.514 Y-76.345 Z-2.
N285 G3 X-62.953 Y-76.521 I1.123 J2.959
N290 X-62.514 Y-75.954 I-0.211 J0.616 F#100
N295 X-62.002 Y-71.847 I-12.023 J3.584
N300 X-61.974 Y-67.417 I-227.495 J3.679
N305 G1 X-61.973 Y-59.442
N310 Y-15.136
N315 G3 X-63.588 Y-12.097 I-2.88 J0.418
N320 G1 X-64. Y-12.028
N325 X-64.407 Y-11.993
N330 G3 X-64.383 Y-12.993 I0.017 J-0.5 F#104
N335 G1 X-64.372
N340 X-64.286 Y-12.99 Z-1.992
N345 X-64.201 Y-12.987 Z-1.97
N350 X-64.122 Y-12.984 Z-1.933
N355 X-64.051 Y-12.982 Z-1.883
N360 X-63.99 Y-12.979 Z-1.821
N365 X-63.94 Y-12.978 Z-1.75
N370 X-63.903 Y-12.976 Z-1.671
N375 X-63.88 Z-1.587
N380 X-63.873 Y-12.975 Z-1.5
N385 G0 Z-1.
N390 X-64.85 Y-76.145
N395 G1 Z-1.5 F#103
N400 X-64.843 Y-76.148 Z-1.587
N405 X-64.821 Y-76.156 Z-1.671
N410 X-64.787 Y-76.169 Z-1.75
N415 X-64.74 Y-76.186 Z-1.821
N420 X-64.683 Y-76.208 Z-1.883
N425 X-64.616 Y-76.234 Z-1.933
N430 X-64.542 Y-76.262 Z-1.97
N435 X-64.463 Y-76.292 Z-1.992
N440 X-64.382 Y-76.322 Z-2.
N445 G3 X-62.821 Y-76.498 I1.123 J2.959
N450 X-62.24 Y-75.852 I-0.412 J0.955 F#100
N455 X-61.526 Y-71.619 I-9.97 J3.858
N460 X-61.474 Y-66.303 I-169.45 J4.323
N465 G1 X-61.473 Y-60.1
N470 Y-16.68
N475 G3 X-61.878 Y-13.356 I-7.864 J0.728
N480 X-64.249 Y-11.993 I-2.405 J-1.441
N485 X-64.226 Y-12.993 I0.017 J-0.5 F#104
N490 G1 X-64.215
N495 X-64.128 Y-12.99 Z-1.992
N500 X-64.044 Y-12.987 Z-1.97
N505 X-63.965 Y-12.984 Z-1.933
N510 X-63.894 Y-12.982 Z-1.883
N515 X-63.832 Y-12.98 Z-1.821
N520 X-63.782 Y-12.978 Z-1.75
N525 X-63.746 Y-12.977 Z-1.671
N530 X-63.723 Y-12.976 Z-1.587
N535 X-63.716 Z-1.5
N540 G0 Z-1.
N545 X-64.719 Y-76.122
N550 G1 Z-1.5 F#103
N555 X-64.711 Y-76.125 Z-1.587
N560 X-64.69 Y-76.133 Z-1.671
N565 X-64.656 Y-76.146 Z-1.75
N570 X-64.609 Y-76.163 Z-1.821
N575 X-64.552 Y-76.185 Z-1.883
N580 X-64.485 Y-76.211 Z-1.933
N585 X-64.411 Y-76.239 Z-1.97
N590 X-64.332 Y-76.269 Z-1.992
N595 X-64.251 Y-76.299 Z-2.
N600 G3 X-62.69 Y-76.475 I1.123 J2.959
N605 X-61.925 Y-75.733 I-0.359 J1.136 F#100
N610 X-61.064 Y-71.573 I-8.851 J4.
N615 X-60.973 Y-60.941 I-248.667 J7.449
N620 G1 Y-26.382
N625 Y-16.635
N630 G3 X-61.719 Y-13.118 I-5.845 J0.598
N635 X-63.892 Y-11.993 I-2.175 J-1.542
N640 X-63.869 Y-12.993 I0.017 J-0.5 F#104
N645 G1 X-63.858
N650 X-63.771 Y-12.99 Z-1.992
N655 X-63.687 Y-12.987 Z-1.97
N660 X-63.608 Y-12.984 Z-1.933
N665 X-63.537 Y-12.982 Z-1.883
N670 X-63.475 Y-12.98 Z-1.821
N675 X-63.425 Y-12.978 Z-1.75
N680 X-63.389 Y-12.977 Z-1.671
N685 X-63.366 Y-12.976 Z-1.587
N690 X-63.358 Z-1.5
N695 G0 Z-1.
N700 X-64.544 Y-76.091
N705 G1 Z-1.5 F#103
N710 X-64.536 Y-76.094 Z-1.587
N715 X-64.515 Y-76.102 Z-1.671
N720 X-64.481 Y-76.115 Z-1.75
N725 X-64.434 Y-76.133 Z-1.821
N730 X-64.377 Y-76.155 Z-1.883
N735 X-64.31 Y-76.18 Z-1.933
N740 X-64.236 Y-76.208 Z-1.97
N745 X-64.157 Y-76.238 Z-1.992
N750 X-64.076 Y-76.269 Z-2.
N755 G3 X-62.515 Y-76.444 I1.123 J2.959
N760 X-61.768 Y-75.93 I-0.076 J0.909 F#100
N765 G1 X-61.595 Y-75.608
N770 X-61.436 Y-75.28
N775 X-61.291 Y-74.945
N780 X-61.159 Y-74.604
N785 X-61.042 Y-74.259
N790 X-60.939 Y-73.908
N795 X-60.852 Y-73.554
N800 X-60.779 Y-73.197
N805 X-60.721 Y-72.836
N810 X-60.678 Y-72.474
N815 X-60.65 Y-72.11
N820 X-60.637 Y-71.745
N825 X-60.64 Y-71.38
N830 G3 X-60.474 Y-64.292 I-78.03 J5.371
N835 G1 X-60.473 Y-58.975
N840 Y-18.214
N845 G3 X-61.049 Y-13.548 I-11.299 J0.972
N850 X-63.519 Y-11.994 I-2.532 J-1.283
N855 X-63.495 Y-12.993 I0.017 J-0.5 F#104
N860 G1 X-63.485
N865 X-63.398 Y-12.99 Z-1.992
N870 X-63.314 Y-12.987 Z-1.97
N875 X-63.235 Y-12.985 Z-1.933
N880 X-63.163 Y-12.982 Z-1.883
N885 X-63.102 Y-12.98 Z-1.821
N890 X-63.052 Y-12.978 Z-1.75
N895 X-63.015 Y-12.977 Z-1.671
N900 X-62.992 Y-12.976 Z-1.587
N905 X-62.985 Z-1.5
N910 G0 Z-1.
N915 X-64.342 Y-76.056
N920 G1 Z-1.5 F#103
N925 X-64.335 Y-76.059 Z-1.587
N930 X-64.314 Y-76.067 Z-1.671
N935 X-64.28 Y-76.08 Z-1.75
N940 X-64.233 Y-76.097 Z-1.821
N945 X-64.175 Y-76.119 Z-1.883
N950 X-64.109 Y-76.145 Z-1.933
N955 X-64.035 Y-76.173 Z-1.97
N960 X-63.956 Y-76.203 Z-1.992
N965 X-63.875 Y-76.233 Z-2.
N970 G3 X-62.314 Y-76.409 I1.123 J2.959
N975 X-61.306 Y-75.662 I-0.194 J1.316 F#100
N980 G1 X-61.134 Y-75.323
N985 X-60.975 Y-74.978
N990 X-60.829 Y-74.627
N995 X-60.696 Y-74.271
N1000 X-60.577 Y-73.911
N1005 X-60.471 Y-73.546
N1010 X-60.379 Y-73.177
N1015 X-60.3 Y-72.805
N1020 X-60.236 Y-72.431
N1025 X-60.185 Y-72.054
N1030 X-60.149 Y-71.676
N1035 X-60.126 Y-71.297
N1040 X-60.118 Y-70.917
N1045 X-60.124 Y-70.537
N1050 G3 X-59.974 Y-63.448 I-86.855 J5.379
N1055 G1 X-59.973 Y-58.131
N1060 Y-26.231
N1065 Y-18.256
N1070 G3 X-60.789 Y-13.3 I-10.37 J0.838
N1075 X-63.132 Y-11.983 I-2.466 J-1.647
N1080 G1 X-63.22 Y-11.995 F#104
N1085 X-63.304 Y-12.021
N1090 X-63.383 Y-12.061
N1095 X-63.453 Y-12.114
N1100 X-63.513 Y-12.178
N1105 X-63.561 Y-12.252
N1110 X-63.596 Y-12.332
N1115 X-63.616 Y-12.418
N1120 X-63.621 Y-12.505
N1125 X-63.61 Y-12.592
N1130 X-63.586 Y-12.676
N1135 X-63.547 Y-12.754
N1140 X-63.495 Y-12.824
N1145 X-63.432 Y-12.884
N1150 X-63.359 Y-12.932
N1155 X-63.28 Y-12.967
N1160 X-63.196 Y-12.988
N1165 X-63.109 Y-12.994
N1170 X-63.098 Y-12.993
N1175 X-63.012 Y-12.99 Z-1.992
N1180 X-62.927 Y-12.988 Z-1.97
N1185 X-62.849 Y-12.985 Z-1.933
N1190 X-62.777 Y-12.982 Z-1.883
N1195 X-62.716 Y-12.98 Z-1.821
N1200 X-62.666 Y-12.979 Z-1.75
N1205 X-62.629 Y-12.977 Z-1.671
N1210 X-62.606 Z-1.587
N1215 X-62.599 Y-12.976 Z-1.5
N1220 G0 Z-1.
N1225 X-64.078 Y-76.01
N1230 G1 Z-1.5 F#103
N1235 X-64.071 Y-76.012 Z-1.587
N1240 X-64.05 Y-76.02 Z-1.671
N1245 X-64.015 Y-76.033 Z-1.75
N1250 X-63.969 Y-76.051 Z-1.821
N1255 X-63.911 Y-76.073 Z-1.883
N1260 X-63.844 Y-76.098 Z-1.933
N1265 X-63.77 Y-76.126 Z-1.97
N1270 X-63.692 Y-76.156 Z-1.992
N1275 X-63.611 Y-76.187 Z-2.
N1280 G3 X-62.05 Y-76.362 I1.123 J2.959
N1285 X-60.853 Y-75.423 I-0.348 J1.674 F#100
N1290 X-59.618 Y-69.855 I-9.988 J5.136
N1295 X-59.473 Y-58.335 I-177.009 J7.992
N1300 G1 Y-26.435
N1305 Y-19.346
N1310 G3 X-60.161 Y-13.738 I-14.228 J1.1
N1315 G1 X-60.26 Y-13.543
N1320 X-60.373 Y-13.356
N1325 X-60.498 Y-13.178
N1330 X-60.636 Y-13.009
N1335 X-60.785 Y-12.85
N1340 X-60.946 Y-12.702
N1345 X-61.117 Y-12.566
N1350 X-61.296 Y-12.442
N1355 X-61.485 Y-12.332
N1360 X-61.68 Y-12.235
N1365 X-61.882 Y-12.153
N1370 X-62.09 Y-12.085
N1375 X-62.301 Y-12.032
N1380 X-62.516 Y-11.994
N1385 X-62.733 Y-11.972
N1390 X-62.823 Y-11.984 F#104
N1395 X-62.909 Y-12.011
N1400 X-62.989 Y-12.052
N1405 X-63.06 Y-12.106
N1410 X-63.121 Y-12.172
N1415 X-63.17 Y-12.247
N1420 X-63.204 Y-12.33
N1425 X-63.224 Y-12.416
N1430 X-63.229 Y-12.505
N1435 X-63.218 Y-12.593
N1440 X-63.192 Y-12.677
N1445 X-63.152 Y-12.756
N1450 X-63.1 Y-12.826
N1455 X-63.036 Y-12.886
N1460 X-62.963 Y-12.934
N1465 X-62.883 Y-12.969
N1470 X-62.798 Y-12.989
N1475 X-62.711 Y-12.994
N1480 X-62.701
N1485 X-62.614 Y-12.991 Z-1.992
N1490 X-62.53 Y-12.988 Z-1.97
N1495 X-62.451 Y-12.985 Z-1.933
N1500 X-62.379 Y-12.983 Z-1.883
N1505 X-62.318 Y-12.981 Z-1.821
N1510 X-62.268 Y-12.979 Z-1.75
N1515 X-62.231 Y-12.978 Z-1.671
N1520 X-62.208 Y-12.977 Z-1.587
N1525 X-62.201 Z-1.5
N1530 G0 Z-1.
N1535 X-63.843 Y-75.968
N1540 G1 Z-1.5 F#103
N1545 X-63.836 Y-75.971 Z-1.587
N1550 X-63.815 Y-75.979 Z-1.671
N1555 X-63.781 Y-75.992 Z-1.75
N1560 X-63.734 Y-76.01 Z-1.821
N1565 X-63.676 Y-76.032 Z-1.883
N1570 X-63.61 Y-76.057 Z-1.933
N1575 X-63.536 Y-76.085 Z-1.97
N1580 X-63.457 Y-76.115 Z-1.992
N1585 X-63.376 Y-76.146 Z-2.
N1590 G3 X-61.815 Y-76.321 I1.123 J2.959
N1595 X-60.455 Y-75.295 I-0.389 J1.931 F#100
N1600 G1 X-60.27 Y-74.934
N1605 X-60.098 Y-74.566
N1610 X-59.94 Y-74.192
N1615 X-59.796 Y-73.812
N1620 X-59.666 Y-73.428
N1625 X-59.55 Y-73.039
N1630 X-59.448 Y-72.645
N1635 X-59.36 Y-72.249
N1640 X-59.288 Y-71.85
N1645 X-59.229 Y-71.448
N1650 X-59.186 Y-71.044
N1655 X-59.157 Y-70.639
N1660 X-59.144 Y-70.233
N1665 X-59.145 Y-69.827
N1670 X-59.052 Y-68.941
N1675 X-59.047 Y-68.78
N1680 Y-68.75
N1685 G3 X-59.563 Y-68.268 Z-1.9 I-0.5 J-0.017 F#104
N1690 X-60.026 Y-68.626 I0.017 J-0.5
N1695 G1 X-60.07 Y-68.774
N1700 X-61.932 Y-75.094 F#105
N1705 X-62.093 Y-75.637 F#103
N1710 G3 X-62.108 Y-75.848 I0.48 J-0.141
N1715 X-61.544 Y-76.274 Z-2. I0.495 J0.07
N1720 X-59.896 Y-74.924 I-0.497 J2.286 F#100
N1725 X-59.032 Y-72.317 I-6.071 J3.459
N1730 G1 X-59.044 Y-72.228 Z-1.989 F#104
N1735 X-59.072 Y-72.142 Z-1.978
N1740 X-59.114 Y-72.063 Z-1.967
N1745 X-59.169 Y-71.993 Z-1.956
N1750 X-59.235 Y-71.933 Z-1.944
N1755 X-59.31 Y-71.886 Z-1.933
N1760 X-59.392 Y-71.853 Z-1.922
N1765 X-59.478 Y-71.835 Z-1.911
N1770 X-59.566 Y-71.832 Z-1.9
N1775 G3 X-59.991 Y-72.098 I0.017 J-0.5
N1780 G1 X-60.11 Y-72.323
N1785 X-61.572 Y-75.086 F#105
N1790 X-61.79 Y-75.498 F#103
N1795 G3 X-61.843 Y-75.801 I0.442 J-0.234
N1800 X-61.279 Y-76.227 Z-2. I0.495 J0.07
N1805 X-59.526 Y-74.886 I-0.422 J2.368 F#100
N1810 X-59.05 Y-73.347 I-2.492 J1.613
N1815 X-59.566 Y-72.865 Z-1.9 I-0.5 J-0.017 F#104
N1820 X-59.973 Y-73.097 I0.017 J-0.5
N1825 G1 X-60.129 Y-73.345
N1830 X-61.201 Y-75.043 F#105
N1835 X-61.429 Y-75.405 F#103
N1840 G3 X-61.501 Y-75.741 I0.423 J-0.267
N1845 X-60.937 Y-76.167 Z-2. I0.495 J0.07
N1850 X-59.079 Y-73.843 I-0.282 J2.13 F#100
N1855 G1 X-59.085 Y-73.76 Z-1.989 F#104
N1860 X-59.106 Y-73.68 Z-1.978
N1865 X-59.141 Y-73.604 Z-1.967
N1870 X-59.189 Y-73.534 Z-1.956
N1875 X-59.249 Y-73.474 Z-1.944
N1880 X-59.319 Y-73.425 Z-1.933
N1885 X-59.397 Y-73.388 Z-1.922
N1890 X-59.48 Y-73.365 Z-1.911
N1895 X-59.567 Y-73.358 Z-1.9
N1900 G3 X-59.971 Y-73.587 I0.017 J-0.5
N1905 G1 X-60.131 Y-73.836
N1910 X-60.873 Y-74.99 F#105
N1915 X-61.101 Y-75.344 F#103
N1920 G3 X-61.175 Y-75.688 I0.421 J-0.27
N1925 X-60.607 Y-76.109 Z-2. I0.495 J0.073
N1930 G1 X-60.45 Y-76.092 F#100
N1935 X-60.295 Y-76.06
N1940 X-60.144 Y-76.013
N1945 X-59.999 Y-75.952
N1950 X-59.859 Y-75.877
N1955 X-59.728 Y-75.789
N1960 X-59.605 Y-75.69
N1965 X-59.493 Y-75.579
N1970 X-59.392 Y-75.457
N1975 X-59.302 Y-75.327
N1980 X-59.226 Y-75.188
N1985 X-59.163 Y-75.043
N1990 X-59.115 Y-74.893
N1995 X-59.081 Y-74.739
N2000 X-59.062 Y-74.582
N2005 X-59.058 Y-74.424
N2010 X-59.066 Y-74.338 Z-1.989 F#104
N2015 X-59.09 Y-74.255 Z-1.978
N2020 X-59.128 Y-74.178 Z-1.967
N2025 X-59.179 Y-74.108 Z-1.956
N2030 X-59.241 Y-74.047 Z-1.944
N2035 X-59.313 Y-73.999 Z-1.933
N2040 X-59.392 Y-73.963 Z-1.922
N2045 X-59.476 Y-73.942 Z-1.911
N2050 X-59.563 Y-73.936 Z-1.9
N2055 G3 X-59.967 Y-74.158 I0.012 J-0.5
N2060 G1 X-60.134 Y-74.408
N2065 X-60.483 Y-74.929 F#105
N2070 X-60.695 Y-75.247 F#103
N2075 G3 X-60.769 Y-75.627 I0.416 J-0.278
N2080 X-60.177 Y-76.014 Z-2. I0.489 J0.102
N2085 X-59.278 Y-75.57 I-0.034 J1.201 F#100
N2090 X-59.411 Y-74.876 Z-1.9 I-0.414 J0.281 F#104
N2095 X-59.955 Y-74.864 I-0.281 J-0.414
N2100 G1 X-60.057 Y-74.928
N2105 X-60.2 Y-75.015 F#103
N2110 G3 X-60.427 Y-75.543 I0.262 J-0.426
N2115 X-59.836 Y-75.931 Z-2. I0.489 J0.102
N2120 X-59.088 Y-74.574 I-0.298 J1.049 F#100
N2125 G1 X-59.051 Y-74.362
N2130 X-59.01 Y-18.59
N2135 G3 X-59.751 Y-13.757 I-12.851 J0.503
N2140 G1 X-59.848 Y-13.561
N2145 X-59.96 Y-13.372
N2150 X-60.085 Y-13.191
N2155 X-60.222 Y-13.02
N2160 X-60.372 Y-12.859
N2165 X-60.533 Y-12.71
N2170 X-60.704 Y-12.572
N2175 X-60.884 Y-12.447
N2180 X-61.073 Y-12.335
N2185 X-61.27 Y-12.238
N2190 X-61.473 Y-12.154
N2195 X-61.682 Y-12.086
N2200 X-61.895 Y-12.033
N2205 X-62.111 Y-11.995
N2210 X-62.329 Y-11.973
N2215 X-62.419 Y-11.986 Z-1.989 F#104
N2220 X-62.505 Y-12.014 Z-1.978
N2225 X-62.585 Y-12.057 Z-1.967
N2230 X-62.655 Y-12.113 Z-1.956
N2235 X-62.714 Y-12.179 Z-1.944
N2240 X-62.761 Y-12.255 Z-1.933
N2245 X-62.793 Y-12.337 Z-1.922
N2250 X-62.811 Y-12.423 Z-1.911
N2255 X-62.813 Y-12.511 Z-1.9
N2260 G3 X-62.768 Y-12.704 I0.5 J0.017
N2265 G1 X-62.525 Y-13.23
N2270 X-60.059 Y-18.575 F#105
N2275 X-59.964 Y-18.782 F#103
N2280 G3 X-59.527 Y-19.072 I0.454 J0.209
N2285 X-59.01 Y-18.59 Z-2. I0.017 J0.5
N2290 X-59.048 Y-15.069 I-23.878 J1.5 F#100
N2295 X-61.1 Y-12.087 I-3.583 J-0.268
N2300 G1 X-61.527 Y-12.028
N2305 X-61.946 Y-11.995
N2310 G3 X-62.428 Y-12.511 Z-1.9 I0.017 J-0.5 F#104
N2315 X-62.325 Y-12.799 I0.5 J0.017
N2320 G1 X-62.039 Y-13.171
N2325 X-60.111 Y-15.679 F#105
N2330 X-59.904 Y-15.948 F#103
N2335 G3 X-59.525 Y-16.143 I0.396 J0.305
N2340 X-59.008 Y-15.661 Z-2. I0.017 J0.5
N2345 X-59.125 Y-13.825 I-4.587 J0.629 F#100
N2350 X-61.625 Y-11.997 I-2.487 J-0.778
N2355 G1 X-61.711 Y-12.007 Z-1.989 F#104
N2360 X-61.794 Y-12.032 Z-1.978
N2365 X-61.872 Y-12.072 Z-1.967
N2370 X-61.941 Y-12.124 Z-1.956
N2375 X-62.001 Y-12.187 Z-1.944
N2380 X-62.048 Y-12.26 Z-1.933
N2385 X-62.083 Y-12.34 Z-1.922
N2390 X-62.102 Y-12.425 Z-1.911
N2395 X-62.107 Y-12.512 Z-1.9
N2400 G3 X-61.957 Y-12.853 I0.5 J0.017
N2405 G1 X-61.673 Y-13.13
N2410 X-60.15 Y-14.617 F#105
N2415 X-59.856 Y-14.903 F#103
N2420 G3 X-59.524 Y-15.045 I0.349 J0.358
N2425 X-59.007 Y-14.563 Z-2. I0.017 J0.5
N2430 G1 X-58.98 Y-14.383 F#100
N2435 X-58.969 Y-14.201
N2440 X-58.972 Y-14.019
N2445 X-58.991 Y-13.838
N2450 X-59.026 Y-13.659
N2455 X-59.075 Y-13.483
N2460 X-59.139 Y-13.312
N2465 X-59.218 Y-13.148
N2470 X-59.309 Y-12.99
N2475 X-59.414 Y-12.841
N2480 X-59.531 Y-12.702
N2485 X-59.66 Y-12.572
N2490 X-59.799 Y-12.454
N2495 X-59.947 Y-12.348
N2500 X-60.104 Y-12.255
N2505 X-60.268 Y-12.176
N2510 X-60.438 Y-12.111
N2515 X-60.613 Y-12.06
N2520 X-60.792 Y-12.024
N2525 X-60.973 Y-12.004
N2530 X-61.155 Y-11.999
N2535 X-61.241 Y-12.009 Z-1.989 F#104
N2540 X-61.324 Y-12.034 Z-1.978
N2545 X-61.402 Y-12.073 Z-1.967
N2550 X-61.471 Y-12.125 Z-1.956
N2555 X-61.531 Y-12.188 Z-1.944
N2560 X-61.578 Y-12.26 Z-1.933
N2565 X-61.613 Y-12.34 Z-1.922
N2570 X-61.633 Y-12.425 Z-1.911
N2575 X-61.638 Y-12.512 Z-1.9
N2580 G3 X-61.465 Y-12.873 I0.5 J0.017
N2585 G1 X-61.187 Y-13.114
N2590 X-60.166 Y-13.998 F#105
N2595 X-59.834 Y-14.286 F#103
N2600 G3 X-59.524 Y-14.408 I0.327 J0.378
N2605 X-59.007 Y-13.926 Z-2. I0.017 J0.5
N2610 G1 X-58.989 Y-13.769 F#100
N2615 X-58.987 Y-13.61
N2620 X-59. Y-13.453
N2625 X-59.028 Y-13.297
N2630 X-59.07 Y-13.145
N2635 X-59.127 Y-12.997
N2640 X-59.197 Y-12.856
N2645 X-59.281 Y-12.721
N2650 X-59.376 Y-12.596
N2655 X-59.484 Y-12.479
N2660 X-59.602 Y-12.374
N2665 X-59.729 Y-12.28
N2670 X-59.864 Y-12.199
N2675 X-60.007 Y-12.131
N2680 X-60.156 Y-12.077
N2685 X-60.309 Y-12.037
N2690 X-60.465 Y-12.012
N2695 X-60.623 Y-12.001
N2700 X-60.709 Y-12.007 Z-1.989 F#104
N2705 X-60.793 Y-12.028 Z-1.978
N2710 X-60.872 Y-12.063 Z-1.967
N2715 X-60.944 Y-12.112 Z-1.956
N2720 X-61.006 Y-12.172 Z-1.944
N2725 X-61.057 Y-12.242 Z-1.933
N2730 X-61.095 Y-12.32 Z-1.922
N2735 X-61.119 Y-12.404 Z-1.911
N2740 X-61.129 Y-12.49 Z-1.9
N2745 G3 X-60.948 Y-12.881 I0.5 J-0.006
N2750 G1 X-60.691 Y-13.095
N2755 X-60.156 Y-13.539 F#105
N2760 X-59.841 Y-13.802 F#103
N2765 G3 X-59.499 Y-13.917 I0.32 J0.384
N2770 X-59.021 Y-13.396 Z-2. I-0.022 J0.5
N2775 X-60.135 Y-12.036 I-1.193 J0.159 F#100
N2780 G1 X-60.246 Y-12.035 Z-1.986 F#104
N2785 X-60.358 Y-12.047 Z-1.971
N2790 X-60.467 Y-12.07 Z-1.957
N2795 X-60.573 Y-12.105 Z-1.943
N2800 X-60.676 Y-12.151 Z-1.929
N2805 X-60.772 Y-12.208 Z-1.914
N2810 X-60.862 Y-12.275 Z-1.9
N2815 G3 X-61.226 Y-12.943 I0.668 J-0.798
N2820 X-61.042 Y-13.676 I1.033 J-0.13 F#105
N2825 X-59.945 Y-14.118 I0.893 J0.636
N2830 X-59.291 Y-13.724 I-0.204 J1.077 F#103
N2835 X-59.053 Y-12.993 Z-2. I-0.857 J0.684
N2840 X-60.037 Y-12.044 I-0.951 J0. F#100
N2845 G1 X-60.123 Y-12.046 F#104
N2850 X-60.208 Y-12.063
N2855 X-60.288 Y-12.095
N2860 X-60.362 Y-12.14
N2865 X-60.427 Y-12.197
N2870 X-60.481 Y-12.265
N2875 X-60.522 Y-12.341
N2880 X-60.55 Y-12.422
N2885 X-60.564 Y-12.508
N2890 X-60.562 Y-12.594
N2895 X-60.546 Y-12.679
N2900 X-60.515 Y-12.76
N2905 X-60.471 Y-12.834
N2910 X-60.414 Y-12.9
N2915 X-60.347 Y-12.954
N2920 X-60.272 Y-12.997
N2925 X-60.19 Y-13.026
N2930 X-60.105 Y-13.04
N2935 X-60.094 Y-13.041
N2940 X-60.007 Y-13.046 Z-1.992
N2945 X-59.923 Y-13.051 Z-1.97
N2950 X-59.844 Y-13.055 Z-1.933
N2955 X-59.773 Y-13.059 Z-1.883
N2960 X-59.712 Y-13.063 Z-1.821
N2965 X-59.662 Y-13.065 Z-1.75
N2970 X-59.625 Y-13.068 Z-1.671
N2975 X-59.602 Y-13.069 Z-1.587
N2980 X-59.595 Z-1.5
N2985 G0 Z4.
(2D ADAPTIVE1 2)
N2995 M8
N3000 G0 X4.928 Y-12.742
N3005 #100=330. (CUTTING)
N3010 #103=200. (ENTRY)
N3015 #104=200. (EXIT)
N3020 #105=3000. (DIRECT)
N3025 Z4.
N3030 Z-1.
N3035 G1 Z-1.5 F#103
N3040 X4.922 Y-12.738 Z-1.587
N3045 X4.903 Y-12.727 Z-1.671
N3050 X4.871 Y-12.708 Z-1.75
N3055 X4.828 Y-12.682 Z-1.821
N3060 X4.775 Y-12.651 Z-1.883
N3065 X4.714 Y-12.614 Z-1.933
N3070 X4.646 Y-12.574 Z-1.97
N3075 X4.573 Y-12.531 Z-1.992
N3080 X4.499 Y-12.486 Z-2.
N3085 G3 X2.992 Y-12.043 I-1.62 J-2.719
N3090 X2.743 Y-12.615 I0.425 J-0.525 F#100
N3095 X2.471 Y-19.567 I43.579 J-5.19
N3100 G1 X2.47 Y-31.973
N3105 Y-74.507
N3110 G3 X4.452 Y-76.889 I2.422 J0.
N3115 X4.61 Y-75.901 I0.074 J0.495 F#104
N3120 G1 X4.599 Y-75.9
N3125 X4.514 Y-75.887 Z-1.992
N3130 X4.43 Y-75.875 Z-1.97
N3135 X4.352 Y-75.863 Z-1.933
N3140 X4.281 Y-75.852 Z-1.883
N3145 X4.221 Y-75.843 Z-1.821
N3150 X4.171 Y-75.836 Z-1.75
N3155 X4.135 Y-75.831 Z-1.671
N3160 X4.112 Y-75.827 Z-1.587
N3165 X4.105 Y-75.826 Z-1.5
N3170 G0 Z-1.
N3175 X4.886 Y-12.742
N3180 G1 Z-1.5 F#103
N3185 X4.879 Y-12.738 Z-1.587
N3190 X4.86 Y-12.727 Z-1.671
N3195 X4.828 Y-12.708 Z-1.75
N3200 X4.786 Y-12.682 Z-1.821
N3205 X4.733 Y-12.651 Z-1.883
N3210 X4.671 Y-12.614 Z-1.933
N3215 X4.603 Y-12.574 Z-1.97
N3220 X4.531 Y-12.531 Z-1.992
N3225 X4.456 Y-12.486 Z-2.
N3230 G3 X2.95 Y-12.042 I-1.62 J-2.719
N3235 X2.558 Y-12.568 I0.154 J-0.524 F#100
N3240 X2.024 Y-18.085 I14.076 J-4.145
N3245 G1 X1.975 Y-18.975
N3250 X1.972 Y-19.862
N3255 X1.971 Y-21.634
N3260 X1.97 Y-49.99
N3265 Y-73.029
N3270 G3 X2.797 Y-76.137 I4.387 J-0.497
N3275 X4.227 Y-76.847 I2.085 J2.404
N3280 X4.385 Y-75.86 I0.074 J0.495 F#104
N3285 G1 X4.374 Y-75.858
N3290 X4.289 Y-75.845 Z-1.992
N3295 X4.205 Y-75.833 Z-1.97
N3300 X4.127 Y-75.821 Z-1.933
N3305 X4.057 Y-75.811 Z-1.883
N3310 X3.996 Y-75.802 Z-1.821
N3315 X3.946 Y-75.794 Z-1.75
N3320 X3.91 Y-75.789 Z-1.671
N3325 X3.887 Y-75.786 Z-1.587
N3330 X3.88 Y-75.785 Z-1.5
N3335 G0 Z-1.
N3340 X4.788 Y-12.742
N3345 G1 Z-1.5 F#103
N3350 X4.782 Y-12.738 Z-1.587
N3355 X4.762 Y-12.727 Z-1.671
N3360 X4.731 Y-12.708 Z-1.75
N3365 X4.688 Y-12.682 Z-1.821
N3370 X4.635 Y-12.651 Z-1.883
N3375 X4.573 Y-12.614 Z-1.933
N3380 X4.505 Y-12.574 Z-1.97
N3385 X4.433 Y-12.531 Z-1.992
N3390 X4.359 Y-12.486 Z-2.
N3395 G3 X2.852 Y-12.042 I-1.62 J-2.719
N3400 X2.314 Y-12.535 I0.065 J-0.611 F#100
N3405 X1.542 Y-17.779 I11.018 J-4.299
N3410 X1.471 Y-22.212 I66. J-3.277
N3415 G1 X1.47 Y-27.529
N3420 Y-71.835
N3425 G3 X1.941 Y-75.424 I8.41 J-0.721
N3430 X3.842 Y-76.776 I2.463 J1.451
N3435 X4. Y-75.789 I0.074 J0.495 F#104
N3440 G1 X3.989 Y-75.787
N3445 X3.903 Y-75.774 Z-1.992
N3450 X3.82 Y-75.762 Z-1.97
N3455 X3.742 Y-75.75 Z-1.933
N3460 X3.671 Y-75.74 Z-1.883
N3465 X3.61 Y-75.731 Z-1.821
N3470 X3.561 Y-75.723 Z-1.75
N3475 X3.524 Y-75.718 Z-1.671
N3480 X3.502 Y-75.715 Z-1.587
N3485 X3.495 Y-75.713 Z-1.5
N3490 G0 Z-1.
N3495 X4.618 Y-12.742
N3500 G1 Z-1.5 F#103
N3505 X4.611 Y-12.738 Z-1.587
N3510 X4.592 Y-12.726 Z-1.671
N3515 X4.56 Y-12.708 Z-1.75
N3520 X4.517 Y-12.682 Z-1.821
N3525 X4.464 Y-12.651 Z-1.883
N3530 X4.403 Y-12.614 Z-1.933
N3535 X4.335 Y-12.574 Z-1.97
N3540 X4.263 Y-12.53 Z-1.992
N3545 X4.188 Y-12.486 Z-2.
N3550 G3 X2.681 Y-12.042 I-1.62 J-2.719
N3555 X2.086 Y-12.5 I0.046 J-0.676 F#100
N3560 X1.104 Y-16.933 I7.966 J-4.089
N3565 X0.97 Y-27.567 I156.734 J-7.298
N3570 G1 Y-62.126
N3575 Y-71.873
N3580 G3 X1.686 Y-75.612 I7.673 J-0.469
N3585 X3.438 Y-76.702 I2.326 J1.786
N3590 X3.596 Y-75.714 I0.074 J0.495 F#104
N3595 G1 X3.586 Y-75.712
N3600 X3.5 Y-75.7 Z-1.992
N3605 X3.416 Y-75.687 Z-1.97
N3610 X3.338 Y-75.676 Z-1.933
N3615 X3.268 Y-75.665 Z-1.883
N3620 X3.207 Y-75.656 Z-1.821
N3625 X3.157 Y-75.649 Z-1.75
N3630 X3.121 Y-75.643 Z-1.671
N3635 X3.098 Y-75.64 Z-1.587
N3640 X3.091 Y-75.639 Z-1.5
N3645 G0 Z-1.
N3650 X4.454 Y-12.742
N3655 G1 Z-1.5 F#103
N3660 X4.447 Y-12.738 Z-1.587
N3665 X4.428 Y-12.726 Z-1.671
N3670 X4.396 Y-12.707 Z-1.75
N3675 X4.353 Y-12.682 Z-1.821
N3680 X4.3 Y-12.65 Z-1.883
N3685 X4.239 Y-12.614 Z-1.933
N3690 X4.171 Y-12.573 Z-1.97
N3695 X4.099 Y-12.53 Z-1.992
N3700 X4.024 Y-12.486 Z-2.
N3705 G3 X2.517 Y-12.042 I-1.62 J-2.719
N3710 X1.784 Y-12.58 I0.08 J-0.878 F#100
N3715 X0.644 Y-17.115 I7.339 J-4.257
N3720 X0.471 Y-24.203 I74.891 J-5.369
N3725 G1 X0.47 Y-29.52
N3730 Y-70.282
N3735 G3 X1.102 Y-75.238 I11.72 J-1.025
N3740 X3.023 Y-76.625 I2.486 J1.421
N3745 X3.181 Y-75.638 I0.074 J0.495 F#104
N3750 G1 X3.17 Y-75.636
N3755 X3.084 Y-75.623 Z-1.992
N3760 X3.001 Y-75.611 Z-1.97
N3765 X2.923 Y-75.599 Z-1.933
N3770 X2.852 Y-75.589 Z-1.883
N3775 X2.791 Y-75.579 Z-1.821
N3780 X2.742 Y-75.572 Z-1.75
N3785 X2.705 Y-75.567 Z-1.671
N3790 X2.683 Y-75.563 Z-1.587
N3795 X2.676 Y-75.562 Z-1.5
N3800 G0 Z-1.
N3805 X4.266 Y-12.742
N3810 G1 Z-1.5 F#103
N3815 X4.259 Y-12.738 Z-1.587
N3820 X4.24 Y-12.726 Z-1.671
N3825 X4.208 Y-12.707 Z-1.75
N3830 X4.165 Y-12.682 Z-1.821
N3835 X4.112 Y-12.65 Z-1.883
N3840 X4.051 Y-12.614 Z-1.933
N3845 X3.983 Y-12.573 Z-1.97
N3850 X3.911 Y-12.53 Z-1.992
N3855 X3.836 Y-12.486 Z-2.
N3860 G3 X2.33 Y-12.042 I-1.62 J-2.719
N3865 X1.37 Y-12.794 I0.121 J-1.143 F#100
N3870 X0.205 Y-16.912 I6.835 J-4.157
N3875 X-0.006 Y-24.744 I62.869 J-5.614
N3880 G1 X-0.03 Y-28.29
N3885 Y-61.962
N3890 Y-69.937
N3895 G3 X0.691 Y-75.207 I12.354 J-0.994
N3900 X2.597 Y-76.546 I2.489 J1.516
N3905 X2.754 Y-75.559 I0.074 J0.495 F#104
N3910 G1 X2.744 Y-75.557
N3915 X2.658 Y-75.544 Z-1.992
N3920 X2.575 Y-75.532 Z-1.97
N3925 X2.496 Y-75.52 Z-1.933
N3930 X2.426 Y-75.51 Z-1.883
N3935 X2.365 Y-75.501 Z-1.821
N3940 X2.315 Y-75.493 Z-1.75
N3945 X2.279 Y-75.488 Z-1.671
N3950 X2.257 Y-75.485 Z-1.587
N3955 X2.249 Y-75.483 Z-1.5
N3960 G0 Z-1.
N3965 X4.1 Y-12.742
N3970 G1 Z-1.5 F#103
N3975 X4.094 Y-12.738 Z-1.587
N3980 X4.074 Y-12.726 Z-1.671
N3985 X4.043 Y-12.707 Z-1.75
N3990 X4. Y-12.682 Z-1.821
N3995 X3.947 Y-12.65 Z-1.883
N4000 X3.885 Y-12.614 Z-1.933
N4005 X3.817 Y-12.573 Z-1.97
N4010 X3.745 Y-12.53 Z-1.992
N4015 X3.671 Y-12.486 Z-2.
N4020 G3 X2.164 Y-12.042 I-1.62 J-2.719
N4025 X1.098 Y-12.747 I0.017 J-1.183 F#100
N4030 X-0.228 Y-16.843 I6.251 J-4.286
N4035 X-0.497 Y-25.388 I57.957 J-6.103
N4040 G1 X-0.53 Y-28.934
N4045 Y-61.72
N4050 Y-68.809
N4055 G3 X0.058 Y-74.697 I17.317 J-1.244
N4060 X2.158 Y-76.483 I2.849 J1.222
N4065 G1 X2.248 Y-76.488 F#104
N4070 X2.336 Y-76.477
N4075 X2.422 Y-76.451
N4080 X2.501 Y-76.411
N4085 X2.573 Y-76.358
N4090 X2.634 Y-76.293
N4095 X2.682 Y-76.219
N4100 X2.718 Y-76.138
N4105 X2.738 Y-76.053
N4110 X2.744 Y-75.965
N4115 X2.734 Y-75.877
N4120 X2.709 Y-75.793
N4125 X2.67 Y-75.714
N4130 X2.619 Y-75.644
N4135 X2.556 Y-75.583
N4140 X2.484 Y-75.535
N4145 X2.404 Y-75.5
N4150 X2.32 Y-75.479
N4155 X2.309 Y-75.477
N4160 X2.224 Y-75.464 Z-1.992
N4165 X2.14 Y-75.452 Z-1.97
N4170 X2.062 Y-75.44 Z-1.933
N4175 X1.992 Y-75.43 Z-1.883
N4180 X1.931 Y-75.421 Z-1.821
N4185 X1.881 Y-75.413 Z-1.75
N4190 X1.845 Y-75.408 Z-1.671
N4195 X1.822 Y-75.404 Z-1.587
N4200 X1.815 Y-75.403 Z-1.5
N4205 G0 Z-1.
N4210 X3.863 Y-12.741
N4215 G1 Z-1.5 F#103
N4220 X3.857 Y-12.737 Z-1.587
N4225 X3.838 Y-12.726 Z-1.671
N4230 X3.806 Y-12.707 Z-1.75
N4235 X3.763 Y-12.681 Z-1.821
N4240 X3.71 Y-12.65 Z-1.883
N4245 X3.649 Y-12.613 Z-1.933
N4250 X3.581 Y-12.573 Z-1.97
N4255 X3.508 Y-12.53 Z-1.992
N4260 X3.434 Y-12.485 Z-2.
N4265 G3 X1.927 Y-12.042 I-1.62 J-2.719
N4270 X0.792 Y-12.728 I-0.011 J-1.263 F#100
N4275 X-0.69 Y-17.023 I6.198 J-4.541
N4280 X-1.013 Y-22.386 I31.955 J-4.616
N4285 G1 X-1.029 Y-44.366
N4290 G2 X-1.03 Y-51.454 I-544.358 J-3.47
N4295 G1 Y-68.291
N4300 G3 X-0.465 Y-74.406 I19.578 J-1.275
N4305 G1 X-0.384 Y-74.61
N4310 X-0.288 Y-74.808
N4315 X-0.18 Y-74.999
N4320 X-0.058 Y-75.182
N4325 X0.076 Y-75.357
N4330 X0.221 Y-75.521
N4335 X0.378 Y-75.676
N4340 X0.545 Y-75.819
N4345 X0.721 Y-75.95
N4350 X0.906 Y-76.068
N4355 X1.099 Y-76.174
N4360 X1.299 Y-76.266
N4365 X1.504 Y-76.344
N4370 X1.715 Y-76.408
N4375 X1.806 Y-76.412 F#104
N4380 X1.895 Y-76.401
N4385 X1.982 Y-76.375
N4390 X2.062 Y-76.334
N4395 X2.134 Y-76.28
N4400 X2.195 Y-76.215
N4405 X2.244 Y-76.14
N4410 X2.279 Y-76.058
N4415 X2.3 Y-75.972
N4420 X2.305 Y-75.883
N4425 X2.295 Y-75.796
N4430 X2.27 Y-75.711
N4435 X2.231 Y-75.632
N4440 X2.179 Y-75.562
N4445 X2.115 Y-75.501
N4450 X2.043 Y-75.453
N4455 X1.963 Y-75.418
N4460 X1.879 Y-75.397
N4465 X1.868 Y-75.395
N4470 X1.782 Y-75.383 Z-1.992
N4475 X1.699 Y-75.37 Z-1.97
N4480 X1.621 Y-75.359 Z-1.933
N4485 X1.55 Y-75.348 Z-1.883
N4490 X1.489 Y-75.339 Z-1.821
N4495 X1.44 Y-75.332 Z-1.75
N4500 X1.403 Y-75.326 Z-1.671
N4505 X1.381 Y-75.323 Z-1.587
N4510 X1.374 Y-75.322 Z-1.5
N4515 G0 Z-1.
N4520 X-0.329 Y-42.43
N4525 G1 Z-1.5 F#103
N4530 X-0.333 Y-42.437 Z-1.587
N4535 X-0.345 Y-42.456 Z-1.671
N4540 X-0.364 Y-42.488 Z-1.75
N4545 X-0.389 Y-42.531 Z-1.821
N4550 X-0.421 Y-42.584 Z-1.883
N4555 X-0.457 Y-42.645 Z-1.933
N4560 X-0.498 Y-42.713 Z-1.97
N4565 X-0.541 Y-42.785 Z-1.992
N4570 X-0.585 Y-42.86 Z-2.
N4575 G3 X-1.029 Y-44.367 I2.719 J-1.62
N4580 G1 X-1.05 Y-72.869 F#100
N4585 G3 X0.522 Y-76.077 I3.764 J-0.144
N4590 G1 X0.922 Y-76.205
N4595 X1.317 Y-76.31
N4600 G3 X1.885 Y-75.889 Z-1.9 I0.074 J0.495 F#104
N4605 X1.807 Y-75.539 I-0.494 J0.074
N4610 G1 X1.579 Y-75.195
N4615 X0.035 Y-72.864 F#105
N4620 X-0.133 Y-72.611 F#103
N4625 G3 X-0.533 Y-72.387 I-0.417 J-0.276
N4630 X-1.05 Y-72.869 Z-2. I-0.017 J-0.5
N4635 X-0.717 Y-75.128 I3.694 J-0.61 F#100
N4640 X0.922 Y-76.239 I2.127 J1.375
N4645 G1 X1.009 Y-76.244 Z-1.989 F#104
N4650 X1.096 Y-76.234 Z-1.978
N4655 X1.179 Y-76.209 Z-1.967
N4660 X1.257 Y-76.169 Z-1.956
N4665 X1.327 Y-76.117 Z-1.944
N4670 X1.387 Y-76.054 Z-1.933
N4675 X1.435 Y-75.981 Z-1.922
N4680 X1.47 Y-75.901 Z-1.911
N4685 X1.49 Y-75.816 Z-1.9
N4690 G3 X1.375 Y-75.416 I-0.494 J0.074
N4695 G1 X1.146 Y-75.151
N4700 X0.067 Y-73.896 F#105
N4705 X-0.172 Y-73.618 F#103
N4710 G3 X-0.533 Y-73.444 I-0.379 J-0.326
N4715 X-1.051 Y-73.926 Z-2. I-0.017 J-0.5
N4720 G1 X-1.079 Y-74.093 F#100
N4725 X-1.091 Y-74.262
N4730 X-1.089 Y-74.431
N4735 X-1.071 Y-74.6
N4740 X-1.037 Y-74.766
N4745 X-0.989 Y-74.928
N4750 X-0.926 Y-75.085
N4755 X-0.85 Y-75.236
N4760 X-0.759 Y-75.38
N4765 X-0.657 Y-75.514
N4770 X-0.542 Y-75.639
N4775 X-0.416 Y-75.753
N4780 X-0.281 Y-75.855
N4785 X-0.137 Y-75.944
N4790 X0.015 Y-76.019
N4795 X0.172 Y-76.081
N4800 X0.335 Y-76.128
N4805 X0.423 Y-76.137 Z-1.989 F#104
N4810 X0.51 Y-76.13 Z-1.978
N4815 X0.595 Y-76.108 Z-1.967
N4820 X0.675 Y-76.072 Z-1.956
N4825 X0.747 Y-76.023 Z-1.944
N4830 X0.81 Y-75.961 Z-1.933
N4835 X0.861 Y-75.89 Z-1.922
N4840 X0.899 Y-75.812 Z-1.911
N4845 X0.922 Y-75.728 Z-1.9
N4850 G3 X0.802 Y-75.297 I-0.491 J0.096
N4855 G1 X0.59 Y-75.063
N4860 X0.074 Y-74.493 F#105
N4865 X-0.181 Y-74.212 F#103
N4870 G3 X-0.534 Y-74.048 I-0.371 J-0.336
N4875 X-1.051 Y-74.53 Z-2. I-0.017 J-0.5
N4880 X-0.101 Y-76.022 I1.257 J-0.249 F#100
N4885 X0.655 Y-75.89 Z-1.9 I0.204 J1.055 F#104
N4890 X1.128 Y-75.292 I-0.552 J0.923
N4895 X0.857 Y-74.201 I-1.025 J0.325 F#105
N4900 X-0.171 Y-73.914 I-0.773 J-0.786
N4905 X-0.807 Y-74.337 I0.255 J-1.073 F#103
N4910 X-1.015 Y-75.077 Z-2. I0.891 J-0.65
N4915 X-0.166 Y-76.002 I0.975 J0.042 F#100
N4920 G1 X0.437 Y-76.146
N4925 X0.493 Y-76.157
N4930 G3 X0.656 Y-75.17 I0.076 J0.494 F#104
N4935 G1 X0.645 Y-75.169
N4940 X0.559 Y-75.155 Z-1.992
N4945 X0.476 Y-75.143 Z-1.97
N4950 X0.398 Y-75.13 Z-1.933
N4955 X0.328 Y-75.12 Z-1.883
N4960 X0.267 Y-75.11 Z-1.821
N4965 X0.217 Y-75.103 Z-1.75
N4970 X0.181 Y-75.097 Z-1.671
N4975 X0.159 Y-75.093 Z-1.587
N4980 X0.151 Y-75.092 Z-1.5
N4985 G0 Z-1.
N4990 X3.656 Y-12.741
N4995 G1 Z-1.5 F#103
N5000 X3.65 Y-12.737 Z-1.587
N5005 X3.63 Y-12.726 Z-1.671
N5010 X3.598 Y-12.707 Z-1.75
N5015 X3.556 Y-12.681 Z-1.821
N5020 X3.503 Y-12.65 Z-1.883
N5025 X3.441 Y-12.613 Z-1.933
N5030 X3.373 Y-12.573 Z-1.97
N5035 X3.301 Y-12.53 Z-1.992
N5040 X3.226 Y-12.485 Z-2.
N5045 G3 X1.72 Y-12.042 I-1.62 J-2.719
N5050 G1 X1.573 Y-12.046 F#100
N5055 X1.428 Y-12.065
N5060 X1.285 Y-12.098
N5065 X1.147 Y-12.145
N5070 X1.014 Y-12.206
N5075 X0.887 Y-12.28
N5080 X0.769 Y-12.366
N5085 X0.659 Y-12.463
N5090 X0.56 Y-12.571
N5095 X0.472 Y-12.688
N5100 G3 X-1.013 Y-16.383 I5.459 J-4.341
N5105 G1 X-1.002 Y-16.471 Z-1.989 F#104
N5110 X-0.976 Y-16.555 Z-1.978
N5115 X-0.936 Y-16.633 Z-1.967
N5120 X-0.883 Y-16.703 Z-1.956
N5125 X-0.818 Y-16.762 Z-1.944
N5130 X-0.745 Y-16.809 Z-1.933
N5135 X-0.664 Y-16.843 Z-1.922
N5140 X-0.579 Y-16.862 Z-1.911
N5145 X-0.492 Y-16.867 Z-1.9
N5150 G3 X-0.062 Y-16.592 I-0.017 J0.5
N5155 G1 X0.048 Y-16.374
N5160 X1.617 Y-13.269 F#105
N5165 X1.871 Y-12.767 F#103
N5170 G3 X1.925 Y-12.558 I-0.446 J0.226
N5175 X1.443 Y-12.041 Z-2. I-0.5 J0.017
N5180 X-0.173 Y-13.119 I0.047 J-1.82 F#100
N5185 X-1.013 Y-15.188 I2.536 J-2.235
N5190 G1 X-1.002 Y-15.275 Z-1.989 F#104
N5195 X-0.976 Y-15.359 Z-1.978
N5200 X-0.935 Y-15.437 Z-1.967
N5205 X-0.882 Y-15.507 Z-1.956
N5210 X-0.818 Y-15.566 Z-1.944
N5215 X-0.744 Y-15.613 Z-1.933
N5220 X-0.663 Y-15.647 Z-1.922
N5225 X-0.578 Y-15.666 Z-1.911
N5230 X-0.491 Y-15.67 Z-1.9
N5235 G3 X-0.086 Y-15.439 I-0.017 J0.5
N5240 G1 X0.072 Y-15.191
N5245 X1.309 Y-13.243 F#105
N5250 X1.584 Y-12.809 F#103
N5255 G3 X1.662 Y-12.558 I-0.422 J0.268
N5260 X1.18 Y-12.041 Z-2. I-0.5 J0.017
N5265 X-0.419 Y-12.919 I0.038 J-1.965 F#100
N5270 X-1.007 Y-14.587 I2.079 J-1.67
N5275 X-0.491 Y-15.07 Z-1.9 I0.5 J0.017 F#104
N5280 X-0.098 Y-14.856 I-0.017 J0.5
N5285 G1 X0.083 Y-14.598
N5290 X1.04 Y-13.23 F#105
N5295 X1.322 Y-12.827 F#103
N5300 G3 X1.412 Y-12.558 I-0.41 J0.287
N5305 X0.93 Y-12.041 Z-2. I-0.5 J0.017
N5310 X-0.979 Y-14.06 I-0.063 J-1.852 F#100
N5315 G1 X-0.973 Y-14.143 Z-1.989 F#104
N5320 X-0.951 Y-14.223 Z-1.978
N5325 X-0.916 Y-14.3 Z-1.967
N5330 X-0.868 Y-14.369 Z-1.956
N5335 X-0.808 Y-14.429 Z-1.944
N5340 X-0.738 Y-14.478 Z-1.933
N5345 X-0.661 Y-14.515 Z-1.922
N5350 X-0.577 Y-14.538 Z-1.911
N5355 X-0.49 Y-14.545 Z-1.9
N5360 G3 X-0.107 Y-14.345 I-0.017 J0.5
N5365 G1 X0.092 Y-14.079
N5370 X0.735 Y-13.221 F#105
N5375 X1.02 Y-12.84 F#103
N5380 G3 X1.12 Y-12.558 I-0.4 J0.3
N5385 X0.638 Y-12.041 Z-2. I-0.5 J0.017
N5390 X-0.986 Y-13.458 I-0.145 J-1.472 F#100
N5395 G1 X-0.982 Y-13.544 Z-1.989 F#104
N5400 X-0.964 Y-13.628 Z-1.978
N5405 X-0.931 Y-13.708 Z-1.967
N5410 X-0.884 Y-13.781 Z-1.956
N5415 X-0.826 Y-13.845 Z-1.944
N5420 X-0.757 Y-13.898 Z-1.933
N5425 X-0.68 Y-13.938 Z-1.922
N5430 X-0.598 Y-13.965 Z-1.911
N5435 X-0.511 Y-13.976 Z-1.9
N5440 G3 X-0.107 Y-13.796 I0.019 J0.5
N5445 G1 X0.098 Y-13.549
N5450 X0.388 Y-13.199 F#105
N5455 X0.647 Y-12.886 F#103
N5460 G3 X0.761 Y-12.54 I-0.385 J0.319
N5465 X0.235 Y-12.068 Z-2. I-0.499 J-0.027
N5470 X-0.771 Y-12.468 I-0.134 J-1.128 F#100
N5475 X-0.141 Y-13.179 I0.432 J-0.252 F#104
N5480 G1 X-0.013 Y-13.124
N5485 X0.149 Y-13.054 F#103
N5490 G3 X-0.077 Y-12.096 I-0.198 J0.459
N5495 X-0.952 Y-12.955 I0.051 J-0.928 F#100
N5500 G1 X-0.999 Y-13.559
N5505 X-1.006 Y-13.76
N5510 X-1.013 Y-22.386
N5515 G3 X-0.013 Y-22.362 I0.5 J0.017 F#104
N5520 G1 Y-22.352
N5525 X-0.016 Y-22.265 Z-1.992
N5530 X-0.019 Y-22.181 Z-1.97
N5535 X-0.022 Y-22.102 Z-1.933
N5540 X-0.024 Y-22.031 Z-1.883
N5545 X-0.026 Y-21.969 Z-1.821
N5550 X-0.028 Y-21.919 Z-1.75
N5555 X-0.029 Y-21.882 Z-1.671
N5560 X-0.03 Y-21.86 Z-1.587
N5565 Y-21.852 Z-1.5
N5570 G0 Z4.
N5580 M9
N5585 G53 Z0.
N5590 M30
%
