%
(SETUP3-BACK-CAM-FLYING-MOUNT-2.5MMDRILL)
(T125  D=2.5 CR=0. TAPER=118DEG - ZMIN=-10. - DRILL)
N10 G90 G94 G17 G91.1
N15 G21
N20 G53 G0 Z0.
(DRILLING 2.5)
N25 M9
N30 T125 M6
N35 S3200 M3
N40 G54
N45 M9
N55 G0 X-11. Y-2.75
N60 G43 Z20. H0
N70 G0 Z10.
N75 G98 G83 X-11. Y-2.75 Z-10. R5. Q2. F50.
N80 X-2.
N85 G80
N95 G0 X-6.5 Y-23. Z10.
N100 G83 X-6.5 Y-23. Z-8.8 R5. Q2. F50.
N105 G80
N110 G0 Z20.
N120 M9
N125 G53 Z0.
N130 M30
%
