%
(T2  D=4. CR=0. - ZMIN=-15.5 - FLAT END MILL)
N10 G90 G94 G17 G91.1
N15 G21
N20 G53 G0 Z0.
(FACE1)
N25 M9
N30 T2 M6
N35 S3300 M3
N40 G54
N45 M9
N55 G0 X-6.261 Y3.579
N60 G43 Z7. H2
N65 #100=220. (CUTTING)
N70 #102=220. (FINISH)
N75 #103=210. (ENTRY)
N80 #104=210. (EXIT)
N85 G0 Z5.
N90 G1 Z1. F#103
N95 G19 G2 Y1.579 Z-1. J-2. K0.
N100 G1 Y1.379 F#100
N105 Y-62.439 F#102
N110 Y-63.854 F#100
N115 G17 G2 X-9.486 I-1.613 J0.
N120 G1 Y7.792 F#102
N125 Y9.662 F#100
N130 G3 X-12.712 I-1.613 J0.
N135 G1 Y-64. F#102
N140 G2 X-15.937 I-1.613 J0. F#100
N145 G1 Y10. F#102
N150 G3 X-19.163 I-1.613 J0. F#100
N155 G1 Y-64. F#102
N160 G2 X-22.388 I-1.613 J0. F#100
N165 G1 Y10. F#102
N170 G3 X-25.614 I-1.613 J0. F#100
N175 G1 Y9.835
N180 Y-64. F#102
N185 G2 X-28.839 I-1.613 J0. F#100
N190 G1 Y-63.951
N195 Y8.365 F#102
N200 G3 X-32.065 I-1.613 J0. F#100
N205 G1 Y3.232
N210 Y-62.887 F#102
N215 G19 G2 Y-64.887 Z1. J0. K2. F#104
N220 G0 Z7.
N225 G17
(2D POCKET1)
N230 M9
N235 G0 X-18.288 Y-35.473
N240 #100=220. (CUTTING)
N245 #103=210. (ENTRY)
N250 #104=210. (EXIT)
N255 #106=55. (REDUCED)
N260 #107=200. (RAMPING)
N265 Z6.
N270 Z4.
N275 G1 Z0.499 F#103
N280 S3100
N285 X-18.272 Z0.374 F#107
N290 X-18.225 Z0.257
N295 X-18.15 Y-35.471 Z0.155
N300 X-18.053 Y-35.463 Z0.075
N305 X-17.939 Y-35.448 Z0.022
N310 X-17.818 Y-35.423 Z0.
N315 G3 X-18.681 Y-31.733 Z-0.312 I-0.432 J1.845
N320 X-17.818 Y-35.423 Z-0.624 I0.432 J-1.845
N325 X-18.681 Y-31.733 Z-0.936 I-0.432 J1.845
N330 X-17.818 Y-35.423 Z-1.248 I0.432 J-1.845
N335 X-18.681 Y-31.733 Z-1.56 I-0.432 J1.845
N340 X-17.818 Y-35.423 Z-1.872 I0.432 J-1.845
N345 X-18.681 Y-31.733 Z-2.184 I-0.432 J1.845
N350 X-17.818 Y-35.423 Z-2.496 I0.432 J-1.845
N355 X-18.681 Y-31.733 Z-2.808 I-0.432 J1.845
N360 X-17.818 Y-35.423 Z-3.12 I0.432 J-1.845
N365 X-18.681 Y-31.733 Z-3.432 I-0.432 J1.845
N370 X-17.818 Y-35.423 Z-3.744 I0.432 J-1.845
N375 X-18.681 Y-31.733 Z-4.056 I-0.432 J1.845
N380 X-17.818 Y-35.423 Z-4.368 I0.432 J-1.845
N385 X-16.354 Y-33.601 Z-4.5 I-0.432 J1.845
N390 X-19.585 Y-33.686 I-1.573 J-1.658
N395 X-19.5 Y-36.916 I1.658 J-1.573
N400 S3300
N405 X-19.518 Y-39.052 I97.724 J-1.872 F#100
N410 X-19.512 Y-39.852 I97.742 J0.264 F#106
N415 G1 X-19.488
N420 G3 X-19.415 Y-36.396 I-250.062 J6.975 F#100
N425 G1 X-19.294 Y-27.276
N430 X-19.293 Y-27.158 F#106
N435 Y-27.113
N440 G3 X-19.706 Y-27.097 I-0.207 J-0.004
N445 G1 X-19.707 Y-27.108
N450 X-19.709 Y-27.136
N455 X-19.71 Y-27.164 F#100
N460 X-19.834 Y-36.823
N465 G3 X-19.696 Y-39.309 I29.246 J0.386
N470 X-19.671 Y-39.55 I29.108 J2.871 F#106
N475 G1 X-19.657 Y-39.693
N480 X-19.634 Y-39.835
N485 X-19.602 Y-39.975
N490 X-19.569 Y-40.097
N495 G3 X-19.422 Y-40.1 I0.074 J0.02
N500 X-19.213 Y-38.642 I-5.369 J1.511 F#100
N505 X-18.953 Y-35.206 I-33.509 J4.268
N510 G1 X-18.756 Y-27.214
N515 X-18.755 Y-27.136
N520 X-18.757 Y-27.057
N525 X-18.758 Y-27.032
N530 G3 X-18.828 Y-26.747 I-0.758 J-0.034
N535 X-20.095 Y-26.59 I-0.683 J-0.316
N540 X-20.187 Y-26.734 I0.59 J-0.477
N545 X-20.244 Y-26.894 I0.683 J-0.335
N550 X-20.277 Y-27.182 I1.347 J-0.301
N555 G1 X-20.486 Y-35.676
N560 G3 X-20.167 Y-38.588 I10.97 J-0.27
N565 X-19.813 Y-40.092 I20.485 J4.027
N570 G1 X-19.776 Y-40.166 F#106
N575 X-19.748 Y-40.245
N580 X-19.616 Y-40.849
N585 G3 X-19.374 Y-40.854 I0.122 J0.027
N590 G2 X-19.119 Y-39.923 I8.771 J-1.9 F#100
N595 G1 X-19.068 Y-39.764
N600 X-19.026 Y-39.603
N605 X-18.954 Y-39.291
N610 G2 X-18.811 Y-38.747 I8.5 J-1.951
N615 G1 X-18.773 Y-38.618
N620 G3 X-18.267 Y-35.4 I-11.657 J3.481
N625 G1 X-18.091 Y-27.261
N630 Y-27.168
N635 X-18.092 Y-27.076
N640 X-18.097 Y-26.984
N645 G3 X-18.227 Y-26.464 I-1.46 J-0.088
N650 X-20.403 Y-25.931 I-1.299 J-0.595
N655 X-20.636 Y-26.158 I0.886 J-1.14
N660 X-20.812 Y-26.432 I1.122 J-0.916
N665 X-20.923 Y-26.739 I1.302 J-0.645
N670 X-20.985 Y-27.21 I2.029 J-0.506
N675 G1 X-21.167 Y-35.646
N680 G3 X-20.62 Y-38.534 I7.091 J-0.153
N685 G1 X-20.588 Y-38.612
N690 G2 X-20.259 Y-39.501 I-10.397 J-4.345
N695 G3 X-20.095 Y-39.979 I7.473 J2.307
N700 G1 X-19.999 Y-40.242
N705 X-19.915 Y-40.509
N710 X-19.842 Y-40.779
N715 X-19.792 Y-40.981
N720 X-19.75 Y-41.152 F#106
N725 X-19.74 Y-41.19
N730 X-19.565 Y-41.747
N735 G3 X-19.434 Y-41.748 I0.065 J0.021
N740 G1 X-19.253 Y-41.179 F#100
N745 X-19.248 Y-41.165
N750 X-19.014 Y-40.363
N755 G2 X-18.86 Y-39.934 I3.632 J-1.063
N760 G1 X-18.776 Y-39.721
N765 X-18.712 Y-39.545
N770 G2 X-18.316 Y-38.599 I9.191 J-3.301
N775 G1 X-18.305 Y-38.578
N780 G3 X-17.581 Y-35.546 I-6.567 J3.171
N785 G1 X-17.424 Y-27.315
N790 G3 X-17.436 Y-26.887 I-4.455 J0.085
N795 X-17.474 Y-26.639 I-1.669 J-0.129
N800 G1 X-17.485 Y-26.592
N805 G3 X-17.627 Y-26.176 I-2.126 J-0.491
N810 X-20.422 Y-25.146 I-1.909 J-0.874
N815 X-20.831 Y-25.395 I0.893 J-1.922
N820 X-21.173 Y-25.73 I1.305 J-1.679
N825 X-21.433 Y-26.133 I1.652 J-1.35
N830 X-21.597 Y-26.585 I1.918 J-0.95
N835 G1 X-21.614 Y-26.657
N840 G3 X-21.686 Y-27.223 I2.581 J-0.617
N845 G1 X-21.848 Y-35.713
N850 G3 X-21.019 Y-38.739 I5.548 J-0.106
N855 G1 X-21.016 Y-38.744
N860 G2 X-20.44 Y-39.815 I-8.49 J-5.254
N865 X-19.75 Y-41.801 I-9.767 J-4.506
N870 G1 X-19.653 Y-42.204 F#106
N875 X-19.649 Y-42.219
N880 X-19.542 Y-42.599
N885 G3 X-19.456 I0.043 J0.012
N890 G1 X-19.347 Y-42.22 F#100
N895 X-19.342 Y-42.204
N900 X-19.222 Y-41.713
N905 G2 X-18.535 Y-39.861 I8.452 J-2.078
N910 G1 X-18.496 Y-39.783
N915 G2 X-17.926 Y-38.834 I6.829 J-3.456
N920 G3 X-16.898 Y-35.681 I-4.617 J3.25
N925 G1 X-16.757 Y-27.429
N930 G3 X-16.787 Y-26.674 I-6.575 J0.112
N935 X-16.886 Y-26.21 I-2.108 J-0.207
N940 G1 X-16.912 Y-26.131
N945 G3 X-17.161 Y-25.595 I-2.502 J-0.836
N950 X-20.428 Y-24.4 I-2.383 J-1.451
N955 X-20.995 Y-24.662 I0.874 J-2.631
N960 G1 X-21.005 Y-24.668
N965 G3 X-21.493 Y-25.046 I1.432 J-2.354
N970 G1 X-21.506 Y-25.058
N975 G3 X-21.895 Y-25.533 I1.911 J-1.967
N980 G1 X-21.907 Y-25.551
N985 G3 X-22.181 Y-26.099 I2.293 J-1.488
N990 G1 X-22.19 Y-26.123
N995 G3 X-22.335 Y-26.717 I2.564 J-0.939
N1000 G1 X-22.339 Y-26.749
N1005 G3 X-22.382 Y-27.361 I5.645 J-0.709
N1010 G1 X-22.536 Y-36.379
N1015 G3 X-22.503 Y-36.962 I4.579 J-0.029
N1020 X-22.429 Y-37.352 I1.934 J0.167
N1025 G1 X-22.439 Y-37.366
N1030 G3 X-21.61 Y-38.752 I2.939 J0.816
N1035 G2 X-19.7 Y-43.229 I-4.29 J-4.476
N1040 G3 X-19.3 I0.2 J0.
N1045 G2 X-17.39 Y-38.752 I6.2 J0.
N1050 G3 X-16.45 Y-36.55 I-2.11 J2.202
N1055 G1 Y-27.05
N1060 G3 X-22.55 I-3.05 J0.
N1065 G1 Y-36.55
N1070 G3 X-22.439 Y-37.366 I3.05 J0.
N1075 G2 X-22.492 Y-37.534 I-0.155 J-0.043
N1080 G3 X-22.538 Y-37.704 I0.095 J-0.117
N1085 X-21.749 Y-38.896 I3.038 J1.154
N1090 G2 X-19.9 Y-43.229 I-4.151 J-4.332
N1095 G3 X-19.1 I0.4 J0.
N1100 G2 X-17.251 Y-38.897 I6. J0.
N1105 G3 X-16.25 Y-36.55 I-2.249 J2.347
N1110 G1 Y-27.05
N1115 G3 X-22.75 I-3.25 J0.
N1120 G1 Y-36.55
N1125 G3 X-22.538 Y-37.704 I3.25 J0.
N1130 X-22.477 Y-37.818 Z-4.483 I0.467 J0.178 F#104
N1135 X-22.396 Y-37.907 Z-4.433 I0.406 J0.291
N1140 X-22.311 Y-37.965 Z-4.354 I0.325 J0.38
N1145 X-22.238 Y-37.998 Z-4.25 I0.24 J0.439
N1150 X-22.19 Y-38.012 Z-4.129 I0.168 J0.471
N1155 G1 X-22.174 Y-38.016 Z-4.
N1160 G0 Z6.
(2D CONTOUR1)
N1170 M9
N1175 G0 X-20.166 Y-12.075
N1180 #102=220. (FINISH)
N1185 #107=200. (RAMPING)
N1190 #108=120. (PLUNGE)
N1195 Z4.
N1200 Z2.
N1205 G1 Z1. F#108
N1210 S3100
N1215 G3 X-18.834 Y-17.925 Z0.671 I0.666 J-2.925 F#107
N1220 X-20.166 Y-12.075 Z0.342 I-0.666 J2.925
N1225 X-18.834 Y-17.925 Z0.013 I0.666 J-2.925
N1230 X-20.166 Y-12.075 Z-0.316 I-0.666 J2.925
N1235 X-18.834 Y-17.925 Z-0.646 I0.666 J-2.925
N1240 X-20.166 Y-12.075 Z-0.975 I-0.666 J2.925
N1245 X-18.834 Y-17.925 Z-1.304 I0.666 J-2.925
N1250 X-20.166 Y-12.075 Z-1.633 I-0.666 J2.925
N1255 X-18.834 Y-17.925 Z-1.962 I0.666 J-2.925
N1260 X-20.166 Y-12.075 Z-2.291 I-0.666 J2.925
N1265 X-18.834 Y-17.925 Z-2.62 I0.666 J-2.925
N1270 X-20.166 Y-12.075 Z-2.949 I-0.666 J2.925
N1275 X-18.834 Y-17.925 Z-3.279 I0.666 J-2.925
N1280 X-20.166 Y-12.075 Z-3.608 I-0.666 J2.925
N1285 X-18.834 Y-17.925 Z-3.937 I0.666 J-2.925
N1290 X-20.166 Y-12.075 Z-4.266 I-0.666 J2.925
N1295 X-18.834 Y-17.925 Z-4.595 I0.666 J-2.925
N1300 X-20.166 Y-12.075 Z-4.924 I-0.666 J2.925
N1305 X-18.834 Y-17.925 Z-5.253 I0.666 J-2.925
N1310 X-20.166 Y-12.075 Z-5.582 I-0.666 J2.925
N1315 X-18.834 Y-17.925 Z-5.912 I0.666 J-2.925
N1320 X-20.166 Y-12.075 Z-6.241 I-0.666 J2.925
N1325 X-18.834 Y-17.925 Z-6.57 I0.666 J-2.925
N1330 X-20.166 Y-12.075 Z-6.899 I-0.666 J2.925
N1335 X-18.834 Y-17.925 Z-7.228 I0.666 J-2.925
N1340 X-20.166 Y-12.075 Z-7.557 I-0.666 J2.925
N1345 X-18.834 Y-17.925 Z-7.886 I0.666 J-2.925
N1350 X-20.166 Y-12.075 Z-8.215 I-0.666 J2.925
N1355 X-18.834 Y-17.925 Z-8.544 I0.666 J-2.925
N1360 X-20.166 Y-12.075 Z-8.874 I-0.666 J2.925
N1365 X-18.834 Y-17.925 Z-9.203 I0.666 J-2.925
N1370 X-20.166 Y-12.075 Z-9.532 I-0.666 J2.925
N1375 X-18.834 Y-17.925 Z-9.861 I0.666 J-2.925
N1380 X-20.166 Y-12.075 Z-10.19 I-0.666 J2.925
N1385 X-18.834 Y-17.925 Z-10.519 I0.666 J-2.925
N1390 X-20.166 Y-12.075 Z-10.848 I-0.666 J2.925
N1395 X-18.834 Y-17.925 Z-11.177 I0.666 J-2.925
N1400 X-20.166 Y-12.075 Z-11.507 I-0.666 J2.925
N1405 X-18.834 Y-17.925 Z-11.836 I0.666 J-2.925
N1410 X-20.166 Y-12.075 Z-12.165 I-0.666 J2.925
N1415 X-18.834 Y-17.925 Z-12.494 I0.666 J-2.925
N1420 X-20.166 Y-12.075 Z-12.823 I-0.666 J2.925
N1425 X-18.834 Y-17.925 Z-13.152 I0.666 J-2.925
N1430 X-20.166 Y-12.075 Z-13.481 I-0.666 J2.925
N1435 X-18.834 Y-17.925 Z-13.81 I0.666 J-2.925
N1440 X-20.166 Y-12.075 Z-14.14 I-0.666 J2.925
N1445 X-18.834 Y-17.925 Z-14.469 I0.666 J-2.925
N1450 X-20.166 Y-12.075 Z-14.798 I-0.666 J2.925
N1455 X-18.834 Y-17.925 Z-15.127 I0.666 J-2.925
N1460 X-20.166 Y-12.075 Z-15.456 I-0.666 J2.925
N1465 X-21.3 Y-12.6 Z-15.5 I0.666 J-2.925
N1470 S3300
N1475 X-17.7 Y-17.4 I1.8 J-2.4 F#102
N1480 X-21.3 Y-12.6 I-1.8 J2.4
N1485 G0 Z4.
N1495 M9
N1500 G53 Z0.
N1505 M30
%
