%
(SETUP3-BACK-CAM-FLYING-MOUNT-6MM)
(T1  D=6. CR=0. - ZMIN=-22.8 - FLAT END MILL)
N10 G90 G94 G17 G91.1
N15 G21
N20 G53 G0 Z0.
(BEARING SEAT ROUGHING)
N25 M9
N30 T1 M6
N35 S3200 M3
N40 G54
N45 M8
N55 G0 X-8.362 Y-11.995
N60 G43 Z11. H1
N65 #100=330. (CUTTING)
N70 #103=200. (ENTRY)
N75 #104=200. (EXIT)
N80 #106=82.5 (REDUCED)
N85 #107=270. (RAMPING)
N90 G0 Z-10.
N95 G1 Z-13.501 F#103
N100 S3000
N105 X-8.367 Y-12.01 Z-13.626 F#107
N110 X-8.384 Y-12.054 Z-13.743
N115 X-8.408 Y-12.124 Z-13.845
N120 X-8.435 Y-12.218 Z-13.925
N125 X-8.46 Y-12.33 Z-13.978
N130 X-8.48 Y-12.453 Z-14.
N135 G3 X-4.722 Y-12.94 Z-14.312 I1.879 J-0.244
N140 X-8.48 Y-12.453 Z-14.624 I-1.879 J0.244
N145 X-4.722 Y-12.94 Z-14.936 I1.879 J-0.244
N150 X-8.48 Y-12.453 Z-15.248 I-1.879 J0.244
N155 X-4.722 Y-12.94 Z-15.56 I1.879 J-0.244
N160 X-8.48 Y-12.453 Z-15.872 I-1.879 J0.244
N165 X-4.722 Y-12.94 Z-16.184 I1.879 J-0.244
N170 X-8.48 Y-12.453 Z-16.496 I-1.879 J0.244
N175 X-4.722 Y-12.94 Z-16.808 I1.879 J-0.244
N180 X-8.48 Y-12.453 Z-17.12 I-1.879 J0.244
N185 X-4.722 Y-12.94 Z-17.432 I1.879 J-0.244
N190 X-8.48 Y-12.453 Z-17.744 I-1.879 J0.244
N195 X-6.845 Y-14.576 Z-17.9 I1.879 J-0.244
N200 X-6.526 Y-11.978 I0.16 J1.299
N205 S3200
N210 G1 X-6.544 Y-11.975 F#106
N215 X-6.558
N220 X-6.571 Y-11.978
N225 X-6.583 Y-11.984
N230 X-6.6 Y-11.994
N235 G3 X-6.65 Y-12.064 I0.06 J-0.096
N240 G1 X-6.654 Y-12.078
N245 G3 X-6.643 Y-12.177 I0.145 J-0.034
N250 G1 X-6.632 Y-12.198
N255 G3 X-6.537 Y-12.295 I0.194 J0.095
N260 G1 X-6.516 Y-12.306
N265 G3 X-6.343 Y-12.335 I0.132 J0.256
N270 G1 X-6.321 Y-12.332 F#100
N275 G3 X-6.13 Y-12.241 I-0.052 J0.354
N280 G1 X-6.113 Y-12.226
N285 G3 X-5.987 Y-12.01 I-0.292 J0.316
N290 G1 X-5.982 Y-11.989
N295 G3 X-5.998 Y-11.702 I-0.489 J0.117
N300 G1 X-6.005 Y-11.681
N305 G3 X-6.198 Y-11.419 I-0.541 J-0.195
N310 G1 X-6.215 Y-11.406
N315 G3 X-6.555 Y-11.276 I-0.391 J-0.515
N320 G1 X-6.578 Y-11.274
N325 G3 X-6.97 Y-11.354 I-0.057 J-0.722
N330 G1 X-6.987 Y-11.363
N335 G3 X-7.3 Y-11.657 I0.366 J-0.703
N340 G1 X-7.309 Y-11.672
N345 G3 X-7.431 Y-12.113 I0.733 J-0.44
N350 G1 Y-12.134
N355 G3 X-7.299 Y-12.611 I0.931 J0.001
N360 G1 X-7.292 Y-12.623
N365 G3 X-6.906 Y-12.989 I0.843 J0.503
N370 G1 X-6.88 Y-13.002
N375 G3 X-6.292 Y-13.123 I0.503 J0.958
N380 G1 X-6.277 Y-13.122
N385 G3 X-5.69 Y-12.902 I-0.089 J1.131
N390 G1 X-5.673 Y-12.889
N395 G3 X-5.269 Y-12.36 I-0.719 J0.969
N400 G1 X-5.261 Y-12.341
N405 G3 X-5.195 Y-11.64 I-1.19 J0.466
N410 G1 X-5.199 Y-11.62
N415 G3 X-5.532 Y-10.955 I-1.326 J-0.249
N420 G1 X-5.545 Y-10.94
N425 G3 X-6.212 Y-10.533 I-1.045 J-0.961
N430 G1 X-6.232 Y-10.527
N435 G3 X-7.052 Y-10.535 I-0.397 J-1.436
N440 G1 X-7.078 Y-10.543
N445 G3 X-7.799 Y-10.995 I0.451 J-1.52
N450 G1 X-7.805 Y-11.001
N455 G3 X-8.192 Y-11.759 I1.195 J-1.088
N460 G1 X-8.197 Y-11.783
N465 G3 X-8.142 Y-12.679 I1.669 J-0.348
N470 G1 X-8.114 Y-12.763
N475 G3 X-6.942 Y-13.898 I1.691 J0.575
N480 X-6.406 Y-13.983 I0.569 J1.858
N485 G1 X-6.401
N490 G3 X-5.857 Y-13.916 I0.034 J1.98
N495 G1 X-5.852 Y-13.915
N500 G3 X-5.337 Y-13.697 I-0.52 J1.949
N505 G1 X-5.332 Y-13.695
N510 G3 X-4.889 Y-13.338 I-1.053 J1.763
N515 G1 X-4.886 Y-13.334
N520 G3 X-4.552 Y-12.862 I-1.523 J1.431
N525 G1 X-4.549 Y-12.857
N530 G3 X-4.354 Y-12.301 I-1.89 J0.975
N535 G1 X-4.353 Y-12.296
N540 G3 X-4.318 Y-11.699 I-2.12 J0.427
N545 G1 Y-11.694
N550 G3 X-4.45 Y-11.099 I-2.192 J-0.174
N555 G1 X-4.452 Y-11.094
N560 G3 X-4.746 Y-10.55 I-2.095 J-0.781
N565 G1 X-4.749 Y-10.546
N570 G3 X-5.188 Y-10.096 I-1.83 J-1.347
N575 G1 X-5.193 Y-10.093
N580 G3 X-5.747 Y-9.775 I-1.413 J-1.826
N585 G1 X-5.752 Y-9.774
N590 G3 X-6.382 Y-9.618 I-0.872 J-2.177
N595 G1 X-6.387
N600 G3 X-7.046 Y-9.641 I-0.245 J-2.369
N605 G1 X-7.072 Y-9.646
N610 G3 X-7.668 Y-9.839 I0.393 J-2.231
N615 G1 X-8. Y-10.
N620 G3 X-5. Y-14. I1.5 J-2.
N625 X-8. Y-10. I-1.5 J2.
N630 X-8.072 Y-10.084 Z-17.887 I0.156 J-0.208
N635 X-8.103 Y-10.185 Z-17.85 I0.228 J-0.124
N640 X-8.092 Y-10.287 Z-17.813 I0.259 J-0.023
N645 X-8.038 Y-10.38 Z-17.8 I0.248 J0.079
N650 G1 X-8.034 Y-10.385
N655 G3 X-7.656 Y-10.387 I0.19 J0.177
N660 G1 X-7.574 Y-10.301
N665 G2 X-7.255 Y-10.257 I0.188 J-0.179
N670 X-7.173 Y-10.332 Z-17.813 I-0.132 J-0.224
N675 X-7.132 Y-10.534 Z-17.887 I-0.213 J-0.149
N680 X-7.177 Y-10.635 Z-17.9 I-0.254 J0.053
N685 S3000
N690 G3 X-4.132 Y-12.891 Z-18.212 I1.523 J-1.128 F#107
N695 X-7.177 Y-10.635 Z-18.524 I-1.523 J1.128
N700 X-4.132 Y-12.891 Z-18.836 I1.523 J-1.128
N705 X-7.177 Y-10.635 Z-19.148 I-1.523 J1.128
N710 X-4.132 Y-12.891 Z-19.46 I1.523 J-1.128
N715 X-7.177 Y-10.635 Z-19.772 I-1.523 J1.128
N720 X-4.132 Y-12.891 Z-20.084 I1.523 J-1.128
N725 X-7.177 Y-10.635 Z-20.396 I-1.523 J1.128
N730 X-4.132 Y-12.891 Z-20.708 I1.523 J-1.128
N735 X-3.838 Y-11.224 Z-20.8 I-1.523 J1.128
N740 X-5.581 Y-10.292 I-1.338 J-0.405
N745 X-6.513 Y-12.035 I0.405 J-1.338
N750 S3200
N755 G1 X-6.509 Y-12.048 F#106
N760 X-6.506 Y-12.056
N765 X-6.501 Y-12.063
N770 X-6.495 Y-12.069
N775 X-6.478 Y-12.082
N780 G3 X-6.409 Y-12.103 I0.064 J0.084
N785 G1 X-6.393 Y-12.102
N790 G3 X-6.299 Y-12.062 I-0.007 J0.148
N795 G1 X-6.285 Y-12.048
N800 G3 X-6.224 Y-11.931 I-0.139 J0.146
N805 G1 X-6.221 Y-11.907
N810 G3 X-6.25 Y-11.742 I-0.268 J0.037
N815 G1 X-6.262 Y-11.721 F#100
N820 G3 X-6.409 Y-11.576 I-0.305 J-0.163
N825 G1 X-6.429 Y-11.566
N830 G3 X-6.673 Y-11.523 I-0.191 J-0.372
N835 G1 X-6.701 Y-11.527
N840 G3 X-6.963 Y-11.64 I0.065 J-0.509
N845 G1 X-6.973 Y-11.649
N850 G3 X-7.147 Y-11.9 I0.357 J-0.433
N855 G1 X-7.155 Y-11.923
N860 G3 X-7.173 Y-12.273 I0.61 J-0.208
N865 G1 X-7.169 Y-12.291
N870 G3 X-6.984 Y-12.631 I0.693 J0.157
N875 G1 X-6.969 Y-12.647
N880 G3 X-6.591 Y-12.862 I0.563 J0.551
N885 G1 X-6.569 Y-12.867
N890 G3 X-6.087 Y-12.845 I0.204 J0.841
N895 G1 X-6.068 Y-12.839
N900 G3 X-5.643 Y-12.542 I-0.3 J0.884
N905 G1 X-5.629 Y-12.525
N910 G3 X-5.412 Y-12.01 I-0.783 J0.634
N915 G1 X-5.41 Y-11.989
N920 G3 X-5.507 Y-11.398 I-1.074 J0.127
N925 G1 X-5.516 Y-11.379
N930 G3 X-5.938 Y-10.9 I-1.044 J-0.495
N935 G1 X-5.956 Y-10.889
N940 G3 X-6.607 Y-10.696 I-0.661 J-1.037
N945 G1 X-6.631
N950 G3 X-7.32 Y-10.885 I-0.011 J-1.312
N955 G1 X-7.337 Y-10.895
N960 G3 X-7.843 Y-11.43 I0.714 J-1.182
N965 G1 X-7.851 Y-11.446
N970 G3 X-8.017 Y-12.19 I1.276 J-0.676
N975 G1 X-8.016 Y-12.212
N980 G3 X-7.767 Y-12.976 I1.522 J0.073
N985 G1 X-7.76 Y-12.987
N990 G3 X-7.123 Y-13.543 I1.314 J0.863
N995 G1 X-7.094 Y-13.557
N1000 G3 X-6.18 Y-13.71 I0.724 J1.519
N1005 G1 X-6.095 Y-13.7
N1010 G3 X-4.738 Y-12.774 I-0.198 J1.746
N1015 X-4.557 Y-12.273 I-1.697 J0.896
N1020 G1 X-4.556 Y-12.268
N1025 G3 X-4.519 Y-11.727 I-1.915 J0.403
N1030 G1 Y-11.721
N1035 G3 X-4.634 Y-11.181 I-1.99 J-0.141
N1040 G1 X-4.636 Y-11.176
N1045 G3 X-4.9 Y-10.678 I-1.911 J-0.695
N1050 G1 X-4.903 Y-10.674
N1055 G3 X-5.301 Y-10.26 I-1.678 J-1.215
N1060 G1 X-5.305 Y-10.257
N1065 G3 X-5.81 Y-9.963 I-1.303 J-1.658
N1070 G1 X-5.815 Y-9.961
N1075 G3 X-6.391 Y-9.814 I-0.813 J-1.987
N1080 G1 X-6.397 Y-9.813
N1085 G3 X-7.001 Y-9.83 I-0.241 J-2.172
N1090 G1 X-7.007 Y-9.831
N1095 G3 X-7.594 Y-10.017 I0.37 J-2.191
N1100 G1 X-7.602 Y-10.021
N1105 G3 X-8.517 Y-10.814 I0.983 J-2.058
N1110 G1 X-8.52 Y-10.819
N1115 G3 X-8.793 Y-11.375 I1.943 J-1.296
N1120 X-8.912 Y-11.998 I2.248 J-0.755
N1125 G1 X-8.916 Y-12.138
N1130 G3 X-8.864 Y-12.639 I2.408 J0.
N1135 X-8.645 Y-13.254 I2.392 J0.504
N1140 X-8.267 Y-13.798 I2.209 J1.131
N1145 G1 X-8.255 Y-13.812
N1150 G3 X-7.764 Y-14.22 I1.739 J1.591
N1155 G1 X-7.432 Y-14.427
N1160 G3 X-5.568 Y-9.573 I0.932 J2.427
N1165 X-7.432 Y-14.427 I-0.932 J-2.427
N1170 G2 X-7.38 Y-14.499 I-0.029 J-0.075
N1175 G3 X-7.327 Y-14.57 I0.078 J0.003
N1180 X-5.673 Y-9.43 I0.827 J2.57
N1185 X-7.327 Y-14.57 I-0.827 J-2.57
N1190 X-7.2 Y-14.594 Z-20.783 I0.153 J0.476 F#104
N1195 X-7.08 Y-14.585 Z-20.733 I0.026 J0.499
N1200 X-6.981 Y-14.556 Z-20.654 I-0.094 J0.491
N1205 X-6.91 Y-14.519 Z-20.55 I-0.193 J0.461
N1210 X-6.869 Y-14.491 Z-20.429 I-0.263 J0.425
N1215 G1 X-6.856 Y-14.48 Z-20.3
N1220 G0 Z11.
(BEARING SEAT ROUGHING 2)
N1230 M8
N1235 G0 X-7.197 Y-10.253
N1240 #100=330. (CUTTING)
N1245 #103=200. (ENTRY)
N1250 #104=200. (EXIT)
N1255 #106=82.5 (REDUCED)
N1260 #107=270. (RAMPING)
N1265 Z11.
N1270 Z-14.
N1275 G1 Z-17.501 F#103
N1280 S3000
N1285 X-7.211 Y-10.261 Z-17.626 F#107
N1290 X-7.251 Y-10.286 Z-17.743
N1295 X-7.313 Y-10.327 Z-17.845
N1300 X-7.391 Y-10.385 Z-17.925
N1305 X-7.48 Y-10.458 Z-17.978
N1310 X-7.571 Y-10.543 Z-18.
N1315 G3 X-4.893 Y-13.224 Z-18.312 I1.339 J-1.341
N1320 X-7.571 Y-10.543 Z-18.624 I-1.339 J1.341
N1325 X-4.893 Y-13.224 Z-18.936 I1.339 J-1.341
N1330 X-7.571 Y-10.543 Z-19.248 I-1.339 J1.341
N1335 X-4.893 Y-13.224 Z-19.56 I1.339 J-1.341
N1340 X-7.571 Y-10.543 Z-19.872 I-1.339 J1.341
N1345 X-4.893 Y-13.224 Z-20.184 I1.339 J-1.341
N1350 X-7.571 Y-10.543 Z-20.496 I-1.339 J1.341
N1355 X-4.893 Y-13.224 Z-20.808 I1.339 J-1.341
N1360 X-7.571 Y-10.543 Z-21.12 I-1.339 J1.341
N1365 X-4.893 Y-13.224 Z-21.432 I1.339 J-1.341
N1370 X-7.571 Y-10.543 Z-21.744 I-1.339 J1.341
N1375 X-4.893 Y-13.224 Z-22.056 I1.339 J-1.341
N1380 X-7.571 Y-10.543 Z-22.368 I-1.339 J1.341
N1385 X-4.893 Y-13.224 Z-22.68 I1.339 J-1.341
N1390 X-4.503 Y-11.107 Z-22.8 I-1.339 J1.341
N1395 X-6.511 Y-12.031 I-1.004 J-0.462
N1400 S3200
N1405 G1 X-6.505 Y-12.043 F#106
N1410 X-6.499 Y-12.052
N1415 X-6.49 Y-12.059
N1420 X-6.472 Y-12.068
N1425 G3 X-6.406 Y-12.073 I0.039 J0.079
N1430 G1 X-6.391 Y-12.068
N1435 G3 X-6.317 Y-12.005 I-0.038 J0.12
N1440 G1 X-6.308 Y-11.987
N1445 G3 X-6.295 Y-11.862 I-0.156 J0.08
N1450 G1 X-6.301 Y-11.839
N1455 G3 X-6.396 Y-11.706 I-0.229 J-0.063
N1460 G1 X-6.415 Y-11.692 F#100
N1465 G3 X-6.611 Y-11.64 I-0.171 J-0.249
N1470 G1 X-6.637 Y-11.642
N1475 G3 X-6.858 Y-11.738 I0.031 J-0.374
N1480 G1 X-6.872 Y-11.751
N1485 G3 X-7.005 Y-11.988 I0.289 J-0.319
N1490 G1 X-7.01 Y-12.011
N1495 G3 X-6.969 Y-12.321 I0.49 J-0.094
N1500 G1 X-6.961 Y-12.338
N1505 G3 X-6.718 Y-12.59 I0.501 J0.241
N1510 G1 X-6.696 Y-12.602
N1515 G3 X-6.298 Y-12.665 I0.292 J0.559
N1520 G1 X-6.28 Y-12.662
N1525 G3 X-5.895 Y-12.457 I-0.114 J0.679
N1530 G1 X-5.88 Y-12.441
N1535 G3 X-5.678 Y-12.01 I-0.546 J0.519
N1540 G1 X-5.675 Y-11.989
N1545 G3 X-5.779 Y-11.484 I-0.812 J0.096
N1550 G1 X-5.79 Y-11.466
N1555 G3 X-6.204 Y-11.097 I-0.764 J-0.441
N1560 G1 X-6.224 Y-11.089
N1565 G3 X-6.816 Y-11.037 I-0.375 J-0.868
N1570 G1 X-6.84 Y-11.042
N1575 G3 X-7.379 Y-11.371 I0.235 J-0.992
N1580 G1 X-7.389 Y-11.383
N1585 G3 X-7.643 Y-11.987 I0.812 J-0.695
N1590 G1 X-7.645 Y-12.01
N1595 G3 X-7.488 Y-12.691 I1.136 J-0.097
N1600 G1 X-7.45 Y-12.754
N1605 G3 X-7.355 Y-12.892 I1.057 J0.63
N1610 X-6.306 Y-13.352 I0.961 J0.768 F#106
N1615 G1 X-6.297 Y-13.351
N1620 G3 X-5.877 Y-13.252 I-0.097 J1.359 F#100
N1625 G1 X-5.872 Y-13.25
N1630 G3 X-5.495 Y-13.02 I-0.53 J1.291
N1635 G1 X-5.491 Y-13.017
N1640 G3 X-5.198 Y-12.672 I-0.929 J1.086
N1645 G1 X-5.195 Y-12.667
N1650 G3 X-5.021 Y-12.239 I-1.25 J0.758
N1655 G1 X-5.019 Y-12.233
N1660 G3 X-4.987 Y-11.761 I-1.457 J0.337
N1665 G1 X-4.988 Y-11.756
N1670 G3 X-5.107 Y-11.287 I-1.522 J-0.138
N1675 G1 X-5.109 Y-11.283
N1680 G3 X-5.374 Y-10.866 I-1.433 J-0.62
N1685 G1 X-5.378 Y-10.862
N1690 G3 X-5.768 Y-10.542 I-1.193 J-1.059
N1695 G1 X-5.773 Y-10.54
N1700 G3 X-6.253 Y-10.354 I-0.819 J-1.407
N1705 G1 X-6.258 Y-10.353
N1710 G3 X-6.783 Y-10.326 I-0.346 J-1.625
N1715 G1 X-6.788 Y-10.327
N1720 G3 X-7.305 Y-10.468 I0.182 J-1.684
N1725 G1 X-7.312 Y-10.471
N1730 G3 X-7.765 Y-10.77 I0.718 J-1.584
N1735 X-8.105 Y-11.193 I1.178 J-1.295
N1740 G1 X-8.109 Y-11.199
N1745 G3 X-8.307 Y-11.716 I1.555 J-0.894
N1750 G1 X-8.308 Y-11.721
N1755 G3 X-8.34 Y-12.284 I1.786 J-0.383
N1760 G1 X-8.339 Y-12.289
N1765 G3 X-8.195 Y-12.845 I1.85 J0.183
N1770 G1 X-8.193 Y-12.849
N1775 G3 X-7.881 Y-13.343 I1.736 J0.752
N1780 G1 X-7.869 Y-13.357
N1785 G3 X-7.433 Y-13.72 I1.368 J1.197
N1790 G1 X-7.143 Y-13.894
N1795 G3 X-5.857 Y-10.106 I0.643 J1.894
N1800 X-7.143 Y-13.894 I-0.643 J-1.894
N1805 G2 X-7.088 Y-13.964 I-0.026 J-0.076
N1810 G3 X-7.031 Y-14.032 I0.076 J0.006
N1815 X-5.969 Y-9.968 I0.531 J2.032
N1820 X-7.031 Y-14.032 I-0.531 J-2.032
N1825 X-6.903 Y-14.048 Z-22.783 I0.126 J0.484 F#104
N1830 X-6.784 Y-14.033 Z-22.733 I-0.002 J0.5
N1835 X-6.687 Y-13.998 Z-22.654 I-0.121 J0.485
N1840 X-6.618 Y-13.958 Z-22.55 I-0.218 J0.45
N1845 X-6.579 Y-13.927 Z-22.429 I-0.287 J0.41
N1850 G1 X-6.566 Y-13.916 Z-22.3
N1855 G0 Z11.
(BEARING SEAT 6MM FINISH)
N1865 M8
N1870 G0 Z20.
N1875 X-5.3 Y-12.6
N1880 #102=330. (FINISH)
N1885 #103=200. (ENTRY)
N1890 #104=200. (EXIT)
N1895 #108=100. (PLUNGE)
N1900 Z-10.
N1905 G1 Z-14. F#103
N1910 Z-20.4 F#108
N1915 G18 G2 X-4.7 Z-21. I0.6 K0.
N1920 G1 X-4.1 F#103
N1925 G17 G3 X-3.5 Y-12. I0. J0.6
N1930 X-9.5 I-3. J0. F#102
N1935 X-3.5 I3. J0.
N1940 X-9.5 I-3. J0.
N1945 X-3.5 I3. J0.
N1950 X-4.1 Y-11.4 I-0.6 J0. F#104
N1955 G1 X-4.7
N1960 G18 G3 X-5.3 Z-20.4 I0. K0.6
N1965 G0 Z20.
N1970 G17
N1975 M9
N1980 G53 G0 Z0.
N1985 M30
%
