%
(SETUP1-BOT-CAM-FLYING-MOUNT-ALL)
(T2  D=4. CR=0. - ZMIN=-14.5 - FLAT END MILL)
(T6  D=12. CR=0. - ZMIN=-26.5 - FLAT END MILL)
N10 G90 G94 G17 G91.1
N15 G21
N20 G53 G0 Z0.
(FACE1)
N25 M9
N30 T2 M6
N35 T6
N40 S3300 M3
N45 G54
N50 M9
N60 G0 X19.739 Y54.579
N65 G43 Z8. H2
N70 #100=220. (CUTTING)
N75 #102=220. (FINISH)
N80 #103=210. (ENTRY)
N85 #104=210. (EXIT)
N90 G0 Z6.
N95 G1 Z2. F#103
N100 G19 G2 Y52.579 Z0. J-2. K0.
N105 G1 Y52.379 F#100
N110 Y-11.439 F#102
N115 Y-12.853 F#100
N120 G17 G2 X16.514 I-1.613 J0.
N125 G1 Y58.792 F#102
N130 Y60.662 F#100
N135 G3 X13.288 I-1.613 J0.
N140 G1 Y-13. F#102
N145 G2 X10.063 I-1.613 J0. F#100
N150 G1 Y61. F#102
N155 G3 X6.837 I-1.613 J0. F#100
N160 G1 Y-13. F#102
N165 G2 X3.612 I-1.613 J0. F#100
N170 G1 Y61. F#102
N175 G3 X0.386 I-1.613 J0. F#100
N180 G1 Y60.835
N185 Y-13. F#102
N190 G2 X-2.839 I-1.613 J0. F#100
N195 G1 Y-12.951
N200 Y59.365 F#102
N205 G3 X-6.065 I-1.613 J0. F#100
N210 G1 Y54.232
N215 Y-11.887 F#102
N220 G19 G2 Y-13.887 Z2. J0. K2. F#104
N225 G0 Z8.
N230 G17
(2D POCKET1)
N235 M9
N240 G0 X7.712 Y15.527
N245 #100=220. (CUTTING)
N250 #103=210. (ENTRY)
N255 #104=210. (EXIT)
N260 #106=55. (REDUCED)
N265 #107=200. (RAMPING)
N270 Z7.
N275 Z5.
N280 G1 Z1.499 F#103
N285 S3100
N290 X7.728 Z1.374 F#107
N295 X7.775 Z1.257
N300 X7.85 Y15.529 Z1.155
N305 X7.947 Y15.537 Z1.075
N310 X8.061 Y15.552 Z1.022
N315 X8.182 Y15.577 Z1.
N320 G3 X7.319 Y19.267 Z0.688 I-0.432 J1.845
N325 X8.182 Y15.577 Z0.376 I0.432 J-1.845
N330 X7.319 Y19.267 Z0.064 I-0.432 J1.845
N335 X8.182 Y15.577 Z-0.248 I0.432 J-1.845
N340 X7.319 Y19.267 Z-0.56 I-0.432 J1.845
N345 X8.182 Y15.577 Z-0.872 I0.432 J-1.845
N350 X7.319 Y19.267 Z-1.184 I-0.432 J1.845
N355 X8.182 Y15.577 Z-1.496 I0.432 J-1.845
N360 X7.319 Y19.267 Z-1.808 I-0.432 J1.845
N365 X8.182 Y15.577 Z-2.12 I0.432 J-1.845
N370 X7.319 Y19.267 Z-2.432 I-0.432 J1.845
N375 X8.182 Y15.577 Z-2.744 I0.432 J-1.845
N380 X7.319 Y19.267 Z-3.056 I-0.432 J1.845
N385 X8.182 Y15.577 Z-3.368 I0.432 J-1.845
N390 X9.646 Y17.399 Z-3.5 I-0.432 J1.845
N395 X6.5 Y14.084 I-1.573 J-1.658
N400 S3300
N405 X6.482 Y11.948 I97.747 J-1.872 F#100
N410 X6.488 Y11.148 I97.765 J0.264 F#106
N415 G1 X6.512
N420 G3 X6.585 Y14.604 I-249.917 J6.972 F#100
N425 G1 X6.706 Y23.724
N430 X6.707 Y23.842 F#106
N435 Y23.887
N440 G3 X6.294 Y23.903 I-0.207 J-0.004
N445 G1 X6.293 Y23.892
N450 X6.291 Y23.864
N455 X6.29 Y23.836 F#100
N460 X6.165 Y14.176
N465 G3 X6.304 Y11.691 I29.244 J0.386
N470 X6.329 Y11.45 I29.105 J2.871 F#106
N475 G1 X6.343 Y11.307
N480 X6.366 Y11.165
N485 X6.398 Y11.025
N490 X6.431 Y10.903
N495 G3 X6.578 Y10.9 I0.074 J0.02
N500 X6.766 Y12.358 I-5.416 J1.439 F#100
N505 G1 X6.85 Y13.043
N510 X6.921 Y13.729
N515 X6.977 Y14.416
N520 X7.019 Y15.105
N525 X7.047 Y15.794
N530 X7.244 Y23.786
N535 X7.245 Y23.864
N540 X7.243 Y23.943
N545 X7.242 Y23.968
N550 G3 X7.172 Y24.253 I-0.758 J-0.034
N555 X5.905 Y24.41 I-0.683 J-0.316
N560 X5.813 Y24.266 I0.59 J-0.477
N565 X5.756 Y24.106 I0.683 J-0.335
N570 X5.723 Y23.818 I1.347 J-0.301
N575 G1 X5.514 Y15.323
N580 G3 X5.833 Y12.412 I10.97 J-0.27
N585 X6.187 Y10.908 I20.482 J4.026
N590 G1 X6.224 Y10.834 F#106
N595 X6.252 Y10.755
N600 X6.384 Y10.151
N605 G3 X6.626 Y10.146 I0.122 J0.027
N610 G2 X6.881 Y11.077 I8.77 J-1.9 F#100
N615 G1 X6.932 Y11.236
N620 X6.974 Y11.397
N625 X7.046 Y11.709
N630 G2 X7.189 Y12.253 I8.5 J-1.951
N635 G1 X7.227 Y12.382
N640 G3 X7.733 Y15.6 I-11.658 J3.481
N645 G1 X7.909 Y23.739
N650 Y23.832
N655 X7.908 Y23.924
N660 X7.903 Y24.016
N665 G3 X7.773 Y24.536 I-1.46 J-0.088
N670 X5.597 Y25.069 I-1.299 J-0.595
N675 X5.364 Y24.842 I0.886 J-1.14
N680 X5.188 Y24.568 I1.122 J-0.916
N685 X5.077 Y24.261 I1.302 J-0.645
N690 X5.015 Y23.79 I2.029 J-0.506
N695 G1 X4.833 Y15.354
N700 G3 X5.38 Y12.466 I7.091 J-0.153
N705 G1 X5.412 Y12.388
N710 G2 X5.741 Y11.499 I-10.397 J-4.345
N715 G3 X5.905 Y11.021 I7.475 J2.308
N720 G1 X6.001 Y10.758
N725 X6.085 Y10.491
N730 X6.158 Y10.221
N735 X6.208 Y10.019
N740 X6.25 Y9.848 F#106
N745 X6.26 Y9.81
N750 X6.435 Y9.253
N755 G3 X6.566 Y9.252 I0.065 J0.021
N760 G1 X6.747 Y9.821 F#100
N765 X6.752 Y9.835
N770 X6.986 Y10.637
N775 G2 X7.14 Y11.066 I3.632 J-1.063
N780 G1 X7.224 Y11.279
N785 X7.288 Y11.455
N790 G2 X7.684 Y12.401 I9.19 J-3.301
N795 G1 X7.695 Y12.422
N800 G3 X8.419 Y15.454 I-6.568 J3.171
N805 G1 X8.576 Y23.685
N810 G3 X8.564 Y24.113 I-4.455 J0.085
N815 X8.526 Y24.361 I-1.669 J-0.129
N820 G1 X8.515 Y24.408
N825 G3 X8.373 Y24.824 I-2.126 J-0.491
N830 X5.578 Y25.854 I-1.909 J-0.874
N835 X5.169 Y25.605 I0.893 J-1.922
N840 X4.827 Y25.27 I1.305 J-1.679
N845 X4.567 Y24.867 I1.652 J-1.35
N850 X4.403 Y24.415 I1.918 J-0.95
N855 G1 X4.386 Y24.343
N860 G3 X4.314 Y23.777 I2.581 J-0.617
N865 G1 X4.152 Y15.287
N870 G3 X4.981 Y12.261 I5.548 J-0.106
N875 G1 X4.984 Y12.256
N880 G2 X5.56 Y11.185 I-8.49 J-5.254
N885 X6.25 Y9.199 I-9.767 J-4.506
N890 G1 X6.347 Y8.796 F#106
N895 X6.351 Y8.781
N900 X6.458 Y8.401
N905 G3 X6.544 I0.043 J0.012
N910 G1 X6.653 Y8.78 F#100
N915 X6.658 Y8.796
N920 X6.778 Y9.287
N925 G2 X7.465 Y11.139 I8.452 J-2.078
N930 G1 X7.504 Y11.217
N935 G2 X8.074 Y12.166 I6.829 J-3.456
N940 G3 X9.102 Y15.319 I-4.617 J3.25
N945 G1 X9.243 Y23.571
N950 G3 X9.213 Y24.326 I-6.575 J0.112
N955 X9.114 Y24.79 I-2.108 J-0.207
N960 G1 X9.088 Y24.869
N965 G3 X8.839 Y25.405 I-2.502 J-0.836
N970 X5.572 Y26.6 I-2.383 J-1.451
N975 X5.005 Y26.338 I0.874 J-2.631
N980 G1 X4.995 Y26.332
N985 G3 X4.507 Y25.954 I1.432 J-2.354
N990 G1 X4.494 Y25.942
N995 G3 X4.105 Y25.467 I1.911 J-1.967
N1000 G1 X4.093 Y25.449
N1005 G3 X3.819 Y24.901 I2.293 J-1.488
N1010 G1 X3.81 Y24.877
N1015 G3 X3.665 Y24.283 I2.564 J-0.939
N1020 G1 X3.661 Y24.251
N1025 G3 X3.618 Y23.639 I5.645 J-0.709
N1030 G1 X3.464 Y14.621
N1035 G3 X3.497 Y14.038 I4.845 J-0.012
N1040 G1 X3.513 Y13.907
N1045 X3.538 Y13.777
N1050 X3.571 Y13.648
N1055 X3.561 Y13.634
N1060 G3 X4.39 Y12.248 I2.939 J0.816
N1065 G2 X6.281 Y8.257 I-4.29 J-4.476
N1070 X6.3 Y7.771 I-6.181 J-0.485 F#106
N1075 G3 X6.7 I0.2 J0.
N1080 G2 X8.61 Y12.248 I6.2 J0. F#100
N1085 G3 X9.55 Y14.45 I-2.11 J2.202
N1090 G1 Y23.95
N1095 G3 X3.45 I-3.05 J0.
N1100 G1 Y14.45
N1105 G3 X3.561 Y13.634 I3.05 J0.
N1110 G2 X3.508 Y13.466 I-0.155 J-0.043
N1115 G3 X3.462 Y13.296 I0.095 J-0.117
N1120 X4.251 Y12.104 I3.038 J1.154
N1125 G2 X6.1 Y7.771 I-4.151 J-4.332
N1130 G3 X6.9 I0.4 J0.
N1135 G2 X8.749 Y12.103 I6. J0.
N1140 G3 X9.75 Y14.45 I-2.249 J2.347
N1145 G1 Y23.95
N1150 G3 X3.25 I-3.25 J0.
N1155 G1 Y14.45
N1160 G3 X3.462 Y13.296 I3.25 J0.
N1165 X3.523 Y13.182 Z-3.483 I0.467 J0.178 F#104
N1170 X3.604 Y13.093 Z-3.433 I0.406 J0.291
N1175 X3.689 Y13.035 Z-3.354 I0.325 J0.38
N1180 X3.762 Y13.002 Z-3.25 I0.24 J0.439
N1185 X3.81 Y12.988 Z-3.129 I0.168 J0.471
N1190 G1 X3.826 Y12.984 Z-3.
N1195 G0 Z7.
(2D CONTOUR1)
N1205 M9
N1210 G0 X5.834 Y38.925
N1215 #102=220. (FINISH)
N1220 #107=200. (RAMPING)
N1225 #108=120. (PLUNGE)
N1230 Z5.
N1235 Z3.
N1240 G1 Z2. F#108
N1245 S3100
N1250 G3 X7.166 Y33.075 Z1.671 I0.666 J-2.925 F#107
N1255 X5.834 Y38.925 Z1.342 I-0.666 J2.925
N1260 X7.166 Y33.075 Z1.013 I0.666 J-2.925
N1265 X5.834 Y38.925 Z0.684 I-0.666 J2.925
N1270 X7.166 Y33.075 Z0.354 I0.666 J-2.925
N1275 X5.834 Y38.925 Z0.025 I-0.666 J2.925
N1280 X7.166 Y33.075 Z-0.304 I0.666 J-2.925
N1285 X5.834 Y38.925 Z-0.633 I-0.666 J2.925
N1290 X7.166 Y33.075 Z-0.962 I0.666 J-2.925
N1295 X5.834 Y38.925 Z-1.291 I-0.666 J2.925
N1300 X7.166 Y33.075 Z-1.62 I0.666 J-2.925
N1305 X5.834 Y38.925 Z-1.949 I-0.666 J2.925
N1310 X7.166 Y33.075 Z-2.279 I0.666 J-2.925
N1315 X5.834 Y38.925 Z-2.608 I-0.666 J2.925
N1320 X7.166 Y33.075 Z-2.937 I0.666 J-2.925
N1325 X5.834 Y38.925 Z-3.266 I-0.666 J2.925
N1330 X7.166 Y33.075 Z-3.595 I0.666 J-2.925
N1335 X5.834 Y38.925 Z-3.924 I-0.666 J2.925
N1340 X7.166 Y33.075 Z-4.253 I0.666 J-2.925
N1345 X5.834 Y38.925 Z-4.582 I-0.666 J2.925
N1350 X7.166 Y33.075 Z-4.912 I0.666 J-2.925
N1355 X5.834 Y38.925 Z-5.241 I-0.666 J2.925
N1360 X7.166 Y33.075 Z-5.57 I0.666 J-2.925
N1365 X5.834 Y38.925 Z-5.899 I-0.666 J2.925
N1370 X7.166 Y33.075 Z-6.228 I0.666 J-2.925
N1375 X5.834 Y38.925 Z-6.557 I-0.666 J2.925
N1380 X7.166 Y33.075 Z-6.886 I0.666 J-2.925
N1385 X5.834 Y38.925 Z-7.215 I-0.666 J2.925
N1390 X7.166 Y33.075 Z-7.544 I0.666 J-2.925
N1395 X5.834 Y38.925 Z-7.874 I-0.666 J2.925
N1400 X7.166 Y33.075 Z-8.203 I0.666 J-2.925
N1405 X5.834 Y38.925 Z-8.532 I-0.666 J2.925
N1410 X7.166 Y33.075 Z-8.861 I0.666 J-2.925
N1415 X5.834 Y38.925 Z-9.19 I-0.666 J2.925
N1420 X7.166 Y33.075 Z-9.519 I0.666 J-2.925
N1425 X5.834 Y38.925 Z-9.848 I-0.666 J2.925
N1430 X7.166 Y33.075 Z-10.177 I0.666 J-2.925
N1435 X5.834 Y38.925 Z-10.507 I-0.666 J2.925
N1440 X7.166 Y33.075 Z-10.836 I0.666 J-2.925
N1445 X5.834 Y38.925 Z-11.165 I-0.666 J2.925
N1450 X7.166 Y33.075 Z-11.494 I0.666 J-2.925
N1455 X5.834 Y38.925 Z-11.823 I-0.666 J2.925
N1460 X7.166 Y33.075 Z-12.152 I0.666 J-2.925
N1465 X5.834 Y38.925 Z-12.481 I-0.666 J2.925
N1470 X7.166 Y33.075 Z-12.81 I0.666 J-2.925
N1475 X5.834 Y38.925 Z-13.14 I-0.666 J2.925
N1480 X7.166 Y33.075 Z-13.469 I0.666 J-2.925
N1485 X5.834 Y38.925 Z-13.798 I-0.666 J2.925
N1490 X7.166 Y33.075 Z-14.127 I0.666 J-2.925
N1495 X5.834 Y38.925 Z-14.456 I-0.666 J2.925
N1500 X4.7 Y38.4 Z-14.5 I0.666 J-2.925
N1505 S3300
N1510 X8.3 Y33.6 I1.8 J-2.4 F#102
N1515 X4.7 Y38.4 I-1.8 J2.4
N1520 G0 Z5.
N1530 M5
N1535 G53 Z0.
(2D CONTOUR2)
N1540 M9
N1545 M1
N1550 T6 M6
N1555 T2
N1560 S2500 M3
N1565 M9
N1575 G0 X6.889 Y29.
N1580 G43 Z11. H6
N1585 #100=300. (CUTTING)
N1590 #102=300. (FINISH)
N1595 #103=200. (ENTRY)
N1600 #104=200. (EXIT)
N1605 #107=270. (RAMPING)
N1610 #108=45. (PLUNGE)
N1615 G1 Z3.699 F#108
N1620 S2400
N1625 G18 G2 X7. Z3.195 I1.2 K0. F#107
N1630 G3 X6. Z2.503 I-1.089 K0.505
N1635 G1 X6.047 Z2.5
N1640 X7. Z2.467
N1645 X6. Z2.432
N1650 X7. Z2.397
N1655 X6. Z2.362
N1660 X7. Z2.327
N1665 X6. Z2.292
N1670 X7. Z2.257
N1675 X6. Z2.222
N1680 X7. Z2.187
N1685 X6. Z2.152
N1690 X7. Z2.118
N1695 X6. Z2.083
N1700 X7. Z2.048
N1705 X6. Z2.013
N1710 X7. Z1.978
N1715 X6. Z1.943
N1720 X7. Z1.908
N1725 X6. Z1.873
N1730 X7. Z1.838
N1735 X6. Z1.803
N1740 X7. Z1.768
N1745 X6. Z1.733
N1750 X7. Z1.698
N1755 X6. Z1.664
N1760 X7. Z1.629
N1765 X6. Z1.594
N1770 X7. Z1.559
N1775 X6. Z1.524
N1780 X7. Z1.489
N1785 X6. Z1.454
N1790 X7. Z1.419
N1795 X6. Z1.384
N1800 X7. Z1.349
N1805 X6. Z1.314
N1810 X7. Z1.279
N1815 X6. Z1.244
N1820 X7. Z1.21
N1825 X6. Z1.175
N1830 X7. Z1.14
N1835 X6. Z1.105
N1840 X7. Z1.07
N1845 X6. Z1.035
N1850 X7. Z1.
N1855 X6. Z0.965
N1860 X7. Z0.93
N1865 X6. Z0.895
N1870 X7. Z0.86
N1875 X6. Z0.825
N1880 X7. Z0.791
N1885 X6. Z0.756
N1890 X7. Z0.721
N1895 X6. Z0.686
N1900 X7. Z0.651
N1905 X6. Z0.616
N1910 X7. Z0.581
N1915 X6. Z0.546
N1920 X7. Z0.511
N1925 X6. Z0.476
N1930 X7. Z0.441
N1935 X6. Z0.406
N1940 X7. Z0.371
N1945 X6. Z0.337
N1950 X7. Z0.302
N1955 X6. Z0.267
N1960 X7. Z0.232
N1965 X6. Z0.197
N1970 X7. Z0.162
N1975 X6. Z0.127
N1980 X7. Z0.092
N1985 X6. Z0.057
N1990 X7. Z0.022
N1995 X6. Z-0.013
N2000 X7. Z-0.048
N2005 X6. Z-0.083
N2010 X7. Z-0.117
N2015 X6. Z-0.152
N2020 X7. Z-0.187
N2025 X6. Z-0.222
N2030 X7. Z-0.257
N2035 X6. Z-0.292
N2040 X7. Z-0.327
N2045 X6. Z-0.362
N2050 X7. Z-0.397
N2055 X6. Z-0.432
N2060 X7. Z-0.467
N2065 X6. Z-0.502
N2070 X7. Z-0.536
N2075 X6. Z-0.571
N2080 X7. Z-0.606
N2085 X6. Z-0.641
N2090 X7. Z-0.676
N2095 X6. Z-0.711
N2100 X7. Z-0.746
N2105 X6. Z-0.781
N2110 X7. Z-0.816
N2115 X6. Z-0.851
N2120 X7. Z-0.886
N2125 X6. Z-0.921
N2130 X7. Z-0.956
N2135 X6. Z-0.99
N2140 X7. Z-1.025
N2145 X6. Z-1.06
N2150 X7. Z-1.095
N2155 X6. Z-1.13
N2160 X7. Z-1.165
N2165 X6. Z-1.2
N2170 X7. Z-1.235
N2175 X6. Z-1.27
N2180 X7. Z-1.305
N2185 X6. Z-1.34
N2190 X7. Z-1.375
N2195 X6. Z-1.409
N2200 X7. Z-1.444
N2205 X6. Z-1.479
N2210 X7. Z-1.514
N2215 X6. Z-1.549
N2220 X7. Z-1.584
N2225 X6. Z-1.619
N2230 X7. Z-1.654
N2235 X6. Z-1.689
N2240 X7. Z-1.724
N2245 X6. Z-1.759
N2250 X7. Z-1.794
N2255 X6. Z-1.829
N2260 X7. Z-1.863
N2265 X6. Z-1.898
N2270 X7. Z-1.933
N2275 X6. Z-1.968
N2280 X7. Z-2.003
N2285 X6. Z-2.038
N2290 X7. Z-2.073
N2295 X6. Z-2.108
N2300 X7. Z-2.143
N2305 X6. Z-2.178
N2310 X7. Z-2.213
N2315 X6. Z-2.248
N2320 X7. Z-2.283
N2325 X6. Z-2.317
N2330 X7. Z-2.352
N2335 X6. Z-2.387
N2340 X7. Z-2.422
N2345 X6. Z-2.457
N2350 X7. Z-2.492
N2355 X6. Z-2.527
N2360 X7. Z-2.562
N2365 X6. Z-2.597
N2370 X7. Z-2.632
N2375 X6. Z-2.667
N2380 X7. Z-2.702
N2385 X6. Z-2.736
N2390 X7. Z-2.771
N2395 X6. Z-2.806
N2400 X7. Z-2.841
N2405 X6. Z-2.876
N2410 X7. Z-2.911
N2415 X6. Z-2.946
N2420 X7. Z-2.981
N2425 X6. Z-3.016
N2430 X7. Z-3.051
N2435 X6. Z-3.086
N2440 X7. Z-3.121
N2445 X6. Z-3.156
N2450 X7. Z-3.19
N2455 X6. Z-3.225
N2460 X7. Z-3.26
N2465 X6. Z-3.295
N2470 X7. Z-3.33
N2475 X6. Z-3.365
N2480 X7. Z-3.4
N2485 X6. Z-3.435
N2490 X7. Z-3.47
N2495 X6. Z-3.505
N2500 X7. Z-3.54
N2505 X6. Z-3.575
N2510 X7. Z-3.609
N2515 X6. Z-3.644
N2520 X7. Z-3.679
N2525 X6. Z-3.714
N2530 X7. Z-3.749
N2535 X6. Z-3.784
N2540 X7. Z-3.819
N2545 X6. Z-3.854
N2550 X7. Z-3.889
N2555 X6. Z-3.924
N2560 X7. Z-3.959
N2565 X6. Z-3.994
N2570 X7. Z-4.029
N2575 X6. Z-4.063
N2580 X7. Z-4.098
N2585 X6. Z-4.133
N2590 X7. Z-4.168
N2595 X6. Z-4.203
N2600 X7. Z-4.238
N2605 X6. Z-4.273
N2610 X7. Z-4.308
N2615 X6. Z-4.343
N2620 X7. Z-4.378
N2625 X6. Z-4.413
N2630 X7. Z-4.448
N2635 X6. Z-4.483
N2640 X7. Z-4.517
N2645 X6. Z-4.552
N2650 X7. Z-4.587
N2655 X6. Z-4.622
N2660 X7. Z-4.657
N2665 X6. Z-4.692
N2670 X7. Z-4.727
N2675 X6. Z-4.762
N2680 X7. Z-4.797
N2685 X6. Z-4.832
N2690 X7. Z-4.867
N2695 X6. Z-4.902
N2700 X7. Z-4.936
N2705 X6. Z-4.971
N2710 X7. Z-5.006
N2715 X6. Z-5.041
N2720 X7. Z-5.076
N2725 X6. Z-5.111
N2730 X7. Z-5.146
N2735 X6. Z-5.181
N2740 X7. Z-5.216
N2745 X6. Z-5.251
N2750 X7. Z-5.286
N2755 X6. Z-5.321
N2760 X7. Z-5.356
N2765 X6. Z-5.39
N2770 X7. Z-5.425
N2775 X6. Z-5.46
N2780 X7. Z-5.495
N2785 X6. Z-5.53
N2790 X7. Z-5.565
N2795 X6. Z-5.6
N2800 X7. Z-5.635
N2805 X6. Z-5.67
N2810 X7. Z-5.705
N2815 X6. Z-5.74
N2820 X7. Z-5.775
N2825 X6. Z-5.81
N2830 X7. Z-5.844
N2835 X6. Z-5.879
N2840 X7. Z-5.914
N2845 X6. Z-5.949
N2850 X7. Z-5.984
N2855 X6. Z-6.019
N2860 X7. Z-6.054
N2865 X6. Z-6.089
N2870 X7. Z-6.124
N2875 X6. Z-6.159
N2880 X7. Z-6.194
N2885 X6. Z-6.229
N2890 X7. Z-6.263
N2895 X6. Z-6.298
N2900 X7. Z-6.333
N2905 X6. Z-6.368
N2910 X7. Z-6.403
N2915 X6. Z-6.438
N2920 X7. Z-6.473
N2925 X6. Z-6.508
N2930 X7. Z-6.543
N2935 X6. Z-6.578
N2940 X7. Z-6.613
N2945 X6. Z-6.648
N2950 X7. Z-6.683
N2955 X6. Z-6.717
N2960 X7. Z-6.752
N2965 X6. Z-6.787
N2970 X7. Z-6.822
N2975 X6. Z-6.857
N2980 X7. Z-6.892
N2985 X6. Z-6.927
N2990 X7. Z-6.962
N2995 X6. Z-6.997
N3000 X7. Z-7.032
N3005 X6. Z-7.067
N3010 X7. Z-7.102
N3015 X6. Z-7.136
N3020 X7. Z-7.171
N3025 X6. Z-7.206
N3030 X7. Z-7.241
N3035 X6. Z-7.276
N3040 X7. Z-7.311
N3045 X6. Z-7.346
N3050 X7. Z-7.381
N3055 X6. Z-7.416
N3060 X7. Z-7.451
N3065 X6. Z-7.486
N3070 X7. Z-7.521
N3075 X6. Z-7.556
N3080 X7. Z-7.59
N3085 X6. Z-7.625
N3090 X7. Z-7.66
N3095 X6. Z-7.695
N3100 X7. Z-7.73
N3105 X6. Z-7.765
N3110 X7. Z-7.8
N3115 X6. Z-7.835
N3120 X7. Z-7.87
N3125 X6. Z-7.905
N3130 X7. Z-7.94
N3135 X6. Z-7.975
N3140 X7. Z-8.01
N3145 X6. Z-8.044
N3150 X7. Z-8.079
N3155 X6. Z-8.114
N3160 X7. Z-8.149
N3165 X6. Z-8.184
N3170 X7. Z-8.219
N3175 X6. Z-8.254
N3180 X7. Z-8.289
N3185 X6. Z-8.324
N3190 X7. Z-8.359
N3195 X6. Z-8.394
N3200 X7. Z-8.429
N3205 X6. Z-8.463
N3210 X7. Z-8.498
N3215 X6. Z-8.533
N3220 X7. Z-8.568
N3225 X6. Z-8.603
N3230 X7. Z-8.638
N3235 X6. Z-8.673
N3240 X7. Z-8.708
N3245 X6. Z-8.743
N3250 X7. Z-8.778
N3255 X6. Z-8.813
N3260 X7. Z-8.848
N3265 X6. Z-8.883
N3270 X7. Z-8.917
N3275 X6. Z-8.952
N3280 X7. Z-8.987
N3285 X6. Z-9.022
N3290 X7. Z-9.057
N3295 X6. Z-9.092
N3300 X7. Z-9.127
N3305 X6. Z-9.162
N3310 X7. Z-9.197
N3315 X6. Z-9.232
N3320 X7. Z-9.267
N3325 X6. Z-9.302
N3330 X7. Z-9.337
N3335 X6. Z-9.371
N3340 X7. Z-9.406
N3345 X6. Z-9.441
N3350 X7. Z-9.476
N3355 X6. Z-9.511
N3360 X7. Z-9.546
N3365 X6. Z-9.581
N3370 X7. Z-9.616
N3375 X6. Z-9.651
N3380 X7. Z-9.686
N3385 X6. Z-9.721
N3390 X7. Z-9.756
N3395 X6. Z-9.79
N3400 X7. Z-9.825
N3405 X6. Z-9.86
N3410 X7. Z-9.895
N3415 X6. Z-9.93
N3420 X7. Z-9.965
N3425 X6. Z-10.
N3430 S2500
N3435 X7. F#102
N3440 G0 Z11.
N3445 X6.889
N3450 G1 Z3.699 F#108
N3455 S2400
N3460 G2 X7. Z3.195 I1.2 K0. F#107
N3465 G3 X6. Z2.503 I-1.089 K0.505
N3470 G1 X6.047 Z2.5
N3475 X7. Z2.467
N3480 X6. Z2.432
N3485 X7. Z2.397
N3490 X6. Z2.362
N3495 X7. Z2.327
N3500 X6. Z2.292
N3505 X7. Z2.257
N3510 X6. Z2.222
N3515 X7. Z2.187
N3520 X6. Z2.152
N3525 X7. Z2.118
N3530 X6. Z2.083
N3535 X7. Z2.048
N3540 X6. Z2.013
N3545 X7. Z1.978
N3550 X6. Z1.943
N3555 X7. Z1.908
N3560 X6. Z1.873
N3565 X7. Z1.838
N3570 X6. Z1.803
N3575 X7. Z1.768
N3580 X6. Z1.733
N3585 X7. Z1.698
N3590 X6. Z1.664
N3595 X7. Z1.629
N3600 X6. Z1.594
N3605 X7. Z1.559
N3610 X6. Z1.524
N3615 X7. Z1.489
N3620 X6. Z1.454
N3625 X7. Z1.419
N3630 X6. Z1.384
N3635 X7. Z1.349
N3640 X6. Z1.314
N3645 X7. Z1.279
N3650 X6. Z1.244
N3655 X7. Z1.21
N3660 X6. Z1.175
N3665 X7. Z1.14
N3670 X6. Z1.105
N3675 X7. Z1.07
N3680 X6. Z1.035
N3685 X7. Z1.
N3690 X6. Z0.965
N3695 X7. Z0.93
N3700 X6. Z0.895
N3705 X7. Z0.86
N3710 X6. Z0.825
N3715 X7. Z0.791
N3720 X6. Z0.756
N3725 X7. Z0.721
N3730 X6. Z0.686
N3735 X7. Z0.651
N3740 X6. Z0.616
N3745 X7. Z0.581
N3750 X6. Z0.546
N3755 X7. Z0.511
N3760 X6. Z0.476
N3765 X7. Z0.441
N3770 X6. Z0.406
N3775 X7. Z0.371
N3780 X6. Z0.337
N3785 X7. Z0.302
N3790 X6. Z0.267
N3795 X7. Z0.232
N3800 X6. Z0.197
N3805 X7. Z0.162
N3810 X6. Z0.127
N3815 X7. Z0.092
N3820 X6. Z0.057
N3825 X7. Z0.022
N3830 X6. Z-0.013
N3835 X7. Z-0.048
N3840 X6. Z-0.083
N3845 X7. Z-0.117
N3850 X6. Z-0.152
N3855 X7. Z-0.187
N3860 X6. Z-0.222
N3865 X7. Z-0.257
N3870 X6. Z-0.292
N3875 X7. Z-0.327
N3880 X6. Z-0.362
N3885 X7. Z-0.397
N3890 X6. Z-0.432
N3895 X7. Z-0.467
N3900 X6. Z-0.502
N3905 X7. Z-0.536
N3910 X6. Z-0.571
N3915 X7. Z-0.606
N3920 X6. Z-0.641
N3925 X7. Z-0.676
N3930 X6. Z-0.711
N3935 X7. Z-0.746
N3940 X6. Z-0.781
N3945 X7. Z-0.816
N3950 X6. Z-0.851
N3955 X7. Z-0.886
N3960 X6. Z-0.921
N3965 X7. Z-0.956
N3970 X6. Z-0.99
N3975 X7. Z-1.025
N3980 X6. Z-1.06
N3985 X7. Z-1.095
N3990 X6. Z-1.13
N3995 X7. Z-1.165
N4000 X6. Z-1.2
N4005 X7. Z-1.235
N4010 X6. Z-1.27
N4015 X7. Z-1.305
N4020 X6. Z-1.34
N4025 X7. Z-1.375
N4030 X6. Z-1.409
N4035 X7. Z-1.444
N4040 X6. Z-1.479
N4045 X7. Z-1.514
N4050 X6. Z-1.549
N4055 X7. Z-1.584
N4060 X6. Z-1.619
N4065 X7. Z-1.654
N4070 X6. Z-1.689
N4075 X7. Z-1.724
N4080 X6. Z-1.759
N4085 X7. Z-1.794
N4090 X6. Z-1.829
N4095 X7. Z-1.863
N4100 X6. Z-1.898
N4105 X7. Z-1.933
N4110 X6. Z-1.968
N4115 X7. Z-2.003
N4120 X6. Z-2.038
N4125 X7. Z-2.073
N4130 X6. Z-2.108
N4135 X7. Z-2.143
N4140 X6. Z-2.178
N4145 X7. Z-2.213
N4150 X6. Z-2.248
N4155 X7. Z-2.283
N4160 X6. Z-2.317
N4165 X7. Z-2.352
N4170 X6. Z-2.387
N4175 X7. Z-2.422
N4180 X6. Z-2.457
N4185 X7. Z-2.492
N4190 X6. Z-2.527
N4195 X7. Z-2.562
N4200 X6. Z-2.597
N4205 X7. Z-2.632
N4210 X6. Z-2.667
N4215 X7. Z-2.702
N4220 X6. Z-2.736
N4225 X7. Z-2.771
N4230 X6. Z-2.806
N4235 X7. Z-2.841
N4240 X6. Z-2.876
N4245 X7. Z-2.911
N4250 X6. Z-2.946
N4255 X7. Z-2.981
N4260 X6. Z-3.016
N4265 X7. Z-3.051
N4270 X6. Z-3.086
N4275 X7. Z-3.121
N4280 X6. Z-3.156
N4285 X7. Z-3.19
N4290 X6. Z-3.225
N4295 X7. Z-3.26
N4300 X6. Z-3.295
N4305 X7. Z-3.33
N4310 X6. Z-3.365
N4315 X7. Z-3.4
N4320 X6. Z-3.435
N4325 X7. Z-3.47
N4330 X6. Z-3.505
N4335 X7. Z-3.54
N4340 X6. Z-3.575
N4345 X7. Z-3.609
N4350 X6. Z-3.644
N4355 X7. Z-3.679
N4360 X6. Z-3.714
N4365 X7. Z-3.749
N4370 X6. Z-3.784
N4375 X7. Z-3.819
N4380 X6. Z-3.854
N4385 X7. Z-3.889
N4390 X6. Z-3.924
N4395 X7. Z-3.959
N4400 X6. Z-3.994
N4405 X7. Z-4.029
N4410 X6. Z-4.063
N4415 X7. Z-4.098
N4420 X6. Z-4.133
N4425 X7. Z-4.168
N4430 X6. Z-4.203
N4435 X7. Z-4.238
N4440 X6. Z-4.273
N4445 X7. Z-4.308
N4450 X6. Z-4.343
N4455 X7. Z-4.378
N4460 X6. Z-4.413
N4465 X7. Z-4.448
N4470 X6. Z-4.483
N4475 X7. Z-4.517
N4480 X6. Z-4.552
N4485 X7. Z-4.587
N4490 X6. Z-4.622
N4495 X7. Z-4.657
N4500 X6. Z-4.692
N4505 X7. Z-4.727
N4510 X6. Z-4.762
N4515 X7. Z-4.797
N4520 X6. Z-4.832
N4525 X7. Z-4.867
N4530 X6. Z-4.902
N4535 X7. Z-4.936
N4540 X6. Z-4.971
N4545 X7. Z-5.006
N4550 X6. Z-5.041
N4555 X7. Z-5.076
N4560 X6. Z-5.111
N4565 X7. Z-5.146
N4570 X6. Z-5.181
N4575 X7. Z-5.216
N4580 X6. Z-5.251
N4585 X7. Z-5.286
N4590 X6. Z-5.321
N4595 X7. Z-5.356
N4600 X6. Z-5.39
N4605 X7. Z-5.425
N4610 X6. Z-5.46
N4615 X7. Z-5.495
N4620 X6. Z-5.53
N4625 X7. Z-5.565
N4630 X6. Z-5.6
N4635 X7. Z-5.635
N4640 X6. Z-5.67
N4645 X7. Z-5.705
N4650 X6. Z-5.74
N4655 X7. Z-5.775
N4660 X6. Z-5.81
N4665 X7. Z-5.844
N4670 X6. Z-5.879
N4675 X7. Z-5.914
N4680 X6. Z-5.949
N4685 X7. Z-5.984
N4690 X6. Z-6.019
N4695 X7. Z-6.054
N4700 X6. Z-6.089
N4705 X7. Z-6.124
N4710 X6. Z-6.159
N4715 X7. Z-6.194
N4720 X6. Z-6.229
N4725 X7. Z-6.263
N4730 X6. Z-6.298
N4735 X7. Z-6.333
N4740 X6. Z-6.368
N4745 X7. Z-6.403
N4750 X6. Z-6.438
N4755 X7. Z-6.473
N4760 X6. Z-6.508
N4765 X7. Z-6.543
N4770 X6. Z-6.578
N4775 X7. Z-6.613
N4780 X6. Z-6.648
N4785 X7. Z-6.683
N4790 X6. Z-6.717
N4795 X7. Z-6.752
N4800 X6. Z-6.787
N4805 X7. Z-6.822
N4810 X6. Z-6.857
N4815 X7. Z-6.892
N4820 X6. Z-6.927
N4825 X7. Z-6.962
N4830 X6. Z-6.997
N4835 X7. Z-7.032
N4840 X6. Z-7.067
N4845 X7. Z-7.102
N4850 X6. Z-7.136
N4855 X7. Z-7.171
N4860 X6. Z-7.206
N4865 X7. Z-7.241
N4870 X6. Z-7.276
N4875 X7. Z-7.311
N4880 X6. Z-7.346
N4885 X7. Z-7.381
N4890 X6. Z-7.416
N4895 X7. Z-7.451
N4900 X6. Z-7.486
N4905 X7. Z-7.521
N4910 X6. Z-7.556
N4915 X7. Z-7.59
N4920 X6. Z-7.625
N4925 X7. Z-7.66
N4930 X6. Z-7.695
N4935 X7. Z-7.73
N4940 X6. Z-7.765
N4945 X7. Z-7.8
N4950 X6. Z-7.835
N4955 X7. Z-7.87
N4960 X6. Z-7.905
N4965 X7. Z-7.94
N4970 X6. Z-7.975
N4975 X7. Z-8.01
N4980 X6. Z-8.044
N4985 X7. Z-8.079
N4990 X6. Z-8.114
N4995 X7. Z-8.149
N5000 X6. Z-8.184
N5005 X7. Z-8.219
N5010 X6. Z-8.254
N5015 X7. Z-8.289
N5020 X6. Z-8.324
N5025 X7. Z-8.359
N5030 X6. Z-8.394
N5035 X7. Z-8.429
N5040 X6. Z-8.463
N5045 X7. Z-8.498
N5050 X6. Z-8.533
N5055 X7. Z-8.568
N5060 X6. Z-8.603
N5065 X7. Z-8.638
N5070 X6. Z-8.673
N5075 X7. Z-8.708
N5080 X6. Z-8.743
N5085 X7. Z-8.778
N5090 X6. Z-8.813
N5095 X7. Z-8.848
N5100 X6. Z-8.883
N5105 X7. Z-8.917
N5110 X6. Z-8.952
N5115 X7. Z-8.987
N5120 X6. Z-9.022
N5125 X7. Z-9.057
N5130 X6. Z-9.092
N5135 X7. Z-9.127
N5140 X6. Z-9.162
N5145 X7. Z-9.197
N5150 X6. Z-9.232
N5155 X7. Z-9.267
N5160 X6. Z-9.302
N5165 X7. Z-9.337
N5170 X6. Z-9.371
N5175 X7. Z-9.406
N5180 X6. Z-9.441
N5185 X7. Z-9.476
N5190 X6. Z-9.511
N5195 X7. Z-9.546
N5200 X6. Z-9.581
N5205 X7. Z-9.616
N5210 X6. Z-9.651
N5215 X7. Z-9.686
N5220 X6. Z-9.721
N5225 X7. Z-9.756
N5230 X6. Z-9.79
N5235 X7. Z-9.825
N5240 X6. Z-9.86
N5245 X7. Z-9.895
N5250 X6. Z-9.93
N5255 X7. Z-9.965
N5260 X6. Z-10.
N5265 S2500
N5270 X7. F#102
N5275 Z3.699 F#104
N5280 X6.441 Y35.5
N5285 S2400
N5290 G2 X6.969 Z2.705 I1.2 K0. F#107
N5295 G3 X6.34 Z2.5 I-0.671 K0.995
N5300 G1 X6.031 Z2.489
N5305 X6.969 Z2.456
N5310 X6.031 Z2.424
N5315 X6.969 Z2.391
N5320 X6.031 Z2.358
N5325 X6.969 Z2.325
N5330 X6.031 Z2.293
N5335 X6.969 Z2.26
N5340 X6.031 Z2.227
N5345 X6.969 Z2.194
N5350 X6.031 Z2.161
N5355 X6.969 Z2.129
N5360 X6.031 Z2.096
N5365 X6.969 Z2.063
N5370 X6.031 Z2.03
N5375 X6.969 Z1.997
N5380 X6.031 Z1.965
N5385 X6.969 Z1.932
N5390 X6.031 Z1.899
N5395 X6.969 Z1.866
N5400 X6.031 Z1.834
N5405 X6.969 Z1.801
N5410 X6.031 Z1.768
N5415 X6.969 Z1.735
N5420 X6.031 Z1.702
N5425 X6.969 Z1.67
N5430 X6.031 Z1.637
N5435 X6.969 Z1.604
N5440 X6.031 Z1.571
N5445 X6.969 Z1.539
N5450 X6.031 Z1.506
N5455 X6.969 Z1.473
N5460 X6.031 Z1.44
N5465 X6.969 Z1.407
N5470 X6.031 Z1.375
N5475 X6.969 Z1.342
N5480 X6.031 Z1.309
N5485 X6.969 Z1.276
N5490 X6.031 Z1.244
N5495 X6.969 Z1.211
N5500 X6.031 Z1.178
N5505 X6.969 Z1.145
N5510 X6.031 Z1.112
N5515 X6.969 Z1.08
N5520 X6.031 Z1.047
N5525 X6.969 Z1.014
N5530 X6.031 Z0.981
N5535 X6.969 Z0.949
N5540 X6.031 Z0.916
N5545 X6.969 Z0.883
N5550 X6.031 Z0.85
N5555 X6.969 Z0.817
N5560 X6.031 Z0.785
N5565 X6.969 Z0.752
N5570 X6.031 Z0.719
N5575 X6.969 Z0.686
N5580 X6.031 Z0.654
N5585 X6.969 Z0.621
N5590 X6.031 Z0.588
N5595 X6.969 Z0.555
N5600 X6.031 Z0.522
N5605 X6.969 Z0.49
N5610 X6.031 Z0.457
N5615 X6.969 Z0.424
N5620 X6.031 Z0.391
N5625 X6.969 Z0.358
N5630 X6.031 Z0.326
N5635 X6.969 Z0.293
N5640 X6.031 Z0.26
N5645 X6.969 Z0.227
N5650 X6.031 Z0.195
N5655 X6.969 Z0.162
N5660 X6.031 Z0.129
N5665 X6.969 Z0.096
N5670 X6.031 Z0.063
N5675 X6.969 Z0.031
N5680 X6.031 Z-0.002
N5685 X6.969 Z-0.035
N5690 X6.031 Z-0.068
N5695 X6.969 Z-0.1
N5700 X6.031 Z-0.133
N5705 X6.969 Z-0.166
N5710 X6.031 Z-0.199
N5715 X6.969 Z-0.232
N5720 X6.031 Z-0.264
N5725 X6.969 Z-0.297
N5730 X6.031 Z-0.33
N5735 X6.969 Z-0.363
N5740 X6.031 Z-0.395
N5745 X6.969 Z-0.428
N5750 X6.031 Z-0.461
N5755 X6.969 Z-0.494
N5760 X6.031 Z-0.527
N5765 X6.969 Z-0.559
N5770 X6.031 Z-0.592
N5775 X6.969 Z-0.625
N5780 X6.031 Z-0.658
N5785 X6.969 Z-0.69
N5790 X6.031 Z-0.723
N5795 X6.969 Z-0.756
N5800 X6.031 Z-0.789
N5805 X6.969 Z-0.822
N5810 X6.031 Z-0.854
N5815 X6.969 Z-0.887
N5820 X6.031 Z-0.92
N5825 X6.969 Z-0.953
N5830 X6.031 Z-0.985
N5835 X6.969 Z-1.018
N5840 X6.031 Z-1.051
N5845 X6.969 Z-1.084
N5850 X6.031 Z-1.117
N5855 X6.969 Z-1.149
N5860 X6.031 Z-1.182
N5865 X6.969 Z-1.215
N5870 X6.031 Z-1.248
N5875 X6.969 Z-1.281
N5880 X6.031 Z-1.313
N5885 X6.969 Z-1.346
N5890 X6.031 Z-1.379
N5895 X6.969 Z-1.412
N5900 X6.031 Z-1.444
N5905 X6.969 Z-1.477
N5910 X6.031 Z-1.51
N5915 X6.969 Z-1.543
N5920 X6.031 Z-1.576
N5925 X6.969 Z-1.608
N5930 X6.031 Z-1.641
N5935 X6.969 Z-1.674
N5940 X6.031 Z-1.707
N5945 X6.969 Z-1.739
N5950 X6.031 Z-1.772
N5955 X6.969 Z-1.805
N5960 X6.031 Z-1.838
N5965 X6.969 Z-1.871
N5970 X6.031 Z-1.903
N5975 X6.969 Z-1.936
N5980 X6.031 Z-1.969
N5985 X6.969 Z-2.002
N5990 X6.031 Z-2.034
N5995 X6.969 Z-2.067
N6000 X6.031 Z-2.1
N6005 X6.969 Z-2.133
N6010 X6.031 Z-2.166
N6015 X6.969 Z-2.198
N6020 X6.031 Z-2.231
N6025 X6.969 Z-2.264
N6030 X6.031 Z-2.297
N6035 X6.969 Z-2.329
N6040 X6.031 Z-2.362
N6045 X6.969 Z-2.395
N6050 X6.031 Z-2.428
N6055 X6.969 Z-2.461
N6060 X6.031 Z-2.493
N6065 X6.969 Z-2.526
N6070 X6.031 Z-2.559
N6075 X6.969 Z-2.592
N6080 X6.031 Z-2.624
N6085 X6.969 Z-2.657
N6090 X6.031 Z-2.69
N6095 X6.969 Z-2.723
N6100 X6.031 Z-2.756
N6105 X6.969 Z-2.788
N6110 X6.031 Z-2.821
N6115 X6.969 Z-2.854
N6120 X6.031 Z-2.887
N6125 X6.969 Z-2.92
N6130 X6.031 Z-2.952
N6135 X6.969 Z-2.985
N6140 X6.031 Z-3.018
N6145 X6.969 Z-3.051
N6150 X6.031 Z-3.083
N6155 X6.969 Z-3.116
N6160 X6.031 Z-3.149
N6165 X6.969 Z-3.182
N6170 X6.031 Z-3.215
N6175 X6.969 Z-3.247
N6180 X6.031 Z-3.28
N6185 X6.969 Z-3.313
N6190 X6.031 Z-3.346
N6195 X6.969 Z-3.378
N6200 X6.031 Z-3.411
N6205 X6.969 Z-3.444
N6210 X6.031 Z-3.477
N6215 X6.969 Z-3.51
N6220 X6.031 Z-3.542
N6225 X6.969 Z-3.575
N6230 X6.031 Z-3.608
N6235 X6.969 Z-3.641
N6240 X6.031 Z-3.673
N6245 X6.969 Z-3.706
N6250 X6.031 Z-3.739
N6255 X6.969 Z-3.772
N6260 X6.031 Z-3.805
N6265 X6.969 Z-3.837
N6270 X6.031 Z-3.87
N6275 X6.969 Z-3.903
N6280 X6.031 Z-3.936
N6285 X6.969 Z-3.968
N6290 X6.031 Z-4.001
N6295 X6.969 Z-4.034
N6300 X6.031 Z-4.067
N6305 X6.969 Z-4.1
N6310 X6.031 Z-4.132
N6315 X6.969 Z-4.165
N6320 X6.031 Z-4.198
N6325 X6.969 Z-4.231
N6330 X6.031 Z-4.263
N6335 X6.969 Z-4.296
N6340 X6.031 Z-4.329
N6345 X6.969 Z-4.362
N6350 X6.031 Z-4.395
N6355 X6.969 Z-4.427
N6360 X6.031 Z-4.46
N6365 X6.969 Z-4.493
N6370 X6.031 Z-4.526
N6375 X6.969 Z-4.559
N6380 X6.031 Z-4.591
N6385 X6.969 Z-4.624
N6390 X6.031 Z-4.657
N6395 X6.969 Z-4.69
N6400 X6.031 Z-4.722
N6405 X6.969 Z-4.755
N6410 X6.031 Z-4.788
N6415 X6.969 Z-4.821
N6420 X6.031 Z-4.854
N6425 X6.969 Z-4.886
N6430 X6.031 Z-4.919
N6435 X6.969 Z-4.952
N6440 X6.031 Z-4.985
N6445 X6.969 Z-5.017
N6450 X6.031 Z-5.05
N6455 X6.969 Z-5.083
N6460 X6.031 Z-5.116
N6465 X6.969 Z-5.149
N6470 X6.031 Z-5.181
N6475 X6.969 Z-5.214
N6480 X6.031 Z-5.247
N6485 X6.969 Z-5.28
N6490 X6.031 Z-5.312
N6495 X6.969 Z-5.345
N6500 X6.031 Z-5.378
N6505 X6.969 Z-5.411
N6510 X6.031 Z-5.444
N6515 X6.969 Z-5.476
N6520 X6.031 Z-5.509
N6525 X6.969 Z-5.542
N6530 X6.031 Z-5.575
N6535 X6.969 Z-5.607
N6540 X6.031 Z-5.64
N6545 X6.969 Z-5.673
N6550 X6.031 Z-5.706
N6555 X6.969 Z-5.739
N6560 X6.031 Z-5.771
N6565 X6.969 Z-5.804
N6570 X6.031 Z-5.837
N6575 X6.969 Z-5.87
N6580 X6.031 Z-5.902
N6585 X6.969 Z-5.935
N6590 X6.031 Z-5.968
N6595 X6.969 Z-6.001
N6600 X6.031 Z-6.034
N6605 X6.969 Z-6.066
N6610 X6.031 Z-6.099
N6615 X6.969 Z-6.132
N6620 X6.031 Z-6.165
N6625 X6.969 Z-6.198
N6630 X6.031 Z-6.23
N6635 X6.969 Z-6.263
N6640 X6.031 Z-6.296
N6645 X6.969 Z-6.329
N6650 X6.031 Z-6.361
N6655 X6.969 Z-6.394
N6660 X6.031 Z-6.427
N6665 X6.969 Z-6.46
N6670 X6.031 Z-6.493
N6675 X6.969 Z-6.525
N6680 X6.031 Z-6.558
N6685 X6.969 Z-6.591
N6690 X6.031 Z-6.624
N6695 X6.969 Z-6.656
N6700 X6.031 Z-6.689
N6705 X6.969 Z-6.722
N6710 X6.031 Z-6.755
N6715 X6.969 Z-6.788
N6720 X6.031 Z-6.82
N6725 X6.969 Z-6.853
N6730 X6.031 Z-6.886
N6735 X6.969 Z-6.919
N6740 X6.031 Z-6.951
N6745 X6.969 Z-6.984
N6750 X6.031 Z-7.017
N6755 X6.969 Z-7.05
N6760 X6.031 Z-7.083
N6765 X6.969 Z-7.115
N6770 X6.031 Z-7.148
N6775 X6.969 Z-7.181
N6780 X6.031 Z-7.214
N6785 X6.969 Z-7.246
N6790 X6.031 Z-7.279
N6795 X6.969 Z-7.312
N6800 X6.031 Z-7.345
N6805 X6.969 Z-7.378
N6810 X6.031 Z-7.41
N6815 X6.969 Z-7.443
N6820 X6.031 Z-7.476
N6825 X6.969 Z-7.509
N6830 X6.031 Z-7.541
N6835 X6.969 Z-7.574
N6840 X6.031 Z-7.607
N6845 X6.969 Z-7.64
N6850 X6.031 Z-7.673
N6855 X6.969 Z-7.705
N6860 X6.031 Z-7.738
N6865 X6.969 Z-7.771
N6870 X6.031 Z-7.804
N6875 X6.969 Z-7.837
N6880 X6.031 Z-7.869
N6885 X6.969 Z-7.902
N6890 X6.031 Z-7.935
N6895 X6.969 Z-7.968
N6900 X6.031 Z-8.
N6905 X6.969 Z-8.033
N6910 X6.031 Z-8.066
N6915 X6.969 Z-8.099
N6920 X6.031 Z-8.132
N6925 X6.969 Z-8.164
N6930 X6.031 Z-8.197
N6935 X6.969 Z-8.23
N6940 X6.031 Z-8.263
N6945 X6.969 Z-8.295
N6950 X6.031 Z-8.328
N6955 X6.969 Z-8.361
N6960 X6.031 Z-8.394
N6965 X6.969 Z-8.427
N6970 X6.031 Z-8.459
N6975 X6.969 Z-8.492
N6980 X6.031 Z-8.525
N6985 X6.969 Z-8.558
N6990 X6.031 Z-8.59
N6995 X6.969 Z-8.623
N7000 X6.031 Z-8.656
N7005 X6.969 Z-8.689
N7010 X6.031 Z-8.722
N7015 X6.969 Z-8.754
N7020 X6.031 Z-8.787
N7025 X6.969 Z-8.82
N7030 X6.031 Z-8.853
N7035 X6.969 Z-8.885
N7040 X6.031 Z-8.918
N7045 X6.969 Z-8.951
N7050 X6.031 Z-8.984
N7055 X6.969 Z-9.017
N7060 X6.031 Z-9.049
N7065 X6.969 Z-9.082
N7070 X6.031 Z-9.115
N7075 X6.969 Z-9.148
N7080 X6.031 Z-9.18
N7085 X6.969 Z-9.213
N7090 X6.031 Z-9.246
N7095 X6.969 Z-9.279
N7100 X6.031 Z-9.312
N7105 X6.969 Z-9.344
N7110 X6.031 Z-9.377
N7115 X6.969 Z-9.41
N7120 X6.031 Z-9.443
N7125 X6.969 Z-9.476
N7130 X6.031 Z-9.508
N7135 X6.969 Z-9.541
N7140 X6.031 Z-9.574
N7145 X6.969 Z-9.607
N7150 X6.031 Z-9.639
N7155 X6.969 Z-9.672
N7160 X6.031 Z-9.705
N7165 X6.969 Z-9.738
N7170 X6.031 Z-9.771
N7175 X6.969 Z-9.803
N7180 X6.031 Z-9.836
N7185 X6.969 Z-9.869
N7190 X6.031 Z-9.902
N7195 X6.969 Z-9.934
N7200 X6.031 Z-9.967
N7205 X6.969 Z-10.
N7210 S2500
N7215 X6.031 F#102
N7220 G0 Z11.
N7225 X6.441
N7230 G1 Z3.699 F#108
N7235 S2400
N7240 G2 X6.969 Z2.705 I1.2 K0. F#107
N7245 G3 X6.34 Z2.5 I-0.671 K0.995
N7250 G1 X6.031 Z2.489
N7255 X6.969 Z2.456
N7260 X6.031 Z2.424
N7265 X6.969 Z2.391
N7270 X6.031 Z2.358
N7275 X6.969 Z2.325
N7280 X6.031 Z2.293
N7285 X6.969 Z2.26
N7290 X6.031 Z2.227
N7295 X6.969 Z2.194
N7300 X6.031 Z2.161
N7305 X6.969 Z2.129
N7310 X6.031 Z2.096
N7315 X6.969 Z2.063
N7320 X6.031 Z2.03
N7325 X6.969 Z1.997
N7330 X6.031 Z1.965
N7335 X6.969 Z1.932
N7340 X6.031 Z1.899
N7345 X6.969 Z1.866
N7350 X6.031 Z1.834
N7355 X6.969 Z1.801
N7360 X6.031 Z1.768
N7365 X6.969 Z1.735
N7370 X6.031 Z1.702
N7375 X6.969 Z1.67
N7380 X6.031 Z1.637
N7385 X6.969 Z1.604
N7390 X6.031 Z1.571
N7395 X6.969 Z1.539
N7400 X6.031 Z1.506
N7405 X6.969 Z1.473
N7410 X6.031 Z1.44
N7415 X6.969 Z1.407
N7420 X6.031 Z1.375
N7425 X6.969 Z1.342
N7430 X6.031 Z1.309
N7435 X6.969 Z1.276
N7440 X6.031 Z1.244
N7445 X6.969 Z1.211
N7450 X6.031 Z1.178
N7455 X6.969 Z1.145
N7460 X6.031 Z1.112
N7465 X6.969 Z1.08
N7470 X6.031 Z1.047
N7475 X6.969 Z1.014
N7480 X6.031 Z0.981
N7485 X6.969 Z0.949
N7490 X6.031 Z0.916
N7495 X6.969 Z0.883
N7500 X6.031 Z0.85
N7505 X6.969 Z0.817
N7510 X6.031 Z0.785
N7515 X6.969 Z0.752
N7520 X6.031 Z0.719
N7525 X6.969 Z0.686
N7530 X6.031 Z0.654
N7535 X6.969 Z0.621
N7540 X6.031 Z0.588
N7545 X6.969 Z0.555
N7550 X6.031 Z0.522
N7555 X6.969 Z0.49
N7560 X6.031 Z0.457
N7565 X6.969 Z0.424
N7570 X6.031 Z0.391
N7575 X6.969 Z0.358
N7580 X6.031 Z0.326
N7585 X6.969 Z0.293
N7590 X6.031 Z0.26
N7595 X6.969 Z0.227
N7600 X6.031 Z0.195
N7605 X6.969 Z0.162
N7610 X6.031 Z0.129
N7615 X6.969 Z0.096
N7620 X6.031 Z0.063
N7625 X6.969 Z0.031
N7630 X6.031 Z-0.002
N7635 X6.969 Z-0.035
N7640 X6.031 Z-0.068
N7645 X6.969 Z-0.1
N7650 X6.031 Z-0.133
N7655 X6.969 Z-0.166
N7660 X6.031 Z-0.199
N7665 X6.969 Z-0.232
N7670 X6.031 Z-0.264
N7675 X6.969 Z-0.297
N7680 X6.031 Z-0.33
N7685 X6.969 Z-0.363
N7690 X6.031 Z-0.395
N7695 X6.969 Z-0.428
N7700 X6.031 Z-0.461
N7705 X6.969 Z-0.494
N7710 X6.031 Z-0.527
N7715 X6.969 Z-0.559
N7720 X6.031 Z-0.592
N7725 X6.969 Z-0.625
N7730 X6.031 Z-0.658
N7735 X6.969 Z-0.69
N7740 X6.031 Z-0.723
N7745 X6.969 Z-0.756
N7750 X6.031 Z-0.789
N7755 X6.969 Z-0.822
N7760 X6.031 Z-0.854
N7765 X6.969 Z-0.887
N7770 X6.031 Z-0.92
N7775 X6.969 Z-0.953
N7780 X6.031 Z-0.985
N7785 X6.969 Z-1.018
N7790 X6.031 Z-1.051
N7795 X6.969 Z-1.084
N7800 X6.031 Z-1.117
N7805 X6.969 Z-1.149
N7810 X6.031 Z-1.182
N7815 X6.969 Z-1.215
N7820 X6.031 Z-1.248
N7825 X6.969 Z-1.281
N7830 X6.031 Z-1.313
N7835 X6.969 Z-1.346
N7840 X6.031 Z-1.379
N7845 X6.969 Z-1.412
N7850 X6.031 Z-1.444
N7855 X6.969 Z-1.477
N7860 X6.031 Z-1.51
N7865 X6.969 Z-1.543
N7870 X6.031 Z-1.576
N7875 X6.969 Z-1.608
N7880 X6.031 Z-1.641
N7885 X6.969 Z-1.674
N7890 X6.031 Z-1.707
N7895 X6.969 Z-1.739
N7900 X6.031 Z-1.772
N7905 X6.969 Z-1.805
N7910 X6.031 Z-1.838
N7915 X6.969 Z-1.871
N7920 X6.031 Z-1.903
N7925 X6.969 Z-1.936
N7930 X6.031 Z-1.969
N7935 X6.969 Z-2.002
N7940 X6.031 Z-2.034
N7945 X6.969 Z-2.067
N7950 X6.031 Z-2.1
N7955 X6.969 Z-2.133
N7960 X6.031 Z-2.166
N7965 X6.969 Z-2.198
N7970 X6.031 Z-2.231
N7975 X6.969 Z-2.264
N7980 X6.031 Z-2.297
N7985 X6.969 Z-2.329
N7990 X6.031 Z-2.362
N7995 X6.969 Z-2.395
N8000 X6.031 Z-2.428
N8005 X6.969 Z-2.461
N8010 X6.031 Z-2.493
N8015 X6.969 Z-2.526
N8020 X6.031 Z-2.559
N8025 X6.969 Z-2.592
N8030 X6.031 Z-2.624
N8035 X6.969 Z-2.657
N8040 X6.031 Z-2.69
N8045 X6.969 Z-2.723
N8050 X6.031 Z-2.756
N8055 X6.969 Z-2.788
N8060 X6.031 Z-2.821
N8065 X6.969 Z-2.854
N8070 X6.031 Z-2.887
N8075 X6.969 Z-2.92
N8080 X6.031 Z-2.952
N8085 X6.969 Z-2.985
N8090 X6.031 Z-3.018
N8095 X6.969 Z-3.051
N8100 X6.031 Z-3.083
N8105 X6.969 Z-3.116
N8110 X6.031 Z-3.149
N8115 X6.969 Z-3.182
N8120 X6.031 Z-3.215
N8125 X6.969 Z-3.247
N8130 X6.031 Z-3.28
N8135 X6.969 Z-3.313
N8140 X6.031 Z-3.346
N8145 X6.969 Z-3.378
N8150 X6.031 Z-3.411
N8155 X6.969 Z-3.444
N8160 X6.031 Z-3.477
N8165 X6.969 Z-3.51
N8170 X6.031 Z-3.542
N8175 X6.969 Z-3.575
N8180 X6.031 Z-3.608
N8185 X6.969 Z-3.641
N8190 X6.031 Z-3.673
N8195 X6.969 Z-3.706
N8200 X6.031 Z-3.739
N8205 X6.969 Z-3.772
N8210 X6.031 Z-3.805
N8215 X6.969 Z-3.837
N8220 X6.031 Z-3.87
N8225 X6.969 Z-3.903
N8230 X6.031 Z-3.936
N8235 X6.969 Z-3.968
N8240 X6.031 Z-4.001
N8245 X6.969 Z-4.034
N8250 X6.031 Z-4.067
N8255 X6.969 Z-4.1
N8260 X6.031 Z-4.132
N8265 X6.969 Z-4.165
N8270 X6.031 Z-4.198
N8275 X6.969 Z-4.231
N8280 X6.031 Z-4.263
N8285 X6.969 Z-4.296
N8290 X6.031 Z-4.329
N8295 X6.969 Z-4.362
N8300 X6.031 Z-4.395
N8305 X6.969 Z-4.427
N8310 X6.031 Z-4.46
N8315 X6.969 Z-4.493
N8320 X6.031 Z-4.526
N8325 X6.969 Z-4.559
N8330 X6.031 Z-4.591
N8335 X6.969 Z-4.624
N8340 X6.031 Z-4.657
N8345 X6.969 Z-4.69
N8350 X6.031 Z-4.722
N8355 X6.969 Z-4.755
N8360 X6.031 Z-4.788
N8365 X6.969 Z-4.821
N8370 X6.031 Z-4.854
N8375 X6.969 Z-4.886
N8380 X6.031 Z-4.919
N8385 X6.969 Z-4.952
N8390 X6.031 Z-4.985
N8395 X6.969 Z-5.017
N8400 X6.031 Z-5.05
N8405 X6.969 Z-5.083
N8410 X6.031 Z-5.116
N8415 X6.969 Z-5.149
N8420 X6.031 Z-5.181
N8425 X6.969 Z-5.214
N8430 X6.031 Z-5.247
N8435 X6.969 Z-5.28
N8440 X6.031 Z-5.312
N8445 X6.969 Z-5.345
N8450 X6.031 Z-5.378
N8455 X6.969 Z-5.411
N8460 X6.031 Z-5.444
N8465 X6.969 Z-5.476
N8470 X6.031 Z-5.509
N8475 X6.969 Z-5.542
N8480 X6.031 Z-5.575
N8485 X6.969 Z-5.607
N8490 X6.031 Z-5.64
N8495 X6.969 Z-5.673
N8500 X6.031 Z-5.706
N8505 X6.969 Z-5.739
N8510 X6.031 Z-5.771
N8515 X6.969 Z-5.804
N8520 X6.031 Z-5.837
N8525 X6.969 Z-5.87
N8530 X6.031 Z-5.902
N8535 X6.969 Z-5.935
N8540 X6.031 Z-5.968
N8545 X6.969 Z-6.001
N8550 X6.031 Z-6.034
N8555 X6.969 Z-6.066
N8560 X6.031 Z-6.099
N8565 X6.969 Z-6.132
N8570 X6.031 Z-6.165
N8575 X6.969 Z-6.198
N8580 X6.031 Z-6.23
N8585 X6.969 Z-6.263
N8590 X6.031 Z-6.296
N8595 X6.969 Z-6.329
N8600 X6.031 Z-6.361
N8605 X6.969 Z-6.394
N8610 X6.031 Z-6.427
N8615 X6.969 Z-6.46
N8620 X6.031 Z-6.493
N8625 X6.969 Z-6.525
N8630 X6.031 Z-6.558
N8635 X6.969 Z-6.591
N8640 X6.031 Z-6.624
N8645 X6.969 Z-6.656
N8650 X6.031 Z-6.689
N8655 X6.969 Z-6.722
N8660 X6.031 Z-6.755
N8665 X6.969 Z-6.788
N8670 X6.031 Z-6.82
N8675 X6.969 Z-6.853
N8680 X6.031 Z-6.886
N8685 X6.969 Z-6.919
N8690 X6.031 Z-6.951
N8695 X6.969 Z-6.984
N8700 X6.031 Z-7.017
N8705 X6.969 Z-7.05
N8710 X6.031 Z-7.083
N8715 X6.969 Z-7.115
N8720 X6.031 Z-7.148
N8725 X6.969 Z-7.181
N8730 X6.031 Z-7.214
N8735 X6.969 Z-7.246
N8740 X6.031 Z-7.279
N8745 X6.969 Z-7.312
N8750 X6.031 Z-7.345
N8755 X6.969 Z-7.378
N8760 X6.031 Z-7.41
N8765 X6.969 Z-7.443
N8770 X6.031 Z-7.476
N8775 X6.969 Z-7.509
N8780 X6.031 Z-7.541
N8785 X6.969 Z-7.574
N8790 X6.031 Z-7.607
N8795 X6.969 Z-7.64
N8800 X6.031 Z-7.673
N8805 X6.969 Z-7.705
N8810 X6.031 Z-7.738
N8815 X6.969 Z-7.771
N8820 X6.031 Z-7.804
N8825 X6.969 Z-7.837
N8830 X6.031 Z-7.869
N8835 X6.969 Z-7.902
N8840 X6.031 Z-7.935
N8845 X6.969 Z-7.968
N8850 X6.031 Z-8.
N8855 X6.969 Z-8.033
N8860 X6.031 Z-8.066
N8865 X6.969 Z-8.099
N8870 X6.031 Z-8.132
N8875 X6.969 Z-8.164
N8880 X6.031 Z-8.197
N8885 X6.969 Z-8.23
N8890 X6.031 Z-8.263
N8895 X6.969 Z-8.295
N8900 X6.031 Z-8.328
N8905 X6.969 Z-8.361
N8910 X6.031 Z-8.394
N8915 X6.969 Z-8.427
N8920 X6.031 Z-8.459
N8925 X6.969 Z-8.492
N8930 X6.031 Z-8.525
N8935 X6.969 Z-8.558
N8940 X6.031 Z-8.59
N8945 X6.969 Z-8.623
N8950 X6.031 Z-8.656
N8955 X6.969 Z-8.689
N8960 X6.031 Z-8.722
N8965 X6.969 Z-8.754
N8970 X6.031 Z-8.787
N8975 X6.969 Z-8.82
N8980 X6.031 Z-8.853
N8985 X6.969 Z-8.885
N8990 X6.031 Z-8.918
N8995 X6.969 Z-8.951
N9000 X6.031 Z-8.984
N9005 X6.969 Z-9.017
N9010 X6.031 Z-9.049
N9015 X6.969 Z-9.082
N9020 X6.031 Z-9.115
N9025 X6.969 Z-9.148
N9030 X6.031 Z-9.18
N9035 X6.969 Z-9.213
N9040 X6.031 Z-9.246
N9045 X6.969 Z-9.279
N9050 X6.031 Z-9.312
N9055 X6.969 Z-9.344
N9060 X6.031 Z-9.377
N9065 X6.969 Z-9.41
N9070 X6.031 Z-9.443
N9075 X6.969 Z-9.476
N9080 X6.031 Z-9.508
N9085 X6.969 Z-9.541
N9090 X6.031 Z-9.574
N9095 X6.969 Z-9.607
N9100 X6.031 Z-9.639
N9105 X6.969 Z-9.672
N9110 X6.031 Z-9.705
N9115 X6.969 Z-9.738
N9120 X6.031 Z-9.771
N9125 X6.969 Z-9.803
N9130 X6.031 Z-9.836
N9135 X6.969 Z-9.869
N9140 X6.031 Z-9.902
N9145 X6.969 Z-9.934
N9150 X6.031 Z-9.967
N9155 X6.969 Z-10.
N9160 S2500
N9165 X6.031 F#102
N9170 G0 Z11.
N9175 X-8.248 Y45.341
N9180 G1 Z3.7 F#108
N9185 X-8.241 Y45.338 Z3.566
N9190 X-8.22 Y45.33 Z3.433
N9195 X-8.185 Y45.318 Z3.304
N9200 X-8.137 Y45.3 Z3.179
N9205 X-8.075 Y45.278 Z3.062
N9210 X-8.002 Y45.251 Z2.952
N9215 X-7.918 Y45.22 Z2.851
N9220 X-7.824 Y45.186 Z2.762
N9225 X-7.721 Y45.148 Z2.684
N9230 X-7.61 Y45.108 Z2.619
N9235 X-7.493 Y45.066 Z2.567
N9240 X-7.372 Y45.021 Z2.53
N9245 X-7.247 Y44.976 Z2.508
N9250 X-7.121 Y44.93 Z2.5
N9255 X-5.993 Y44.52 F#103
N9260 G17 G3 X-4.455 Y45.237 I0.41 J1.128
N9265 S2400
N9270 G1 X-3.981 Y46.538 Z2.452 F#107
N9275 X-3.361 Y48.244 Z2.388
N9280 X-2.895 Y49.524 Z2.341
N9285 X-2.782 Y49.832 Z2.329
N9290 X-2.63 Y50.252 Z2.314
N9295 X-2.578 Y50.395 Z2.308
N9300 G2 X4. Y55. Z2.01 I6.578 J-2.395
N9305 G1 X9. Z1.835
N9310 G2 X15.578 Y50.395 Z1.536 I0. J-7.
N9315 G1 X15.629 Y50.253 Z1.531
N9320 X15.782 Y49.832 Z1.516
N9325 X15.895 Y49.523 Z1.504
N9330 X16.361 Y48.244 Z1.457
N9335 X16.761 Y47.144 Z1.416
N9340 X16.981 Y46.538 Z1.393
N9345 X17.944 Y43.894 Z1.295
N9350 X17.452 Y45.246 Z1.245
N9355 X16.981 Y46.538 Z1.197
N9360 X16.761 Y47.144 Z1.174
N9365 X16.186 Y48.724 Z1.115
N9370 X15.895 Y49.524 Z1.086
N9375 X15.782 Y49.832 Z1.074
N9380 X15.629 Y50.253 Z1.059
N9385 X15.578 Y50.395 Z1.053
N9390 G3 X9. Y55. Z0.755 I-6.578 J-2.395
N9395 G1 X4. Z0.58
N9400 G3 X-2.578 Y50.395 Z0.281 I0. J-7.
N9405 G1 X-2.63 Y50.252 Z0.276
N9410 X-2.782 Y49.832 Z0.261
N9415 X-2.895 Y49.523 Z0.249
N9420 X-3.361 Y48.244 Z0.202
N9425 X-3.981 Y46.538 Z0.138
N9430 X-4.696 Y44.574 Z0.065
N9435 X-4.944 Y43.894 Z0.04
N9440 X-4.696 Y44.574 Z0.015
N9445 X-3.981 Y46.538 Z-0.058
N9450 X-3.361 Y48.244 Z-0.122
N9455 X-2.895 Y49.524 Z-0.169
N9460 X-2.782 Y49.832 Z-0.181
N9465 X-2.63 Y50.252 Z-0.196
N9470 X-2.578 Y50.395 Z-0.202
N9475 G2 X4. Y55. Z-0.5 I6.578 J-2.395
N9480 G1 X9. Z-0.675
N9485 G2 X15.578 Y50.395 Z-0.974 I0. J-7.
N9490 G1 X15.629 Y50.253 Z-0.979
N9495 X15.782 Y49.832 Z-0.994
N9500 X15.895 Y49.523 Z-1.006
N9505 X16.361 Y48.244 Z-1.053
N9510 X16.761 Y47.144 Z-1.094
N9515 X16.981 Y46.538 Z-1.117
N9520 X17.944 Y43.894 Z-1.215
N9525 X17.452 Y45.246 Z-1.265
N9530 X16.981 Y46.538 Z-1.313
N9535 X16.761 Y47.144 Z-1.336
N9540 X16.186 Y48.724 Z-1.395
N9545 X15.895 Y49.524 Z-1.424
N9550 X15.782 Y49.832 Z-1.436
N9555 X15.629 Y50.253 Z-1.451
N9560 X15.578 Y50.395 Z-1.457
N9565 G3 X9. Y55. Z-1.755 I-6.578 J-2.395
N9570 G1 X4. Z-1.93
N9575 G3 X-2.578 Y50.395 Z-2.229 I0. J-7.
N9580 G1 X-2.63 Y50.252 Z-2.234
N9585 X-2.782 Y49.832 Z-2.249
N9590 X-2.895 Y49.523 Z-2.261
N9595 X-3.361 Y48.244 Z-2.308
N9600 X-3.981 Y46.538 Z-2.372
N9605 X-4.696 Y44.574 Z-2.445
N9610 X-4.944 Y43.894 Z-2.47
N9615 X-4.696 Y44.574 Z-2.495
N9620 X-3.981 Y46.538 Z-2.568
N9625 X-3.361 Y48.244 Z-2.632
N9630 X-2.895 Y49.524 Z-2.679
N9635 X-2.782 Y49.832 Z-2.691
N9640 X-2.63 Y50.252 Z-2.706
N9645 X-2.578 Y50.395 Z-2.712
N9650 G2 X4. Y55. Z-3.01 I6.578 J-2.395
N9655 G1 X9. Z-3.185
N9660 G2 X15.578 Y50.395 Z-3.483 I0. J-7.
N9665 G1 X15.629 Y50.253 Z-3.489
N9670 X15.782 Y49.832 Z-3.504
N9675 X15.895 Y49.523 Z-3.516
N9680 X16.361 Y48.244 Z-3.563
N9685 X16.761 Y47.144 Z-3.604
N9690 X16.981 Y46.538 Z-3.627
N9695 X17.944 Y43.894 Z-3.725
N9700 X17.452 Y45.246 Z-3.775
N9705 X16.981 Y46.538 Z-3.823
N9710 X16.761 Y47.144 Z-3.846
N9715 X16.186 Y48.724 Z-3.905
N9720 X15.895 Y49.524 Z-3.934
N9725 X15.782 Y49.832 Z-3.946
N9730 X15.629 Y50.253 Z-3.961
N9735 X15.578 Y50.395 Z-3.967
N9740 G3 X9. Y55. Z-4.265 I-6.578 J-2.395
N9745 G1 X4. Z-4.44
N9750 G3 X-2.578 Y50.395 Z-4.738 I0. J-7.
N9755 G1 X-2.63 Y50.252 Z-4.744
N9760 X-2.782 Y49.832 Z-4.759
N9765 X-2.895 Y49.523 Z-4.771
N9770 X-3.361 Y48.244 Z-4.818
N9775 X-3.981 Y46.538 Z-4.882
N9780 X-4.696 Y44.574 Z-4.955
N9785 X-4.944 Y43.894 Z-4.98
N9790 X-4.696 Y44.574 Z-5.005
N9795 X-3.981 Y46.538 Z-5.078
N9800 X-3.361 Y48.244 Z-5.142
N9805 X-2.895 Y49.524 Z-5.189
N9810 X-2.782 Y49.832 Z-5.201
N9815 X-2.63 Y50.252 Z-5.216
N9820 X-2.578 Y50.395 Z-5.222
N9825 G2 X4. Y55. Z-5.52 I6.578 J-2.395
N9830 G1 X9. Z-5.695
N9835 G2 X15.578 Y50.395 Z-5.993 I0. J-7.
N9840 G1 X15.629 Y50.253 Z-5.999
N9845 X15.782 Y49.832 Z-6.014
N9850 X15.895 Y49.523 Z-6.026
N9855 X16.361 Y48.244 Z-6.073
N9860 X16.761 Y47.144 Z-6.114
N9865 X16.981 Y46.538 Z-6.137
N9870 X17.944 Y43.894 Z-6.235
N9875 X17.452 Y45.246 Z-6.285
N9880 X16.981 Y46.538 Z-6.333
N9885 X16.761 Y47.144 Z-6.356
N9890 X16.186 Y48.724 Z-6.415
N9895 X15.895 Y49.524 Z-6.444
N9900 X15.782 Y49.832 Z-6.456
N9905 X15.629 Y50.253 Z-6.471
N9910 X15.578 Y50.395 Z-6.477
N9915 G3 X9. Y55. Z-6.775 I-6.578 J-2.395
N9920 G1 X4. Z-6.95
N9925 G3 X-2.578 Y50.395 Z-7.248 I0. J-7.
N9930 G1 X-2.63 Y50.252 Z-7.254
N9935 X-2.782 Y49.832 Z-7.269
N9940 X-2.895 Y49.523 Z-7.281
N9945 X-3.361 Y48.244 Z-7.328
N9950 X-3.981 Y46.538 Z-7.392
N9955 X-4.696 Y44.574 Z-7.465
N9960 X-4.944 Y43.894 Z-7.49
N9965 X-4.696 Y44.574 Z-7.515
N9970 X-3.981 Y46.538 Z-7.588
N9975 X-3.361 Y48.244 Z-7.652
N9980 X-2.895 Y49.524 Z-7.699
N9985 X-2.782 Y49.832 Z-7.711
N9990 X-2.63 Y50.252 Z-7.726
N9995 X-2.578 Y50.395 Z-7.732
N10000 G2 X4. Y55. Z-8.03 I6.578 J-2.395
N10005 G1 X9. Z-8.205
N10010 G2 X15.578 Y50.395 Z-8.503 I0. J-7.
N10015 G1 X15.629 Y50.253 Z-8.509
N10020 X15.782 Y49.832 Z-8.524
N10025 X15.895 Y49.523 Z-8.536
N10030 X16.361 Y48.244 Z-8.583
N10035 X16.761 Y47.144 Z-8.624
N10040 X16.981 Y46.538 Z-8.647
N10045 X17.944 Y43.894 Z-8.745
N10050 X17.452 Y45.246 Z-8.795
N10055 X16.981 Y46.538 Z-8.843
N10060 X16.761 Y47.144 Z-8.866
N10065 X16.186 Y48.724 Z-8.925
N10070 X15.895 Y49.524 Z-8.954
N10075 X15.782 Y49.832 Z-8.966
N10080 X15.629 Y50.253 Z-8.981
N10085 X15.578 Y50.395 Z-8.987
N10090 G3 X9. Y55. Z-9.285 I-6.578 J-2.395
N10095 G1 X4. Z-9.46
N10100 G3 X-2.578 Y50.395 Z-9.758 I0. J-7.
N10105 G1 X-2.63 Y50.252 Z-9.764
N10110 X-2.782 Y49.832 Z-9.779
N10115 X-2.895 Y49.523 Z-9.791
N10120 X-3.361 Y48.244 Z-9.838
N10125 X-3.981 Y46.538 Z-9.902
N10130 X-4.696 Y44.574 Z-9.975
N10135 X-4.944 Y43.894 Z-10.
N10140 S2500
N10145 X-4.696 Y44.574 F#100
N10150 X-3.981 Y46.538
N10155 X-3.361 Y48.244
N10160 X-2.894 Y49.526
N10165 X-2.578 Y50.395
N10170 G2 X4. Y55. I6.578 J-2.395
N10175 G1 X9.
N10180 G2 X15.578 Y50.395 I0. J-7.
N10185 G1 X15.629 Y50.253
N10190 X15.782 Y49.832
N10195 X15.895 Y49.523
N10200 X16.361 Y48.244
N10205 X16.761 Y47.144
N10210 X16.981 Y46.538
N10215 X17.944 Y43.894
N10220 G3 X19.482 Y43.177 I1.128 J0.41 F#104
N10225 G1 X20.609 Y43.588
N10230 X20.736 Y43.634 Z-9.992
N10235 X20.86 Y43.679 Z-9.97
N10240 X20.982 Y43.723 Z-9.933
N10245 X21.099 Y43.766 Z-9.881
N10250 X21.209 Y43.806 Z-9.816
N10255 X21.312 Y43.843 Z-9.738
N10260 X21.407 Y43.878 Z-9.649
N10265 X21.491 Y43.908 Z-9.548
N10270 X21.564 Y43.935 Z-9.438
N10275 X21.625 Y43.957 Z-9.321
N10280 X21.674 Y43.975 Z-9.196
N10285 X21.709 Y43.988 Z-9.067
N10290 X21.73 Y43.995 Z-8.934
N10295 X21.737 Y43.998 Z-8.8
N10300 Z3.699
N10305 X19.643 Y38.562
N10310 S2400
N10315 X19.642 Y38.566 Z3.602 F#107
N10320 X19.64 Y38.578 Z3.506
N10325 X19.636 Y38.597 Z3.411
N10330 X19.63 Y38.623 Z3.318
N10335 X19.624 Y38.657 Z3.227
N10340 X19.615 Y38.698 Z3.14
N10345 X19.606 Y38.746 Z3.056
N10350 X19.594 Y38.8 Z2.976
N10355 X19.581 Y38.86 Z2.901
N10360 X19.567 Y38.926 Z2.831
N10365 X19.552 Y38.997 Z2.767
N10370 X19.535 Y39.073 Z2.709
N10375 X19.517 Y39.153 Z2.658
N10380 X19.497 Y39.237 Z2.613
N10385 X19.476 Y39.324 Z2.575
N10390 X19.455 Y39.413 Z2.545
N10395 X19.432 Y39.505 Z2.522
N10400 X19.409 Y39.598 Z2.507
N10405 X19.384 Y39.691 Z2.5
N10410 G3 X18.854 Y41.393 Z2.438 I-18.384 J-4.797
N10415 G1 X17.944 Y43.894 Z2.345
N10420 X18.854 Y41.393 Z2.252
N10425 G2 X20. Y34.894 Z2.02 I-17.854 J-6.498
N10430 G1 Y0. Z0.802
N10435 Y34.894 Z-0.417
N10440 G3 X18.854 Y41.393 Z-0.648 I-19. J0.
N10445 G1 X17.944 Y43.894 Z-0.741
N10450 X18.854 Y41.393 Z-0.834
N10455 G2 X20. Y34.894 Z-1.066 I-17.854 J-6.498
N10460 G1 Y0. Z-2.285
N10465 Y34.894 Z-3.503
N10470 G3 X18.854 Y41.393 Z-3.735 I-19. J0.
N10475 G1 X17.944 Y43.894 Z-3.828
N10480 X18.854 Y41.393 Z-3.921
N10485 G2 X20. Y34.894 Z-4.152 I-17.854 J-6.498
N10490 G1 Y0. Z-5.371
N10495 Y34.894 Z-6.589
N10500 G3 X18.854 Y41.393 Z-6.821 I-19. J0.
N10505 G1 X17.944 Y43.894 Z-6.914
N10510 X18.854 Y41.393 Z-7.007
N10515 G2 X20. Y34.894 Z-7.238 I-17.854 J-6.498
N10520 G1 Y0. Z-8.457
N10525 Y34.894 Z-9.675
N10530 G3 X18.854 Y41.393 Z-9.907 I-19. J0.
N10535 G1 X17.944 Y43.894 Z-10.
N10540 S2500
N10545 X18.854 Y41.393 F#100
N10550 G2 X20. Y34.894 I-17.854 J-6.498
N10555 G1 Y0.
N10560 G3 X21.2 Y-1.2 I1.2 J0. F#104
N10565 G1 X22.4
N10570 G18 G2 X23.6 Z-8.8 I0. K1.2
N10575 G0 Z11.
N10580 X-7. Y5.603
N10585 G1 Z3.699 F#108
N10590 S2400
N10595 G19 G2 Y4.445 Z2.5 J-1.2 K0. F#107
N10600 G1 Y0. Z2.345
N10605 Y34.894 Z1.126
N10610 G17 G2 X-5.854 Y41.393 Z0.895 I19. J0.
N10615 G1 X-4.944 Y43.894 Z0.802
N10620 X-5.854 Y41.393 Z0.709
N10625 G3 X-7. Y34.894 Z0.477 I17.854 J-6.498
N10630 G1 Y0. Z-0.741
N10635 Y34.894 Z-1.96
N10640 G2 X-5.854 Y41.393 Z-2.192 I19. J0.
N10645 G1 X-4.944 Y43.894 Z-2.285
N10650 X-5.854 Y41.393 Z-2.377
N10655 G3 X-7. Y34.894 Z-2.609 I17.854 J-6.498
N10660 G1 Y0. Z-3.828
N10665 Y34.894 Z-5.046
N10670 G2 X-5.854 Y41.393 Z-5.278 I19. J0.
N10675 G1 X-4.944 Y43.894 Z-5.371
N10680 X-5.854 Y41.393 Z-5.464
N10685 G3 X-7. Y34.894 Z-5.695 I17.854 J-6.498
N10690 G1 Y0. Z-6.914
N10695 Y34.894 Z-8.132
N10700 G2 X-5.854 Y41.393 Z-8.364 I19. J0.
N10705 G1 X-4.944 Y43.894 Z-8.457
N10710 X-5.854 Y41.393 Z-8.55
N10715 G3 X-7. Y34.894 Z-8.781 I17.854 J-6.498
N10720 G1 Y0. Z-10.
N10725 S2500
N10730 Y34.894 F#100
N10735 G2 X-5.854 Y41.393 I19. J0.
N10740 G1 X-4.944 Y43.894
N10745 G3 X-5.661 Y45.432 I-1.128 J0.41 F#104
N10750 G1 X-6.789 Y45.843
N10755 X-6.915 Y45.889 Z-9.992
N10760 X-7.039 Y45.934 Z-9.97
N10765 X-7.161 Y45.978 Z-9.933
N10770 X-7.278 Y46.021 Z-9.881
N10775 X-7.388 Y46.061 Z-9.816
N10780 X-7.492 Y46.098 Z-9.738
N10785 X-7.586 Y46.133 Z-9.649
N10790 X-7.67 Y46.163 Z-9.548
N10795 X-7.743 Y46.19 Z-9.438
N10800 X-7.804 Y46.212 Z-9.321
N10805 X-7.853 Y46.23 Z-9.196
N10810 X-7.888 Y46.243 Z-9.067
N10815 X-7.909 Y46.25 Z-8.934
N10820 X-7.916 Y46.253 Z-8.8
N10825 G0 Z11.
N10830 X13.384 Y52.096
N10835 G1 Z3.699 F#108
N10840 S2400
N10845 X13.381 Y52.099 Z3.602 F#107
N10850 X13.373 Y52.108 Z3.506
N10855 X13.36 Y52.122 Z3.411
N10860 X13.341 Y52.141 Z3.318
N10865 X13.318 Y52.166 Z3.227
N10870 X13.289 Y52.196 Z3.14
N10875 X13.254 Y52.231 Z3.056
N10880 X13.215 Y52.27 Z2.976
N10885 X13.171 Y52.313 Z2.901
N10890 X13.123 Y52.359 Z2.831
N10895 X13.096 Y52.384 Z2.799
N10900 X13.069 Y52.409 Z2.767
N10905 X13.041 Y52.435 Z2.738
N10910 X13.012 Y52.461 Z2.709
N10915 X12.981 Y52.489 Z2.684
N10920 X12.95 Y52.516 Z2.658
N10925 X12.918 Y52.544 Z2.635
N10930 X12.885 Y52.572 Z2.613
N10935 X12.851 Y52.601 Z2.594
N10940 X12.817 Y52.63 Z2.575
N10945 X12.781 Y52.659 Z2.56
N10950 X12.745 Y52.688 Z2.545
N10955 X12.708 Y52.717 Z2.534
N10960 X12.671 Y52.746 Z2.522
N10965 X12.633 Y52.775 Z2.515
N10970 X12.595 Y52.804 Z2.507
N10975 X12.556 Y52.833 Z2.504
N10980 X12.517 Y52.861 Z2.5
N10985 G3 X9. Y54. Z2.369 I-3.517 J-4.861
N10990 G1 X4. Z2.194
N10995 G3 X-1.638 Y50.052 Z1.938 I0. J-6.
N11000 G1 X-1.754 Y49.733 Z1.926
N11005 X-1.843 Y49.49 Z1.917
N11010 X-1.955 Y49.181 Z1.906
N11015 X-2.421 Y47.901 Z1.858
N11020 X-3.042 Y46.196 Z1.795
N11025 X-3.757 Y44.232 Z1.722
N11030 X-4.004 Y43.552 Z1.697
N11035 X-3.757 Y44.232 Z1.671
N11040 X-3.042 Y46.196 Z1.598
N11045 X-2.421 Y47.901 Z1.535
N11050 X-1.955 Y49.181 Z1.487
N11055 X-1.843 Y49.49 Z1.476
N11060 X-1.69 Y49.91 Z1.46
N11065 X-1.638 Y50.052 Z1.455
N11070 G2 X4. Y54. Z1.199 I5.638 J-2.052
N11075 G1 X9. Z1.025
N11080 G2 X14.638 Y50.052 Z0.769 I0. J-6.
N11085 G1 X14.69 Y49.911 Z0.763
N11090 X14.754 Y49.734 Z0.757
N11095 X14.843 Y49.49 Z0.748
N11100 X14.955 Y49.182 Z0.736
N11105 X15.421 Y47.901 Z0.689
N11110 X15.821 Y46.802 Z0.648
N11115 X16.042 Y46.196 Z0.625
N11120 X17.004 Y43.552 Z0.527
N11125 X16.512 Y44.904 Z0.477
N11130 X16.042 Y46.196 Z0.429
N11135 X15.821 Y46.802 Z0.406
N11140 X15.246 Y48.382 Z0.347
N11145 X14.955 Y49.182 Z0.318
N11150 X14.843 Y49.49 Z0.306
N11155 X14.754 Y49.734 Z0.297
N11160 X14.638 Y50.052 Z0.285
N11165 G3 X9. Y54. Z0.029 I-5.638 J-2.052
N11170 G1 X4. Z-0.145
N11175 G3 X-1.638 Y50.052 Z-0.401 I0. J-6.
N11180 G1 X-1.754 Y49.733 Z-0.413
N11185 X-1.843 Y49.49 Z-0.422
N11190 X-1.955 Y49.181 Z-0.434
N11195 X-2.421 Y47.901 Z-0.481
N11200 X-3.042 Y46.196 Z-0.544
N11205 X-3.757 Y44.232 Z-0.617
N11210 X-4.004 Y43.552 Z-0.643
N11215 X-3.757 Y44.232 Z-0.668
N11220 X-3.042 Y46.196 Z-0.741
N11225 X-2.421 Y47.901 Z-0.804
N11230 X-1.955 Y49.181 Z-0.852
N11235 X-1.843 Y49.49 Z-0.863
N11240 X-1.69 Y49.91 Z-0.879
N11245 X-1.638 Y50.052 Z-0.884
N11250 G2 X4. Y54. Z-1.14 I5.638 J-2.052
N11255 G1 X9. Z-1.315
N11260 G2 X14.638 Y50.052 Z-1.571 I0. J-6.
N11265 G1 X14.69 Y49.911 Z-1.576
N11270 X14.754 Y49.734 Z-1.583
N11275 X14.843 Y49.49 Z-1.592
N11280 X14.955 Y49.182 Z-1.603
N11285 X15.421 Y47.901 Z-1.651
N11290 X15.821 Y46.802 Z-1.692
N11295 X16.042 Y46.196 Z-1.714
N11300 X17.004 Y43.552 Z-1.812
N11305 X16.512 Y44.904 Z-1.863
N11310 X16.042 Y46.196 Z-1.911
N11315 X15.821 Y46.802 Z-1.933
N11320 X15.246 Y48.382 Z-1.992
N11325 X14.955 Y49.182 Z-2.022
N11330 X14.843 Y49.49 Z-2.033
N11335 X14.754 Y49.734 Z-2.042
N11340 X14.638 Y50.052 Z-2.054
N11345 G3 X9. Y54. Z-2.31 I-5.638 J-2.052
N11350 G1 X4. Z-2.484
N11355 G3 X-1.638 Y50.052 Z-2.74 I0. J-6.
N11360 G1 X-1.754 Y49.733 Z-2.752
N11365 X-1.843 Y49.49 Z-2.761
N11370 X-1.955 Y49.181 Z-2.773
N11375 X-2.421 Y47.901 Z-2.82
N11380 X-3.042 Y46.196 Z-2.884
N11385 X-3.757 Y44.232 Z-2.957
N11390 X-4.004 Y43.552 Z-2.982
N11395 X-3.757 Y44.232 Z-3.007
N11400 X-3.042 Y46.196 Z-3.08
N11405 X-2.421 Y47.901 Z-3.144
N11410 X-1.955 Y49.181 Z-3.191
N11415 X-1.843 Y49.49 Z-3.203
N11420 X-1.69 Y49.91 Z-3.218
N11425 X-1.638 Y50.052 Z-3.224
N11430 G2 X4. Y54. Z-3.48 I5.638 J-2.052
N11435 G1 X9. Z-3.654
N11440 G2 X14.638 Y50.052 Z-3.91 I0. J-6.
N11445 G1 X14.69 Y49.911 Z-3.915
N11450 X14.754 Y49.734 Z-3.922
N11455 X14.843 Y49.49 Z-3.931
N11460 X14.955 Y49.182 Z-3.942
N11465 X15.421 Y47.901 Z-3.99
N11470 X15.821 Y46.802 Z-4.031
N11475 X16.042 Y46.196 Z-4.053
N11480 X17.004 Y43.552 Z-4.152
N11485 X16.512 Y44.904 Z-4.202
N11490 X16.042 Y46.196 Z-4.25
N11495 X15.821 Y46.802 Z-4.272
N11500 X15.246 Y48.382 Z-4.331
N11505 X14.955 Y49.182 Z-4.361
N11510 X14.843 Y49.49 Z-4.372
N11515 X14.754 Y49.734 Z-4.381
N11520 X14.638 Y50.052 Z-4.393
N11525 G3 X9. Y54. Z-4.649 I-5.638 J-2.052
N11530 G1 X4. Z-4.824
N11535 G3 X-1.638 Y50.052 Z-5.08 I0. J-6.
N11540 G1 X-1.754 Y49.733 Z-5.092
N11545 X-1.843 Y49.49 Z-5.101
N11550 X-1.955 Y49.181 Z-5.112
N11555 X-2.421 Y47.901 Z-5.16
N11560 X-3.042 Y46.196 Z-5.223
N11565 X-3.757 Y44.232 Z-5.296
N11570 X-4.004 Y43.552 Z-5.321
N11575 X-3.757 Y44.232 Z-5.347
N11580 X-3.042 Y46.196 Z-5.42
N11585 X-2.421 Y47.901 Z-5.483
N11590 X-1.955 Y49.181 Z-5.531
N11595 X-1.843 Y49.49 Z-5.542
N11600 X-1.69 Y49.91 Z-5.558
N11605 X-1.638 Y50.052 Z-5.563
N11610 G2 X4. Y54. Z-5.819 I5.638 J-2.052
N11615 G1 X9. Z-5.993
N11620 G2 X14.638 Y50.052 Z-6.249 I0. J-6.
N11625 G1 X14.69 Y49.911 Z-6.255
N11630 X14.754 Y49.734 Z-6.261
N11635 X14.843 Y49.49 Z-6.27
N11640 X14.955 Y49.182 Z-6.282
N11645 X15.421 Y47.901 Z-6.329
N11650 X15.821 Y46.802 Z-6.37
N11655 X16.042 Y46.196 Z-6.393
N11660 X17.004 Y43.552 Z-6.491
N11665 X16.512 Y44.904 Z-6.541
N11670 X16.042 Y46.196 Z-6.589
N11675 X15.821 Y46.802 Z-6.612
N11680 X15.246 Y48.382 Z-6.671
N11685 X14.955 Y49.182 Z-6.7
N11690 X14.843 Y49.49 Z-6.712
N11695 X14.754 Y49.734 Z-6.721
N11700 X14.638 Y50.052 Z-6.733
N11705 G3 X9. Y54. Z-6.989 I-5.638 J-2.052
N11710 G1 X4. Z-7.163
N11715 G3 X-1.638 Y50.052 Z-7.419 I0. J-6.
N11720 G1 X-1.754 Y49.733 Z-7.431
N11725 X-1.843 Y49.49 Z-7.44
N11730 X-1.955 Y49.181 Z-7.451
N11735 X-2.421 Y47.901 Z-7.499
N11740 X-3.042 Y46.196 Z-7.562
N11745 X-3.757 Y44.232 Z-7.635
N11750 X-4.004 Y43.552 Z-7.661
N11755 X-3.757 Y44.232 Z-7.686
N11760 X-3.042 Y46.196 Z-7.759
N11765 X-2.421 Y47.901 Z-7.822
N11770 X-1.955 Y49.181 Z-7.87
N11775 X-1.843 Y49.49 Z-7.881
N11780 X-1.69 Y49.91 Z-7.897
N11785 X-1.638 Y50.052 Z-7.902
N11790 G2 X4. Y54. Z-8.158 I5.638 J-2.052
N11795 G1 X9. Z-8.333
N11800 G2 X14.638 Y50.052 Z-8.589 I0. J-6.
N11805 G1 X14.69 Y49.911 Z-8.594
N11810 X14.754 Y49.734 Z-8.601
N11815 X14.843 Y49.49 Z-8.61
N11820 X14.955 Y49.182 Z-8.621
N11825 X15.421 Y47.901 Z-8.669
N11830 X15.821 Y46.802 Z-8.71
N11835 X16.042 Y46.196 Z-8.732
N11840 X17.004 Y43.552 Z-8.83
N11845 X16.512 Y44.904 Z-8.881
N11850 X16.042 Y46.196 Z-8.929
N11855 X15.821 Y46.802 Z-8.951
N11860 X15.246 Y48.382 Z-9.01
N11865 X14.955 Y49.182 Z-9.04
N11870 X14.843 Y49.49 Z-9.051
N11875 X14.754 Y49.734 Z-9.06
N11880 X14.638 Y50.052 Z-9.072
N11885 G3 X9. Y54. Z-9.328 I-5.638 J-2.052
N11890 G1 X4. Z-9.502
N11895 G3 X-1.638 Y50.052 Z-9.758 I0. J-6.
N11900 G1 X-1.754 Y49.733 Z-9.77
N11905 X-1.843 Y49.49 Z-9.779
N11910 X-1.955 Y49.181 Z-9.791
N11915 X-2.421 Y47.901 Z-9.838
N11920 X-3.042 Y46.196 Z-9.902
N11925 X-3.757 Y44.232 Z-9.975
N11930 X-4.004 Y43.552 Z-10.
N11935 S2500
N11940 X-3.757 Y44.232 F#102
N11945 X-3.042 Y46.196
N11950 X-2.421 Y47.901
N11955 X-1.955 Y49.181
N11960 X-1.843 Y49.49
N11965 X-1.638 Y50.052
N11970 G2 X4. Y54. I5.638 J-2.052
N11975 G1 X9.
N11980 G2 X14.638 Y50.052 I0. J-6.
N11985 G1 X14.69 Y49.911
N11990 X14.754 Y49.734
N11995 X14.843 Y49.49
N12000 X14.955 Y49.182
N12005 X15.421 Y47.901
N12010 X15.821 Y46.802
N12015 X16.042 Y46.196
N12020 X17.004 Y43.552
N12025 G3 X18.542 Y42.835 I1.128 J0.41 F#104
N12030 G1 X19.67 Y43.246
N12035 X19.796 Y43.291 Z-9.992
N12040 X19.921 Y43.337 Z-9.97
N12045 X20.042 Y43.381 Z-9.933
N12050 X20.159 Y43.424 Z-9.881
N12055 X20.27 Y43.464 Z-9.816
N12060 X20.373 Y43.501 Z-9.738
N12065 X20.467 Y43.536 Z-9.649
N12070 X20.551 Y43.566 Z-9.548
N12075 X20.624 Y43.593 Z-9.438
N12080 X20.686 Y43.615 Z-9.321
N12085 X20.734 Y43.633 Z-9.196
N12090 X20.769 Y43.646 Z-9.067
N12095 X20.79 Y43.653 Z-8.934
N12100 X20.797 Y43.656 Z-8.8
N12105 Z3.699
N12110 X18.992 Y35.444
N12115 S2400
N12120 X18.991 Y35.448 Z3.602 F#107
N12125 Y35.46 Z3.506
N12130 X18.99 Y35.479 Z3.411
N12135 Y35.506 Z3.318
N12140 X18.988 Y35.541 Z3.227
N12145 X18.987 Y35.582 Z3.14
N12150 X18.985 Y35.631 Z3.056
N12155 X18.983 Y35.686 Z2.976
N12160 X18.98 Y35.747 Z2.901
N12165 X18.976 Y35.815 Z2.831
N12170 X18.973 Y35.887 Z2.767
N12175 X18.968 Y35.965 Z2.709
N12180 X18.963 Y36.047 Z2.658
N12185 X18.957 Y36.133 Z2.613
N12190 X18.951 Y36.222 Z2.575
N12195 X18.944 Y36.314 Z2.545
N12200 X18.936 Y36.408 Z2.522
N12205 X18.928 Y36.503 Z2.507
N12210 X18.919 Y36.6 Z2.5
N12215 G3 X17.914 Y41.051 Z2.34 I-17.919 J-1.705
N12220 G1 X17.004 Y43.552 Z2.247
N12225 X17.914 Y41.051 Z2.154
N12230 G2 X19. Y34.894 Z1.935 I-16.914 J-6.156
N12235 G1 Y0. Z0.716
N12240 Y34.894 Z-0.502
N12245 G3 X17.914 Y41.051 Z-0.722 I-18. J0.
N12250 G1 X17.004 Y43.552 Z-0.815
N12255 X17.914 Y41.051 Z-0.908
N12260 G2 X19. Y34.894 Z-1.127 I-16.914 J-6.156
N12265 G1 Y0. Z-2.345
N12270 Y34.894 Z-3.564
N12275 G3 X17.914 Y41.051 Z-3.783 I-18. J0.
N12280 G1 X17.004 Y43.552 Z-3.876
N12285 X17.914 Y41.051 Z-3.969
N12290 G2 X19. Y34.894 Z-4.189 I-16.914 J-6.156
N12295 G1 Y0. Z-5.407
N12300 Y34.894 Z-6.626
N12305 G3 X17.914 Y41.051 Z-6.845 I-18. J0.
N12310 G1 X17.004 Y43.552 Z-6.938
N12315 X17.914 Y41.051 Z-7.031
N12320 G2 X19. Y34.894 Z-7.251 I-16.914 J-6.156
N12325 G1 Y0. Z-8.469
N12330 Y34.894 Z-9.688
N12335 G3 X17.914 Y41.051 Z-9.907 I-18. J0.
N12340 G1 X17.004 Y43.552 Z-10.
N12345 S2500
N12350 X17.914 Y41.051 F#102
N12355 G2 X19. Y34.894 I-16.914 J-6.156
N12360 G1 Y0.
N12365 G3 X20.2 Y-1.2 I1.2 J0. F#104
N12370 G1 X21.4
N12375 G18 G2 X22.6 Z-8.8 I0. K1.2
N12380 G0 Z11.
N12385 X-6. Y8.395
N12390 G1 Z3.699 F#108
N12395 S2400
N12400 G19 G2 Y7.237 Z2.5 J-1.2 K0. F#107
N12405 G1 Y0. Z2.247
N12410 Y34.894 Z1.029
N12415 G17 G2 X-4.914 Y41.051 Z0.809 I18. J0.
N12420 G1 X-4.004 Y43.552 Z0.716
N12425 X-4.914 Y41.051 Z0.623
N12430 G3 X-6. Y34.894 Z0.404 I16.914 J-6.156
N12435 G1 Y0. Z-0.815
N12440 Y34.894 Z-2.033
N12445 G2 X-4.914 Y41.051 Z-2.252 I18. J0.
N12450 G1 X-4.004 Y43.552 Z-2.345
N12455 X-4.914 Y41.051 Z-2.438
N12460 G3 X-6. Y34.894 Z-2.658 I16.914 J-6.156
N12465 G1 Y0. Z-3.876
N12470 Y34.894 Z-5.095
N12475 G2 X-4.914 Y41.051 Z-5.314 I18. J0.
N12480 G1 X-4.004 Y43.552 Z-5.407
N12485 X-4.914 Y41.051 Z-5.5
N12490 G3 X-6. Y34.894 Z-5.72 I16.914 J-6.156
N12495 G1 Y0. Z-6.938
N12500 Y34.894 Z-8.157
N12505 G2 X-4.914 Y41.051 Z-8.376 I18. J0.
N12510 G1 X-4.004 Y43.552 Z-8.469
N12515 X-4.914 Y41.051 Z-8.562
N12520 G3 X-6. Y34.894 Z-8.781 I16.914 J-6.156
N12525 G1 Y0. Z-10.
N12530 S2500
N12535 Y34.894 F#102
N12540 G2 X-4.914 Y41.051 I18. J0.
N12545 G1 X-4.004 Y43.552
N12550 G3 X-4.721 Y45.09 I-1.128 J0.41 F#104
N12555 G1 X-5.849 Y45.501
N12560 X-5.975 Y45.547 Z-9.992
N12565 X-6.1 Y45.592 Z-9.97
N12570 X-6.221 Y45.636 Z-9.933
N12575 X-6.338 Y45.679 Z-9.881
N12580 X-6.449 Y45.719 Z-9.816
N12585 X-6.552 Y45.756 Z-9.738
N12590 X-6.646 Y45.791 Z-9.649
N12595 X-6.73 Y45.821 Z-9.548
N12600 X-6.804 Y45.848 Z-9.438
N12605 X-6.865 Y45.87 Z-9.321
N12610 X-6.913 Y45.888 Z-9.196
N12615 X-6.948 Y45.901 Z-9.067
N12620 X-6.969 Y45.908 Z-8.934
N12625 X-6.976 Y45.911 Z-8.8
N12630 G0 Z11.
N12635 X13.384 Y52.096
N12640 G1 Z3.699 F#108
N12645 S2400
N12650 X13.381 Y52.099 Z3.602 F#107
N12655 X13.373 Y52.108 Z3.506
N12660 X13.36 Y52.122 Z3.411
N12665 X13.341 Y52.141 Z3.318
N12670 X13.318 Y52.166 Z3.227
N12675 X13.289 Y52.196 Z3.14
N12680 X13.254 Y52.231 Z3.056
N12685 X13.215 Y52.27 Z2.976
N12690 X13.171 Y52.313 Z2.901
N12695 X13.123 Y52.359 Z2.831
N12700 X13.096 Y52.384 Z2.799
N12705 X13.069 Y52.409 Z2.767
N12710 X13.041 Y52.435 Z2.738
N12715 X13.012 Y52.461 Z2.709
N12720 X12.981 Y52.489 Z2.684
N12725 X12.95 Y52.516 Z2.658
N12730 X12.918 Y52.544 Z2.635
N12735 X12.885 Y52.572 Z2.613
N12740 X12.851 Y52.601 Z2.594
N12745 X12.817 Y52.63 Z2.575
N12750 X12.781 Y52.659 Z2.56
N12755 X12.745 Y52.688 Z2.545
N12760 X12.708 Y52.717 Z2.534
N12765 X12.671 Y52.746 Z2.522
N12770 X12.633 Y52.775 Z2.515
N12775 X12.595 Y52.804 Z2.507
N12780 X12.556 Y52.833 Z2.504
N12785 X12.517 Y52.861 Z2.5
N12790 G3 X9. Y54. Z2.369 I-3.517 J-4.861
N12795 G1 X4. Z2.194
N12800 G3 X-1.638 Y50.052 Z1.938 I0. J-6.
N12805 G1 X-1.754 Y49.733 Z1.926
N12810 X-1.843 Y49.49 Z1.917
N12815 X-1.955 Y49.181 Z1.906
N12820 X-2.421 Y47.901 Z1.858
N12825 X-3.042 Y46.196 Z1.795
N12830 X-3.757 Y44.232 Z1.722
N12835 X-4.004 Y43.552 Z1.697
N12840 X-3.757 Y44.232 Z1.671
N12845 X-3.042 Y46.196 Z1.598
N12850 X-2.421 Y47.901 Z1.535
N12855 X-1.955 Y49.181 Z1.487
N12860 X-1.843 Y49.49 Z1.476
N12865 X-1.69 Y49.91 Z1.46
N12870 X-1.638 Y50.052 Z1.455
N12875 G2 X4. Y54. Z1.199 I5.638 J-2.052
N12880 G1 X9. Z1.025
N12885 G2 X14.638 Y50.052 Z0.769 I0. J-6.
N12890 G1 X14.69 Y49.911 Z0.763
N12895 X14.754 Y49.734 Z0.757
N12900 X14.843 Y49.49 Z0.748
N12905 X14.955 Y49.182 Z0.736
N12910 X15.421 Y47.901 Z0.689
N12915 X15.821 Y46.802 Z0.648
N12920 X16.042 Y46.196 Z0.625
N12925 X17.004 Y43.552 Z0.527
N12930 X16.512 Y44.904 Z0.477
N12935 X16.042 Y46.196 Z0.429
N12940 X15.821 Y46.802 Z0.406
N12945 X15.246 Y48.382 Z0.347
N12950 X14.955 Y49.182 Z0.318
N12955 X14.843 Y49.49 Z0.306
N12960 X14.754 Y49.734 Z0.297
N12965 X14.638 Y50.052 Z0.285
N12970 G3 X9. Y54. Z0.029 I-5.638 J-2.052
N12975 G1 X4. Z-0.145
N12980 G3 X-1.638 Y50.052 Z-0.401 I0. J-6.
N12985 G1 X-1.754 Y49.733 Z-0.413
N12990 X-1.843 Y49.49 Z-0.422
N12995 X-1.955 Y49.181 Z-0.434
N13000 X-2.421 Y47.901 Z-0.481
N13005 X-3.042 Y46.196 Z-0.544
N13010 X-3.757 Y44.232 Z-0.617
N13015 X-4.004 Y43.552 Z-0.643
N13020 X-3.757 Y44.232 Z-0.668
N13025 X-3.042 Y46.196 Z-0.741
N13030 X-2.421 Y47.901 Z-0.804
N13035 X-1.955 Y49.181 Z-0.852
N13040 X-1.843 Y49.49 Z-0.863
N13045 X-1.69 Y49.91 Z-0.879
N13050 X-1.638 Y50.052 Z-0.884
N13055 G2 X4. Y54. Z-1.14 I5.638 J-2.052
N13060 G1 X9. Z-1.315
N13065 G2 X14.638 Y50.052 Z-1.571 I0. J-6.
N13070 G1 X14.69 Y49.911 Z-1.576
N13075 X14.754 Y49.734 Z-1.583
N13080 X14.843 Y49.49 Z-1.592
N13085 X14.955 Y49.182 Z-1.603
N13090 X15.421 Y47.901 Z-1.651
N13095 X15.821 Y46.802 Z-1.692
N13100 X16.042 Y46.196 Z-1.714
N13105 X17.004 Y43.552 Z-1.812
N13110 X16.512 Y44.904 Z-1.863
N13115 X16.042 Y46.196 Z-1.911
N13120 X15.821 Y46.802 Z-1.933
N13125 X15.246 Y48.382 Z-1.992
N13130 X14.955 Y49.182 Z-2.022
N13135 X14.843 Y49.49 Z-2.033
N13140 X14.754 Y49.734 Z-2.042
N13145 X14.638 Y50.052 Z-2.054
N13150 G3 X9. Y54. Z-2.31 I-5.638 J-2.052
N13155 G1 X4. Z-2.484
N13160 G3 X-1.638 Y50.052 Z-2.74 I0. J-6.
N13165 G1 X-1.754 Y49.733 Z-2.752
N13170 X-1.843 Y49.49 Z-2.761
N13175 X-1.955 Y49.181 Z-2.773
N13180 X-2.421 Y47.901 Z-2.82
N13185 X-3.042 Y46.196 Z-2.884
N13190 X-3.757 Y44.232 Z-2.957
N13195 X-4.004 Y43.552 Z-2.982
N13200 X-3.757 Y44.232 Z-3.007
N13205 X-3.042 Y46.196 Z-3.08
N13210 X-2.421 Y47.901 Z-3.144
N13215 X-1.955 Y49.181 Z-3.191
N13220 X-1.843 Y49.49 Z-3.203
N13225 X-1.69 Y49.91 Z-3.218
N13230 X-1.638 Y50.052 Z-3.224
N13235 G2 X4. Y54. Z-3.48 I5.638 J-2.052
N13240 G1 X9. Z-3.654
N13245 G2 X14.638 Y50.052 Z-3.91 I0. J-6.
N13250 G1 X14.69 Y49.911 Z-3.915
N13255 X14.754 Y49.734 Z-3.922
N13260 X14.843 Y49.49 Z-3.931
N13265 X14.955 Y49.182 Z-3.942
N13270 X15.421 Y47.901 Z-3.99
N13275 X15.821 Y46.802 Z-4.031
N13280 X16.042 Y46.196 Z-4.053
N13285 X17.004 Y43.552 Z-4.152
N13290 X16.512 Y44.904 Z-4.202
N13295 X16.042 Y46.196 Z-4.25
N13300 X15.821 Y46.802 Z-4.272
N13305 X15.246 Y48.382 Z-4.331
N13310 X14.955 Y49.182 Z-4.361
N13315 X14.843 Y49.49 Z-4.372
N13320 X14.754 Y49.734 Z-4.381
N13325 X14.638 Y50.052 Z-4.393
N13330 G3 X9. Y54. Z-4.649 I-5.638 J-2.052
N13335 G1 X4. Z-4.824
N13340 G3 X-1.638 Y50.052 Z-5.08 I0. J-6.
N13345 G1 X-1.754 Y49.733 Z-5.092
N13350 X-1.843 Y49.49 Z-5.101
N13355 X-1.955 Y49.181 Z-5.112
N13360 X-2.421 Y47.901 Z-5.16
N13365 X-3.042 Y46.196 Z-5.223
N13370 X-3.757 Y44.232 Z-5.296
N13375 X-4.004 Y43.552 Z-5.321
N13380 X-3.757 Y44.232 Z-5.347
N13385 X-3.042 Y46.196 Z-5.42
N13390 X-2.421 Y47.901 Z-5.483
N13395 X-1.955 Y49.181 Z-5.531
N13400 X-1.843 Y49.49 Z-5.542
N13405 X-1.69 Y49.91 Z-5.558
N13410 X-1.638 Y50.052 Z-5.563
N13415 G2 X4. Y54. Z-5.819 I5.638 J-2.052
N13420 G1 X9. Z-5.993
N13425 G2 X14.638 Y50.052 Z-6.249 I0. J-6.
N13430 G1 X14.69 Y49.911 Z-6.255
N13435 X14.754 Y49.734 Z-6.261
N13440 X14.843 Y49.49 Z-6.27
N13445 X14.955 Y49.182 Z-6.282
N13450 X15.421 Y47.901 Z-6.329
N13455 X15.821 Y46.802 Z-6.37
N13460 X16.042 Y46.196 Z-6.393
N13465 X17.004 Y43.552 Z-6.491
N13470 X16.512 Y44.904 Z-6.541
N13475 X16.042 Y46.196 Z-6.589
N13480 X15.821 Y46.802 Z-6.612
N13485 X15.246 Y48.382 Z-6.671
N13490 X14.955 Y49.182 Z-6.7
N13495 X14.843 Y49.49 Z-6.712
N13500 X14.754 Y49.734 Z-6.721
N13505 X14.638 Y50.052 Z-6.733
N13510 G3 X9. Y54. Z-6.989 I-5.638 J-2.052
N13515 G1 X4. Z-7.163
N13520 G3 X-1.638 Y50.052 Z-7.419 I0. J-6.
N13525 G1 X-1.754 Y49.733 Z-7.431
N13530 X-1.843 Y49.49 Z-7.44
N13535 X-1.955 Y49.181 Z-7.451
N13540 X-2.421 Y47.901 Z-7.499
N13545 X-3.042 Y46.196 Z-7.562
N13550 X-3.757 Y44.232 Z-7.635
N13555 X-4.004 Y43.552 Z-7.661
N13560 X-3.757 Y44.232 Z-7.686
N13565 X-3.042 Y46.196 Z-7.759
N13570 X-2.421 Y47.901 Z-7.822
N13575 X-1.955 Y49.181 Z-7.87
N13580 X-1.843 Y49.49 Z-7.881
N13585 X-1.69 Y49.91 Z-7.897
N13590 X-1.638 Y50.052 Z-7.902
N13595 G2 X4. Y54. Z-8.158 I5.638 J-2.052
N13600 G1 X9. Z-8.333
N13605 G2 X14.638 Y50.052 Z-8.589 I0. J-6.
N13610 G1 X14.69 Y49.911 Z-8.594
N13615 X14.754 Y49.734 Z-8.601
N13620 X14.843 Y49.49 Z-8.61
N13625 X14.955 Y49.182 Z-8.621
N13630 X15.421 Y47.901 Z-8.669
N13635 X15.821 Y46.802 Z-8.71
N13640 X16.042 Y46.196 Z-8.732
N13645 X17.004 Y43.552 Z-8.83
N13650 X16.512 Y44.904 Z-8.881
N13655 X16.042 Y46.196 Z-8.929
N13660 X15.821 Y46.802 Z-8.951
N13665 X15.246 Y48.382 Z-9.01
N13670 X14.955 Y49.182 Z-9.04
N13675 X14.843 Y49.49 Z-9.051
N13680 X14.754 Y49.734 Z-9.06
N13685 X14.638 Y50.052 Z-9.072
N13690 G3 X9. Y54. Z-9.328 I-5.638 J-2.052
N13695 G1 X4. Z-9.502
N13700 G3 X-1.638 Y50.052 Z-9.758 I0. J-6.
N13705 G1 X-1.754 Y49.733 Z-9.77
N13710 X-1.843 Y49.49 Z-9.779
N13715 X-1.955 Y49.181 Z-9.791
N13720 X-2.421 Y47.901 Z-9.838
N13725 X-3.042 Y46.196 Z-9.902
N13730 X-3.757 Y44.232 Z-9.975
N13735 X-4.004 Y43.552 Z-10.
N13740 S2500
N13745 X-3.757 Y44.232 F#102
N13750 X-3.042 Y46.196
N13755 X-2.421 Y47.901
N13760 X-1.955 Y49.181
N13765 X-1.843 Y49.49
N13770 X-1.638 Y50.052
N13775 G2 X4. Y54. I5.638 J-2.052
N13780 G1 X9.
N13785 G2 X14.638 Y50.052 I0. J-6.
N13790 G1 X14.69 Y49.911
N13795 X14.754 Y49.734
N13800 X14.843 Y49.49
N13805 X14.955 Y49.182
N13810 X15.421 Y47.901
N13815 X15.821 Y46.802
N13820 X16.042 Y46.196
N13825 X17.004 Y43.552
N13830 G3 X18.542 Y42.835 I1.128 J0.41 F#104
N13835 G1 X19.67 Y43.246
N13840 X19.796 Y43.291 Z-9.992
N13845 X19.921 Y43.337 Z-9.97
N13850 X20.042 Y43.381 Z-9.933
N13855 X20.159 Y43.424 Z-9.881
N13860 X20.27 Y43.464 Z-9.816
N13865 X20.373 Y43.501 Z-9.738
N13870 X20.467 Y43.536 Z-9.649
N13875 X20.551 Y43.566 Z-9.548
N13880 X20.624 Y43.593 Z-9.438
N13885 X20.686 Y43.615 Z-9.321
N13890 X20.734 Y43.633 Z-9.196
N13895 X20.769 Y43.646 Z-9.067
N13900 X20.79 Y43.653 Z-8.934
N13905 X20.797 Y43.656 Z-8.8
N13910 Z3.699
N13915 X18.992 Y35.444
N13920 S2400
N13925 X18.991 Y35.448 Z3.602 F#107
N13930 Y35.46 Z3.506
N13935 X18.99 Y35.479 Z3.411
N13940 Y35.506 Z3.318
N13945 X18.988 Y35.541 Z3.227
N13950 X18.987 Y35.582 Z3.14
N13955 X18.985 Y35.631 Z3.056
N13960 X18.983 Y35.686 Z2.976
N13965 X18.98 Y35.747 Z2.901
N13970 X18.976 Y35.815 Z2.831
N13975 X18.973 Y35.887 Z2.767
N13980 X18.968 Y35.965 Z2.709
N13985 X18.963 Y36.047 Z2.658
N13990 X18.957 Y36.133 Z2.613
N13995 X18.951 Y36.222 Z2.575
N14000 X18.944 Y36.314 Z2.545
N14005 X18.936 Y36.408 Z2.522
N14010 X18.928 Y36.503 Z2.507
N14015 X18.919 Y36.6 Z2.5
N14020 G3 X17.914 Y41.051 Z2.34 I-17.919 J-1.705
N14025 G1 X17.004 Y43.552 Z2.247
N14030 X17.914 Y41.051 Z2.154
N14035 G2 X19. Y34.894 Z1.935 I-16.914 J-6.156
N14040 G1 Y0. Z0.716
N14045 Y34.894 Z-0.502
N14050 G3 X17.914 Y41.051 Z-0.722 I-18. J0.
N14055 G1 X17.004 Y43.552 Z-0.815
N14060 X17.914 Y41.051 Z-0.908
N14065 G2 X19. Y34.894 Z-1.127 I-16.914 J-6.156
N14070 G1 Y0. Z-2.345
N14075 Y34.894 Z-3.564
N14080 G3 X17.914 Y41.051 Z-3.783 I-18. J0.
N14085 G1 X17.004 Y43.552 Z-3.876
N14090 X17.914 Y41.051 Z-3.969
N14095 G2 X19. Y34.894 Z-4.189 I-16.914 J-6.156
N14100 G1 Y0. Z-5.407
N14105 Y34.894 Z-6.626
N14110 G3 X17.914 Y41.051 Z-6.845 I-18. J0.
N14115 G1 X17.004 Y43.552 Z-6.938
N14120 X17.914 Y41.051 Z-7.031
N14125 G2 X19. Y34.894 Z-7.251 I-16.914 J-6.156
N14130 G1 Y0. Z-8.469
N14135 Y34.894 Z-9.688
N14140 G3 X17.914 Y41.051 Z-9.907 I-18. J0.
N14145 G1 X17.004 Y43.552 Z-10.
N14150 S2500
N14155 X17.914 Y41.051 F#102
N14160 G2 X19. Y34.894 I-16.914 J-6.156
N14165 G1 Y0.
N14170 G3 X20.2 Y-1.2 I1.2 J0. F#104
N14175 G1 X21.4
N14180 G18 G2 X22.6 Z-8.8 I0. K1.2
N14185 G0 Z11.
N14190 X-6. Y8.395
N14195 G1 Z3.699 F#108
N14200 S2400
N14205 G19 G2 Y7.237 Z2.5 J-1.2 K0. F#107
N14210 G1 Y0. Z2.247
N14215 Y34.894 Z1.029
N14220 G17 G2 X-4.914 Y41.051 Z0.809 I18. J0.
N14225 G1 X-4.004 Y43.552 Z0.716
N14230 X-4.914 Y41.051 Z0.623
N14235 G3 X-6. Y34.894 Z0.404 I16.914 J-6.156
N14240 G1 Y0. Z-0.815
N14245 Y34.894 Z-2.033
N14250 G2 X-4.914 Y41.051 Z-2.252 I18. J0.
N14255 G1 X-4.004 Y43.552 Z-2.345
N14260 X-4.914 Y41.051 Z-2.438
N14265 G3 X-6. Y34.894 Z-2.658 I16.914 J-6.156
N14270 G1 Y0. Z-3.876
N14275 Y34.894 Z-5.095
N14280 G2 X-4.914 Y41.051 Z-5.314 I18. J0.
N14285 G1 X-4.004 Y43.552 Z-5.407
N14290 X-4.914 Y41.051 Z-5.5
N14295 G3 X-6. Y34.894 Z-5.72 I16.914 J-6.156
N14300 G1 Y0. Z-6.938
N14305 Y34.894 Z-8.157
N14310 G2 X-4.914 Y41.051 Z-8.376 I18. J0.
N14315 G1 X-4.004 Y43.552 Z-8.469
N14320 X-4.914 Y41.051 Z-8.562
N14325 G3 X-6. Y34.894 Z-8.781 I16.914 J-6.156
N14330 G1 Y0. Z-10.
N14335 S2500
N14340 Y34.894 F#102
N14345 G2 X-4.914 Y41.051 I18. J0.
N14350 G1 X-4.004 Y43.552
N14355 G3 X-4.721 Y45.09 I-1.128 J0.41 F#104
N14360 G1 X-5.849 Y45.501
N14365 X-5.975 Y45.547 Z-9.992
N14370 X-6.1 Y45.592 Z-9.97
N14375 X-6.221 Y45.636 Z-9.933
N14380 X-6.338 Y45.679 Z-9.881
N14385 X-6.449 Y45.719 Z-9.816
N14390 X-6.552 Y45.756 Z-9.738
N14395 X-6.646 Y45.791 Z-9.649
N14400 X-6.73 Y45.821 Z-9.548
N14405 X-6.804 Y45.848 Z-9.438
N14410 X-6.865 Y45.87 Z-9.321
N14415 X-6.913 Y45.888 Z-9.196
N14420 X-6.948 Y45.901 Z-9.067
N14425 X-6.969 Y45.908 Z-8.934
N14430 X-6.976 Y45.911 Z-8.8
N14435 Z-6.3
N14440 X-8.248 Y45.341
N14445 X-8.241 Y45.338 Z-6.434 F#108
N14450 X-8.22 Y45.33 Z-6.567
N14455 X-8.185 Y45.318 Z-6.696
N14460 X-8.137 Y45.3 Z-6.821
N14465 X-8.075 Y45.278 Z-6.938
N14470 X-8.002 Y45.251 Z-7.048
N14475 X-7.918 Y45.22 Z-7.149
N14480 X-7.824 Y45.186 Z-7.238
N14485 X-7.721 Y45.148 Z-7.316
N14490 X-7.61 Y45.108 Z-7.381
N14495 X-7.493 Y45.066 Z-7.433
N14500 X-7.372 Y45.021 Z-7.47
N14505 X-7.247 Y44.976 Z-7.492
N14510 X-7.121 Y44.93 Z-7.5
N14515 X-5.993 Y44.52 F#103
N14520 G3 X-4.455 Y45.237 I0.41 J1.128
N14525 S2400
N14530 G1 X-3.981 Y46.538 Z-7.548 F#107
N14535 X-3.361 Y48.244 Z-7.612
N14540 X-2.895 Y49.524 Z-7.659
N14545 X-2.782 Y49.832 Z-7.671
N14550 X-2.63 Y50.252 Z-7.686
N14555 X-2.578 Y50.395 Z-7.692
N14560 G2 X4. Y55. Z-7.99 I6.578 J-2.395
N14565 G1 X9. Z-8.165
N14570 G2 X15.578 Y50.395 Z-8.464 I0. J-7.
N14575 G1 X15.629 Y50.253 Z-8.469
N14580 X15.782 Y49.832 Z-8.484
N14585 X15.895 Y49.523 Z-8.496
N14590 X16.361 Y48.244 Z-8.543
N14595 X16.761 Y47.144 Z-8.584
N14600 X16.981 Y46.538 Z-8.607
N14605 X17.944 Y43.894 Z-8.705
N14610 X17.452 Y45.246 Z-8.755
N14615 X16.981 Y46.538 Z-8.803
N14620 X16.761 Y47.144 Z-8.826
N14625 X16.186 Y48.724 Z-8.885
N14630 X15.895 Y49.524 Z-8.914
N14635 X15.782 Y49.832 Z-8.926
N14640 X15.629 Y50.253 Z-8.941
N14645 X15.578 Y50.395 Z-8.947
N14650 G3 X9. Y55. Z-9.245 I-6.578 J-2.395
N14655 G1 X4. Z-9.42
N14660 G3 X-2.578 Y50.395 Z-9.719 I0. J-7.
N14665 G1 X-2.63 Y50.252 Z-9.724
N14670 X-2.782 Y49.832 Z-9.739
N14675 X-2.895 Y49.523 Z-9.751
N14680 X-3.361 Y48.244 Z-9.798
N14685 X-3.981 Y46.538 Z-9.862
N14690 X-4.696 Y44.574 Z-9.935
N14695 X-4.944 Y43.894 Z-9.96
N14700 X-4.696 Y44.574 Z-9.985
N14705 X-3.981 Y46.538 Z-10.058
N14710 X-3.361 Y48.244 Z-10.122
N14715 X-2.895 Y49.524 Z-10.169
N14720 X-2.782 Y49.832 Z-10.181
N14725 X-2.63 Y50.252 Z-10.196
N14730 X-2.578 Y50.395 Z-10.202
N14735 G2 X4. Y55. Z-10.5 I6.578 J-2.395
N14740 G1 X9. Z-10.675
N14745 G2 X15.578 Y50.395 Z-10.974 I0. J-7.
N14750 G1 X15.629 Y50.253 Z-10.979
N14755 X15.782 Y49.832 Z-10.994
N14760 X15.895 Y49.523 Z-11.006
N14765 X16.361 Y48.244 Z-11.053
N14770 X16.761 Y47.144 Z-11.094
N14775 X16.981 Y46.538 Z-11.117
N14780 X17.944 Y43.894 Z-11.215
N14785 X17.452 Y45.246 Z-11.265
N14790 X16.981 Y46.538 Z-11.313
N14795 X16.761 Y47.144 Z-11.336
N14800 X16.186 Y48.724 Z-11.395
N14805 X15.895 Y49.524 Z-11.424
N14810 X15.782 Y49.832 Z-11.436
N14815 X15.629 Y50.253 Z-11.451
N14820 X15.578 Y50.395 Z-11.457
N14825 G3 X9. Y55. Z-11.755 I-6.578 J-2.395
N14830 G1 X4. Z-11.93
N14835 G3 X-2.578 Y50.395 Z-12.229 I0. J-7.
N14840 G1 X-2.63 Y50.252 Z-12.234
N14845 X-2.782 Y49.832 Z-12.249
N14850 X-2.895 Y49.523 Z-12.261
N14855 X-3.361 Y48.244 Z-12.308
N14860 X-3.981 Y46.538 Z-12.372
N14865 X-4.696 Y44.574 Z-12.445
N14870 X-4.944 Y43.894 Z-12.47
N14875 X-4.696 Y44.574 Z-12.495
N14880 X-3.981 Y46.538 Z-12.568
N14885 X-3.361 Y48.244 Z-12.632
N14890 X-2.895 Y49.524 Z-12.679
N14895 X-2.782 Y49.832 Z-12.691
N14900 X-2.63 Y50.252 Z-12.706
N14905 X-2.578 Y50.395 Z-12.712
N14910 G2 X4. Y55. Z-13.01 I6.578 J-2.395
N14915 G1 X9. Z-13.185
N14920 G2 X15.578 Y50.395 Z-13.483 I0. J-7.
N14925 G1 X15.629 Y50.253 Z-13.489
N14930 X15.782 Y49.832 Z-13.504
N14935 X15.895 Y49.523 Z-13.516
N14940 X16.361 Y48.244 Z-13.563
N14945 X16.761 Y47.144 Z-13.604
N14950 X16.981 Y46.538 Z-13.627
N14955 X17.944 Y43.894 Z-13.725
N14960 X17.452 Y45.246 Z-13.775
N14965 X16.981 Y46.538 Z-13.823
N14970 X16.761 Y47.144 Z-13.846
N14975 X16.186 Y48.724 Z-13.905
N14980 X15.895 Y49.524 Z-13.934
N14985 X15.782 Y49.832 Z-13.946
N14990 X15.629 Y50.253 Z-13.961
N14995 X15.578 Y50.395 Z-13.967
N15000 G3 X9. Y55. Z-14.265 I-6.578 J-2.395
N15005 G1 X4. Z-14.44
N15010 G3 X-2.578 Y50.395 Z-14.738 I0. J-7.
N15015 G1 X-2.63 Y50.252 Z-14.744
N15020 X-2.782 Y49.832 Z-14.759
N15025 X-2.895 Y49.523 Z-14.771
N15030 X-3.361 Y48.244 Z-14.818
N15035 X-3.981 Y46.538 Z-14.882
N15040 X-4.696 Y44.574 Z-14.955
N15045 X-4.944 Y43.894 Z-14.98
N15050 X-4.696 Y44.574 Z-15.005
N15055 X-3.981 Y46.538 Z-15.078
N15060 X-3.361 Y48.244 Z-15.142
N15065 X-2.895 Y49.524 Z-15.189
N15070 X-2.782 Y49.832 Z-15.201
N15075 X-2.63 Y50.252 Z-15.216
N15080 X-2.578 Y50.395 Z-15.222
N15085 G2 X4. Y55. Z-15.52 I6.578 J-2.395
N15090 G1 X9. Z-15.695
N15095 G2 X15.578 Y50.395 Z-15.993 I0. J-7.
N15100 G1 X15.629 Y50.253 Z-15.999
N15105 X15.782 Y49.832 Z-16.014
N15110 X15.895 Y49.523 Z-16.026
N15115 X16.361 Y48.244 Z-16.073
N15120 X16.761 Y47.144 Z-16.114
N15125 X16.981 Y46.538 Z-16.137
N15130 X17.944 Y43.894 Z-16.235
N15135 X17.452 Y45.246 Z-16.285
N15140 X16.981 Y46.538 Z-16.333
N15145 X16.761 Y47.144 Z-16.356
N15150 X16.186 Y48.724 Z-16.415
N15155 X15.895 Y49.524 Z-16.444
N15160 X15.782 Y49.832 Z-16.456
N15165 X15.629 Y50.253 Z-16.471
N15170 X15.578 Y50.395 Z-16.477
N15175 G3 X9. Y55. Z-16.775 I-6.578 J-2.395
N15180 G1 X4. Z-16.95
N15185 G3 X-2.578 Y50.395 Z-17.248 I0. J-7.
N15190 G1 X-2.63 Y50.252 Z-17.254
N15195 X-2.782 Y49.832 Z-17.269
N15200 X-2.895 Y49.523 Z-17.281
N15205 X-3.361 Y48.244 Z-17.328
N15210 X-3.981 Y46.538 Z-17.392
N15215 X-4.696 Y44.574 Z-17.465
N15220 X-4.944 Y43.894 Z-17.49
N15225 X-4.696 Y44.574 Z-17.515
N15230 X-3.981 Y46.538 Z-17.588
N15235 X-3.361 Y48.244 Z-17.652
N15240 X-2.895 Y49.524 Z-17.699
N15245 X-2.782 Y49.832 Z-17.711
N15250 X-2.63 Y50.252 Z-17.726
N15255 X-2.578 Y50.395 Z-17.732
N15260 G2 X4. Y55. Z-18.03 I6.578 J-2.395
N15265 G1 X9. Z-18.205
N15270 G2 X15.578 Y50.395 Z-18.503 I0. J-7.
N15275 G1 X15.629 Y50.253 Z-18.509
N15280 X15.782 Y49.832 Z-18.524
N15285 X15.895 Y49.523 Z-18.536
N15290 X16.361 Y48.244 Z-18.583
N15295 X16.761 Y47.144 Z-18.624
N15300 X16.981 Y46.538 Z-18.647
N15305 X17.944 Y43.894 Z-18.745
N15310 X17.452 Y45.246 Z-18.795
N15315 X16.981 Y46.538 Z-18.843
N15320 X16.761 Y47.144 Z-18.866
N15325 X16.186 Y48.724 Z-18.925
N15330 X15.895 Y49.524 Z-18.954
N15335 X15.782 Y49.832 Z-18.966
N15340 X15.629 Y50.253 Z-18.981
N15345 X15.578 Y50.395 Z-18.987
N15350 G3 X9. Y55. Z-19.285 I-6.578 J-2.395
N15355 G1 X4. Z-19.46
N15360 G3 X-2.578 Y50.395 Z-19.758 I0. J-7.
N15365 G1 X-2.63 Y50.252 Z-19.764
N15370 X-2.782 Y49.832 Z-19.779
N15375 X-2.895 Y49.523 Z-19.791
N15380 X-3.361 Y48.244 Z-19.838
N15385 X-3.981 Y46.538 Z-19.902
N15390 X-4.696 Y44.574 Z-19.975
N15395 X-4.944 Y43.894 Z-20.
N15400 S2500
N15405 X-4.696 Y44.574 F#100
N15410 X-3.981 Y46.538
N15415 X-3.361 Y48.244
N15420 X-2.894 Y49.526
N15425 X-2.578 Y50.395
N15430 G2 X4. Y55. I6.578 J-2.395
N15435 G1 X9.
N15440 G2 X15.578 Y50.395 I0. J-7.
N15445 G1 X15.629 Y50.253
N15450 X15.782 Y49.832
N15455 X15.895 Y49.523
N15460 X16.361 Y48.244
N15465 X16.761 Y47.144
N15470 X16.981 Y46.538
N15475 X17.944 Y43.894
N15480 G3 X19.482 Y43.177 I1.128 J0.41 F#104
N15485 G1 X20.609 Y43.588
N15490 X20.736 Y43.634 Z-19.992
N15495 X20.86 Y43.679 Z-19.97
N15500 X20.982 Y43.723 Z-19.933
N15505 X21.099 Y43.766 Z-19.881
N15510 X21.209 Y43.806 Z-19.816
N15515 X21.312 Y43.843 Z-19.738
N15520 X21.407 Y43.878 Z-19.649
N15525 X21.491 Y43.908 Z-19.548
N15530 X21.564 Y43.935 Z-19.438
N15535 X21.625 Y43.957 Z-19.321
N15540 X21.674 Y43.975 Z-19.196
N15545 X21.709 Y43.988 Z-19.067
N15550 X21.73 Y43.995 Z-18.934
N15555 X21.737 Y43.998 Z-18.8
N15560 Z-6.301
N15565 X19.643 Y38.562
N15570 S2400
N15575 X19.642 Y38.566 Z-6.398 F#107
N15580 X19.64 Y38.578 Z-6.494
N15585 X19.636 Y38.597 Z-6.589
N15590 X19.63 Y38.623 Z-6.682
N15595 X19.624 Y38.657 Z-6.773
N15600 X19.615 Y38.698 Z-6.86
N15605 X19.606 Y38.746 Z-6.944
N15610 X19.594 Y38.8 Z-7.024
N15615 X19.581 Y38.86 Z-7.099
N15620 X19.567 Y38.926 Z-7.169
N15625 X19.552 Y38.997 Z-7.233
N15630 X19.535 Y39.073 Z-7.291
N15635 X19.517 Y39.153 Z-7.342
N15640 X19.497 Y39.237 Z-7.387
N15645 X19.476 Y39.324 Z-7.425
N15650 X19.455 Y39.413 Z-7.455
N15655 X19.432 Y39.505 Z-7.478
N15660 X19.409 Y39.598 Z-7.493
N15665 X19.384 Y39.691 Z-7.5
N15670 G3 X18.854 Y41.393 Z-7.562 I-18.384 J-4.797
N15675 G1 X17.944 Y43.894 Z-7.655
N15680 X18.854 Y41.393 Z-7.748
N15685 G2 X20. Y34.894 Z-7.98 I-17.854 J-6.498
N15690 G1 Y0. Z-9.198
N15695 Y34.894 Z-10.417
N15700 G3 X18.854 Y41.393 Z-10.648 I-19. J0.
N15705 G1 X17.944 Y43.894 Z-10.741
N15710 X18.854 Y41.393 Z-10.834
N15715 G2 X20. Y34.894 Z-11.066 I-17.854 J-6.498
N15720 G1 Y0. Z-12.285
N15725 Y34.894 Z-13.503
N15730 G3 X18.854 Y41.393 Z-13.735 I-19. J0.
N15735 G1 X17.944 Y43.894 Z-13.828
N15740 X18.854 Y41.393 Z-13.921
N15745 G2 X20. Y34.894 Z-14.152 I-17.854 J-6.498
N15750 G1 Y0. Z-15.371
N15755 Y34.894 Z-16.589
N15760 G3 X18.854 Y41.393 Z-16.821 I-19. J0.
N15765 G1 X17.944 Y43.894 Z-16.914
N15770 X18.854 Y41.393 Z-17.007
N15775 G2 X20. Y34.894 Z-17.238 I-17.854 J-6.498
N15780 G1 Y0. Z-18.457
N15785 Y34.894 Z-19.675
N15790 G3 X18.854 Y41.393 Z-19.907 I-19. J0.
N15795 G1 X17.944 Y43.894 Z-20.
N15800 S2500
N15805 X18.854 Y41.393 F#100
N15810 G2 X20. Y34.894 I-17.854 J-6.498
N15815 G1 Y0.
N15820 G3 X21.2 Y-1.2 I1.2 J0. F#104
N15825 G1 X22.4
N15830 G18 G2 X23.6 Z-18.8 I0. K1.2
N15835 G0 Z11.
N15840 X-7. Y5.603
N15845 G1 Z1. F#103
N15850 Z-6.301 F#108
N15855 S2400
N15860 G19 G2 Y4.445 Z-7.5 J-1.2 K0. F#107
N15865 G1 Y0. Z-7.655
N15870 Y34.894 Z-8.874
N15875 G17 G2 X-5.854 Y41.393 Z-9.105 I19. J0.
N15880 G1 X-4.944 Y43.894 Z-9.198
N15885 X-5.854 Y41.393 Z-9.291
N15890 G3 X-7. Y34.894 Z-9.523 I17.854 J-6.498
N15895 G1 Y0. Z-10.741
N15900 Y34.894 Z-11.96
N15905 G2 X-5.854 Y41.393 Z-12.192 I19. J0.
N15910 G1 X-4.944 Y43.894 Z-12.285
N15915 X-5.854 Y41.393 Z-12.377
N15920 G3 X-7. Y34.894 Z-12.609 I17.854 J-6.498
N15925 G1 Y0. Z-13.828
N15930 Y34.894 Z-15.046
N15935 G2 X-5.854 Y41.393 Z-15.278 I19. J0.
N15940 G1 X-4.944 Y43.894 Z-15.371
N15945 X-5.854 Y41.393 Z-15.464
N15950 G3 X-7. Y34.894 Z-15.695 I17.854 J-6.498
N15955 G1 Y0. Z-16.914
N15960 Y34.894 Z-18.132
N15965 G2 X-5.854 Y41.393 Z-18.364 I19. J0.
N15970 G1 X-4.944 Y43.894 Z-18.457
N15975 X-5.854 Y41.393 Z-18.55
N15980 G3 X-7. Y34.894 Z-18.781 I17.854 J-6.498
N15985 G1 Y0. Z-20.
N15990 S2500
N15995 Y34.894 F#100
N16000 G2 X-5.854 Y41.393 I19. J0.
N16005 G1 X-4.944 Y43.894
N16010 G3 X-5.661 Y45.432 I-1.128 J0.41 F#104
N16015 G1 X-6.789 Y45.843
N16020 X-6.915 Y45.889 Z-19.992
N16025 X-7.039 Y45.934 Z-19.97
N16030 X-7.161 Y45.978 Z-19.933
N16035 X-7.278 Y46.021 Z-19.881
N16040 X-7.388 Y46.061 Z-19.816
N16045 X-7.492 Y46.098 Z-19.738
N16050 X-7.586 Y46.133 Z-19.649
N16055 X-7.67 Y46.163 Z-19.548
N16060 X-7.743 Y46.19 Z-19.438
N16065 X-7.804 Y46.212 Z-19.321
N16070 X-7.853 Y46.23 Z-19.196
N16075 X-7.888 Y46.243 Z-19.067
N16080 X-7.909 Y46.25 Z-18.934
N16085 X-7.916 Y46.253 Z-18.8
N16090 G0 Z11.
N16095 X13.384 Y52.096
N16100 G1 Z1. F#103
N16105 Z-6.301 F#108
N16110 S2400
N16115 X13.381 Y52.099 Z-6.398 F#107
N16120 X13.373 Y52.108 Z-6.494
N16125 X13.36 Y52.122 Z-6.589
N16130 X13.341 Y52.141 Z-6.682
N16135 X13.318 Y52.166 Z-6.773
N16140 X13.289 Y52.196 Z-6.86
N16145 X13.254 Y52.231 Z-6.944
N16150 X13.215 Y52.27 Z-7.024
N16155 X13.171 Y52.313 Z-7.099
N16160 X13.123 Y52.359 Z-7.169
N16165 X13.096 Y52.384 Z-7.201
N16170 X13.069 Y52.409 Z-7.233
N16175 X13.041 Y52.435 Z-7.262
N16180 X13.012 Y52.461 Z-7.291
N16185 X12.981 Y52.489 Z-7.316
N16190 X12.95 Y52.516 Z-7.342
N16195 X12.918 Y52.544 Z-7.365
N16200 X12.885 Y52.572 Z-7.387
N16205 X12.851 Y52.601 Z-7.406
N16210 X12.817 Y52.63 Z-7.425
N16215 X12.781 Y52.659 Z-7.44
N16220 X12.745 Y52.688 Z-7.455
N16225 X12.708 Y52.717 Z-7.466
N16230 X12.671 Y52.746 Z-7.478
N16235 X12.633 Y52.775 Z-7.485
N16240 X12.595 Y52.804 Z-7.493
N16245 X12.556 Y52.833 Z-7.496
N16250 X12.517 Y52.861 Z-7.5
N16255 G3 X9. Y54. Z-7.631 I-3.517 J-4.861
N16260 G1 X4. Z-7.806
N16265 G3 X-1.638 Y50.052 Z-8.062 I0. J-6.
N16270 G1 X-1.754 Y49.733 Z-8.074
N16275 X-1.843 Y49.49 Z-8.083
N16280 X-1.955 Y49.181 Z-8.094
N16285 X-2.421 Y47.901 Z-8.142
N16290 X-3.042 Y46.196 Z-8.205
N16295 X-3.757 Y44.232 Z-8.278
N16300 X-4.004 Y43.552 Z-8.303
N16305 X-3.757 Y44.232 Z-8.329
N16310 X-3.042 Y46.196 Z-8.402
N16315 X-2.421 Y47.901 Z-8.465
N16320 X-1.955 Y49.181 Z-8.513
N16325 X-1.843 Y49.49 Z-8.524
N16330 X-1.69 Y49.91 Z-8.54
N16335 X-1.638 Y50.052 Z-8.545
N16340 G2 X4. Y54. Z-8.801 I5.638 J-2.052
N16345 G1 X9. Z-8.975
N16350 G2 X14.638 Y50.052 Z-9.231 I0. J-6.
N16355 G1 X14.69 Y49.911 Z-9.237
N16360 X14.754 Y49.734 Z-9.243
N16365 X14.843 Y49.49 Z-9.252
N16370 X14.955 Y49.182 Z-9.264
N16375 X15.421 Y47.901 Z-9.311
N16380 X15.821 Y46.802 Z-9.352
N16385 X16.042 Y46.196 Z-9.375
N16390 X17.004 Y43.552 Z-9.473
N16395 X16.512 Y44.904 Z-9.523
N16400 X16.042 Y46.196 Z-9.571
N16405 X15.821 Y46.802 Z-9.594
N16410 X15.246 Y48.382 Z-9.653
N16415 X14.955 Y49.182 Z-9.682
N16420 X14.843 Y49.49 Z-9.694
N16425 X14.754 Y49.734 Z-9.703
N16430 X14.638 Y50.052 Z-9.715
N16435 G3 X9. Y54. Z-9.971 I-5.638 J-2.052
N16440 G1 X4. Z-10.145
N16445 G3 X-1.638 Y50.052 Z-10.401 I0. J-6.
N16450 G1 X-1.754 Y49.733 Z-10.413
N16455 X-1.843 Y49.49 Z-10.422
N16460 X-1.955 Y49.181 Z-10.434
N16465 X-2.421 Y47.901 Z-10.481
N16470 X-3.042 Y46.196 Z-10.544
N16475 X-3.757 Y44.232 Z-10.617
N16480 X-4.004 Y43.552 Z-10.643
N16485 X-3.757 Y44.232 Z-10.668
N16490 X-3.042 Y46.196 Z-10.741
N16495 X-2.421 Y47.901 Z-10.804
N16500 X-1.955 Y49.181 Z-10.852
N16505 X-1.843 Y49.49 Z-10.863
N16510 X-1.69 Y49.91 Z-10.879
N16515 X-1.638 Y50.052 Z-10.884
N16520 G2 X4. Y54. Z-11.14 I5.638 J-2.052
N16525 G1 X9. Z-11.315
N16530 G2 X14.638 Y50.052 Z-11.571 I0. J-6.
N16535 G1 X14.69 Y49.911 Z-11.576
N16540 X14.754 Y49.734 Z-11.583
N16545 X14.843 Y49.49 Z-11.592
N16550 X14.955 Y49.182 Z-11.603
N16555 X15.421 Y47.901 Z-11.651
N16560 X15.821 Y46.802 Z-11.692
N16565 X16.042 Y46.196 Z-11.714
N16570 X17.004 Y43.552 Z-11.812
N16575 X16.512 Y44.904 Z-11.863
N16580 X16.042 Y46.196 Z-11.911
N16585 X15.821 Y46.802 Z-11.933
N16590 X15.246 Y48.382 Z-11.992
N16595 X14.955 Y49.182 Z-12.022
N16600 X14.843 Y49.49 Z-12.033
N16605 X14.754 Y49.734 Z-12.042
N16610 X14.638 Y50.052 Z-12.054
N16615 G3 X9. Y54. Z-12.31 I-5.638 J-2.052
N16620 G1 X4. Z-12.484
N16625 G3 X-1.638 Y50.052 Z-12.74 I0. J-6.
N16630 G1 X-1.754 Y49.733 Z-12.752
N16635 X-1.843 Y49.49 Z-12.761
N16640 X-1.955 Y49.181 Z-12.773
N16645 X-2.421 Y47.901 Z-12.82
N16650 X-3.042 Y46.196 Z-12.884
N16655 X-3.757 Y44.232 Z-12.957
N16660 X-4.004 Y43.552 Z-12.982
N16665 X-3.757 Y44.232 Z-13.007
N16670 X-3.042 Y46.196 Z-13.08
N16675 X-2.421 Y47.901 Z-13.144
N16680 X-1.955 Y49.181 Z-13.191
N16685 X-1.843 Y49.49 Z-13.203
N16690 X-1.69 Y49.91 Z-13.218
N16695 X-1.638 Y50.052 Z-13.224
N16700 G2 X4. Y54. Z-13.48 I5.638 J-2.052
N16705 G1 X9. Z-13.654
N16710 G2 X14.638 Y50.052 Z-13.91 I0. J-6.
N16715 G1 X14.69 Y49.911 Z-13.915
N16720 X14.754 Y49.734 Z-13.922
N16725 X14.843 Y49.49 Z-13.931
N16730 X14.955 Y49.182 Z-13.942
N16735 X15.421 Y47.901 Z-13.99
N16740 X15.821 Y46.802 Z-14.031
N16745 X16.042 Y46.196 Z-14.053
N16750 X17.004 Y43.552 Z-14.152
N16755 X16.512 Y44.904 Z-14.202
N16760 X16.042 Y46.196 Z-14.25
N16765 X15.821 Y46.802 Z-14.272
N16770 X15.246 Y48.382 Z-14.331
N16775 X14.955 Y49.182 Z-14.361
N16780 X14.843 Y49.49 Z-14.372
N16785 X14.754 Y49.734 Z-14.381
N16790 X14.638 Y50.052 Z-14.393
N16795 G3 X9. Y54. Z-14.649 I-5.638 J-2.052
N16800 G1 X4. Z-14.824
N16805 G3 X-1.638 Y50.052 Z-15.08 I0. J-6.
N16810 G1 X-1.754 Y49.733 Z-15.092
N16815 X-1.843 Y49.49 Z-15.101
N16820 X-1.955 Y49.181 Z-15.112
N16825 X-2.421 Y47.901 Z-15.16
N16830 X-3.042 Y46.196 Z-15.223
N16835 X-3.757 Y44.232 Z-15.296
N16840 X-4.004 Y43.552 Z-15.321
N16845 X-3.757 Y44.232 Z-15.347
N16850 X-3.042 Y46.196 Z-15.42
N16855 X-2.421 Y47.901 Z-15.483
N16860 X-1.955 Y49.181 Z-15.531
N16865 X-1.843 Y49.49 Z-15.542
N16870 X-1.754 Y49.733 Z-15.551
N16875 X-1.638 Y50.052 Z-15.563
N16880 G2 X4. Y54. Z-15.819 I5.638 J-2.052
N16885 G1 X9. Z-15.993
N16890 G2 X14.638 Y50.052 Z-16.249 I0. J-6.
N16895 G1 X14.69 Y49.911 Z-16.255
N16900 X14.754 Y49.734 Z-16.261
N16905 X14.843 Y49.49 Z-16.27
N16910 X14.955 Y49.182 Z-16.282
N16915 X15.421 Y47.901 Z-16.329
N16920 X15.821 Y46.802 Z-16.37
N16925 X16.042 Y46.196 Z-16.393
N16930 X17.004 Y43.552 Z-16.491
N16935 X16.512 Y44.904 Z-16.541
N16940 X16.042 Y46.196 Z-16.589
N16945 X15.821 Y46.802 Z-16.612
N16950 X15.246 Y48.382 Z-16.671
N16955 X14.955 Y49.182 Z-16.7
N16960 X14.843 Y49.49 Z-16.712
N16965 X14.754 Y49.734 Z-16.721
N16970 X14.638 Y50.052 Z-16.733
N16975 G3 X9. Y54. Z-16.989 I-5.638 J-2.052
N16980 G1 X4. Z-17.163
N16985 G3 X-1.638 Y50.052 Z-17.419 I0. J-6.
N16990 G1 X-1.754 Y49.733 Z-17.431
N16995 X-1.843 Y49.49 Z-17.44
N17000 X-1.955 Y49.181 Z-17.451
N17005 X-2.421 Y47.901 Z-17.499
N17010 X-3.042 Y46.196 Z-17.562
N17015 X-3.757 Y44.232 Z-17.635
N17020 X-4.004 Y43.552 Z-17.661
N17025 X-3.757 Y44.232 Z-17.686
N17030 X-3.042 Y46.196 Z-17.759
N17035 X-2.421 Y47.901 Z-17.822
N17040 X-1.955 Y49.181 Z-17.87
N17045 X-1.843 Y49.49 Z-17.881
N17050 X-1.754 Y49.733 Z-17.89
N17055 X-1.638 Y50.052 Z-17.902
N17060 G2 X4. Y54. Z-18.158 I5.638 J-2.052
N17065 G1 X9. Z-18.333
N17070 G2 X14.638 Y50.052 Z-18.589 I0. J-6.
N17075 G1 X14.69 Y49.911 Z-18.594
N17080 X14.754 Y49.734 Z-18.601
N17085 X14.843 Y49.49 Z-18.61
N17090 X14.955 Y49.182 Z-18.621
N17095 X15.421 Y47.901 Z-18.669
N17100 X15.821 Y46.802 Z-18.71
N17105 X16.042 Y46.196 Z-18.732
N17110 X17.004 Y43.552 Z-18.83
N17115 X16.512 Y44.904 Z-18.881
N17120 X16.042 Y46.196 Z-18.929
N17125 X15.821 Y46.802 Z-18.951
N17130 X15.246 Y48.382 Z-19.01
N17135 X14.955 Y49.182 Z-19.04
N17140 X14.843 Y49.49 Z-19.051
N17145 X14.754 Y49.734 Z-19.06
N17150 X14.638 Y50.052 Z-19.072
N17155 G3 X9. Y54. Z-19.328 I-5.638 J-2.052
N17160 G1 X4. Z-19.502
N17165 G3 X-1.638 Y50.052 Z-19.758 I0. J-6.
N17170 G1 X-1.754 Y49.733 Z-19.77
N17175 X-1.843 Y49.49 Z-19.779
N17180 X-1.955 Y49.181 Z-19.791
N17185 X-2.421 Y47.901 Z-19.838
N17190 X-3.042 Y46.196 Z-19.902
N17195 X-3.757 Y44.232 Z-19.975
N17200 X-4.004 Y43.552 Z-20.
N17205 S2500
N17210 X-3.757 Y44.232 F#102
N17215 X-3.042 Y46.196
N17220 X-2.421 Y47.901
N17225 X-1.955 Y49.181
N17230 X-1.843 Y49.49
N17235 X-1.638 Y50.052
N17240 G2 X4. Y54. I5.638 J-2.052
N17245 G1 X9.
N17250 G2 X14.638 Y50.052 I0. J-6.
N17255 G1 X14.69 Y49.911
N17260 X14.754 Y49.734
N17265 X14.843 Y49.49
N17270 X14.955 Y49.182
N17275 X15.421 Y47.901
N17280 X15.821 Y46.802
N17285 X16.042 Y46.196
N17290 X17.004 Y43.552
N17295 G3 X18.542 Y42.835 I1.128 J0.41 F#104
N17300 G1 X19.67 Y43.246
N17305 X19.796 Y43.291 Z-19.992
N17310 X19.921 Y43.337 Z-19.97
N17315 X20.042 Y43.381 Z-19.933
N17320 X20.159 Y43.424 Z-19.881
N17325 X20.27 Y43.464 Z-19.816
N17330 X20.373 Y43.501 Z-19.738
N17335 X20.467 Y43.536 Z-19.649
N17340 X20.551 Y43.566 Z-19.548
N17345 X20.624 Y43.593 Z-19.438
N17350 X20.686 Y43.615 Z-19.321
N17355 X20.734 Y43.633 Z-19.196
N17360 X20.769 Y43.646 Z-19.067
N17365 X20.79 Y43.653 Z-18.934
N17370 X20.797 Y43.656 Z-18.8
N17375 Z-6.301
N17380 X18.992 Y35.444
N17385 S2400
N17390 X18.991 Y35.448 Z-6.398 F#107
N17395 Y35.46 Z-6.494
N17400 X18.99 Y35.479 Z-6.589
N17405 Y35.506 Z-6.682
N17410 X18.988 Y35.541 Z-6.773
N17415 X18.987 Y35.582 Z-6.86
N17420 X18.985 Y35.631 Z-6.944
N17425 X18.983 Y35.686 Z-7.024
N17430 X18.98 Y35.747 Z-7.099
N17435 X18.976 Y35.815 Z-7.169
N17440 X18.973 Y35.887 Z-7.233
N17445 X18.968 Y35.965 Z-7.291
N17450 X18.963 Y36.047 Z-7.342
N17455 X18.957 Y36.133 Z-7.387
N17460 X18.951 Y36.222 Z-7.425
N17465 X18.944 Y36.314 Z-7.455
N17470 X18.936 Y36.408 Z-7.478
N17475 X18.928 Y36.503 Z-7.493
N17480 X18.919 Y36.6 Z-7.5
N17485 G3 X17.914 Y41.051 Z-7.66 I-17.919 J-1.705
N17490 G1 X17.004 Y43.552 Z-7.753
N17495 X17.914 Y41.051 Z-7.846
N17500 G2 X19. Y34.894 Z-8.065 I-16.914 J-6.156
N17505 G1 Y0. Z-9.284
N17510 Y34.894 Z-10.502
N17515 G3 X17.914 Y41.051 Z-10.722 I-18. J0.
N17520 G1 X17.004 Y43.552 Z-10.815
N17525 X17.914 Y41.051 Z-10.908
N17530 G2 X19. Y34.894 Z-11.127 I-16.914 J-6.156
N17535 G1 Y0. Z-12.345
N17540 Y34.894 Z-13.564
N17545 G3 X17.914 Y41.051 Z-13.783 I-18. J0.
N17550 G1 X17.004 Y43.552 Z-13.876
N17555 X17.914 Y41.051 Z-13.969
N17560 G2 X19. Y34.894 Z-14.189 I-16.914 J-6.156
N17565 G1 Y0. Z-15.407
N17570 Y34.894 Z-16.626
N17575 G3 X17.914 Y41.051 Z-16.845 I-18. J0.
N17580 G1 X17.004 Y43.552 Z-16.938
N17585 X17.914 Y41.051 Z-17.031
N17590 G2 X19. Y34.894 Z-17.251 I-16.914 J-6.156
N17595 G1 Y0. Z-18.469
N17600 Y34.894 Z-19.688
N17605 G3 X17.914 Y41.051 Z-19.907 I-18. J0.
N17610 G1 X17.004 Y43.552 Z-20.
N17615 S2500
N17620 X17.914 Y41.051 F#102
N17625 G2 X19. Y34.894 I-16.914 J-6.156
N17630 G1 Y0.
N17635 G3 X20.2 Y-1.2 I1.2 J0. F#104
N17640 G1 X21.4
N17645 G18 G2 X22.6 Z-18.8 I0. K1.2
N17650 G0 Z11.
N17655 X-6. Y8.395
N17660 G1 Z1. F#103
N17665 Z-6.301 F#108
N17670 S2400
N17675 G19 G2 Y7.237 Z-7.5 J-1.2 K0. F#107
N17680 G1 Y0. Z-7.753
N17685 Y34.894 Z-8.971
N17690 G17 G2 X-4.914 Y41.051 Z-9.191 I18. J0.
N17695 G1 X-4.004 Y43.552 Z-9.284
N17700 X-4.914 Y41.051 Z-9.377
N17705 G3 X-6. Y34.894 Z-9.596 I16.914 J-6.156
N17710 G1 Y0. Z-10.815
N17715 Y34.894 Z-12.033
N17720 G2 X-4.914 Y41.051 Z-12.252 I18. J0.
N17725 G1 X-4.004 Y43.552 Z-12.345
N17730 X-4.914 Y41.051 Z-12.438
N17735 G3 X-6. Y34.894 Z-12.658 I16.914 J-6.156
N17740 G1 Y0. Z-13.876
N17745 Y34.894 Z-15.095
N17750 G2 X-4.914 Y41.051 Z-15.314 I18. J0.
N17755 G1 X-4.004 Y43.552 Z-15.407
N17760 X-4.914 Y41.051 Z-15.5
N17765 G3 X-6. Y34.894 Z-15.72 I16.914 J-6.156
N17770 G1 Y0. Z-16.938
N17775 Y34.894 Z-18.157
N17780 G2 X-4.914 Y41.051 Z-18.376 I18. J0.
N17785 G1 X-4.004 Y43.552 Z-18.469
N17790 X-4.914 Y41.051 Z-18.562
N17795 G3 X-6. Y34.894 Z-18.781 I16.914 J-6.156
N17800 G1 Y0. Z-20.
N17805 S2500
N17810 Y34.894 F#102
N17815 G2 X-4.914 Y41.051 I18. J0.
N17820 G1 X-4.004 Y43.552
N17825 G3 X-4.721 Y45.09 I-1.128 J0.41 F#104
N17830 G1 X-5.849 Y45.501
N17835 X-5.975 Y45.547 Z-19.992
N17840 X-6.1 Y45.592 Z-19.97
N17845 X-6.221 Y45.636 Z-19.933
N17850 X-6.338 Y45.679 Z-19.881
N17855 X-6.449 Y45.719 Z-19.816
N17860 X-6.552 Y45.756 Z-19.738
N17865 X-6.646 Y45.791 Z-19.649
N17870 X-6.73 Y45.821 Z-19.548
N17875 X-6.804 Y45.848 Z-19.438
N17880 X-6.865 Y45.87 Z-19.321
N17885 X-6.913 Y45.888 Z-19.196
N17890 X-6.948 Y45.901 Z-19.067
N17895 X-6.969 Y45.908 Z-18.934
N17900 X-6.976 Y45.911 Z-18.8
N17905 G0 Z11.
N17910 X13.384 Y52.096
N17915 G1 Z1. F#103
N17920 Z-6.301 F#108
N17925 S2400
N17930 X13.381 Y52.099 Z-6.398 F#107
N17935 X13.373 Y52.108 Z-6.494
N17940 X13.36 Y52.122 Z-6.589
N17945 X13.341 Y52.141 Z-6.682
N17950 X13.318 Y52.166 Z-6.773
N17955 X13.289 Y52.196 Z-6.86
N17960 X13.254 Y52.231 Z-6.944
N17965 X13.215 Y52.27 Z-7.024
N17970 X13.171 Y52.313 Z-7.099
N17975 X13.123 Y52.359 Z-7.169
N17980 X13.096 Y52.384 Z-7.201
N17985 X13.069 Y52.409 Z-7.233
N17990 X13.041 Y52.435 Z-7.262
N17995 X13.012 Y52.461 Z-7.291
N18000 X12.981 Y52.489 Z-7.316
N18005 X12.95 Y52.516 Z-7.342
N18010 X12.918 Y52.544 Z-7.365
N18015 X12.885 Y52.572 Z-7.387
N18020 X12.851 Y52.601 Z-7.406
N18025 X12.817 Y52.63 Z-7.425
N18030 X12.781 Y52.659 Z-7.44
N18035 X12.745 Y52.688 Z-7.455
N18040 X12.708 Y52.717 Z-7.466
N18045 X12.671 Y52.746 Z-7.478
N18050 X12.633 Y52.775 Z-7.485
N18055 X12.595 Y52.804 Z-7.493
N18060 X12.556 Y52.833 Z-7.496
N18065 X12.517 Y52.861 Z-7.5
N18070 G3 X9. Y54. Z-7.631 I-3.517 J-4.861
N18075 G1 X4. Z-7.806
N18080 G3 X-1.638 Y50.052 Z-8.062 I0. J-6.
N18085 G1 X-1.754 Y49.733 Z-8.074
N18090 X-1.843 Y49.49 Z-8.083
N18095 X-1.955 Y49.181 Z-8.094
N18100 X-2.421 Y47.901 Z-8.142
N18105 X-3.042 Y46.196 Z-8.205
N18110 X-3.757 Y44.232 Z-8.278
N18115 X-4.004 Y43.552 Z-8.303
N18120 X-3.757 Y44.232 Z-8.329
N18125 X-3.042 Y46.196 Z-8.402
N18130 X-2.421 Y47.901 Z-8.465
N18135 X-1.955 Y49.181 Z-8.513
N18140 X-1.843 Y49.49 Z-8.524
N18145 X-1.69 Y49.91 Z-8.54
N18150 X-1.638 Y50.052 Z-8.545
N18155 G2 X4. Y54. Z-8.801 I5.638 J-2.052
N18160 G1 X9. Z-8.975
N18165 G2 X14.638 Y50.052 Z-9.231 I0. J-6.
N18170 G1 X14.69 Y49.911 Z-9.237
N18175 X14.754 Y49.734 Z-9.243
N18180 X14.843 Y49.49 Z-9.252
N18185 X14.955 Y49.182 Z-9.264
N18190 X15.421 Y47.901 Z-9.311
N18195 X15.821 Y46.802 Z-9.352
N18200 X16.042 Y46.196 Z-9.375
N18205 X17.004 Y43.552 Z-9.473
N18210 X16.512 Y44.904 Z-9.523
N18215 X16.042 Y46.196 Z-9.571
N18220 X15.821 Y46.802 Z-9.594
N18225 X15.246 Y48.382 Z-9.653
N18230 X14.955 Y49.182 Z-9.682
N18235 X14.843 Y49.49 Z-9.694
N18240 X14.754 Y49.734 Z-9.703
N18245 X14.638 Y50.052 Z-9.715
N18250 G3 X9. Y54. Z-9.971 I-5.638 J-2.052
N18255 G1 X4. Z-10.145
N18260 G3 X-1.638 Y50.052 Z-10.401 I0. J-6.
N18265 G1 X-1.754 Y49.733 Z-10.413
N18270 X-1.843 Y49.49 Z-10.422
N18275 X-1.955 Y49.181 Z-10.434
N18280 X-2.421 Y47.901 Z-10.481
N18285 X-3.042 Y46.196 Z-10.544
N18290 X-3.757 Y44.232 Z-10.617
N18295 X-4.004 Y43.552 Z-10.643
N18300 X-3.757 Y44.232 Z-10.668
N18305 X-3.042 Y46.196 Z-10.741
N18310 X-2.421 Y47.901 Z-10.804
N18315 X-1.955 Y49.181 Z-10.852
N18320 X-1.843 Y49.49 Z-10.863
N18325 X-1.69 Y49.91 Z-10.879
N18330 X-1.638 Y50.052 Z-10.884
N18335 G2 X4. Y54. Z-11.14 I5.638 J-2.052
N18340 G1 X9. Z-11.315
N18345 G2 X14.638 Y50.052 Z-11.571 I0. J-6.
N18350 G1 X14.69 Y49.911 Z-11.576
N18355 X14.754 Y49.734 Z-11.583
N18360 X14.843 Y49.49 Z-11.592
N18365 X14.955 Y49.182 Z-11.603
N18370 X15.421 Y47.901 Z-11.651
N18375 X15.821 Y46.802 Z-11.692
N18380 X16.042 Y46.196 Z-11.714
N18385 X17.004 Y43.552 Z-11.812
N18390 X16.512 Y44.904 Z-11.863
N18395 X16.042 Y46.196 Z-11.911
N18400 X15.821 Y46.802 Z-11.933
N18405 X15.246 Y48.382 Z-11.992
N18410 X14.955 Y49.182 Z-12.022
N18415 X14.843 Y49.49 Z-12.033
N18420 X14.754 Y49.734 Z-12.042
N18425 X14.638 Y50.052 Z-12.054
N18430 G3 X9. Y54. Z-12.31 I-5.638 J-2.052
N18435 G1 X4. Z-12.484
N18440 G3 X-1.638 Y50.052 Z-12.74 I0. J-6.
N18445 G1 X-1.754 Y49.733 Z-12.752
N18450 X-1.843 Y49.49 Z-12.761
N18455 X-1.955 Y49.181 Z-12.773
N18460 X-2.421 Y47.901 Z-12.82
N18465 X-3.042 Y46.196 Z-12.884
N18470 X-3.757 Y44.232 Z-12.957
N18475 X-4.004 Y43.552 Z-12.982
N18480 X-3.757 Y44.232 Z-13.007
N18485 X-3.042 Y46.196 Z-13.08
N18490 X-2.421 Y47.901 Z-13.144
N18495 X-1.955 Y49.181 Z-13.191
N18500 X-1.843 Y49.49 Z-13.203
N18505 X-1.69 Y49.91 Z-13.218
N18510 X-1.638 Y50.052 Z-13.224
N18515 G2 X4. Y54. Z-13.48 I5.638 J-2.052
N18520 G1 X9. Z-13.654
N18525 G2 X14.638 Y50.052 Z-13.91 I0. J-6.
N18530 G1 X14.69 Y49.911 Z-13.915
N18535 X14.754 Y49.734 Z-13.922
N18540 X14.843 Y49.49 Z-13.931
N18545 X14.955 Y49.182 Z-13.942
N18550 X15.421 Y47.901 Z-13.99
N18555 X15.821 Y46.802 Z-14.031
N18560 X16.042 Y46.196 Z-14.053
N18565 X17.004 Y43.552 Z-14.152
N18570 X16.512 Y44.904 Z-14.202
N18575 X16.042 Y46.196 Z-14.25
N18580 X15.821 Y46.802 Z-14.272
N18585 X15.246 Y48.382 Z-14.331
N18590 X14.955 Y49.182 Z-14.361
N18595 X14.843 Y49.49 Z-14.372
N18600 X14.754 Y49.734 Z-14.381
N18605 X14.638 Y50.052 Z-14.393
N18610 G3 X9. Y54. Z-14.649 I-5.638 J-2.052
N18615 G1 X4. Z-14.824
N18620 G3 X-1.638 Y50.052 Z-15.08 I0. J-6.
N18625 G1 X-1.754 Y49.733 Z-15.092
N18630 X-1.843 Y49.49 Z-15.101
N18635 X-1.955 Y49.181 Z-15.112
N18640 X-2.421 Y47.901 Z-15.16
N18645 X-3.042 Y46.196 Z-15.223
N18650 X-3.757 Y44.232 Z-15.296
N18655 X-4.004 Y43.552 Z-15.321
N18660 X-3.757 Y44.232 Z-15.347
N18665 X-3.042 Y46.196 Z-15.42
N18670 X-2.421 Y47.901 Z-15.483
N18675 X-1.955 Y49.181 Z-15.531
N18680 X-1.843 Y49.49 Z-15.542
N18685 X-1.754 Y49.733 Z-15.551
N18690 X-1.638 Y50.052 Z-15.563
N18695 G2 X4. Y54. Z-15.819 I5.638 J-2.052
N18700 G1 X9. Z-15.993
N18705 G2 X14.638 Y50.052 Z-16.249 I0. J-6.
N18710 G1 X14.69 Y49.911 Z-16.255
N18715 X14.754 Y49.734 Z-16.261
N18720 X14.843 Y49.49 Z-16.27
N18725 X14.955 Y49.182 Z-16.282
N18730 X15.421 Y47.901 Z-16.329
N18735 X15.821 Y46.802 Z-16.37
N18740 X16.042 Y46.196 Z-16.393
N18745 X17.004 Y43.552 Z-16.491
N18750 X16.512 Y44.904 Z-16.541
N18755 X16.042 Y46.196 Z-16.589
N18760 X15.821 Y46.802 Z-16.612
N18765 X15.246 Y48.382 Z-16.671
N18770 X14.955 Y49.182 Z-16.7
N18775 X14.843 Y49.49 Z-16.712
N18780 X14.754 Y49.734 Z-16.721
N18785 X14.638 Y50.052 Z-16.733
N18790 G3 X9. Y54. Z-16.989 I-5.638 J-2.052
N18795 G1 X4. Z-17.163
N18800 G3 X-1.638 Y50.052 Z-17.419 I0. J-6.
N18805 G1 X-1.754 Y49.733 Z-17.431
N18810 X-1.843 Y49.49 Z-17.44
N18815 X-1.955 Y49.181 Z-17.451
N18820 X-2.421 Y47.901 Z-17.499
N18825 X-3.042 Y46.196 Z-17.562
N18830 X-3.757 Y44.232 Z-17.635
N18835 X-4.004 Y43.552 Z-17.661
N18840 X-3.757 Y44.232 Z-17.686
N18845 X-3.042 Y46.196 Z-17.759
N18850 X-2.421 Y47.901 Z-17.822
N18855 X-1.955 Y49.181 Z-17.87
N18860 X-1.843 Y49.49 Z-17.881
N18865 X-1.754 Y49.733 Z-17.89
N18870 X-1.638 Y50.052 Z-17.902
N18875 G2 X4. Y54. Z-18.158 I5.638 J-2.052
N18880 G1 X9. Z-18.333
N18885 G2 X14.638 Y50.052 Z-18.589 I0. J-6.
N18890 G1 X14.69 Y49.911 Z-18.594
N18895 X14.754 Y49.734 Z-18.601
N18900 X14.843 Y49.49 Z-18.61
N18905 X14.955 Y49.182 Z-18.621
N18910 X15.421 Y47.901 Z-18.669
N18915 X15.821 Y46.802 Z-18.71
N18920 X16.042 Y46.196 Z-18.732
N18925 X17.004 Y43.552 Z-18.83
N18930 X16.512 Y44.904 Z-18.881
N18935 X16.042 Y46.196 Z-18.929
N18940 X15.821 Y46.802 Z-18.951
N18945 X15.246 Y48.382 Z-19.01
N18950 X14.955 Y49.182 Z-19.04
N18955 X14.843 Y49.49 Z-19.051
N18960 X14.754 Y49.734 Z-19.06
N18965 X14.638 Y50.052 Z-19.072
N18970 G3 X9. Y54. Z-19.328 I-5.638 J-2.052
N18975 G1 X4. Z-19.502
N18980 G3 X-1.638 Y50.052 Z-19.758 I0. J-6.
N18985 G1 X-1.754 Y49.733 Z-19.77
N18990 X-1.843 Y49.49 Z-19.779
N18995 X-1.955 Y49.181 Z-19.791
N19000 X-2.421 Y47.901 Z-19.838
N19005 X-3.042 Y46.196 Z-19.902
N19010 X-3.757 Y44.232 Z-19.975
N19015 X-4.004 Y43.552 Z-20.
N19020 S2500
N19025 X-3.757 Y44.232 F#102
N19030 X-3.042 Y46.196
N19035 X-2.421 Y47.901
N19040 X-1.955 Y49.181
N19045 X-1.843 Y49.49
N19050 X-1.638 Y50.052
N19055 G2 X4. Y54. I5.638 J-2.052
N19060 G1 X9.
N19065 G2 X14.638 Y50.052 I0. J-6.
N19070 G1 X14.69 Y49.911
N19075 X14.754 Y49.734
N19080 X14.843 Y49.49
N19085 X14.955 Y49.182
N19090 X15.421 Y47.901
N19095 X15.821 Y46.802
N19100 X16.042 Y46.196
