%
(T6  D=12. CR=0. - ZMIN=-21. - FLAT END MILL)
N10 G90 G94 G17 G91.1
N15 G21
N20 G53 G0 Z0.
(2D CONTOUR2)
N25 M9
N30 T6 M6
N35 S2500 M3
N40 G54
N45 M9
N55 G0 X-1.719 Y-0.543
N60 G43 Z4. H6
N65 #102=300. (FINISH)
N70 #103=200. (ENTRY)
N75 #104=200. (EXIT)
N80 #108=45. (PLUNGE)
N85 G0 Z3.
N90 G1 Z0. F#103
N95 Z-17. F#108
N100 X-1.726 Y-0.545 Z-17.251
N105 X-1.749 Y-0.553 Z-17.501
N110 X-1.786 Y-0.567 Z-17.75
N115 X-1.837 Y-0.586 Z-17.995
N120 X-1.903 Y-0.61 Z-18.236
N125 X-1.983 Y-0.639 Z-18.472
N130 X-2.077 Y-0.673 Z-18.703
N135 X-2.184 Y-0.712 Z-18.927
N140 X-2.304 Y-0.756 Z-19.143
N145 X-2.437 Y-0.804 Z-19.351
N150 X-2.582 Y-0.857 Z-19.55
N155 X-2.738 Y-0.913 Z-19.738
N160 X-2.905 Y-0.974 Z-19.916
N165 X-3.082 Y-1.039 Z-20.082
N170 X-3.268 Y-1.106 Z-20.236
N175 X-3.464 Y-1.178 Z-20.377
N180 X-3.667 Y-1.252 Z-20.505
N185 X-3.877 Y-1.328 Z-20.619
N190 X-4.094 Y-1.407 Z-20.719
N195 X-4.316 Y-1.488 Z-20.804
N200 X-4.543 Y-1.57 Z-20.874
N205 X-4.773 Y-1.654 Z-20.929
N210 X-5.007 Y-1.739 Z-20.968
N215 X-5.242 Y-1.825 Z-20.992
N220 X-5.478 Y-1.911 Z-21.
N225 X-6.605 Y-2.321 F#103
N230 G3 X-8.996 Y-7.448 I1.368 J-3.759
N235 G1 X-8.086 Y-9.949 F#102
N240 G2 X-7. Y-16.106 I-16.914 J-6.156
N245 G1 Y-51.
N250 G3 X-3. Y-55. I4. J0. F#104
N255 G1 X-1.8
N260 G18 G2 X2.2 Z-17. I0. K4.
N265 G0 Z3.
N270 X-41.2
N275 G1 Z0. F#103
N280 Z-17. F#108
N285 G2 X-37.2 Z-21. I4. K0.
N290 G1 X-36. F#103
N295 G17 G3 X-32. Y-51. I0. J4.
N300 G1 Y-16.106 F#102
N305 G2 X-30.914 Y-9.949 I18. J0.
N310 G1 X-30.004 Y-7.448
N315 G3 X-32.395 Y-2.321 I-3.759 J1.368 F#104
N320 G1 X-33.522 Y-1.911
N325 X-33.758 Y-1.825 Z-20.992
N330 X-33.993 Y-1.739 Z-20.968
N335 X-34.227 Y-1.654 Z-20.929
N340 X-34.457 Y-1.57 Z-20.874
N345 X-34.684 Y-1.488 Z-20.804
N350 X-34.906 Y-1.407 Z-20.719
N355 X-35.123 Y-1.328 Z-20.619
N360 X-35.333 Y-1.252 Z-20.505
N365 X-35.536 Y-1.178 Z-20.377
N370 X-35.732 Y-1.106 Z-20.236
N375 X-35.918 Y-1.039 Z-20.082
N380 X-36.095 Y-0.974 Z-19.916
N385 X-36.262 Y-0.913 Z-19.738
N390 X-36.418 Y-0.857 Z-19.55
N395 X-36.563 Y-0.804 Z-19.351
N400 X-36.696 Y-0.756 Z-19.143
N405 X-36.816 Y-0.712 Z-18.927
N410 X-36.923 Y-0.673 Z-18.703
N415 X-37.017 Y-0.639 Z-18.472
N420 X-37.097 Y-0.61 Z-18.236
N425 X-37.163 Y-0.586 Z-17.995
N430 X-37.214 Y-0.567 Z-17.75
N435 X-37.251 Y-0.553 Z-17.501
N440 X-37.274 Y-0.545 Z-17.251
N445 X-37.281 Y-0.543 Z-17.
N450 X-40.017 Y-8.06
N455 X-40.01 Y-8.063 Z-17.251 F#108
N460 X-39.988 Y-8.071 Z-17.501
N465 X-39.951 Y-8.084 Z-17.75
N470 X-39.899 Y-8.103 Z-17.995
N475 X-39.833 Y-8.127 Z-18.236
N480 X-39.753 Y-8.156 Z-18.472
N485 X-39.659 Y-8.19 Z-18.703
N490 X-39.552 Y-8.229 Z-18.927
N495 X-39.432 Y-8.273 Z-19.143
N500 X-39.299 Y-8.321 Z-19.351
N505 X-39.155 Y-8.374 Z-19.55
N510 X-38.998 Y-8.431 Z-19.738
N515 X-38.831 Y-8.492 Z-19.916
N520 X-38.654 Y-8.556 Z-20.082
N525 X-38.468 Y-8.624 Z-20.236
N530 X-38.272 Y-8.695 Z-20.377
N535 X-38.069 Y-8.769 Z-20.505
N540 X-37.859 Y-8.846 Z-20.619
N545 X-37.642 Y-8.924 Z-20.719
N550 X-37.42 Y-9.005 Z-20.804
N555 X-37.193 Y-9.088 Z-20.874
N560 X-36.963 Y-9.172 Z-20.929
N565 X-36.73 Y-9.257 Z-20.968
N570 X-36.494 Y-9.342 Z-20.992
N575 X-36.258 Y-9.428 Z-21.
N580 X-35.131 Y-9.839 F#103
N585 G3 X-30.004 Y-7.448 I1.368 J3.759
N590 G1 X-29.042 Y-4.804 F#102
N595 X-28.821 Y-4.198
N600 X-28.613 Y-3.627
N605 X-28.421 Y-3.099
N610 X-28.246 Y-2.617
N615 X-28.09 Y-2.189
N620 X-27.955 Y-1.817
N625 X-27.843 Y-1.51
N630 X-27.636 Y-0.942
N635 G2 X-22. Y3. I5.636 J-2.058
N640 G1 X-17.
N645 G2 X-11.364 Y-0.942 I0. J-6.
N650 G1 X-11.348 Y-0.985
N655 X-11.31 Y-1.091
N660 X-11.246 Y-1.267
N665 X-11.157 Y-1.51
N670 X-11.044 Y-1.82
N675 X-10.91 Y-2.189
N680 X-10.754 Y-2.617
N685 X-10.579 Y-3.099
N690 X-10.387 Y-3.627
N695 X-10.179 Y-4.198
N700 X-9.958 Y-4.804
N705 X-8.996 Y-7.448
N710 G3 X-3.869 Y-9.839 I3.759 J1.368 F#104
N715 G1 X-2.742 Y-9.428
N720 X-2.506 Y-9.342 Z-20.992
N725 X-2.27 Y-9.257 Z-20.968
N730 X-2.037 Y-9.172 Z-20.929
N735 X-1.807 Y-9.088 Z-20.874
N740 X-1.58 Y-9.005 Z-20.804
N745 X-1.358 Y-8.924 Z-20.719
N750 X-1.141 Y-8.846 Z-20.619
N755 X-0.931 Y-8.769 Z-20.505
N760 X-0.728 Y-8.695 Z-20.377
N765 X-0.532 Y-8.624 Z-20.236
N770 X-0.346 Y-8.556 Z-20.082
N775 X-0.169 Y-8.492 Z-19.916
N780 X-0.002 Y-8.431 Z-19.738
N785 X0.155 Y-8.374 Z-19.55
N790 X0.299 Y-8.321 Z-19.351
N795 X0.432 Y-8.273 Z-19.143
N800 X0.552 Y-8.229 Z-18.927
N805 X0.659 Y-8.19 Z-18.703
N810 X0.753 Y-8.156 Z-18.472
N815 X0.833 Y-8.127 Z-18.236
N820 X0.899 Y-8.103 Z-17.995
N825 X0.951 Y-8.084 Z-17.75
N830 X0.988 Y-8.071 Z-17.501
N835 X1.01 Y-8.063 Z-17.251
N840 X1.017 Y-8.06 Z-17.
N845 X-1.719 Y-0.543
N850 X-1.726 Y-0.545 Z-17.251 F#108
N855 X-1.749 Y-0.553 Z-17.501
N860 X-1.786 Y-0.567 Z-17.75
N865 X-1.837 Y-0.586 Z-17.995
N870 X-1.903 Y-0.61 Z-18.236
N875 X-1.983 Y-0.639 Z-18.472
N880 X-2.077 Y-0.673 Z-18.703
N885 X-2.184 Y-0.712 Z-18.927
N890 X-2.304 Y-0.756 Z-19.143
N895 X-2.437 Y-0.804 Z-19.351
N900 X-2.582 Y-0.857 Z-19.55
N905 X-2.738 Y-0.913 Z-19.738
N910 X-2.905 Y-0.974 Z-19.916
N915 X-3.082 Y-1.039 Z-20.082
N920 X-3.268 Y-1.106 Z-20.236
N925 X-3.464 Y-1.178 Z-20.377
N930 X-3.667 Y-1.252 Z-20.505
N935 X-3.877 Y-1.328 Z-20.619
N940 X-4.094 Y-1.407 Z-20.719
N945 X-4.316 Y-1.488 Z-20.804
N950 X-4.543 Y-1.57 Z-20.874
N955 X-4.773 Y-1.654 Z-20.929
N960 X-5.007 Y-1.739 Z-20.968
N965 X-5.242 Y-1.825 Z-20.992
N970 X-5.478 Y-1.911 Z-21.
N975 X-6.605 Y-2.321 F#103
N980 G3 X-8.996 Y-7.448 I1.368 J-3.759
N985 G1 X-8.086 Y-9.949 F#102
N990 G2 X-7. Y-16.106 I-16.914 J-6.156
N995 G1 Y-51.
N1000 G3 X-3. Y-55. I4. J0. F#104
N1005 G1 X-1.8
N1010 G18 G2 X2.2 Z-17. I0. K4.
N1015 G0 Z3.
N1020 X-41.2
N1025 G1 Z0. F#103
N1030 Z-17. F#108
N1035 G2 X-37.2 Z-21. I4. K0.
N1040 G1 X-36. F#103
N1045 G17 G3 X-32. Y-51. I0. J4.
N1050 G1 Y-16.106 F#102
N1055 G2 X-30.914 Y-9.949 I18. J0.
N1060 G1 X-30.004 Y-7.448
N1065 G3 X-32.395 Y-2.321 I-3.759 J1.368 F#104
N1070 G1 X-33.522 Y-1.911
N1075 X-33.758 Y-1.825 Z-20.992
N1080 X-33.993 Y-1.739 Z-20.968
N1085 X-34.227 Y-1.654 Z-20.929
N1090 X-34.457 Y-1.57 Z-20.874
N1095 X-34.684 Y-1.488 Z-20.804
N1100 X-34.906 Y-1.407 Z-20.719
N1105 X-35.123 Y-1.328 Z-20.619
N1110 X-35.333 Y-1.252 Z-20.505
N1115 X-35.536 Y-1.178 Z-20.377
N1120 X-35.732 Y-1.106 Z-20.236
N1125 X-35.918 Y-1.039 Z-20.082
N1130 X-36.095 Y-0.974 Z-19.916
N1135 X-36.262 Y-0.913 Z-19.738
N1140 X-36.418 Y-0.857 Z-19.55
N1145 X-36.563 Y-0.804 Z-19.351
N1150 X-36.696 Y-0.756 Z-19.143
N1155 X-36.816 Y-0.712 Z-18.927
N1160 X-36.923 Y-0.673 Z-18.703
N1165 X-37.017 Y-0.639 Z-18.472
N1170 X-37.097 Y-0.61 Z-18.236
N1175 X-37.163 Y-0.586 Z-17.995
N1180 X-37.214 Y-0.567 Z-17.75
N1185 X-37.251 Y-0.553 Z-17.501
N1190 X-37.274 Y-0.545 Z-17.251
N1195 X-37.281 Y-0.543 Z-17.
N1200 X-40.017 Y-8.06
N1205 X-40.01 Y-8.063 Z-17.251 F#108
N1210 X-39.988 Y-8.071 Z-17.501
N1215 X-39.951 Y-8.084 Z-17.75
N1220 X-39.899 Y-8.103 Z-17.995
N1225 X-39.833 Y-8.127 Z-18.236
N1230 X-39.753 Y-8.156 Z-18.472
N1235 X-39.659 Y-8.19 Z-18.703
N1240 X-39.552 Y-8.229 Z-18.927
N1245 X-39.432 Y-8.273 Z-19.143
N1250 X-39.299 Y-8.321 Z-19.351
N1255 X-39.155 Y-8.374 Z-19.55
N1260 X-38.998 Y-8.431 Z-19.738
N1265 X-38.831 Y-8.492 Z-19.916
N1270 X-38.654 Y-8.556 Z-20.082
N1275 X-38.468 Y-8.624 Z-20.236
N1280 X-38.272 Y-8.695 Z-20.377
N1285 X-38.069 Y-8.769 Z-20.505
N1290 X-37.859 Y-8.846 Z-20.619
N1295 X-37.642 Y-8.924 Z-20.719
N1300 X-37.42 Y-9.005 Z-20.804
N1305 X-37.193 Y-9.088 Z-20.874
N1310 X-36.963 Y-9.172 Z-20.929
N1315 X-36.73 Y-9.257 Z-20.968
N1320 X-36.494 Y-9.342 Z-20.992
N1325 X-36.258 Y-9.428 Z-21.
N1330 X-35.131 Y-9.839 F#103
N1335 G3 X-30.004 Y-7.448 I1.368 J3.759
N1340 G1 X-29.042 Y-4.804 F#102
N1345 X-28.821 Y-4.198
N1350 X-28.613 Y-3.627
N1355 X-28.421 Y-3.099
N1360 X-28.246 Y-2.617
N1365 X-28.09 Y-2.189
N1370 X-27.955 Y-1.817
N1375 X-27.843 Y-1.51
N1380 X-27.636 Y-0.942
N1385 G2 X-22. Y3. I5.636 J-2.058
N1390 G1 X-17.
N1395 G2 X-11.364 Y-0.942 I0. J-6.
N1400 G1 X-11.348 Y-0.985
N1405 X-11.31 Y-1.091
N1410 X-11.246 Y-1.267
N1415 X-11.157 Y-1.51
N1420 X-11.044 Y-1.82
N1425 X-10.91 Y-2.189
N1430 X-10.754 Y-2.617
N1435 X-10.579 Y-3.099
N1440 X-10.387 Y-3.627
N1445 X-10.179 Y-4.198
N1450 X-9.958 Y-4.804
N1455 X-8.996 Y-7.448
N1460 G3 X-3.869 Y-9.839 I3.759 J1.368 F#104
N1465 G1 X-2.742 Y-9.428
N1470 X-2.506 Y-9.342 Z-20.992
N1475 X-2.27 Y-9.257 Z-20.968
N1480 X-2.037 Y-9.172 Z-20.929
N1485 X-1.807 Y-9.088 Z-20.874
N1490 X-1.58 Y-9.005 Z-20.804
N1495 X-1.358 Y-8.924 Z-20.719
N1500 X-1.141 Y-8.846 Z-20.619
N1505 X-0.931 Y-8.769 Z-20.505
N1510 X-0.728 Y-8.695 Z-20.377
N1515 X-0.532 Y-8.624 Z-20.236
N1520 X-0.346 Y-8.556 Z-20.082
N1525 X-0.169 Y-8.492 Z-19.916
N1530 X-0.002 Y-8.431 Z-19.738
N1535 X0.155 Y-8.374 Z-19.55
N1540 X0.299 Y-8.321 Z-19.351
N1545 X0.432 Y-8.273 Z-19.143
N1550 X0.552 Y-8.229 Z-18.927
N1555 X0.659 Y-8.19 Z-18.703
N1560 X0.753 Y-8.156 Z-18.472
N1565 X0.833 Y-8.127 Z-18.236
N1570 X0.899 Y-8.103 Z-17.995
N1575 X0.951 Y-8.084 Z-17.75
N1580 X0.988 Y-8.071 Z-17.501
N1585 X1.01 Y-8.063 Z-17.251
N1590 X1.017 Y-8.06 Z-17.
N1595 G0 Z4.
N1605 M9
N1610 G53 Z0.
N1615 M30
%
