%
(SETUP2-SIDE-CAM-FLYING-MOUNT-ALL)
(T6  D=12. CR=0. - ZMIN=-14. - FLAT END MILL)
N10 G90 G94 G17 G91.1
N15 G21
N20 G53 G0 Z0.
(FACE2)
N25 M9
N30 T6 M6
N35 S2500 M3
N40 G54
N45 M9
N55 G0 X10.696 Y0.967
N60 G43 Z14. H6
N65 #100=300. (CUTTING)
N70 #102=300. (FINISH)
N75 #103=200. (ENTRY)
N80 #104=200. (EXIT)
N85 G0 Z12.
N90 G1 Z2. F#103
N95 G19 G2 Y-1.033 Z0. J-2. K0.
N100 G1 Y-1.633 F#100
N105 Y-59.473 F#102
N110 Y-60.867 F#100
N115 G17 G2 X7.427 I-1.635 J0.
N120 G1 Y-0.238 F#102
N125 Y-0.106 F#100
N130 G3 X4.157 I-1.635 J0.
N135 G1 Y-61. F#102
N140 G2 X0.888 I-1.635 J0. F#100
N145 G1 Y-0.106 F#102
N150 G3 X-2.381 I-1.635 J0. F#100
N155 G1 Y-61. F#102
N160 G2 X-5.65 I-1.635 J0. F#100
N165 G1 Y-0.106 F#102
N170 G3 X-8.919 I-1.635 J0. F#100
N175 G1 Y-61. F#102
N180 G2 X-12.188 I-1.635 J0. F#100
N185 G1 Y-60.969
N190 Y-0.106 F#102
N195 G3 X-15.458 I-1.635 J0. F#100
N200 G1 Y-59.958 F#102
N205 G2 X-18.727 I-1.635 J0. F#100
N210 G1 Y-56.461
N215 Y-0.106 F#102
N220 G3 X-21.996 I-1.635 J0. F#100
N225 G1 Y-0.363
N230 Y-44. F#102
N235 G2 X-25.265 I-1.635 J0. F#100
N240 G1 Y-2.089 F#102
N245 G19 G3 Y-0.089 Z2. J0. K2. F#104
N250 G0 Z14.
N255 G17
(2D CONTOUR3)
N260 M9
N265 G0 Z22.
N270 X6. Y-19.364
N275 #102=300. (FINISH)
N280 #103=200. (ENTRY)
N285 #104=200. (EXIT)
N290 #107=270. (RAMPING)
N295 Z12.
N300 G1 Z10.699 F#103
N305 S2400
N310 G19 G3 Y-18.204 Z9.5 J1.2 K0. F#107
N315 G1 Y0. Z8.89
N320 G17 G3 X0. Y6. Z8.574 I-6. J0.
N325 G1 X-7.5 Z8.322
N330 G3 X-7.814 Y5.992 Z8.312 I0. J-6.
N335 G1 X-8.493 Y5.956 Z8.289
N340 G3 X-9.118 Y5.891 Z8.268 I0.314 J-5.992
N345 G1 X-9.79 Y5.784 Z8.245
N350 G3 X-10.404 Y5.654 Z8.224 I0.939 J-5.926
N355 G1 X-11.062 Y5.477 Z8.201
N360 G3 X-11.659 Y5.283 Z8.18 I1.553 J-5.796
N365 G1 X-12.294 Y5.04 Z8.157
N370 G3 X-12.868 Y4.784 Z8.136 I2.15 J-5.601
N375 G1 X-13.474 Y4.475 Z8.113
N380 G3 X-14.018 Y4.161 Z8.092 I2.724 J-5.346
N385 G1 X-14.588 Y3.791 Z8.069
N390 G3 X-15.097 Y3.421 Z8.048 I3.268 J-5.032
N395 G1 X-15.625 Y2.993 Z8.026
N400 G3 X-16.092 Y2.573 Z8.005 I3.776 J-4.663
N405 G1 X-16.573 Y2.092 Z7.982
N410 G3 X-16.993 Y1.625 Z7.961 I4.243 J-4.243
N415 G1 X-17.421 Y1.097 Z7.938
N420 G3 X-17.79 Y0.589 Z7.917 I4.663 J-3.776
N425 G1 X-18.161 Y0.018 Z7.894
N430 G3 X-18.476 Y-0.527 Z7.873 I5.032 J-3.268
N435 G1 X-18.784 Y-1.133 Z7.85
N440 G3 X-19.039 Y-1.705 Z7.829 I5.346 J-2.723
N445 G1 X-19.283 Y-2.341 Z7.806
N450 G3 X-19.477 Y-2.938 Z7.785 I5.601 J-2.151
N455 G1 X-19.654 Y-3.596 Z7.762
N460 G3 X-19.784 Y-4.21 Z7.741 I5.796 J-1.553
N465 G1 X-19.891 Y-4.882 Z7.718
N470 G3 X-19.956 Y-5.507 Z7.697 I5.926 J-0.938
N475 G1 X-19.992 Y-6.186 Z7.675
N480 G3 X-20. Y-6.5 Z7.664 I5.992 J-0.314
N485 G1 Y-19. Z7.245
N490 X-23. Z7.144
N495 G3 X-23.393 Y-19.013 Z7.131 I0. J-6.
N500 G1 X-23.785 Y-19.039 Z7.118
N505 G3 X-24.561 Y-19.141 Z7.092 I0.393 J-5.987
N510 G1 X-24.946 Y-19.217 Z7.079
N515 G3 X-25.706 Y-19.421 Z7.052 I1.17 J-5.885
N520 G1 X-26.078 Y-19.547 Z7.039
N525 G3 X-26.801 Y-19.847 Z7.013 I1.929 J-5.681
N530 G1 X-27.153 Y-20.02 Z7.
N535 G3 X-27.833 Y-20.413 Z6.973 I2.653 J-5.381
N540 G1 X-28.159 Y-20.631 Z6.96
N545 G3 X-28.783 Y-21.11 Z6.934 I3.333 J-4.989
N550 G1 X-29.078 Y-21.368 Z6.921
N555 G3 X-29.632 Y-21.922 Z6.894 I3.957 J-4.51
N560 G1 X-29.89 Y-22.217 Z6.881
N565 G3 X-30.369 Y-22.841 Z6.855 I4.51 J-3.957
N570 G1 X-30.587 Y-23.167 Z6.842
N575 G3 X-30.98 Y-23.847 Z6.815 I4.989 J-3.333
N580 G1 X-31.153 Y-24.199 Z6.802
N585 G3 X-31.453 Y-24.922 Z6.776 I5.381 J-2.653
N590 G1 X-31.579 Y-25.294 Z6.763
N595 G3 X-31.783 Y-26.054 Z6.736 I5.681 J-1.929
N600 G1 X-31.859 Y-26.439 Z6.723
N605 G3 X-31.961 Y-27.215 Z6.697 I5.885 J-1.17
N610 G1 X-31.987 Y-27.607 Z6.684
N615 G3 X-32. Y-28. Z6.671 I5.987 J-0.393
N620 G1 Y-48. Z6.
N625 Y-28. Z5.329
N630 G2 X-31.987 Y-27.607 Z5.316 I6. J0.
N635 G1 X-31.961 Y-27.215 Z5.303
N640 G2 X-31.859 Y-26.439 Z5.277 I5.987 J-0.393
N645 G1 X-31.783 Y-26.054 Z5.264
N650 G2 X-31.579 Y-25.294 Z5.237 I5.885 J-1.17
N655 G1 X-31.453 Y-24.922 Z5.224
N660 G2 X-31.153 Y-24.199 Z5.198 I5.681 J-1.929
N665 G1 X-30.98 Y-23.847 Z5.185
N670 G2 X-30.587 Y-23.167 Z5.158 I5.381 J-2.653
N675 G1 X-30.369 Y-22.841 Z5.145
N680 G2 X-29.89 Y-22.217 Z5.119 I4.989 J-3.333
N685 G1 X-29.632 Y-21.922 Z5.106
N690 G2 X-29.078 Y-21.368 Z5.079 I4.51 J-3.957
N695 G1 X-28.783 Y-21.11 Z5.066
N700 G2 X-28.159 Y-20.631 Z5.04 I3.957 J-4.51
N705 G1 X-27.833 Y-20.413 Z5.027
N710 G2 X-27.153 Y-20.02 Z5. I3.333 J-4.989
N715 G1 X-26.801 Y-19.847 Z4.987
N720 G2 X-26.078 Y-19.547 Z4.961 I2.653 J-5.381
N725 G1 X-25.706 Y-19.421 Z4.948
N730 G2 X-24.946 Y-19.217 Z4.921 I1.929 J-5.681
N735 G1 X-24.561 Y-19.141 Z4.908
N740 G2 X-23.785 Y-19.039 Z4.882 I1.17 J-5.885
N745 G1 X-23.393 Y-19.013 Z4.869
N750 G2 X-23. Y-19. Z4.856 I0.393 J-5.987
N755 G1 X-20. Z4.755
N760 Y-6.5 Z4.336
N765 G2 X-19.992 Y-6.186 Z4.325 I6. J0.
N770 G1 X-19.956 Y-5.507 Z4.303
N775 G2 X-19.891 Y-4.882 Z4.282 I5.992 J-0.314
N780 G1 X-19.784 Y-4.21 Z4.259
N785 G2 X-19.654 Y-3.596 Z4.238 I5.926 J-0.938
N790 G1 X-19.477 Y-2.938 Z4.215
N795 G2 X-19.283 Y-2.341 Z4.194 I5.796 J-1.553
N800 G1 X-19.039 Y-1.705 Z4.171
N805 G2 X-18.784 Y-1.133 Z4.15 I5.601 J-2.151
N810 G1 X-18.476 Y-0.527 Z4.127
N815 G2 X-18.161 Y0.018 Z4.106 I5.346 J-2.723
N820 G1 X-17.79 Y0.589 Z4.083
N825 G2 X-17.421 Y1.097 Z4.062 I5.032 J-3.268
N830 G1 X-16.993 Y1.625 Z4.039
N835 G2 X-16.573 Y2.092 Z4.018 I4.663 J-3.776
N840 G1 X-16.092 Y2.573 Z3.995
N845 G2 X-15.625 Y2.993 Z3.974 I4.243 J-4.243
N850 G1 X-15.097 Y3.421 Z3.952
N855 G2 X-14.588 Y3.791 Z3.93 I3.776 J-4.663
N860 G1 X-14.018 Y4.161 Z3.908
N865 G2 X-13.474 Y4.475 Z3.887 I3.268 J-5.032
N870 G1 X-12.868 Y4.784 Z3.864
N875 G2 X-12.294 Y5.04 Z3.843 I2.724 J-5.346
N880 G1 X-11.659 Y5.283 Z3.82
N885 G2 X-11.062 Y5.477 Z3.799 I2.15 J-5.601
N890 G1 X-10.404 Y5.654 Z3.776
N895 G2 X-9.79 Y5.784 Z3.755 I1.553 J-5.796
N900 G1 X-9.118 Y5.891 Z3.732
N905 G2 X-8.493 Y5.956 Z3.711 I0.939 J-5.926
N910 G1 X-7.814 Y5.992 Z3.688
N915 G2 X-7.5 Y6. Z3.678 I0.314 J-5.992
N920 G1 X0. Z3.426
N925 G2 X6. Y0. Z3.11 I0. J-6.
N930 G1 Y-48. Z1.501
N935 G2 X0. Y-54. Z1.185 I-6. J0.
N940 G1 X-5.519 Z1.
N945 X0. Z0.815
N950 G3 X6. Y-48. Z0.499 I0. J6.
N955 G1 Y0. Z-1.11
N960 G3 X0. Y6. Z-1.426 I-6. J0.
N965 G1 X-7.5 Z-1.678
N970 G3 X-7.814 Y5.992 Z-1.688 I0. J-6.
N975 G1 X-8.493 Y5.956 Z-1.711
N980 G3 X-9.118 Y5.891 Z-1.732 I0.314 J-5.992
N985 G1 X-9.79 Y5.784 Z-1.755
N990 G3 X-10.404 Y5.654 Z-1.776 I0.939 J-5.926
N995 G1 X-11.062 Y5.477 Z-1.799
N1000 G3 X-11.659 Y5.283 Z-1.82 I1.553 J-5.796
N1005 G1 X-12.294 Y5.04 Z-1.843
N1010 G3 X-12.868 Y4.784 Z-1.864 I2.15 J-5.601
N1015 G1 X-13.474 Y4.475 Z-1.887
N1020 G3 X-14.018 Y4.161 Z-1.908 I2.724 J-5.346
N1025 G1 X-14.588 Y3.791 Z-1.93
N1030 G3 X-15.097 Y3.421 Z-1.952 I3.268 J-5.032
N1035 G1 X-15.625 Y2.993 Z-1.974
N1040 G3 X-16.092 Y2.573 Z-1.995 I3.776 J-4.663
N1045 G1 X-16.573 Y2.092 Z-2.018
N1050 G3 X-16.993 Y1.625 Z-2.039 I4.243 J-4.243
N1055 G1 X-17.421 Y1.097 Z-2.062
N1060 G3 X-17.79 Y0.589 Z-2.083 I4.663 J-3.776
N1065 G1 X-18.161 Y0.018 Z-2.106
N1070 G3 X-18.476 Y-0.527 Z-2.127 I5.032 J-3.268
N1075 G1 X-18.784 Y-1.133 Z-2.15
N1080 G3 X-19.039 Y-1.705 Z-2.171 I5.346 J-2.723
N1085 G1 X-19.283 Y-2.341 Z-2.194
N1090 G3 X-19.477 Y-2.938 Z-2.215 I5.601 J-2.151
N1095 G1 X-19.654 Y-3.596 Z-2.238
N1100 G3 X-19.784 Y-4.21 Z-2.259 I5.796 J-1.553
N1105 G1 X-19.891 Y-4.882 Z-2.282
N1110 G3 X-19.956 Y-5.507 Z-2.303 I5.926 J-0.938
N1115 G1 X-19.992 Y-6.186 Z-2.325
N1120 G3 X-20. Y-6.5 Z-2.336 I5.992 J-0.314
N1125 G1 Y-19. Z-2.755
N1130 X-23. Z-2.856
N1135 G3 X-23.393 Y-19.013 Z-2.869 I0. J-6.
N1140 G1 X-23.785 Y-19.039 Z-2.882
N1145 G3 X-24.561 Y-19.141 Z-2.908 I0.393 J-5.987
N1150 G1 X-24.946 Y-19.217 Z-2.921
N1155 G3 X-25.706 Y-19.421 Z-2.948 I1.17 J-5.885
N1160 G1 X-26.078 Y-19.547 Z-2.961
N1165 G3 X-26.801 Y-19.847 Z-2.987 I1.929 J-5.681
N1170 G1 X-27.153 Y-20.02 Z-3.
N1175 G3 X-27.833 Y-20.413 Z-3.027 I2.653 J-5.381
N1180 G1 X-28.159 Y-20.631 Z-3.04
N1185 G3 X-28.783 Y-21.11 Z-3.066 I3.333 J-4.989
N1190 G1 X-29.078 Y-21.368 Z-3.079
N1195 G3 X-29.632 Y-21.922 Z-3.106 I3.957 J-4.51
N1200 G1 X-29.89 Y-22.217 Z-3.119
N1205 G3 X-30.369 Y-22.841 Z-3.145 I4.51 J-3.957
N1210 G1 X-30.587 Y-23.167 Z-3.158
N1215 G3 X-30.98 Y-23.847 Z-3.185 I4.989 J-3.333
N1220 G1 X-31.153 Y-24.199 Z-3.198
N1225 G3 X-31.453 Y-24.922 Z-3.224 I5.381 J-2.653
N1230 G1 X-31.579 Y-25.294 Z-3.237
N1235 G3 X-31.783 Y-26.054 Z-3.264 I5.681 J-1.929
N1240 G1 X-31.859 Y-26.439 Z-3.277
N1245 G3 X-31.961 Y-27.215 Z-3.303 I5.885 J-1.17
N1250 G1 X-31.987 Y-27.607 Z-3.316
N1255 G3 X-32. Y-28. Z-3.329 I5.987 J-0.393
N1260 G1 Y-48. Z-4.
N1265 Y-28. Z-4.671
N1270 G2 X-31.987 Y-27.607 Z-4.684 I6. J0.
N1275 G1 X-31.961 Y-27.215 Z-4.697
N1280 G2 X-31.859 Y-26.439 Z-4.723 I5.987 J-0.393
N1285 G1 X-31.783 Y-26.054 Z-4.736
N1290 G2 X-31.579 Y-25.294 Z-4.763 I5.885 J-1.17
N1295 G1 X-31.453 Y-24.922 Z-4.776
N1300 G2 X-31.153 Y-24.199 Z-4.802 I5.681 J-1.929
N1305 G1 X-30.98 Y-23.847 Z-4.815
N1310 G2 X-30.587 Y-23.167 Z-4.842 I5.381 J-2.653
N1315 G1 X-30.369 Y-22.841 Z-4.855
N1320 G2 X-29.89 Y-22.217 Z-4.881 I4.989 J-3.333
N1325 G1 X-29.632 Y-21.922 Z-4.894
N1330 G2 X-29.078 Y-21.368 Z-4.921 I4.51 J-3.957
N1335 G1 X-28.783 Y-21.11 Z-4.934
N1340 G2 X-28.159 Y-20.631 Z-4.96 I3.957 J-4.51
N1345 G1 X-27.833 Y-20.413 Z-4.973
N1350 G2 X-27.153 Y-20.02 Z-5. I3.333 J-4.989
N1355 G1 X-26.801 Y-19.847 Z-5.013
N1360 G2 X-26.078 Y-19.547 Z-5.039 I2.653 J-5.381
N1365 G1 X-25.706 Y-19.421 Z-5.052
N1370 G2 X-24.946 Y-19.217 Z-5.079 I1.929 J-5.681
N1375 G1 X-24.561 Y-19.141 Z-5.092
N1380 G2 X-23.785 Y-19.039 Z-5.118 I1.17 J-5.885
N1385 G1 X-23.393 Y-19.013 Z-5.131
N1390 G2 X-23. Y-19. Z-5.144 I0.393 J-5.987
N1395 G1 X-20. Z-5.245
N1400 Y-6.5 Z-5.664
N1405 G2 X-19.992 Y-6.186 Z-5.675 I6. J0.
N1410 G1 X-19.956 Y-5.507 Z-5.697
N1415 G2 X-19.891 Y-4.882 Z-5.718 I5.992 J-0.314
N1420 G1 X-19.784 Y-4.21 Z-5.741
N1425 G2 X-19.654 Y-3.596 Z-5.762 I5.926 J-0.938
N1430 G1 X-19.477 Y-2.938 Z-5.785
N1435 G2 X-19.283 Y-2.341 Z-5.806 I5.796 J-1.553
N1440 G1 X-19.039 Y-1.705 Z-5.829
N1445 G2 X-18.784 Y-1.133 Z-5.85 I5.601 J-2.151
N1450 G1 X-18.476 Y-0.527 Z-5.873
N1455 G2 X-18.161 Y0.018 Z-5.894 I5.346 J-2.723
N1460 G1 X-17.79 Y0.589 Z-5.917
N1465 G2 X-17.421 Y1.097 Z-5.938 I5.032 J-3.268
N1470 G1 X-16.993 Y1.625 Z-5.961
N1475 G2 X-16.573 Y2.092 Z-5.982 I4.663 J-3.776
N1480 G1 X-16.092 Y2.573 Z-6.005
N1485 G2 X-15.625 Y2.993 Z-6.026 I4.243 J-4.243
N1490 G1 X-15.097 Y3.421 Z-6.048
N1495 G2 X-14.588 Y3.791 Z-6.07 I3.776 J-4.663
N1500 G1 X-14.018 Y4.161 Z-6.092
N1505 G2 X-13.474 Y4.475 Z-6.113 I3.268 J-5.032
N1510 G1 X-12.868 Y4.784 Z-6.136
N1515 G2 X-12.294 Y5.04 Z-6.157 I2.724 J-5.346
N1520 G1 X-11.659 Y5.283 Z-6.18
N1525 G2 X-11.062 Y5.477 Z-6.201 I2.15 J-5.601
N1530 G1 X-10.404 Y5.654 Z-6.224
N1535 G2 X-9.79 Y5.784 Z-6.245 I1.553 J-5.796
N1540 G1 X-9.118 Y5.891 Z-6.268
N1545 G2 X-8.493 Y5.956 Z-6.289 I0.939 J-5.926
N1550 G1 X-7.814 Y5.992 Z-6.312
N1555 G2 X-7.5 Y6. Z-6.322 I0.314 J-5.992
N1560 G1 X0. Z-6.574
N1565 G2 X6. Y0. Z-6.89 I0. J-6.
N1570 G1 Y-48. Z-8.499
N1575 G2 X0. Y-54. Z-8.815 I-6. J0.
N1580 G1 X-5.519 Z-9.
N1585 X0. Z-9.185
N1590 G3 X6. Y-48. Z-9.501 I0. J6.
N1595 G1 Y0. Z-11.11
N1600 G3 X0. Y6. Z-11.426 I-6. J0.
N1605 G1 X-7.5 Z-11.678
N1610 G3 X-7.814 Y5.992 Z-11.688 I0. J-6.
N1615 G1 X-8.493 Y5.956 Z-11.711
N1620 G3 X-9.118 Y5.891 Z-11.732 I0.314 J-5.992
N1625 G1 X-9.79 Y5.784 Z-11.755
N1630 G3 X-10.404 Y5.654 Z-11.776 I0.939 J-5.926
N1635 G1 X-11.062 Y5.477 Z-11.799
N1640 G3 X-11.659 Y5.283 Z-11.82 I1.553 J-5.796
N1645 G1 X-12.294 Y5.04 Z-11.843
N1650 G3 X-12.868 Y4.784 Z-11.864 I2.15 J-5.601
N1655 G1 X-13.474 Y4.475 Z-11.887
N1660 G3 X-14.018 Y4.161 Z-11.908 I2.724 J-5.346
N1665 G1 X-14.588 Y3.791 Z-11.931
N1670 G3 X-15.097 Y3.421 Z-11.952 I3.268 J-5.032
N1675 G1 X-15.625 Y2.993 Z-11.974
N1680 G3 X-16.092 Y2.573 Z-11.995 I3.776 J-4.663
N1685 G1 X-16.573 Y2.092 Z-12.018
N1690 G3 X-16.993 Y1.625 Z-12.039 I4.243 J-4.243
N1695 G1 X-17.421 Y1.097 Z-12.062
N1700 G3 X-17.79 Y0.589 Z-12.083 I4.663 J-3.776
N1705 G1 X-18.161 Y0.018 Z-12.106
N1710 G3 X-18.476 Y-0.527 Z-12.127 I5.032 J-3.268
N1715 G1 X-18.784 Y-1.133 Z-12.15
N1720 G3 X-19.039 Y-1.705 Z-12.171 I5.346 J-2.723
N1725 G1 X-19.283 Y-2.341 Z-12.194
N1730 G3 X-19.477 Y-2.938 Z-12.215 I5.601 J-2.151
N1735 G1 X-19.654 Y-3.596 Z-12.238
N1740 G3 X-19.784 Y-4.21 Z-12.259 I5.796 J-1.553
N1745 G1 X-19.891 Y-4.882 Z-12.282
N1750 G3 X-19.956 Y-5.507 Z-12.303 I5.926 J-0.938
N1755 G1 X-19.992 Y-6.186 Z-12.325
N1760 G3 X-20. Y-6.5 Z-12.336 I5.992 J-0.314
N1765 G1 Y-19. Z-12.755
N1770 X-23. Z-12.856
N1775 G3 X-23.393 Y-19.013 Z-12.869 I0. J-6.
N1780 G1 X-23.785 Y-19.039 Z-12.882
N1785 G3 X-24.561 Y-19.141 Z-12.908 I0.393 J-5.987
N1790 G1 X-24.946 Y-19.217 Z-12.921
N1795 G3 X-25.706 Y-19.421 Z-12.948 I1.17 J-5.885
N1800 G1 X-26.078 Y-19.547 Z-12.961
N1805 G3 X-26.801 Y-19.847 Z-12.987 I1.929 J-5.681
N1810 G1 X-27.153 Y-20.02 Z-13.
N1815 G3 X-27.833 Y-20.413 Z-13.027 I2.653 J-5.381
N1820 G1 X-28.159 Y-20.631 Z-13.04
N1825 G3 X-28.783 Y-21.11 Z-13.066 I3.333 J-4.989
N1830 G1 X-29.078 Y-21.368 Z-13.079
N1835 G3 X-29.632 Y-21.922 Z-13.106 I3.957 J-4.51
N1840 G1 X-29.89 Y-22.217 Z-13.119
N1845 G3 X-30.369 Y-22.841 Z-13.145 I4.51 J-3.957
N1850 G1 X-30.587 Y-23.167 Z-13.158
N1855 G3 X-30.98 Y-23.847 Z-13.185 I4.989 J-3.333
N1860 G1 X-31.153 Y-24.199 Z-13.198
N1865 G3 X-31.453 Y-24.922 Z-13.224 I5.381 J-2.653
N1870 G1 X-31.579 Y-25.294 Z-13.237
N1875 G3 X-31.783 Y-26.054 Z-13.264 I5.681 J-1.929
N1880 G1 X-31.859 Y-26.439 Z-13.277
N1885 G3 X-31.961 Y-27.215 Z-13.303 I5.885 J-1.17
N1890 G1 X-31.987 Y-27.607 Z-13.316
N1895 G3 X-32. Y-28. Z-13.329 I5.987 J-0.393
N1900 G1 Y-48. Z-14.
N1905 S2500
N1910 Y-31. F#102
N1915 Y-28.
N1920 G2 X-31.987 Y-27.607 I6. J0.
N1925 G1 X-31.961 Y-27.215
N1930 G2 X-31.859 Y-26.439 I5.987 J-0.393
N1935 G1 X-31.783 Y-26.054
N1940 G2 X-31.579 Y-25.294 I5.885 J-1.17
N1945 G1 X-31.453 Y-24.922
N1950 G2 X-31.153 Y-24.199 I5.681 J-1.929
N1955 G1 X-30.98 Y-23.847
N1960 G2 X-30.587 Y-23.167 I5.381 J-2.653
N1965 G1 X-30.369 Y-22.841
N1970 G2 X-29.89 Y-22.217 I4.989 J-3.333
N1975 G1 X-29.632 Y-21.922
N1980 G2 X-29.078 Y-21.368 I4.51 J-3.957
N1985 G1 X-28.783 Y-21.11
N1990 G2 X-28.159 Y-20.631 I3.957 J-4.51
N1995 G1 X-27.833 Y-20.413
N2000 G2 X-27.153 Y-20.02 I3.333 J-4.989
N2005 G1 X-26.801 Y-19.847
N2010 G2 X-26.078 Y-19.547 I2.653 J-5.381
N2015 G1 X-25.706 Y-19.421
N2020 G2 X-24.946 Y-19.217 I1.929 J-5.681
N2025 G1 X-24.561 Y-19.141
N2030 G2 X-23.785 Y-19.039 I1.17 J-5.885
N2035 G1 X-23.393 Y-19.013
N2040 G2 X-23. Y-19. I0.393 J-5.987
N2045 G1 X-20.
N2050 Y-13.106
N2055 Y-9.002
N2060 Y-6.5
N2065 G2 X-19.992 Y-6.186 I6. J0.
N2070 G1 X-19.956 Y-5.507
N2075 G2 X-19.891 Y-4.882 I5.992 J-0.314
N2080 G1 X-19.784 Y-4.21
N2085 G2 X-19.654 Y-3.596 I5.926 J-0.938
N2090 G1 X-19.477 Y-2.938
N2095 G2 X-19.283 Y-2.341 I5.796 J-1.553
N2100 G1 X-19.039 Y-1.705
N2105 G2 X-18.784 Y-1.133 I5.601 J-2.151
N2110 G1 X-18.476 Y-0.527
N2115 G2 X-18.161 Y0.018 I5.346 J-2.723
N2120 G1 X-17.79 Y0.589
N2125 G2 X-17.421 Y1.097 I5.032 J-3.268
N2130 G1 X-16.993 Y1.625
N2135 G2 X-16.573 Y2.092 I4.663 J-3.776
N2140 G1 X-16.092 Y2.573
N2145 G2 X-15.625 Y2.993 I4.243 J-4.243
N2150 G1 X-15.097 Y3.421
N2155 G2 X-14.588 Y3.791 I3.776 J-4.663
N2160 G1 X-14.018 Y4.161
N2165 G2 X-13.474 Y4.475 I3.268 J-5.032
N2170 G1 X-12.868 Y4.784
N2175 G2 X-12.294 Y5.04 I2.724 J-5.346
N2180 G1 X-11.659 Y5.283
N2185 G2 X-11.062 Y5.477 I2.15 J-5.601
N2190 G1 X-10.404 Y5.654
N2195 G2 X-9.79 Y5.784 I1.553 J-5.796
N2200 G1 X-9.118 Y5.891
N2205 G2 X-8.493 Y5.956 I0.939 J-5.926
N2210 G1 X-7.814 Y5.992
N2215 G2 X-7.5 Y6. I0.314 J-5.992
N2220 G1 X0.
N2225 G2 X6. Y0. I0. J-6.
N2230 G1 Y-9.002
N2235 Y-48.
N2240 G2 X0. Y-54. I-6. J0.
N2245 G1 X-5.519
N2250 G3 X-6.719 Y-55.2 I0. J-1.2 F#104
N2255 G1 Y-56.4
N2260 G19 G2 Y-57.6 Z-12.8 J0. K1.2
N2265 G0 Z22.
N2270 G17
N2275 M9
N2280 G53 G0 Z0.
N2285 M30
%
