%
(T6  D=12. CR=0. - ZMIN=-21. - FLAT END MILL)
N10 G90 G94 G17 G91.1
N15 G21
N20 G53 G0 Z0.
(2D POCKET5)
N25 M9
N30 T6 M6
N35 S2500 M3
N40 G54
N45 M9
N55 G0 X-34.454 Y-5.786
N60 G43 Z11. H6
N65 #100=300. (CUTTING)
N70 #103=250. (ENTRY)
N75 #104=250. (EXIT)
N80 G1 Z-3. F#103
N85 X-34.451 Y-5.779 Z-3.251
N90 X-34.443 Y-5.756 Z-3.501
N95 X-34.43 Y-5.719 Z-3.75
N100 X-34.411 Y-5.668 Z-3.995
N105 X-34.387 Y-5.602 Z-4.236
N110 X-34.358 Y-5.522 Z-4.472
N115 X-34.324 Y-5.428 Z-4.703
N120 X-34.285 Y-5.321 Z-4.927
N125 X-34.241 Y-5.201 Z-5.143
N130 X-34.193 Y-5.068 Z-5.351
N135 X-34.14 Y-4.923 Z-5.55
N140 X-34.083 Y-4.767 Z-5.738
N145 X-34.022 Y-4.6 Z-5.916
N150 X-33.958 Y-4.423 Z-6.082
N155 X-33.89 Y-4.237 Z-6.236
N160 X-33.819 Y-4.041 Z-6.377
N165 X-33.745 Y-3.838 Z-6.505
N170 X-33.668 Y-3.628 Z-6.619
N175 X-33.589 Y-3.411 Z-6.719
N180 X-33.509 Y-3.189 Z-6.804
N185 X-33.426 Y-2.962 Z-6.874
N190 X-33.342 Y-2.732 Z-6.929
N195 X-33.257 Y-2.498 Z-6.968
N200 X-33.172 Y-2.263 Z-6.992
N205 X-33.086 Y-2.027 Z-7.
N210 X-32.949 Y-1.651
N215 X-32.102 Y0.677 F#100
N220 G2 X-28.148 Y5.818 I10.102 J-3.677
N225 G3 X-27.947 Y6.058 Z-6.987 I-0.343 J0.492
N230 X-27.894 Y6.364 Z-6.95 I-0.544 J0.253
N235 X-28.036 Y6.701 Z-6.908 I-0.598 J-0.053
N240 X-28.241 Y6.856 Z-6.9 I-0.456 J-0.39
N245 X-28.925 Y6.725 I-0.251 J-0.545
N250 G1 X-32.103 Y3.402
N255 G3 X-32.248 Y3.147 I0.434 J-0.415
N260 G1 X-33.513 Y-1.446
N265 X-33.519 Y-1.47
N270 X-33.524 Y-1.494
N275 X-34.101 Y-4.548
N280 G3 X-33.974 Y-5.042 I0.59 J-0.111
N285 X-33.719 Y-5.223 Z-6.913 I0.462 J0.382
N290 X-33.128 Y-5.121 Z-6.987 I0.207 J0.563
N295 X-32.948 Y-4.865 Z-7. I-0.384 J0.461
N300 G1 X-31.068 Y0.3
N305 G2 X-25.613 Y5.948 I9.068 J-3.3
N310 G3 X-25.355 Y6.148 Z-6.986 I-0.225 J0.556
N315 G1 X-25.266 Y6.269 Z-6.971
N320 X-25.177 Y6.389 Z-6.95
N325 X-25.053 Y6.558 Z-6.922
N330 X-24.928 Y6.727 Z-6.906
N335 X-24.803 Y6.897 Z-6.9
N340 X-21.675 Y11.138
N345 G2 X-21.068 Y11.369 I0.483 J-0.356
N350 G1 X4.972 Y5.856
N355 G2 X5.442 Y5.185 I-0.124 J-0.587
N360 G1 X5.289 Y4.11
N365 X5.259 Y3.901 Z-6.906
N370 X5.229 Y3.693 Z-6.922
N375 X5.2 Y3.486 Z-6.95
N380 X5.176 Y3.32 Z-6.973
N385 X5.152 Y3.153 Z-6.989
N390 G3 X5.182 Y2.863 Z-7. I0.594 J-0.085
N395 G1 X5.825 Y1.098
N400 G3 X6.005 Y0.842 Z-6.987 I0.564 J0.205
N405 X6.287 Y0.712 Z-6.95 I0.384 J0.461
N410 X6.66 Y0.768 Z-6.908 I0.102 J0.591
N415 X6.851 Y0.921 Z-6.9 I-0.271 J0.535
N420 X6.887 Y1.637 I-0.462 J0.382
N425 G1 X4.307 Y5.49
N430 G3 X3.903 Y5.749 I-0.499 J-0.334
N435 X3.592 Y5.716 Z-6.913 I-0.094 J-0.593
N440 X3.216 Y5.248 Z-6.987 I0.217 J-0.559
N445 X3.25 Y4.937 Z-7. I0.593 J-0.092
N450 G2 X3.438 Y4.439 I-20.25 J-7.937
N455 G1 X5.95 Y-2.462
N460 G3 X6.13 Y-2.717 Z-6.987 I0.564 J0.205
N465 X6.412 Y-2.848 Z-6.95 I0.384 J0.461
N470 X6.755 Y-2.806 Z-6.91 I0.102 J0.591
N475 X6.976 Y-2.639 Z-6.9 I-0.241 J0.55
N480 X7.047 Y-1.981 I-0.462 J0.382
N485 G1 X2.83 Y6.173
N490 G3 X2.357 Y6.495 I-0.533 J-0.276
N495 X2.022 Y6.431 Z-6.915 I-0.059 J-0.597
N500 X1.809 Y6.246 Z-6.95 I0.276 J-0.533
N505 X1.7 Y5.955 Z-6.987 I0.489 J-0.348
N510 X1.753 Y5.646 Z-7. I0.597 J-0.057
N515 G2 X2.405 Y4.063 I-18.753 J-8.646
N520 G1 X5.681 Y-4.939
N525 X5.772 Y-5.193
N530 X5.861 Y-5.447
N535 X5.948 Y-5.703
N540 G3 X6.122 Y-5.963 Z-6.987 I0.569 J0.191
N545 X6.4 Y-6.1 Z-6.95 I0.395 J0.451
N550 X6.742 Y-6.068 Z-6.91 I0.117 J0.589
N555 X6.97 Y-5.905 Z-6.9 I-0.225 J0.556
N560 X7.058 Y-5.253 I-0.453 J0.394
N565 G1 X1.482 Y6.432
N570 G3 X0.976 Y6.773 I-0.542 J-0.258
N575 X0.682 Y6.715 Z-6.911 I-0.035 J-0.599
N580 X0.438 Y6.501 Z-6.95 I0.258 J-0.542
N585 X0.342 Y6.206 Z-6.987 I0.502 J-0.328
N590 X0.406 Y5.9 Z-7. I0.599 J-0.033
N595 G2 X1.371 Y3.686 I-17.406 J-8.9
N600 G1 X4.647 Y-5.315
N605 G2 X5.95 Y-9.981 I-29.647 J-10.791
N610 G3 X6.088 Y-10.261 Z-6.987 I0.589 J0.116
N615 X6.347 Y-10.433 Z-6.95 I0.45 J0.397
N620 X6.687 Y-10.446 Z-6.91 I0.191 J0.569
N625 X6.937 Y-10.313 Z-6.9 I-0.148 J0.581
N630 X7.111 Y-9.685 I-0.398 J0.449
N635 G1 X4.582 Y-1.622
N640 X4.569 Y-1.584
N645 X4.553 Y-1.547
N650 X0.941 Y6.174
N655 G3 X0.636 Y6.47 I-0.543 J-0.254
N660 G1 X-0.102 Y6.79
N665 G3 X-0.326 Y6.839 I-0.239 J-0.55
N670 X-0.63 Y6.765 Z-6.913 I-0.015 J-0.6
N675 X-0.94 Y6.252 Z-6.987 I0.289 J-0.526
N680 X-0.865 Y5.948 Z-7. I0.6 J-0.012
N685 G2 X0.337 Y3.31 I-16.135 J-8.948
N690 G1 X1.482 Y0.152
N695 X2.617 Y-3.009
N700 X3.743 Y-6.174
N705 G2 X5.45 Y-16.106 I-28.039 J-9.932
N710 G1 X5.428 Y-53.384
N715 Y-53.431 F#104
N720 Y-53.682 Z-6.992
N725 Y-53.932 Z-6.968
N730 Y-54.18 Z-6.929
N735 Y-54.426 Z-6.874
N740 Y-54.667 Z-6.804
N745 Y-54.903 Z-6.719
N750 X5.427 Y-55.134 Z-6.619
N755 Y-55.358 Z-6.505
N760 Y-55.574 Z-6.377
N765 Y-55.782 Z-6.236
N770 Y-55.981 Z-6.082
N775 Y-56.169 Z-5.916
N780 Y-56.347 Z-5.738
N785 Y-56.513 Z-5.55
N790 X5.426 Y-56.667 Z-5.351
N795 Y-56.808 Z-5.143
N800 Y-56.936 Z-4.927
N805 Y-57.05 Z-4.703
N810 Y-57.15 Z-4.472
N815 Y-57.235 Z-4.236
N820 Y-57.305 Z-3.995
N825 Y-57.36 Z-3.75
N830 Y-57.399 Z-3.501
N835 Y-57.423 Z-3.251
N840 Y-57.431 Z-3.
N845 G0 Z11.
N850 X-8.748 Y16.931
N855 G1 Z-3. F#103
N860 X-8.744 Y16.924 Z-3.251
N865 X-8.732 Y16.904 Z-3.501
N870 X-8.711 Y16.871 Z-3.75
N875 X-8.683 Y16.824 Z-3.995
N880 X-8.647 Y16.764 Z-4.236
N885 X-8.603 Y16.691 Z-4.472
N890 X-8.551 Y16.605 Z-4.703
N895 X-8.493 Y16.507 Z-4.927
N900 X-8.427 Y16.398 Z-5.143
N905 X-8.354 Y16.277 Z-5.351
N910 X-8.274 Y16.145 Z-5.55
N915 X-8.189 Y16.002 Z-5.738
N920 X-8.097 Y15.85 Z-5.916
N925 X-8. Y15.689 Z-6.082
N930 X-7.897 Y15.519 Z-6.236
N935 X-7.79 Y15.341 Z-6.377
N940 X-7.679 Y15.155 Z-6.505
N945 X-7.563 Y14.963 Z-6.619
N950 X-7.444 Y14.766 Z-6.719
N955 X-7.322 Y14.563 Z-6.804
N960 X-7.198 Y14.357 Z-6.874
N965 X-7.071 Y14.147 Z-6.929
N970 X-6.943 Y13.934 Z-6.968
N975 X-6.814 Y13.72 Z-6.992
N980 X-6.685 Y13.504 Z-7.
N985 X-2.136 Y5.949
N990 G2 X-0.696 Y2.934 I-14.864 J-8.949 F#100
N995 G1 X0.988 Y-1.713
N1000 X2.66 Y-6.365
N1005 G2 X4.35 Y-16.106 I-27.221 J-9.741
N1010 G1 X4.328 Y-55.033
N1015 Y-55.08 F#104
N1020 Y-55.331 Z-6.992
N1025 X4.327 Y-55.581 Z-6.968
N1030 Y-55.829 Z-6.929
N1035 Y-56.074 Z-6.874
N1040 Y-56.316 Z-6.804
N1045 Y-56.552 Z-6.719
N1050 Y-56.783 Z-6.619
N1055 Y-57.007 Z-6.505
N1060 X4.326 Y-57.223 Z-6.377
N1065 Y-57.431 Z-6.236
N1070 Y-57.629 Z-6.082
N1075 Y-57.818 Z-5.916
N1080 Y-57.995 Z-5.738
N1085 Y-58.162 Z-5.55
N1090 Y-58.316 Z-5.351
N1095 Y-58.457 Z-5.143
N1100 Y-58.585 Z-4.927
N1105 Y-58.699 Z-4.703
N1110 Y-58.799 Z-4.472
N1115 Y-58.884 Z-4.236
N1120 Y-58.954 Z-3.995
N1125 X4.325 Y-59.009 Z-3.75
N1130 Y-59.048 Z-3.501
N1135 Y-59.072 Z-3.251
N1140 Y-59.08 Z-3.
N1145 G0 Z11.
N1150 X-10.679 Y16.931
N1155 G1 Z-3. F#103
N1160 X-10.675 Y16.925 Z-3.251
N1165 X-10.662 Y16.905 Z-3.501
N1170 X-10.64 Y16.872 Z-3.75
N1175 X-10.61 Y16.827 Z-3.995
N1180 X-10.571 Y16.768 Z-4.236
N1185 X-10.524 Y16.697 Z-4.472
N1190 X-10.469 Y16.614 Z-4.703
N1195 X-10.407 Y16.518 Z-4.927
N1200 X-10.336 Y16.412 Z-5.143
N1205 X-10.258 Y16.294 Z-5.351
N1210 X-10.174 Y16.165 Z-5.55
N1215 X-10.082 Y16.026 Z-5.738
N1220 X-9.984 Y15.878 Z-5.916
N1225 X-9.88 Y15.721 Z-6.082
N1230 X-9.771 Y15.555 Z-6.236
N1235 X-9.657 Y15.381 Z-6.377
N1240 X-9.538 Y15.201 Z-6.505
N1245 X-9.414 Y15.014 Z-6.619
N1250 X-9.287 Y14.822 Z-6.719
N1255 X-9.157 Y14.624 Z-6.804
N1260 X-9.024 Y14.423 Z-6.874
N1265 X-8.889 Y14.218 Z-6.929
N1270 X-8.753 Y14.011 Z-6.968
N1275 X-8.615 Y13.802 Z-6.992
N1280 X-8.477 Y13.592 Z-7.
N1285 X-3.434 Y5.946
N1290 G2 X-1.73 Y2.558 I-13.566 J-8.946 F#100
N1295 G1 X1.546 Y-6.444
N1300 G2 X3.25 Y-16.106 I-26.546 J-9.662
N1305 G1 X3.228 Y-55.95
N1310 X3.226 Y-57.919 F#104
N1315 Y-58.17 Z-6.992
N1320 Y-58.421 Z-6.968
N1325 Y-58.669 Z-6.929
N1330 Y-58.914 Z-6.874
N1335 Y-59.155 Z-6.804
N1340 Y-59.392 Z-6.719
N1345 X3.225 Y-59.622 Z-6.619
N1350 Y-59.846 Z-6.505
N1355 Y-60.063 Z-6.377
N1360 Y-60.27 Z-6.236
N1365 Y-60.469 Z-6.082
N1370 Y-60.657 Z-5.916
N1375 Y-60.835 Z-5.738
N1380 Y-61.001 Z-5.55
N1385 Y-61.155 Z-5.351
N1390 Y-61.297 Z-5.143
N1395 X3.224 Y-61.424 Z-4.927
N1400 Y-61.539 Z-4.703
N1405 Y-61.638 Z-4.472
N1410 Y-61.723 Z-4.236
N1415 Y-61.794 Z-3.995
N1420 Y-61.848 Z-3.75
N1425 Y-61.888 Z-3.501
N1430 Y-61.911 Z-3.251
N1435 Y-61.919 Z-3.
N1440 G0 Z11.
N1445 X-12.811 Y16.931
N1450 G1 Z-3. F#103
N1455 X-12.806 Y16.925 Z-3.251
N1460 X-12.792 Y16.906 Z-3.501
N1465 X-12.769 Y16.874 Z-3.75
N1470 X-12.737 Y16.83 Z-3.995
N1475 X-12.695 Y16.773 Z-4.236
N1480 X-12.645 Y16.704 Z-4.472
N1485 X-12.586 Y16.624 Z-4.703
N1490 X-12.519 Y16.532 Z-4.927
N1495 X-12.443 Y16.428 Z-5.143
N1500 X-12.36 Y16.314 Z-5.351
N1505 X-12.269 Y16.19 Z-5.55
N1510 X-12.171 Y16.056 Z-5.738
N1515 X-12.066 Y15.913 Z-5.916
N1520 X-11.954 Y15.761 Z-6.082
N1525 X-11.837 Y15.6 Z-6.236
N1530 X-11.714 Y15.433 Z-6.377
N1535 X-11.587 Y15.258 Z-6.505
N1540 X-11.455 Y15.077 Z-6.619
N1545 X-11.318 Y14.891 Z-6.719
N1550 X-11.179 Y14.7 Z-6.804
N1555 X-11.036 Y14.506 Z-6.874
N1560 X-10.891 Y14.308 Z-6.929
N1565 X-10.745 Y14.107 Z-6.968
N1570 X-10.597 Y13.906 Z-6.992
N1575 X-10.449 Y13.703 Z-7.
N1580 X-4.773 Y5.946
N1585 G2 X-2.764 Y2.182 I-12.227 J-8.946 F#100
N1590 G1 X0.513 Y-6.82
N1595 G2 X2.15 Y-16.106 I-25.513 J-9.286
N1600 G1 X2.128 Y-56.518
N1605 X2.126 Y-59.659 F#104
N1610 Y-59.91 Z-6.992
N1615 Y-60.16 Z-6.968
N1620 X2.125 Y-60.408 Z-6.929
N1625 Y-60.654 Z-6.874
N1630 Y-60.895 Z-6.804
N1635 Y-61.131 Z-6.719
N1640 Y-61.362 Z-6.619
N1645 Y-61.586 Z-6.505
N1650 Y-61.802 Z-6.377
N1655 X2.124 Y-62.01 Z-6.236
N1660 Y-62.208 Z-6.082
N1665 Y-62.397 Z-5.916
N1670 Y-62.575 Z-5.738
N1675 Y-62.741 Z-5.55
N1680 Y-62.895 Z-5.351
N1685 Y-63.036 Z-5.143
N1690 Y-63.164 Z-4.927
N1695 Y-63.278 Z-4.703
N1700 Y-63.378 Z-4.472
N1705 Y-63.463 Z-4.236
N1710 Y-63.533 Z-3.995
N1715 Y-63.588 Z-3.75
N1720 Y-63.627 Z-3.501
N1725 Y-63.651 Z-3.251
N1730 Y-63.659 Z-3.
N1735 G0 Z11.
N1740 X-15.242 Y16.931
N1745 G1 Z-3. F#103
N1750 X-15.237 Y16.925 Z-3.251
N1755 X-15.222 Y16.907 Z-3.501
N1760 X-15.197 Y16.876 Z-3.75
N1765 X-15.162 Y16.834 Z-3.995
N1770 X-15.118 Y16.78 Z-4.236
N1775 X-15.063 Y16.714 Z-4.472
N1780 X-15. Y16.637 Z-4.703
N1785 X-14.927 Y16.549 Z-4.927
N1790 X-14.846 Y16.451 Z-5.143
N1795 X-14.756 Y16.342 Z-5.351
N1800 X-14.658 Y16.223 Z-5.55
N1805 X-14.552 Y16.095 Z-5.738
N1810 X-14.439 Y15.958 Z-5.916
N1815 X-14.318 Y15.813 Z-6.082
N1820 X-14.192 Y15.66 Z-6.236
N1825 X-14.06 Y15.5 Z-6.377
N1830 X-13.922 Y15.333 Z-6.505
N1835 X-13.779 Y15.16 Z-6.619
N1840 X-13.632 Y14.982 Z-6.719
N1845 X-13.482 Y14.8 Z-6.804
N1850 X-13.328 Y14.614 Z-6.874
N1855 X-13.172 Y14.425 Z-6.929
N1860 X-13.014 Y14.234 Z-6.968
N1865 X-12.854 Y14.041 Z-6.992
N1870 X-12.694 Y13.847 Z-7.
N1875 X-6.169 Y5.949
N1880 G2 X-3.797 Y1.805 I-10.831 J-8.949 F#100
N1885 G1 X-2.199 Y-2.568
N1890 X-0.59 Y-6.938
N1895 G2 X1.05 Y-16.106 I-24.802 J-9.168
N1900 G1 X1.028 Y-56.832
N1905 X1.025 Y-60.91 F#104
N1910 Y-61.161 Z-6.992
N1915 Y-61.412 Z-6.968
N1920 Y-61.66 Z-6.929
N1925 Y-61.905 Z-6.874
N1930 Y-62.146 Z-6.804
N1935 Y-62.383 Z-6.719
N1940 X1.024 Y-62.613 Z-6.619
N1945 Y-62.837 Z-6.505
N1950 Y-63.054 Z-6.377
N1955 Y-63.261 Z-6.236
N1960 Y-63.46 Z-6.082
N1965 Y-63.648 Z-5.916
N1970 Y-63.826 Z-5.738
N1975 Y-63.992 Z-5.55
N1980 Y-64.146 Z-5.351
N1985 Y-64.288 Z-5.143
N1990 X1.023 Y-64.416 Z-4.927
N1995 Y-64.53 Z-4.703
N2000 Y-64.629 Z-4.472
N2005 Y-64.715 Z-4.236
N2010 Y-64.785 Z-3.995
N2015 Y-64.839 Z-3.75
N2020 Y-64.879 Z-3.501
N2025 Y-64.902 Z-3.251
N2030 Y-64.91 Z-3.
N2035 G0 Z11.
N2040 X-18.133 Y16.931
N2045 G1 Z-3. F#103
N2050 X-18.128 Y16.925 Z-3.251
N2055 X-18.111 Y16.908 Z-3.501
N2060 X-18.084 Y16.88 Z-3.75
N2065 X-18.046 Y16.84 Z-3.995
N2070 X-17.998 Y16.79 Z-4.236
N2075 X-17.939 Y16.728 Z-4.472
N2080 X-17.87 Y16.656 Z-4.703
N2085 X-17.791 Y16.573 Z-4.927
N2090 X-17.703 Y16.481 Z-5.143
N2095 X-17.605 Y16.379 Z-5.351
N2100 X-17.499 Y16.268 Z-5.55
N2105 X-17.384 Y16.147 Z-5.738
N2110 X-17.261 Y16.019 Z-5.916
N2115 X-17.131 Y15.883 Z-6.082
N2120 X-16.994 Y15.739 Z-6.236
N2125 X-16.851 Y15.589 Z-6.377
N2130 X-16.701 Y15.432 Z-6.505
N2135 X-16.546 Y15.271 Z-6.619
N2140 X-16.387 Y15.104 Z-6.719
N2145 X-16.224 Y14.933 Z-6.804
N2150 X-16.057 Y14.758 Z-6.874
N2155 X-15.888 Y14.581 Z-6.929
N2160 X-15.716 Y14.402 Z-6.968
N2165 X-15.543 Y14.221 Z-6.992
N2170 X-15.37 Y14.039 Z-7.
N2175 X-7.637 Y5.946
N2180 G2 X-4.831 Y1.429 I-9.363 J-8.946 F#100
N2185 G1 X-3.787 Y-1.427
N2190 X-2.734 Y-4.279
N2195 X-1.673 Y-7.129
N2200 G2 X-0.05 Y-16.106 I-24.006 J-8.977
N2205 G1 X-0.072 Y-56.947
N2210 X-0.075 Y-61.822 F#104
N2215 Y-62.073 Z-6.992
N2220 Y-62.323 Z-6.968
N2225 Y-62.571 Z-6.929
N2230 Y-62.817 Z-6.874
N2235 Y-63.058 Z-6.804
N2240 X-0.076 Y-63.294 Z-6.719
N2245 Y-63.525 Z-6.619
N2250 Y-63.749 Z-6.505
N2255 Y-63.965 Z-6.377
N2260 Y-64.173 Z-6.236
N2265 Y-64.372 Z-6.082
N2270 Y-64.56 Z-5.916
N2275 Y-64.738 Z-5.738
N2280 Y-64.904 Z-5.55
N2285 X-0.077 Y-65.058 Z-5.351
N2290 Y-65.199 Z-5.143
N2295 Y-65.327 Z-4.927
N2300 Y-65.441 Z-4.703
N2305 Y-65.541 Z-4.472
N2310 Y-65.626 Z-4.236
N2315 Y-65.696 Z-3.995
N2320 Y-65.751 Z-3.75
N2325 Y-65.79 Z-3.501
N2330 Y-65.814 Z-3.251
N2335 Y-65.822 Z-3.
N2340 G0 Z11.
N2345 X-21.881 Y16.931
N2350 G1 Z-3. F#103
N2355 X-21.875 Y16.926 Z-3.251
N2360 X-21.857 Y16.91 Z-3.501
N2365 X-21.827 Y16.884 Z-3.75
N2370 X-21.786 Y16.848 Z-3.995
N2375 X-21.733 Y16.802 Z-4.236
N2380 X-21.669 Y16.747 Z-4.472
N2385 X-21.593 Y16.681 Z-4.703
N2390 X-21.507 Y16.606 Z-4.927
N2395 X-21.41 Y16.523 Z-5.143
N2400 X-21.304 Y16.43 Z-5.351
N2405 X-21.187 Y16.329 Z-5.55
N2410 X-21.062 Y16.22 Z-5.738
N2415 X-20.928 Y16.104 Z-5.916
N2420 X-20.786 Y15.98 Z-6.082
N2425 X-20.636 Y15.85 Z-6.236
N2430 X-20.479 Y15.714 Z-6.377
N2435 X-20.315 Y15.572 Z-6.505
N2440 X-20.146 Y15.425 Z-6.619
N2445 X-19.972 Y15.274 Z-6.719
N2450 X-19.794 Y15.119 Z-6.804
N2455 X-19.611 Y14.961 Z-6.874
N2460 X-19.426 Y14.8 Z-6.929
N2465 X-19.239 Y14.637 Z-6.968
N2470 X-19.05 Y14.473 Z-6.992
N2475 X-18.86 Y14.308 Z-7.
N2480 X-9.231 Y5.948
N2485 G2 X-5.865 Y1.053 I-7.769 J-8.948 F#100
N2490 G1 X-2.588 Y-7.949
N2495 G2 X-1.15 Y-16.106 I-22.412 J-8.157
N2500 G1 X-1.172 Y-56.947
N2505 X-1.175 Y-62.525 F#104
N2510 Y-62.776 Z-6.992
N2515 Y-63.026 Z-6.968
N2520 Y-63.275 Z-6.929
N2525 Y-63.52 Z-6.874
N2530 Y-63.761 Z-6.804
N2535 X-1.176 Y-63.998 Z-6.719
N2540 Y-64.228 Z-6.619
N2545 Y-64.452 Z-6.505
N2550 Y-64.668 Z-6.377
N2555 Y-64.876 Z-6.236
N2560 Y-65.075 Z-6.082
N2565 Y-65.263 Z-5.916
N2570 Y-65.441 Z-5.738
N2575 Y-65.607 Z-5.55
N2580 X-1.177 Y-65.761 Z-5.351
N2585 Y-65.902 Z-5.143
N2590 Y-66.03 Z-4.927
N2595 Y-66.144 Z-4.703
N2600 Y-66.244 Z-4.472
N2605 Y-66.329 Z-4.236
N2610 Y-66.399 Z-3.995
N2615 Y-66.454 Z-3.75
N2620 Y-66.493 Z-3.501
N2625 Y-66.517 Z-3.251
N2630 Y-66.525 Z-3.
N2635 G0 Z11.
N2640 X-27.531 Y16.931
N2645 G1 Z-3. F#103
N2650 X-27.524 Y16.927 Z-3.251
N2655 X-27.505 Y16.913 Z-3.501
N2660 X-27.472 Y16.892 Z-3.75
N2665 X-27.426 Y16.861 Z-3.995
N2670 X-27.368 Y16.822 Z-4.236
N2675 X-27.297 Y16.775 Z-4.472
N2680 X-27.214 Y16.72 Z-4.703
N2685 X-27.119 Y16.657 Z-4.927
N2690 X-27.013 Y16.586 Z-5.143
N2695 X-26.895 Y16.507 Z-5.351
N2700 X-26.767 Y16.422 Z-5.55
N2705 X-26.629 Y16.33 Z-5.738
N2710 X-26.481 Y16.231 Z-5.916
N2715 X-26.324 Y16.127 Z-6.082
N2720 X-26.159 Y16.017 Z-6.236
N2725 X-25.986 Y15.902 Z-6.377
N2730 X-25.806 Y15.782 Z-6.505
N2735 X-25.619 Y15.658 Z-6.619
N2740 X-25.427 Y15.53 Z-6.719
N2745 X-25.231 Y15.399 Z-6.804
N2750 X-25.03 Y15.265 Z-6.874
N2755 X-24.826 Y15.129 Z-6.929
N2760 X-24.619 Y14.991 Z-6.968
N2765 X-24.411 Y14.853 Z-6.992
N2770 X-24.202 Y14.714 Z-7.
N2775 X-11.041 Y5.947
N2780 G2 X-6.898 Y0.677 I-5.959 J-8.947 F#100
N2785 G1 X-3.622 Y-8.325
N2790 G2 X-2.25 Y-16.106 I-21.378 J-7.781
N2795 G1 X-2.272 Y-56.947
N2800 X-2.275 Y-62.947 F#104
N2805 Y-63.198 Z-6.992
N2810 Y-63.448 Z-6.968
N2815 Y-63.696 Z-6.929
N2820 Y-63.942 Z-6.874
N2825 Y-64.183 Z-6.804
N2830 Y-64.419 Z-6.719
N2835 X-2.276 Y-64.65 Z-6.619
N2840 Y-64.874 Z-6.505
N2845 Y-65.09 Z-6.377
N2850 Y-65.298 Z-6.236
N2855 Y-65.497 Z-6.082
N2860 Y-65.685 Z-5.916
N2865 Y-65.863 Z-5.738
N2870 Y-66.029 Z-5.55
N2875 Y-66.183 Z-5.351
N2880 Y-66.324 Z-5.143
N2885 X-2.277 Y-66.452 Z-4.927
N2890 Y-66.566 Z-4.703
N2895 Y-66.666 Z-4.472
N2900 Y-66.751 Z-4.236
N2905 Y-66.821 Z-3.995
N2910 Y-66.876 Z-3.75
N2915 Y-66.915 Z-3.501
N2920 Y-66.939 Z-3.251
N2925 Y-66.947 Z-3.
N2930 G0 Z11.
N2935 X-35.227 Y14.763
N2940 G1 Z-3. F#103
N2945 X-35.22 Y14.76 Z-3.251
N2950 X-35.198 Y14.751 Z-3.501
N2955 X-35.162 Y14.736 Z-3.75
N2960 X-35.111 Y14.716 Z-3.995
N2965 X-35.046 Y14.69 Z-4.236
N2970 X-34.967 Y14.658 Z-4.472
N2975 X-34.874 Y14.62 Z-4.703
N2980 X-34.768 Y14.578 Z-4.927
N2985 X-34.65 Y14.53 Z-5.143
N2990 X-34.519 Y14.477 Z-5.351
N2995 X-34.376 Y14.419 Z-5.55
N3000 X-34.222 Y14.357 Z-5.738
N3005 X-34.057 Y14.291 Z-5.916
N3010 X-33.882 Y14.22 Z-6.082
N3015 X-33.698 Y14.146 Z-6.236
N3020 X-33.505 Y14.068 Z-6.377
N3025 X-33.305 Y13.987 Z-6.505
N3030 X-33.097 Y13.903 Z-6.619
N3035 X-32.883 Y13.817 Z-6.719
N3040 X-32.664 Y13.729 Z-6.804
N3045 X-32.44 Y13.638 Z-6.874
N3050 X-32.213 Y13.546 Z-6.929
N3055 X-31.983 Y13.454 Z-6.968
N3060 X-31.751 Y13.36 Z-6.992
N3065 X-31.518 Y13.266 Z-7.
N3070 X-13.388 Y5.949
N3075 G2 X-7.932 Y0.3 I-3.612 J-8.949 F#100
N3080 G1 X-4.656 Y-8.701
N3085 G2 X-3.35 Y-16.106 I-20.344 J-7.405
N3090 G1 X-3.371 Y-56.947
N3095 X-3.374 Y-62.947 F#104
N3100 X-3.375 Y-63.198 Z-6.992
N3105 Y-63.448 Z-6.968
N3110 Y-63.696 Z-6.929
N3115 Y-63.942 Z-6.874
N3120 Y-64.183 Z-6.804
N3125 Y-64.419 Z-6.719
N3130 Y-64.65 Z-6.619
N3135 Y-64.874 Z-6.505
N3140 X-3.376 Y-65.09 Z-6.377
N3145 Y-65.298 Z-6.236
N3150 Y-65.497 Z-6.082
N3155 Y-65.685 Z-5.916
N3160 Y-65.863 Z-5.738
N3165 Y-66.029 Z-5.55
N3170 Y-66.183 Z-5.351
N3175 Y-66.324 Z-5.143
N3180 Y-66.452 Z-4.927
N3185 Y-66.566 Z-4.703
N3190 Y-66.666 Z-4.472
N3195 Y-66.751 Z-4.236
N3200 Y-66.821 Z-3.995
N3205 Y-66.876 Z-3.75
N3210 Y-66.915 Z-3.501
N3215 Y-66.939 Z-3.251
N3220 Y-66.947 Z-3.
N3225 G0 Z11.
N3230 X-34.457 Y-12.218
N3235 G1 Z-3. F#103
N3240 X-34.454 Y-12.21 Z-3.251
N3245 X-34.446 Y-12.188 Z-3.501
N3250 X-34.433 Y-12.151 Z-3.75
N3255 X-34.414 Y-12.1 Z-3.995
N3260 X-34.39 Y-12.034 Z-4.236
N3265 X-34.361 Y-11.954 Z-4.472
N3270 X-34.327 Y-11.86 Z-4.703
N3275 X-34.287 Y-11.753 Z-4.927
N3280 X-34.244 Y-11.633 Z-5.143
N3285 X-34.195 Y-11.5 Z-5.351
N3290 X-34.142 Y-11.355 Z-5.55
N3295 X-34.085 Y-11.199 Z-5.738
N3300 X-34.025 Y-11.032 Z-5.916
N3305 X-33.96 Y-10.855 Z-6.082
N3310 X-33.892 Y-10.669 Z-6.236
N3315 X-33.821 Y-10.474 Z-6.377
N3320 X-33.746 Y-10.27 Z-6.505
N3325 X-33.67 Y-10.06 Z-6.619
N3330 X-33.591 Y-9.843 Z-6.719
N3335 X-33.51 Y-9.621 Z-6.804
N3340 X-33.427 Y-9.395 Z-6.874
N3345 X-33.343 Y-9.164 Z-6.929
N3350 X-33.258 Y-8.931 Z-6.968
N3355 X-33.172 Y-8.696 Z-6.992
N3360 X-33.086 Y-8.46 Z-7.
N3365 X-32.949 Y-8.084
N3370 X-31.462 Y-4.03 F#100
N3375 X-29.961 Y0.019
N3380 G2 X-22. Y5.55 I7.961 J-2.965
N3385 G1 X-17.
N3390 G2 X-9.039 Y0.019 I0. J-8.496
N3395 G1 X-7.915 Y-3.01
N3400 X-6.798 Y-6.042
N3405 X-5.689 Y-9.077
N3410 G2 X-4.45 Y-16.106 I-19.311 J-7.029
N3415 G1 X-4.471 Y-56.947
N3420 X-4.474 Y-62.947 F#104
N3425 Y-63.198 Z-6.992
N3430 Y-63.448 Z-6.968
N3435 Y-63.696 Z-6.929
N3440 X-4.475 Y-63.942 Z-6.874
N3445 Y-64.183 Z-6.804
N3450 Y-64.419 Z-6.719
N3455 Y-64.65 Z-6.619
N3460 Y-64.874 Z-6.505
N3465 Y-65.09 Z-6.377
N3470 Y-65.298 Z-6.236
N3475 Y-65.497 Z-6.082
N3480 Y-65.685 Z-5.916
N3485 X-4.476 Y-65.863 Z-5.738
N3490 Y-66.029 Z-5.55
N3495 Y-66.183 Z-5.351
N3500 Y-66.324 Z-5.143
N3505 Y-66.452 Z-4.927
N3510 Y-66.566 Z-4.703
N3515 Y-66.666 Z-4.472
N3520 Y-66.751 Z-4.236
N3525 Y-66.821 Z-3.995
N3530 Y-66.876 Z-3.75
N3535 Y-66.915 Z-3.501
N3540 Y-66.939 Z-3.251
N3545 Y-66.947 Z-3.
N3550 G0 Z11.
N3555 X-33.941 Y-16.01
N3560 G1 Z-3. F#103
N3565 X-33.939 Y-16.002 Z-3.251
N3570 X-33.934 Y-15.979 Z-3.501
N3575 X-33.925 Y-15.941 Z-3.75
N3580 X-33.913 Y-15.888 Z-3.995
N3585 X-33.897 Y-15.819 Z-4.236
N3590 X-33.878 Y-15.736 Z-4.472
N3595 X-33.855 Y-15.639 Z-4.703
N3600 X-33.83 Y-15.528 Z-4.927
N3605 X-33.801 Y-15.403 Z-5.143
N3610 X-33.769 Y-15.266 Z-5.351
N3615 X-33.734 Y-15.116 Z-5.55
N3620 X-33.697 Y-14.954 Z-5.738
N3625 X-33.657 Y-14.781 Z-5.916
N3630 X-33.614 Y-14.597 Z-6.082
N3635 X-33.57 Y-14.404 Z-6.236
N3640 X-33.523 Y-14.201 Z-6.377
N3645 X-33.474 Y-13.99 Z-6.505
N3650 X-33.424 Y-13.772 Z-6.619
N3655 X-33.372 Y-13.548 Z-6.719
N3660 X-33.318 Y-13.317 Z-6.804
N3665 X-33.264 Y-13.082 Z-6.874
N3670 X-33.209 Y-12.843 Z-6.929
N3675 X-33.153 Y-12.601 Z-6.968
N3680 X-33.097 Y-12.358 Z-6.992
N3685 X-33.04 Y-12.113 Z-7.
N3690 X-32.95 Y-11.723
N3695 G2 X-32.277 Y-9.454 I18.949 J-4.383 F#100
N3700 G1 X-29.001 Y-0.452
N3705 G2 X-22. Y4.45 I7.001 J-2.548
N3710 G1 X-17.
N3715 G2 X-9.999 Y-0.452 I0. J-7.45
N3720 G1 X-6.723 Y-9.454
N3725 G2 X-5.55 Y-16.106 I-18.277 J-6.652
N3730 G1 X-5.571 Y-56.947
N3735 X-5.574 Y-62.947 F#104
N3740 Y-63.198 Z-6.992
N3745 Y-63.448 Z-6.968
N3750 Y-63.696 Z-6.929
N3755 Y-63.942 Z-6.874
N3760 Y-64.183 Z-6.804
N3765 X-5.575 Y-64.419 Z-6.719
N3770 Y-64.65 Z-6.619
N3775 Y-64.874 Z-6.505
N3780 Y-65.09 Z-6.377
N3785 Y-65.298 Z-6.236
N3790 Y-65.497 Z-6.082
N3795 Y-65.685 Z-5.916
N3800 Y-65.863 Z-5.738
N3805 Y-66.029 Z-5.55
N3810 Y-66.183 Z-5.351
N3815 X-5.576 Y-66.324 Z-5.143
N3820 Y-66.452 Z-4.927
N3825 Y-66.566 Z-4.703
N3830 Y-66.666 Z-4.472
N3835 Y-66.751 Z-4.236
N3840 Y-66.821 Z-3.995
N3845 Y-66.876 Z-3.75
N3850 Y-66.915 Z-3.501
N3855 Y-66.939 Z-3.251
N3860 Y-66.947 Z-3.
N3865 G0 Z11.
N3870 X-34.376 Y-66.255
N3875 G1 Z-3.4 F#103
N3880 X-34.375 Y-66.248 Z-3.635
N3885 X-34.371 Y-66.225 Z-3.87
N3890 X-34.365 Y-66.187 Z-4.102
N3895 X-34.357 Y-66.134 Z-4.332
N3900 X-34.346 Y-66.066 Z-4.557
N3905 X-34.333 Y-65.984 Z-4.778
N3910 X-34.318 Y-65.888 Z-4.992
N3915 X-34.301 Y-65.779 Z-5.2
N3920 X-34.281 Y-65.656 Z-5.4
N3925 X-34.26 Y-65.52 Z-5.592
N3930 X-34.236 Y-65.373 Z-5.774
N3935 X-34.211 Y-65.214 Z-5.946
N3940 X-34.184 Y-65.044 Z-6.107
N3945 X-34.156 Y-64.864 Z-6.256
N3950 X-34.126 Y-64.675 Z-6.393
N3955 X-34.095 Y-64.477 Z-6.518
N3960 X-34.062 Y-64.272 Z-6.629
N3965 X-34.028 Y-64.06 Z-6.726
N3970 X-33.994 Y-63.842 Z-6.809
N3975 X-33.959 Y-63.62 Z-6.877
N3980 X-33.923 Y-63.393 Z-6.931
N3985 X-33.886 Y-63.164 Z-6.969
N3990 X-33.85 Y-62.932 Z-6.992
N3995 X-33.813 Y-62.699 Z-7.
N4000 X-32.449 Y-54.09
N4005 G3 X-32.4 Y-53.464 I-3.951 J0.626
N4010 G1 Y-16.106 F#100
N4015 G2 X-31.29 Y-9.813 I18.4 J0.
N4020 G1 X-28.014 Y-0.811
N4025 G2 X-22. Y3.4 I6.014 J-2.189
N4030 G1 X-17.
N4035 G2 X-10.986 Y-0.811 I0. J-6.4
N4040 G1 X-7.71 Y-9.813
N4045 G2 X-6.6 Y-16.106 I-17.29 J-6.293
N4050 G1 Y-56.948
N4055 G3 X-6.551 Y-57.574 I4. J0. F#104
N4060 G1 X-5.612 Y-63.5
N4065 X-5.573 Y-63.748 Z-6.992
N4070 X-5.534 Y-63.995 Z-6.968
N4075 X-5.495 Y-64.24 Z-6.929
N4080 X-5.457 Y-64.483 Z-6.874
N4085 X-5.419 Y-64.721 Z-6.804
N4090 X-5.382 Y-64.955 Z-6.719
N4095 X-5.346 Y-65.182 Z-6.619
N4100 X-5.311 Y-65.403 Z-6.505
N4105 X-5.277 Y-65.617 Z-6.377
N4110 X-5.244 Y-65.822 Z-6.236
N4115 X-5.213 Y-66.019 Z-6.082
N4120 X-5.184 Y-66.205 Z-5.916
N4125 X-5.156 Y-66.38 Z-5.738
N4130 X-5.13 Y-66.544 Z-5.55
N4135 X-5.106 Y-66.696 Z-5.351
N4140 X-5.084 Y-66.836 Z-5.143
N4145 X-5.064 Y-66.962 Z-4.927
N4150 X-5.046 Y-67.075 Z-4.703
N4155 X-5.03 Y-67.174 Z-4.472
N4160 X-5.017 Y-67.258 Z-4.236
N4165 X-5.006 Y-67.327 Z-3.995
N4170 X-4.997 Y-67.381 Z-3.75
N4175 X-4.991 Y-67.42 Z-3.501
N4180 X-4.988 Y-67.443 Z-3.251
N4185 X-4.986 Y-67.451 Z-3.
N4190 G0 Z11.
N4195 X0.068 Y16.914
N4200 G1 Z-10. F#103
N4205 X0.071 Y16.907 Z-10.251
N4210 X0.079 Y16.884 Z-10.501
N4215 X0.093 Y16.848 Z-10.75
N4220 X0.111 Y16.796 Z-10.995
N4225 X0.135 Y16.73 Z-11.236
N4230 X0.164 Y16.65 Z-11.472
N4235 X0.199 Y16.556 Z-11.703
N4240 X0.238 Y16.449 Z-11.927
N4245 X0.281 Y16.329 Z-12.143
N4250 X0.33 Y16.196 Z-12.351
N4255 X0.382 Y16.052 Z-12.55
N4260 X0.439 Y15.895 Z-12.738
N4265 X0.5 Y15.728 Z-12.916
N4270 X0.564 Y15.551 Z-13.082
N4275 X0.632 Y15.365 Z-13.236
N4280 X0.703 Y15.169 Z-13.377
N4285 X0.777 Y14.966 Z-13.505
N4290 X0.854 Y14.756 Z-13.619
N4295 X0.933 Y14.539 Z-13.719
N4300 X1.014 Y14.317 Z-13.804
N4305 X1.096 Y14.09 Z-13.874
N4310 X1.18 Y13.86 Z-13.929
N4315 X1.265 Y13.626 Z-13.968
N4320 X1.351 Y13.391 Z-13.992
N4325 X1.436 Y13.155 Z-14.
N4330 X5.182 Y2.863
N4335 X5.825 Y1.098 F#100
N4340 G3 X6.005 Y0.842 Z-13.987 I0.564 J0.205
N4345 X6.287 Y0.712 Z-13.95 I0.384 J0.461
N4350 X6.66 Y0.768 Z-13.908 I0.102 J0.591
N4355 X6.851 Y0.921 Z-13.9 I-0.271 J0.535
N4360 X6.887 Y1.637 I-0.462 J0.382
N4365 G1 X4.307 Y5.49
N4370 G3 X3.903 Y5.749 I-0.499 J-0.334
N4375 X3.592 Y5.716 Z-13.913 I-0.094 J-0.593
N4380 X3.216 Y5.248 Z-13.987 I0.217 J-0.559
N4385 X3.25 Y4.937 Z-14. I0.593 J-0.092
N4390 G2 X3.438 Y4.439 I-20.25 J-7.937
N4395 G1 X5.95 Y-2.462
N4400 G3 X6.13 Y-2.717 Z-13.987 I0.564 J0.205
N4405 X6.412 Y-2.848 Z-13.95 I0.384 J0.461
N4410 X6.755 Y-2.806 Z-13.91 I0.102 J0.591
N4415 X6.976 Y-2.639 Z-13.9 I-0.241 J0.55
N4420 X7.047 Y-1.981 I-0.462 J0.382
N4425 G1 X2.83 Y6.173
N4430 G3 X2.357 Y6.495 I-0.533 J-0.276
N4435 X2.022 Y6.431 Z-13.915 I-0.059 J-0.597
N4440 X1.809 Y6.246 Z-13.95 I0.276 J-0.533
N4445 X1.7 Y5.955 Z-13.987 I0.489 J-0.348
N4450 X1.753 Y5.646 Z-14. I0.597 J-0.057
N4455 G2 X2.405 Y4.063 I-18.753 J-8.646
N4460 G1 X5.681 Y-4.939
N4465 X5.772 Y-5.193
N4470 X5.861 Y-5.447
N4475 X5.948 Y-5.703
N4480 G3 X6.122 Y-5.963 Z-13.987 I0.569 J0.191
N4485 X6.4 Y-6.1 Z-13.95 I0.395 J0.451
N4490 X6.742 Y-6.068 Z-13.91 I0.117 J0.589
N4495 X6.97 Y-5.905 Z-13.9 I-0.225 J0.556
N4500 X7.058 Y-5.253 I-0.453 J0.394
N4505 G1 X1.482 Y6.432
N4510 G3 X0.976 Y6.773 I-0.542 J-0.258
N4515 X0.682 Y6.715 Z-13.911 I-0.035 J-0.599
N4520 X0.438 Y6.501 Z-13.95 I0.258 J-0.542
N4525 X0.342 Y6.206 Z-13.987 I0.502 J-0.328
N4530 X0.406 Y5.9 Z-14. I0.599 J-0.033
N4535 G2 X1.371 Y3.686 I-17.406 J-8.9
N4540 G1 X4.647 Y-5.315
N4545 G2 X5.95 Y-9.981 I-29.647 J-10.791
N4550 G3 X6.088 Y-10.261 Z-13.987 I0.589 J0.116
N4555 X6.347 Y-10.433 Z-13.95 I0.45 J0.397
N4560 X6.687 Y-10.446 Z-13.91 I0.191 J0.569
N4565 X6.937 Y-10.313 Z-13.9 I-0.148 J0.581
N4570 X7.111 Y-9.685 I-0.398 J0.449
N4575 G1 X4.582 Y-1.622
N4580 X4.569 Y-1.584
N4585 X4.553 Y-1.547
N4590 X0.941 Y6.174
N4595 G3 X0.636 Y6.47 I-0.543 J-0.254
N4600 G1 X-0.102 Y6.79
N4605 G3 X-0.326 Y6.839 I-0.239 J-0.55
N4610 X-0.63 Y6.765 Z-13.913 I-0.015 J-0.6
N4615 X-0.94 Y6.252 Z-13.987 I0.289 J-0.526
N4620 X-0.865 Y5.948 Z-14. I0.6 J-0.012
N4625 G2 X0.337 Y3.31 I-16.135 J-8.948
N4630 G1 X1.482 Y0.152
N4635 X2.617 Y-3.009
N4640 X3.743 Y-6.174
N4645 G2 X5.45 Y-16.106 I-28.039 J-9.932
N4650 G1 X5.428 Y-53.384
N4655 Y-53.431 F#104
N4660 Y-53.682 Z-13.992
N4665 Y-53.932 Z-13.968
N4670 Y-54.18 Z-13.929
N4675 Y-54.426 Z-13.874
N4680 Y-54.667 Z-13.804
N4685 Y-54.903 Z-13.719
N4690 X5.427 Y-55.134 Z-13.619
N4695 Y-55.358 Z-13.505
N4700 Y-55.574 Z-13.377
N4705 Y-55.782 Z-13.236
N4710 Y-55.981 Z-13.082
N4715 Y-56.169 Z-12.916
N4720 Y-56.347 Z-12.738
N4725 Y-56.513 Z-12.55
N4730 X5.426 Y-56.667 Z-12.351
N4735 Y-56.808 Z-12.143
N4740 Y-56.936 Z-11.927
N4745 Y-57.05 Z-11.703
N4750 Y-57.15 Z-11.472
N4755 Y-57.235 Z-11.236
N4760 Y-57.305 Z-10.995
N4765 Y-57.36 Z-10.75
N4770 Y-57.399 Z-10.501
N4775 Y-57.423 Z-10.251
N4780 Y-57.431 Z-10.
N4785 G0 Z11.
N4790 X-8.748 Y16.931
N4795 G1 Z-10. F#103
N4800 X-8.744 Y16.924 Z-10.251
N4805 X-8.732 Y16.904 Z-10.501
N4810 X-8.711 Y16.871 Z-10.75
N4815 X-8.683 Y16.824 Z-10.995
N4820 X-8.647 Y16.764 Z-11.236
N4825 X-8.603 Y16.691 Z-11.472
N4830 X-8.551 Y16.605 Z-11.703
N4835 X-8.493 Y16.507 Z-11.927
N4840 X-8.427 Y16.398 Z-12.143
N4845 X-8.354 Y16.277 Z-12.351
N4850 X-8.274 Y16.145 Z-12.55
N4855 X-8.189 Y16.002 Z-12.738
N4860 X-8.097 Y15.85 Z-12.916
N4865 X-8. Y15.689 Z-13.082
N4870 X-7.897 Y15.519 Z-13.236
N4875 X-7.79 Y15.341 Z-13.377
N4880 X-7.679 Y15.155 Z-13.505
N4885 X-7.563 Y14.963 Z-13.619
N4890 X-7.444 Y14.766 Z-13.719
N4895 X-7.322 Y14.563 Z-13.804
N4900 X-7.198 Y14.357 Z-13.874
N4905 X-7.071 Y14.147 Z-13.929
N4910 X-6.943 Y13.934 Z-13.968
N4915 X-6.814 Y13.72 Z-13.992
N4920 X-6.685 Y13.504 Z-14.
N4925 X-2.136 Y5.949
N4930 G2 X-0.696 Y2.934 I-14.864 J-8.949 F#100
N4935 G1 X0.988 Y-1.713
N4940 X2.66 Y-6.365
N4945 G2 X4.35 Y-16.106 I-27.221 J-9.741
N4950 G1 X4.328 Y-55.033
N4955 Y-55.08 F#104
N4960 Y-55.331 Z-13.992
N4965 X4.327 Y-55.581 Z-13.968
N4970 Y-55.829 Z-13.929
N4975 Y-56.074 Z-13.874
N4980 Y-56.316 Z-13.804
N4985 Y-56.552 Z-13.719
N4990 Y-56.783 Z-13.619
N4995 Y-57.007 Z-13.505
N5000 X4.326 Y-57.223 Z-13.377
N5005 Y-57.431 Z-13.236
N5010 Y-57.629 Z-13.082
N5015 Y-57.818 Z-12.916
N5020 Y-57.995 Z-12.738
N5025 Y-58.162 Z-12.55
N5030 Y-58.316 Z-12.351
N5035 Y-58.457 Z-12.143
N5040 Y-58.585 Z-11.927
N5045 Y-58.699 Z-11.703
N5050 Y-58.799 Z-11.472
N5055 Y-58.884 Z-11.236
N5060 Y-58.954 Z-10.995
N5065 X4.325 Y-59.009 Z-10.75
N5070 Y-59.048 Z-10.501
N5075 Y-59.072 Z-10.251
N5080 Y-59.08 Z-10.
N5085 G0 Z11.
N5090 X-10.679 Y16.931
N5095 G1 Z-10. F#103
N5100 X-10.675 Y16.925 Z-10.251
N5105 X-10.662 Y16.905 Z-10.501
N5110 X-10.64 Y16.872 Z-10.75
N5115 X-10.61 Y16.827 Z-10.995
N5120 X-10.571 Y16.768 Z-11.236
N5125 X-10.524 Y16.697 Z-11.472
N5130 X-10.469 Y16.614 Z-11.703
N5135 X-10.407 Y16.518 Z-11.927
N5140 X-10.336 Y16.412 Z-12.143
N5145 X-10.258 Y16.294 Z-12.351
N5150 X-10.174 Y16.165 Z-12.55
N5155 X-10.082 Y16.026 Z-12.738
N5160 X-9.984 Y15.878 Z-12.916
N5165 X-9.88 Y15.721 Z-13.082
N5170 X-9.771 Y15.555 Z-13.236
N5175 X-9.657 Y15.381 Z-13.377
N5180 X-9.538 Y15.201 Z-13.505
N5185 X-9.414 Y15.014 Z-13.619
N5190 X-9.287 Y14.822 Z-13.719
N5195 X-9.157 Y14.624 Z-13.804
N5200 X-9.024 Y14.423 Z-13.874
N5205 X-8.889 Y14.218 Z-13.929
N5210 X-8.753 Y14.011 Z-13.968
N5215 X-8.615 Y13.802 Z-13.992
N5220 X-8.477 Y13.592 Z-14.
N5225 X-3.434 Y5.946
N5230 G2 X-1.73 Y2.558 I-13.566 J-8.946 F#100
N5235 G1 X1.546 Y-6.444
N5240 G2 X3.25 Y-16.106 I-26.546 J-9.662
N5245 G1 X3.228 Y-55.95
N5250 X3.226 Y-57.919 F#104
N5255 Y-58.17 Z-13.992
N5260 Y-58.421 Z-13.968
N5265 Y-58.669 Z-13.929
N5270 Y-58.914 Z-13.874
N5275 Y-59.155 Z-13.804
N5280 Y-59.392 Z-13.719
N5285 X3.225 Y-59.622 Z-13.619
N5290 Y-59.846 Z-13.505
N5295 Y-60.063 Z-13.377
N5300 Y-60.27 Z-13.236
N5305 Y-60.469 Z-13.082
N5310 Y-60.657 Z-12.916
N5315 Y-60.835 Z-12.738
N5320 Y-61.001 Z-12.55
N5325 Y-61.155 Z-12.351
N5330 Y-61.297 Z-12.143
N5335 X3.224 Y-61.424 Z-11.927
N5340 Y-61.539 Z-11.703
N5345 Y-61.638 Z-11.472
N5350 Y-61.723 Z-11.236
N5355 Y-61.794 Z-10.995
N5360 Y-61.848 Z-10.75
N5365 Y-61.888 Z-10.501
N5370 Y-61.911 Z-10.251
N5375 Y-61.919 Z-10.
N5380 G0 Z11.
N5385 X-12.811 Y16.931
N5390 G1 Z-10. F#103
N5395 X-12.806 Y16.925 Z-10.251
N5400 X-12.792 Y16.906 Z-10.501
N5405 X-12.769 Y16.874 Z-10.75
N5410 X-12.737 Y16.83 Z-10.995
N5415 X-12.695 Y16.773 Z-11.236
N5420 X-12.645 Y16.704 Z-11.472
N5425 X-12.586 Y16.624 Z-11.703
N5430 X-12.519 Y16.532 Z-11.927
N5435 X-12.443 Y16.428 Z-12.143
N5440 X-12.36 Y16.314 Z-12.351
N5445 X-12.269 Y16.19 Z-12.55
N5450 X-12.171 Y16.056 Z-12.738
N5455 X-12.066 Y15.913 Z-12.916
N5460 X-11.954 Y15.761 Z-13.082
N5465 X-11.837 Y15.6 Z-13.236
N5470 X-11.714 Y15.433 Z-13.377
N5475 X-11.587 Y15.258 Z-13.505
N5480 X-11.455 Y15.077 Z-13.619
N5485 X-11.318 Y14.891 Z-13.719
N5490 X-11.179 Y14.7 Z-13.804
N5495 X-11.036 Y14.506 Z-13.874
N5500 X-10.891 Y14.308 Z-13.929
N5505 X-10.745 Y14.107 Z-13.968
N5510 X-10.597 Y13.906 Z-13.992
N5515 X-10.449 Y13.703 Z-14.
N5520 X-4.773 Y5.946
N5525 G2 X-2.764 Y2.182 I-12.227 J-8.946 F#100
N5530 G1 X0.513 Y-6.82
N5535 G2 X2.15 Y-16.106 I-25.513 J-9.286
N5540 G1 X2.128 Y-56.518
N5545 X2.126 Y-59.659 F#104
N5550 Y-59.91 Z-13.992
N5555 Y-60.16 Z-13.968
N5560 X2.125 Y-60.408 Z-13.929
N5565 Y-60.654 Z-13.874
N5570 Y-60.895 Z-13.804
N5575 Y-61.131 Z-13.719
N5580 Y-61.362 Z-13.619
N5585 Y-61.586 Z-13.505
N5590 Y-61.802 Z-13.377
N5595 X2.124 Y-62.01 Z-13.236
N5600 Y-62.208 Z-13.082
N5605 Y-62.397 Z-12.916
N5610 Y-62.575 Z-12.738
N5615 Y-62.741 Z-12.55
N5620 Y-62.895 Z-12.351
N5625 Y-63.036 Z-12.143
N5630 Y-63.164 Z-11.927
N5635 Y-63.278 Z-11.703
N5640 Y-63.378 Z-11.472
N5645 Y-63.463 Z-11.236
N5650 Y-63.533 Z-10.995
N5655 Y-63.588 Z-10.75
N5660 Y-63.627 Z-10.501
N5665 Y-63.651 Z-10.251
N5670 Y-63.659 Z-10.
N5675 G0 Z11.
N5680 X-15.242 Y16.931
N5685 G1 Z-10. F#103
N5690 X-15.237 Y16.925 Z-10.251
N5695 X-15.222 Y16.907 Z-10.501
N5700 X-15.197 Y16.876 Z-10.75
N5705 X-15.162 Y16.834 Z-10.995
N5710 X-15.118 Y16.78 Z-11.236
N5715 X-15.063 Y16.714 Z-11.472
N5720 X-15. Y16.637 Z-11.703
N5725 X-14.927 Y16.549 Z-11.927
N5730 X-14.846 Y16.451 Z-12.143
N5735 X-14.756 Y16.342 Z-12.351
N5740 X-14.658 Y16.223 Z-12.55
N5745 X-14.552 Y16.095 Z-12.738
N5750 X-14.439 Y15.958 Z-12.916
N5755 X-14.318 Y15.813 Z-13.082
N5760 X-14.192 Y15.66 Z-13.236
N5765 X-14.06 Y15.5 Z-13.377
N5770 X-13.922 Y15.333 Z-13.505
N5775 X-13.779 Y15.16 Z-13.619
N5780 X-13.632 Y14.982 Z-13.719
N5785 X-13.482 Y14.8 Z-13.804
N5790 X-13.328 Y14.614 Z-13.874
N5795 X-13.172 Y14.425 Z-13.929
N5800 X-13.014 Y14.234 Z-13.968
N5805 X-12.854 Y14.041 Z-13.992
N5810 X-12.694 Y13.847 Z-14.
N5815 X-6.169 Y5.949
N5820 G2 X-3.797 Y1.805 I-10.831 J-8.949 F#100
N5825 G1 X-2.199 Y-2.568
N5830 X-0.59 Y-6.938
N5835 G2 X1.05 Y-16.106 I-24.802 J-9.168
N5840 G1 X1.028 Y-56.832
N5845 X1.025 Y-60.91 F#104
N5850 Y-61.161 Z-13.992
N5855 Y-61.412 Z-13.968
N5860 Y-61.66 Z-13.929
N5865 Y-61.905 Z-13.874
N5870 Y-62.146 Z-13.804
N5875 Y-62.383 Z-13.719
N5880 X1.024 Y-62.613 Z-13.619
N5885 Y-62.837 Z-13.505
N5890 Y-63.054 Z-13.377
N5895 Y-63.261 Z-13.236
N5900 Y-63.46 Z-13.082
N5905 Y-63.648 Z-12.916
N5910 Y-63.826 Z-12.738
N5915 Y-63.992 Z-12.55
N5920 Y-64.146 Z-12.351
N5925 Y-64.288 Z-12.143
N5930 X1.023 Y-64.416 Z-11.927
N5935 Y-64.53 Z-11.703
N5940 Y-64.629 Z-11.472
N5945 Y-64.715 Z-11.236
N5950 Y-64.785 Z-10.995
N5955 Y-64.839 Z-10.75
N5960 Y-64.879 Z-10.501
N5965 Y-64.902 Z-10.251
N5970 Y-64.91 Z-10.
N5975 G0 Z11.
N5980 X-18.133 Y16.931
N5985 G1 Z-10. F#103
N5990 X-18.128 Y16.925 Z-10.251
N5995 X-18.111 Y16.908 Z-10.501
N6000 X-18.084 Y16.88 Z-10.75
N6005 X-18.046 Y16.84 Z-10.995
N6010 X-17.998 Y16.79 Z-11.236
N6015 X-17.939 Y16.728 Z-11.472
N6020 X-17.87 Y16.656 Z-11.703
N6025 X-17.791 Y16.573 Z-11.927
N6030 X-17.703 Y16.481 Z-12.143
N6035 X-17.605 Y16.379 Z-12.351
N6040 X-17.499 Y16.268 Z-12.55
N6045 X-17.384 Y16.147 Z-12.738
N6050 X-17.261 Y16.019 Z-12.916
N6055 X-17.131 Y15.883 Z-13.082
N6060 X-16.994 Y15.739 Z-13.236
N6065 X-16.851 Y15.589 Z-13.377
N6070 X-16.701 Y15.432 Z-13.505
N6075 X-16.546 Y15.271 Z-13.619
N6080 X-16.387 Y15.104 Z-13.719
N6085 X-16.224 Y14.933 Z-13.804
N6090 X-16.057 Y14.758 Z-13.874
N6095 X-15.888 Y14.581 Z-13.929
N6100 X-15.716 Y14.402 Z-13.968
N6105 X-15.543 Y14.221 Z-13.992
N6110 X-15.37 Y14.039 Z-14.
N6115 X-7.637 Y5.946
N6120 G2 X-4.831 Y1.429 I-9.363 J-8.946 F#100
N6125 G1 X-3.787 Y-1.427
N6130 X-2.734 Y-4.279
N6135 X-1.673 Y-7.129
N6140 G2 X-0.05 Y-16.106 I-24.006 J-8.977
N6145 G1 X-0.072 Y-56.947
N6150 X-0.075 Y-61.822 F#104
N6155 Y-62.073 Z-13.992
N6160 Y-62.323 Z-13.968
N6165 Y-62.571 Z-13.929
N6170 Y-62.817 Z-13.874
N6175 Y-63.058 Z-13.804
N6180 X-0.076 Y-63.294 Z-13.719
N6185 Y-63.525 Z-13.619
N6190 Y-63.749 Z-13.505
N6195 Y-63.965 Z-13.377
N6200 Y-64.173 Z-13.236
N6205 Y-64.372 Z-13.082
N6210 Y-64.56 Z-12.916
N6215 Y-64.738 Z-12.738
N6220 Y-64.904 Z-12.55
N6225 X-0.077 Y-65.058 Z-12.351
N6230 Y-65.199 Z-12.143
N6235 Y-65.327 Z-11.927
N6240 Y-65.441 Z-11.703
N6245 Y-65.541 Z-11.472
N6250 Y-65.626 Z-11.236
N6255 Y-65.696 Z-10.995
N6260 Y-65.751 Z-10.75
N6265 Y-65.79 Z-10.501
N6270 Y-65.814 Z-10.251
N6275 Y-65.822 Z-10.
N6280 G0 Z11.
N6285 X-21.881 Y16.931
N6290 G1 Z-10. F#103
N6295 X-21.875 Y16.926 Z-10.251
N6300 X-21.857 Y16.91 Z-10.501
N6305 X-21.827 Y16.884 Z-10.75
N6310 X-21.786 Y16.848 Z-10.995
N6315 X-21.733 Y16.802 Z-11.236
N6320 X-21.669 Y16.747 Z-11.472
N6325 X-21.593 Y16.681 Z-11.703
N6330 X-21.507 Y16.606 Z-11.927
N6335 X-21.41 Y16.523 Z-12.143
N6340 X-21.304 Y16.43 Z-12.351
N6345 X-21.187 Y16.329 Z-12.55
N6350 X-21.062 Y16.22 Z-12.738
N6355 X-20.928 Y16.104 Z-12.916
N6360 X-20.786 Y15.98 Z-13.082
N6365 X-20.636 Y15.85 Z-13.236
N6370 X-20.479 Y15.714 Z-13.377
N6375 X-20.315 Y15.572 Z-13.505
N6380 X-20.146 Y15.425 Z-13.619
N6385 X-19.972 Y15.274 Z-13.719
N6390 X-19.794 Y15.119 Z-13.804
N6395 X-19.611 Y14.961 Z-13.874
N6400 X-19.426 Y14.8 Z-13.929
N6405 X-19.239 Y14.637 Z-13.968
N6410 X-19.05 Y14.473 Z-13.992
N6415 X-18.86 Y14.308 Z-14.
N6420 X-9.231 Y5.948
N6425 G2 X-5.865 Y1.053 I-7.769 J-8.948 F#100
N6430 G1 X-2.588 Y-7.949
N6435 G2 X-1.15 Y-16.106 I-22.412 J-8.157
N6440 G1 X-1.172 Y-56.947
N6445 X-1.175 Y-62.525 F#104
N6450 Y-62.776 Z-13.992
N6455 Y-63.026 Z-13.968
N6460 Y-63.275 Z-13.929
N6465 Y-63.52 Z-13.874
N6470 Y-63.761 Z-13.804
N6475 X-1.176 Y-63.998 Z-13.719
N6480 Y-64.228 Z-13.619
N6485 Y-64.452 Z-13.505
N6490 Y-64.668 Z-13.377
N6495 Y-64.876 Z-13.236
N6500 Y-65.075 Z-13.082
N6505 Y-65.263 Z-12.916
N6510 Y-65.441 Z-12.738
N6515 Y-65.607 Z-12.55
N6520 X-1.177 Y-65.761 Z-12.351
N6525 Y-65.902 Z-12.143
N6530 Y-66.03 Z-11.927
N6535 Y-66.144 Z-11.703
N6540 Y-66.244 Z-11.472
N6545 Y-66.329 Z-11.236
N6550 Y-66.399 Z-10.995
N6555 Y-66.454 Z-10.75
N6560 Y-66.493 Z-10.501
N6565 Y-66.517 Z-10.251
N6570 Y-66.525 Z-10.
N6575 G0 Z11.
N6580 X-27.531 Y16.931
N6585 G1 Z-10. F#103
N6590 X-27.524 Y16.927 Z-10.251
N6595 X-27.505 Y16.913 Z-10.501
N6600 X-27.472 Y16.892 Z-10.75
N6605 X-27.426 Y16.861 Z-10.995
N6610 X-27.368 Y16.822 Z-11.236
N6615 X-27.297 Y16.775 Z-11.472
N6620 X-27.214 Y16.72 Z-11.703
N6625 X-27.119 Y16.657 Z-11.927
N6630 X-27.013 Y16.586 Z-12.143
N6635 X-26.895 Y16.507 Z-12.351
N6640 X-26.767 Y16.422 Z-12.55
N6645 X-26.629 Y16.33 Z-12.738
N6650 X-26.481 Y16.231 Z-12.916
N6655 X-26.324 Y16.127 Z-13.082
N6660 X-26.159 Y16.017 Z-13.236
N6665 X-25.986 Y15.902 Z-13.377
N6670 X-25.806 Y15.782 Z-13.505
N6675 X-25.619 Y15.658 Z-13.619
N6680 X-25.427 Y15.53 Z-13.719
N6685 X-25.231 Y15.399 Z-13.804
N6690 X-25.03 Y15.265 Z-13.874
N6695 X-24.826 Y15.129 Z-13.929
N6700 X-24.619 Y14.991 Z-13.968
N6705 X-24.411 Y14.853 Z-13.992
N6710 X-24.202 Y14.714 Z-14.
N6715 X-11.041 Y5.947
N6720 G2 X-6.898 Y0.677 I-5.959 J-8.947 F#100
N6725 G1 X-3.622 Y-8.325
N6730 G2 X-2.25 Y-16.106 I-21.378 J-7.781
N6735 G1 X-2.272 Y-56.947
N6740 X-2.275 Y-62.947 F#104
N6745 Y-63.198 Z-13.992
N6750 Y-63.448 Z-13.968
N6755 Y-63.696 Z-13.929
N6760 Y-63.942 Z-13.874
N6765 Y-64.183 Z-13.804
N6770 Y-64.419 Z-13.719
N6775 X-2.276 Y-64.65 Z-13.619
N6780 Y-64.874 Z-13.505
N6785 Y-65.09 Z-13.377
N6790 Y-65.298 Z-13.236
N6795 Y-65.497 Z-13.082
N6800 Y-65.685 Z-12.916
N6805 Y-65.863 Z-12.738
N6810 Y-66.029 Z-12.55
N6815 Y-66.183 Z-12.351
N6820 Y-66.324 Z-12.143
N6825 X-2.277 Y-66.452 Z-11.927
N6830 Y-66.566 Z-11.703
N6835 Y-66.666 Z-11.472
N6840 Y-66.751 Z-11.236
N6845 Y-66.821 Z-10.995
N6850 Y-66.876 Z-10.75
N6855 Y-66.915 Z-10.501
N6860 Y-66.939 Z-10.251
N6865 Y-66.947 Z-10.
N6870 G0 Z11.
N6875 X-34.454 Y-5.786
N6880 G1 Z-10. F#103
N6885 X-34.451 Y-5.779 Z-10.251
N6890 X-34.443 Y-5.756 Z-10.501
N6895 X-34.43 Y-5.719 Z-10.75
N6900 X-34.411 Y-5.668 Z-10.995
N6905 X-34.387 Y-5.602 Z-11.236
N6910 X-34.358 Y-5.522 Z-11.472
N6915 X-34.324 Y-5.428 Z-11.703
N6920 X-34.285 Y-5.321 Z-11.927
N6925 X-34.241 Y-5.201 Z-12.143
N6930 X-34.193 Y-5.068 Z-12.351
N6935 X-34.14 Y-4.923 Z-12.55
N6940 X-34.083 Y-4.767 Z-12.738
N6945 X-34.022 Y-4.6 Z-12.916
N6950 X-33.958 Y-4.423 Z-13.082
N6955 X-33.89 Y-4.237 Z-13.236
N6960 X-33.819 Y-4.041 Z-13.377
N6965 X-33.745 Y-3.838 Z-13.505
N6970 X-33.668 Y-3.628 Z-13.619
N6975 X-33.589 Y-3.411 Z-13.719
N6980 X-33.509 Y-3.189 Z-13.804
N6985 X-33.426 Y-2.962 Z-13.874
N6990 X-33.342 Y-2.732 Z-13.929
N6995 X-33.257 Y-2.498 Z-13.968
N7000 X-33.172 Y-2.263 Z-13.992
N7005 X-33.086 Y-2.027 Z-14.
N7010 X-32.949 Y-1.651
N7015 X-32.102 Y0.677 F#100
N7020 G2 X-28.148 Y5.818 I10.102 J-3.677
N7025 G3 X-27.947 Y6.058 Z-13.987 I-0.343 J0.492
N7030 X-27.894 Y6.364 Z-13.95 I-0.544 J0.253
N7035 X-28.036 Y6.701 Z-13.908 I-0.598 J-0.053
N7040 X-28.241 Y6.856 Z-13.9 I-0.456 J-0.39
N7045 X-28.925 Y6.725 I-0.251 J-0.545
N7050 G1 X-32.103 Y3.402
N7055 G3 X-32.248 Y3.147 I0.434 J-0.415
N7060 G1 X-33.513 Y-1.446
N7065 X-33.519 Y-1.47
N7070 X-33.524 Y-1.494
N7075 X-34.101 Y-4.548
N7080 G3 X-33.974 Y-5.042 I0.59 J-0.111
N7085 X-33.719 Y-5.223 Z-13.913 I0.462 J0.382
N7090 X-33.128 Y-5.121 Z-13.987 I0.207 J0.563
N7095 X-32.948 Y-4.865 Z-14. I-0.384 J0.461
N7100 G1 X-31.068 Y0.3
N7105 G2 X-25.613 Y5.948 I9.068 J-3.3
N7110 X-25.389 Y5.992 Z-13.993 I0.225 J-0.556
N7115 G1 X-25.188 Z-13.977
N7120 X-24.988 Z-13.95
N7125 X-24.779 Z-13.922
N7130 X-24.569 Z-13.906
N7135 X-24.358 Z-13.9
N7140 X-14.644
N7145 X-14.433 Z-13.906
N7150 X-14.222 Z-13.922
N7155 X-14.013 Z-13.95
N7160 X-13.814 Z-13.977
N7165 X-13.613 Z-13.993
N7170 G2 X-13.388 Y5.949 Z-14. I0. J-0.6
N7175 X-7.932 Y0.3 I-3.612 J-8.949
N7180 G1 X-4.656 Y-8.701
N7185 G2 X-3.35 Y-16.106 I-20.344 J-7.405
N7190 G1 X-3.371 Y-56.947
N7195 X-3.374 Y-62.947 F#104
N7200 X-3.375 Y-63.198 Z-13.992
N7205 Y-63.448 Z-13.968
N7210 Y-63.696 Z-13.929
N7215 Y-63.942 Z-13.874
N7220 Y-64.183 Z-13.804
N7225 Y-64.419 Z-13.719
N7230 Y-64.65 Z-13.619
N7235 Y-64.874 Z-13.505
N7240 X-3.376 Y-65.09 Z-13.377
N7245 Y-65.298 Z-13.236
N7250 Y-65.497 Z-13.082
N7255 Y-65.685 Z-12.916
N7260 Y-65.863 Z-12.738
N7265 Y-66.029 Z-12.55
N7270 Y-66.183 Z-12.351
N7275 Y-66.324 Z-12.143
N7280 Y-66.452 Z-11.927
N7285 Y-66.566 Z-11.703
N7290 Y-66.666 Z-11.472
N7295 Y-66.751 Z-11.236
N7300 Y-66.821 Z-10.995
N7305 Y-66.876 Z-10.75
N7310 Y-66.915 Z-10.501
N7315 Y-66.939 Z-10.251
N7320 Y-66.947 Z-10.
N7325 G0 Z11.
N7330 X-34.457 Y-12.218
N7335 G1 Z-10. F#103
N7340 X-34.454 Y-12.21 Z-10.251
N7345 X-34.446 Y-12.188 Z-10.501
N7350 X-34.433 Y-12.151 Z-10.75
N7355 X-34.414 Y-12.1 Z-10.995
N7360 X-34.39 Y-12.034 Z-11.236
N7365 X-34.361 Y-11.954 Z-11.472
N7370 X-34.327 Y-11.86 Z-11.703
N7375 X-34.287 Y-11.753 Z-11.927
N7380 X-34.244 Y-11.633 Z-12.143
N7385 X-34.195 Y-11.5 Z-12.351
N7390 X-34.142 Y-11.355 Z-12.55
N7395 X-34.085 Y-11.199 Z-12.738
N7400 X-34.025 Y-11.032 Z-12.916
N7405 X-33.96 Y-10.855 Z-13.082
N7410 X-33.892 Y-10.669 Z-13.236
N7415 X-33.821 Y-10.474 Z-13.377
N7420 X-33.746 Y-10.27 Z-13.505
N7425 X-33.67 Y-10.06 Z-13.619
N7430 X-33.591 Y-9.843 Z-13.719
N7435 X-33.51 Y-9.621 Z-13.804
N7440 X-33.427 Y-9.395 Z-13.874
N7445 X-33.343 Y-9.164 Z-13.929
N7450 X-33.258 Y-8.931 Z-13.968
N7455 X-33.172 Y-8.696 Z-13.992
N7460 X-33.086 Y-8.46 Z-14.
N7465 X-32.949 Y-8.084
N7470 X-31.462 Y-4.03 F#100
N7475 X-29.961 Y0.019
N7480 G2 X-22. Y5.55 I7.961 J-2.965
N7485 G1 X-17.
N7490 G2 X-9.039 Y0.019 I0. J-8.496
N7495 G1 X-7.915 Y-3.01
N7500 X-6.798 Y-6.042
N7505 X-5.689 Y-9.077
N7510 G2 X-4.45 Y-16.106 I-19.311 J-7.029
N7515 G1 X-4.471 Y-56.947
N7520 X-4.474 Y-62.947 F#104
N7525 Y-63.198 Z-13.992
N7530 Y-63.448 Z-13.968
N7535 Y-63.696 Z-13.929
N7540 X-4.475 Y-63.942 Z-13.874
N7545 Y-64.183 Z-13.804
N7550 Y-64.419 Z-13.719
N7555 Y-64.65 Z-13.619
N7560 Y-64.874 Z-13.505
N7565 Y-65.09 Z-13.377
N7570 Y-65.298 Z-13.236
N7575 Y-65.497 Z-13.082
N7580 Y-65.685 Z-12.916
N7585 X-4.476 Y-65.863 Z-12.738
N7590 Y-66.029 Z-12.55
N7595 Y-66.183 Z-12.351
N7600 Y-66.324 Z-12.143
N7605 Y-66.452 Z-11.927
N7610 Y-66.566 Z-11.703
N7615 Y-66.666 Z-11.472
N7620 Y-66.751 Z-11.236
N7625 Y-66.821 Z-10.995
N7630 Y-66.876 Z-10.75
N7635 Y-66.915 Z-10.501
N7640 Y-66.939 Z-10.251
N7645 Y-66.947 Z-10.
N7650 G0 Z11.
N7655 X-33.941 Y-16.01
N7660 G1 Z-10. F#103
N7665 X-33.939 Y-16.002 Z-10.251
N7670 X-33.934 Y-15.979 Z-10.501
N7675 X-33.925 Y-15.941 Z-10.75
N7680 X-33.913 Y-15.888 Z-10.995
N7685 X-33.897 Y-15.819 Z-11.236
N7690 X-33.878 Y-15.736 Z-11.472
N7695 X-33.855 Y-15.639 Z-11.703
N7700 X-33.83 Y-15.528 Z-11.927
N7705 X-33.801 Y-15.403 Z-12.143
N7710 X-33.769 Y-15.266 Z-12.351
N7715 X-33.734 Y-15.116 Z-12.55
N7720 X-33.697 Y-14.954 Z-12.738
N7725 X-33.657 Y-14.781 Z-12.916
N7730 X-33.614 Y-14.597 Z-13.082
N7735 X-33.57 Y-14.404 Z-13.236
N7740 X-33.523 Y-14.201 Z-13.377
N7745 X-33.474 Y-13.99 Z-13.505
N7750 X-33.424 Y-13.772 Z-13.619
N7755 X-33.372 Y-13.548 Z-13.719
N7760 X-33.318 Y-13.317 Z-13.804
N7765 X-33.264 Y-13.082 Z-13.874
N7770 X-33.209 Y-12.843 Z-13.929
N7775 X-33.153 Y-12.601 Z-13.968
N7780 X-33.097 Y-12.358 Z-13.992
N7785 X-33.04 Y-12.113 Z-14.
N7790 X-32.95 Y-11.723
N7795 G2 X-32.277 Y-9.454 I18.949 J-4.383 F#100
N7800 G1 X-29.001 Y-0.452
N7805 G2 X-22. Y4.45 I7.001 J-2.548
N7810 G1 X-17.
N7815 G2 X-9.999 Y-0.452 I0. J-7.45
N7820 G1 X-6.723 Y-9.454
N7825 G2 X-5.55 Y-16.106 I-18.277 J-6.652
N7830 G1 X-5.571 Y-56.947
N7835 X-5.574 Y-62.947 F#104
N7840 Y-63.198 Z-13.992
N7845 Y-63.448 Z-13.968
N7850 Y-63.696 Z-13.929
N7855 Y-63.942 Z-13.874
N7860 Y-64.183 Z-13.804
N7865 X-5.575 Y-64.419 Z-13.719
N7870 Y-64.65 Z-13.619
N7875 Y-64.874 Z-13.505
N7880 Y-65.09 Z-13.377
N7885 Y-65.298 Z-13.236
N7890 Y-65.497 Z-13.082
N7895 Y-65.685 Z-12.916
N7900 Y-65.863 Z-12.738
N7905 Y-66.029 Z-12.55
N7910 Y-66.183 Z-12.351
N7915 X-5.576 Y-66.324 Z-12.143
N7920 Y-66.452 Z-11.927
N7925 Y-66.566 Z-11.703
N7930 Y-66.666 Z-11.472
N7935 Y-66.751 Z-11.236
N7940 Y-66.821 Z-10.995
N7945 Y-66.876 Z-10.75
N7950 Y-66.915 Z-10.501
N7955 Y-66.939 Z-10.251
N7960 Y-66.947 Z-10.
N7965 G0 Z11.
N7970 X-34.376 Y-66.255
N7975 G1 Z-10.4 F#103
N7980 X-34.375 Y-66.248 Z-10.635
N7985 X-34.371 Y-66.225 Z-10.87
N7990 X-34.365 Y-66.187 Z-11.102
N7995 X-34.357 Y-66.134 Z-11.332
N8000 X-34.346 Y-66.066 Z-11.557
N8005 X-34.333 Y-65.984 Z-11.778
N8010 X-34.318 Y-65.888 Z-11.992
N8015 X-34.301 Y-65.779 Z-12.2
N8020 X-34.281 Y-65.656 Z-12.4
N8025 X-34.26 Y-65.52 Z-12.592
N8030 X-34.236 Y-65.373 Z-12.774
N8035 X-34.211 Y-65.214 Z-12.946
N8040 X-34.184 Y-65.044 Z-13.107
N8045 X-34.156 Y-64.864 Z-13.256
N8050 X-34.126 Y-64.675 Z-13.393
N8055 X-34.095 Y-64.477 Z-13.518
N8060 X-34.062 Y-64.272 Z-13.629
N8065 X-34.028 Y-64.06 Z-13.726
N8070 X-33.994 Y-63.842 Z-13.809
N8075 X-33.959 Y-63.62 Z-13.877
N8080 X-33.923 Y-63.393 Z-13.931
N8085 X-33.886 Y-63.164 Z-13.969
N8090 X-33.85 Y-62.932 Z-13.992
N8095 X-33.813 Y-62.699 Z-14.
N8100 X-32.449 Y-54.09
N8105 G3 X-32.4 Y-53.464 I-3.951 J0.626
N8110 G1 Y-16.106 F#100
N8115 G2 X-31.29 Y-9.813 I18.4 J0.
N8120 G1 X-28.014 Y-0.811
N8125 G2 X-22. Y3.4 I6.014 J-2.189
N8130 G1 X-17.
N8135 G2 X-10.986 Y-0.811 I0. J-6.4
N8140 G1 X-7.71 Y-9.813
N8145 G2 X-6.6 Y-16.106 I-17.29 J-6.293
N8150 G1 Y-56.948
N8155 G3 X-6.551 Y-57.574 I4. J0. F#104
N8160 G1 X-5.612 Y-63.5
N8165 X-5.573 Y-63.748 Z-13.992
N8170 X-5.534 Y-63.995 Z-13.968
N8175 X-5.495 Y-64.24 Z-13.929
N8180 X-5.457 Y-64.483 Z-13.874
N8185 X-5.419 Y-64.721 Z-13.804
N8190 X-5.382 Y-64.955 Z-13.719
N8195 X-5.346 Y-65.182 Z-13.619
N8200 X-5.311 Y-65.403 Z-13.505
N8205 X-5.277 Y-65.617 Z-13.377
N8210 X-5.244 Y-65.822 Z-13.236
N8215 X-5.213 Y-66.019 Z-13.082
N8220 X-5.184 Y-66.205 Z-12.916
N8225 X-5.156 Y-66.38 Z-12.738
N8230 X-5.13 Y-66.544 Z-12.55
N8235 X-5.106 Y-66.696 Z-12.351
N8240 X-5.084 Y-66.836 Z-12.143
N8245 X-5.064 Y-66.962 Z-11.927
N8250 X-5.046 Y-67.075 Z-11.703
N8255 X-5.03 Y-67.174 Z-11.472
N8260 X-5.017 Y-67.258 Z-11.236
N8265 X-5.006 Y-67.327 Z-10.995
N8270 X-4.997 Y-67.381 Z-10.75
N8275 X-4.991 Y-67.42 Z-10.501
N8280 X-4.988 Y-67.443 Z-10.251
N8285 X-4.986 Y-67.451 Z-10.
N8290 G0 Z11.
N8295 X-34.453 Y-5.491
N8300 G1 Z-17. F#103
N8305 X-34.45 Y-5.483 Z-17.251
N8310 X-34.442 Y-5.461 Z-17.501
N8315 X-34.429 Y-5.424 Z-17.75
N8320 X-34.41 Y-5.373 Z-17.995
N8325 X-34.386 Y-5.307 Z-18.236
N8330 X-34.357 Y-5.227 Z-18.472
N8335 X-34.323 Y-5.133 Z-18.703
N8340 X-34.284 Y-5.026 Z-18.927
N8345 X-34.24 Y-4.906 Z-19.143
N8350 X-34.192 Y-4.773 Z-19.351
N8355 X-34.139 Y-4.628 Z-19.55
N8360 X-34.082 Y-4.472 Z-19.738
N8365 X-34.021 Y-4.305 Z-19.916
N8370 X-33.957 Y-4.128 Z-20.082
N8375 X-33.889 Y-3.941 Z-20.236
N8380 X-33.818 Y-3.746 Z-20.377
N8385 X-33.744 Y-3.543 Z-20.505
N8390 X-33.667 Y-3.332 Z-20.619
N8395 X-33.588 Y-3.116 Z-20.719
N8400 X-33.508 Y-2.894 Z-20.804
N8405 X-33.425 Y-2.667 Z-20.874
N8410 X-33.341 Y-2.436 Z-20.929
N8415 X-33.256 Y-2.203 Z-20.968
N8420 X-33.171 Y-1.968 Z-20.992
N8425 X-33.085 Y-1.732 Z-21.
N8430 X-32.948 Y-1.356
N8435 X-32.196 Y0.711 F#100
N8440 G2 X-28.369 Y5.784 I10.196 J-3.711
N8445 G3 X-28.172 Y6.027 Z-20.987 I-0.352 J0.486
N8450 X-28.124 Y6.334 Z-20.95 I-0.549 J0.243
N8455 X-28.27 Y6.666 Z-20.909 I-0.597 J-0.064
N8460 X-28.48 Y6.82 Z-20.9 I-0.451 J-0.396
N8465 X-29.157 Y6.682 I-0.241 J-0.55
N8470 G1 X-32.162 Y3.499
N8475 G3 X-32.305 Y3.246 I0.436 J-0.412
N8480 G1 X-33.512 Y-1.151
N8485 X-33.523 Y-1.198
N8490 X-34.102 Y-4.259
N8495 G3 X-33.975 Y-4.753 I0.59 J-0.112
N8500 X-33.72 Y-4.933 Z-20.913 I0.462 J0.382
N8505 X-33.129 Y-4.831 Z-20.987 I0.207 J0.563
N8510 X-32.949 Y-4.575 Z-21. I-0.384 J0.461
N8515 G1 X-31.162 Y0.335
N8520 G2 X-25.873 Y5.948 I9.162 J-3.335
N8525 G3 X-25.679 Y6.082 Z-20.993 I-0.238 J0.551
N8530 X-25.553 Y6.28 Z-20.972 I-0.432 J0.416
N8535 G1 X-25.495 Y6.426 Z-20.95
N8540 X-25.419 Y6.621 Z-20.922
N8545 X-25.342 Y6.816 Z-20.906
N8550 X-25.265 Y7.013 Z-20.9
N8555 X-25.049 Y7.566
N8560 G2 X-24.441 Y7.945 I0.559 J-0.219
N8565 G1 X3.273 Y5.675
N8570 G3 X3.371 Y6.871 I0.049 J0.598
N8575 X2.79 Y5.996 I-0.049 J-0.598
N8580 G1 X2.806 Y5.965
N8585 X2.904 Y5.778 Z-20.906
N8590 X3.002 Y5.592 Z-20.922
N8595 X3.099 Y5.407 Z-20.95
N8600 X3.196 Y5.221 Z-20.978
N8605 X3.294 Y5.035 Z-20.994
N8610 X3.392 Y4.848 Z-21.
N8615 G2 X3.532 Y4.473 I-20.392 J-7.848
N8620 G1 X5.949 Y-2.166
N8625 G3 X6.129 Y-2.422 Z-20.987 I0.564 J0.205
N8630 X6.411 Y-2.552 Z-20.95 I0.384 J0.461
N8635 X6.755 Y-2.51 Z-20.91 I0.102 J0.591
N8640 X6.975 Y-2.343 Z-20.9 I-0.242 J0.549
N8645 X7.044 Y-1.683 I-0.462 J0.382
N8650 G1 X2.959 Y6.132
N8655 G3 X2.489 Y6.451 I-0.532 J-0.278
N8660 X2.15 Y6.386 Z-20.915 I-0.062 J-0.597
N8665 X1.94 Y6.204 Z-20.95 I0.278 J-0.532
N8670 X1.83 Y5.914 Z-20.987 I0.487 J-0.35
N8675 X1.882 Y5.605 Z-21. I0.597 J-0.06
N8680 G2 X2.499 Y4.097 I-18.882 J-8.605
N8685 G1 X5.775 Y-4.905
N8690 X5.863 Y-5.149
N8695 X5.949 Y-5.394
N8700 G3 X6.124 Y-5.653 Z-20.987 I0.567 J0.196
N8705 X6.404 Y-5.787 Z-20.95 I0.391 J0.455
N8710 X6.744 Y-5.753 Z-20.91 I0.111 J0.59
N8715 X6.972 Y-5.587 Z-20.9 I-0.228 J0.555
N8720 X7.057 Y-4.938 I-0.456 J0.39
N8725 G1 X1.601 Y6.419
N8730 G3 X1.097 Y6.758 I-0.541 J-0.26
N8735 X0.8 Y6.7 Z-20.912 I-0.037 J-0.599
N8740 X0.559 Y6.489 Z-20.95 I0.26 J-0.541
N8745 X0.461 Y6.194 Z-20.987 I0.501 J-0.33
N8750 X0.525 Y5.888 Z-21. I0.599 J-0.035
N8755 G2 X1.465 Y3.721 I-17.525 J-8.888
N8760 G1 X4.741 Y-5.281
N8765 G2 X5.95 Y-9.485 I-29.741 J-10.825
N8770 G3 X6.093 Y-9.763 Z-20.987 I0.587 J0.126
N8775 X6.354 Y-9.931 Z-20.95 I0.444 J0.404
N8780 X6.72 Z-20.908 I0.183 J0.572
N8785 X6.942 Y-9.802 Z-20.9 I-0.183 J0.571
N8790 X7.087 Y-9.121 I-0.405 J0.442
N8795 G1 X0.326 Y6.475
N8800 G3 X-0.208 Y6.837 I-0.55 J-0.239
N8805 X-0.464 Y6.787 Z-20.909 I-0.016 J-0.6
N8810 X-0.737 Y6.549 Z-20.95 I0.239 J-0.55
N8815 X-0.825 Y6.251 Z-20.987 I0.512 J-0.312
N8820 X-0.75 Y5.947 Z-21. I0.6 J-0.014
N8825 G2 X0.431 Y3.344 I-16.25 J-8.947
N8830 G1 X1.577 Y0.181
N8835 X2.714 Y-2.986
N8840 X3.841 Y-6.157
N8845 G2 X5.55 Y-16.106 I-28.113 J-9.949
N8850 G1 X5.529 Y-53.1
N8855 X5.528 Y-53.147 F#104
N8860 Y-53.398 Z-20.992
N8865 Y-53.648 Z-20.968
N8870 Y-53.897 Z-20.929
N8875 Y-54.142 Z-20.874
N8880 Y-54.383 Z-20.804
N8885 Y-54.62 Z-20.719
N8890 Y-54.85 Z-20.619
N8895 X5.527 Y-55.074 Z-20.505
N8900 Y-55.29 Z-20.377
N8905 Y-55.498 Z-20.236
N8910 Y-55.697 Z-20.082
N8915 Y-55.885 Z-19.916
N8920 Y-56.063 Z-19.738
N8925 Y-56.229 Z-19.55
N8930 Y-56.383 Z-19.351
N8935 Y-56.524 Z-19.143
N8940 X5.526 Y-56.652 Z-18.927
N8945 Y-56.766 Z-18.703
N8950 Y-56.866 Z-18.472
N8955 Y-56.951 Z-18.236
N8960 Y-57.021 Z-17.995
N8965 Y-57.076 Z-17.75
N8970 Y-57.116 Z-17.501
N8975 Y-57.139 Z-17.251
N8980 Y-57.147 Z-17.
N8985 G0 Z11.
N8990 X-8.579 Y16.931
N8995 G1 Z-17. F#103
N9000 X-8.575 Y16.924 Z-17.251
N9005 X-8.563 Y16.904 Z-17.501
N9010 X-8.543 Y16.87 Z-17.75
N9015 X-8.515 Y16.823 Z-17.995
N9020 X-8.479 Y16.763 Z-18.236
N9025 X-8.435 Y16.69 Z-18.472
N9030 X-8.384 Y16.604 Z-18.703
N9035 X-8.326 Y16.506 Z-18.927
N9040 X-8.26 Y16.396 Z-19.143
N9045 X-8.188 Y16.275 Z-19.351
N9050 X-8.109 Y16.143 Z-19.55
N9055 X-8.024 Y16. Z-19.738
N9060 X-7.932 Y15.848 Z-19.916
N9065 X-7.836 Y15.686 Z-20.082
N9070 X-7.734 Y15.515 Z-20.236
N9075 X-7.627 Y15.337 Z-20.377
N9080 X-7.516 Y15.151 Z-20.505
N9085 X-7.402 Y14.959 Z-20.619
N9090 X-7.283 Y14.761 Z-20.719
N9095 X-7.162 Y14.558 Z-20.804
N9100 X-7.038 Y14.351 Z-20.874
N9105 X-6.913 Y14.14 Z-20.929
N9110 X-6.785 Y13.927 Z-20.968
N9115 X-6.657 Y13.713 Z-20.992
N9120 X-6.528 Y13.497 Z-21.
N9125 X-2.019 Y5.949
N9130 G2 X-0.602 Y2.968 I-14.981 J-8.949 F#100
N9135 G1 X1.085 Y-1.687
N9140 X2.758 Y-6.348
N9145 G2 X4.45 Y-16.106 I-27.295 J-9.758
N9150 G1 X4.428 Y-54.93
N9155 Y-54.977 F#104
N9160 Y-55.228 Z-20.992
N9165 X4.427 Y-55.478 Z-20.968
N9170 Y-55.726 Z-20.929
N9175 Y-55.972 Z-20.874
N9180 Y-56.213 Z-20.804
N9185 Y-56.449 Z-20.719
N9190 Y-56.68 Z-20.619
N9195 Y-56.904 Z-20.505
N9200 Y-57.12 Z-20.377
N9205 X4.426 Y-57.328 Z-20.236
N9210 Y-57.527 Z-20.082
N9215 Y-57.715 Z-19.916
N9220 Y-57.893 Z-19.738
N9225 Y-58.059 Z-19.55
N9230 Y-58.213 Z-19.351
N9235 Y-58.354 Z-19.143
N9240 Y-58.482 Z-18.927
N9245 Y-58.596 Z-18.703
N9250 Y-58.696 Z-18.472
N9255 Y-58.781 Z-18.236
N9260 Y-58.851 Z-17.995
N9265 Y-58.906 Z-17.75
N9270 X4.425 Y-58.945 Z-17.501
N9275 Y-58.969 Z-17.251
N9280 Y-58.977 Z-17.
N9285 G0 Z11.
N9290 X-10.497 Y16.931
N9295 G1 Z-17. F#103
N9300 X-10.493 Y16.924 Z-17.251
N9305 X-10.48 Y16.904 Z-17.501
N9310 X-10.458 Y16.872 Z-17.75
N9315 X-10.428 Y16.826 Z-17.995
N9320 X-10.39 Y16.767 Z-18.236
N9325 X-10.343 Y16.696 Z-18.472
N9330 X-10.289 Y16.612 Z-18.703
N9335 X-10.226 Y16.517 Z-18.927
N9340 X-10.156 Y16.41 Z-19.143
N9345 X-10.079 Y16.291 Z-19.351
N9350 X-9.995 Y16.163 Z-19.55
N9355 X-9.904 Y16.023 Z-19.738
N9360 X-9.807 Y15.875 Z-19.916
N9365 X-9.703 Y15.717 Z-20.082
N9370 X-9.595 Y15.551 Z-20.236
N9375 X-9.481 Y15.377 Z-20.377
N9380 X-9.363 Y15.196 Z-20.505
N9385 X-9.24 Y15.008 Z-20.619
N9390 X-9.114 Y14.815 Z-20.719
N9395 X-8.985 Y14.618 Z-20.804
N9400 X-8.852 Y14.416 Z-20.874
N9405 X-8.718 Y14.21 Z-20.929
N9410 X-8.582 Y14.003 Z-20.968
N9415 X-8.446 Y13.793 Z-20.992
N9420 X-8.308 Y13.583 Z-21.
N9425 X-3.316 Y5.948
N9430 G2 X-1.636 Y2.592 I-13.684 J-8.948 F#100
N9435 G1 X1.64 Y-6.41
N9440 G2 X3.35 Y-16.106 I-26.64 J-9.696
N9445 G1 X3.328 Y-55.89
N9450 X3.327 Y-56.781 F#104
N9455 Y-57.032 Z-20.992
N9460 Y-57.282 Z-20.968
N9465 Y-57.53 Z-20.929
N9470 X3.326 Y-57.775 Z-20.874
N9475 Y-58.017 Z-20.804
N9480 Y-58.253 Z-20.719
N9485 Y-58.484 Z-20.619
N9490 Y-58.708 Z-20.505
N9495 Y-58.924 Z-20.377
N9500 Y-59.132 Z-20.236
N9505 Y-59.33 Z-20.082
N9510 X3.325 Y-59.519 Z-19.916
N9515 Y-59.697 Z-19.738
N9520 Y-59.863 Z-19.55
N9525 Y-60.017 Z-19.351
N9530 Y-60.158 Z-19.143
N9535 Y-60.286 Z-18.927
N9540 Y-60.4 Z-18.703
N9545 Y-60.5 Z-18.472
N9550 Y-60.585 Z-18.236
N9555 Y-60.655 Z-17.995
N9560 Y-60.71 Z-17.75
N9565 Y-60.749 Z-17.501
N9570 Y-60.773 Z-17.251
N9575 Y-60.781 Z-17.
N9580 G0 Z11.
N9585 X-12.611 Y16.931
N9590 G1 Z-17. F#103
N9595 X-12.607 Y16.925 Z-17.251
N9600 X-12.593 Y16.906 Z-17.501
N9605 X-12.57 Y16.874 Z-17.75
N9610 X-12.537 Y16.83 Z-17.995
N9615 X-12.496 Y16.773 Z-18.236
N9620 X-12.446 Y16.704 Z-18.472
N9625 X-12.388 Y16.623 Z-18.703
N9630 X-12.321 Y16.531 Z-18.927
N9635 X-12.246 Y16.427 Z-19.143
N9640 X-12.163 Y16.313 Z-19.351
N9645 X-12.073 Y16.188 Z-19.55
N9650 X-11.975 Y16.054 Z-19.738
N9655 X-11.871 Y15.91 Z-19.916
N9660 X-11.76 Y15.757 Z-20.082
N9665 X-11.644 Y15.596 Z-20.236
N9670 X-11.522 Y15.428 Z-20.377
N9675 X-11.395 Y15.253 Z-20.505
N9680 X-11.263 Y15.072 Z-20.619
N9685 X-11.128 Y14.885 Z-20.719
N9690 X-10.989 Y14.693 Z-20.804
N9695 X-10.848 Y14.498 Z-20.874
N9700 X-10.704 Y14.299 Z-20.929
N9705 X-10.558 Y14.098 Z-20.968
N9710 X-10.411 Y13.896 Z-20.992
N9715 X-10.264 Y13.693 Z-21.
N9720 X-4.652 Y5.949
N9725 G2 X-2.67 Y2.216 I-12.348 J-8.949 F#100
N9730 G1 X0.607 Y-6.786
N9735 G2 X2.25 Y-16.106 I-25.607 J-9.32
N9740 G1 X2.228 Y-56.482
N9745 X2.226 Y-58.966 F#104
N9750 Y-59.217 Z-20.992
N9755 Y-59.468 Z-20.968
N9760 Y-59.716 Z-20.929
N9765 Y-59.961 Z-20.874
N9770 X2.225 Y-60.202 Z-20.804
N9775 Y-60.439 Z-20.719
N9780 Y-60.669 Z-20.619
N9785 Y-60.893 Z-20.505
N9790 Y-61.11 Z-20.377
N9795 Y-61.317 Z-20.236
N9800 Y-61.516 Z-20.082
N9805 Y-61.704 Z-19.916
N9810 Y-61.882 Z-19.738
N9815 X2.224 Y-62.048 Z-19.55
N9820 Y-62.202 Z-19.351
N9825 Y-62.344 Z-19.143
N9830 Y-62.471 Z-18.927
N9835 Y-62.586 Z-18.703
N9840 Y-62.685 Z-18.472
N9845 Y-62.77 Z-18.236
N9850 Y-62.841 Z-17.995
N9855 Y-62.895 Z-17.75
N9860 Y-62.935 Z-17.501
N9865 Y-62.958 Z-17.251
N9870 Y-62.966 Z-17.
N9875 G0 Z11.
N9880 X-15. Y16.931
N9885 G1 Z-17. F#103
N9890 X-14.995 Y16.925 Z-17.251
N9895 X-14.98 Y16.906 Z-17.501
N9900 X-14.955 Y16.876 Z-17.75
N9905 X-14.92 Y16.833 Z-17.995
N9910 X-14.876 Y16.779 Z-18.236
N9915 X-14.822 Y16.713 Z-18.472
N9920 X-14.759 Y16.636 Z-18.703
N9925 X-14.687 Y16.547 Z-18.927
N9930 X-14.606 Y16.448 Z-19.143
N9935 X-14.517 Y16.339 Z-19.351
N9940 X-14.419 Y16.22 Z-19.55
N9945 X-14.314 Y16.091 Z-19.738
N9950 X-14.202 Y15.953 Z-19.916
N9955 X-14.083 Y15.807 Z-20.082
N9960 X-13.957 Y15.653 Z-20.236
N9965 X-13.826 Y15.492 Z-20.377
N9970 X-13.689 Y15.325 Z-20.505
N9975 X-13.548 Y15.151 Z-20.619
N9980 X-13.402 Y14.973 Z-20.719
N9985 X-13.252 Y14.789 Z-20.804
N9990 X-13.1 Y14.602 Z-20.874
N9995 X-12.945 Y14.412 Z-20.929
N10000 X-12.788 Y14.22 Z-20.968
N10005 X-12.63 Y14.026 Z-20.992
N10010 X-12.471 Y13.832 Z-21.
N10015 X-6.036 Y5.945
N10020 G2 X-3.703 Y1.84 I-10.964 J-8.945 F#100
N10025 G1 X-0.427 Y-7.162
N10030 G2 X1.15 Y-16.106 I-24.573 J-8.944
N10035 G1 X1.128 Y-56.82
N10040 X1.126 Y-60.383 F#104
N10045 Y-60.634 Z-20.992
N10050 X1.125 Y-60.884 Z-20.968
N10055 Y-61.132 Z-20.929
N10060 Y-61.377 Z-20.874
N10065 Y-61.619 Z-20.804
N10070 Y-61.855 Z-20.719
N10075 Y-62.086 Z-20.619
N10080 Y-62.31 Z-20.505
N10085 X1.124 Y-62.526 Z-20.377
N10090 Y-62.734 Z-20.236
N10095 Y-62.932 Z-20.082
N10100 Y-63.121 Z-19.916
N10105 Y-63.298 Z-19.738
N10110 Y-63.465 Z-19.55
N10115 Y-63.619 Z-19.351
N10120 Y-63.76 Z-19.143
N10125 Y-63.888 Z-18.927
N10130 Y-64.002 Z-18.703
N10135 Y-64.102 Z-18.472
N10140 Y-64.187 Z-18.236
N10145 Y-64.257 Z-17.995
N10150 Y-64.312 Z-17.75
N10155 X1.123 Y-64.351 Z-17.501
N10160 Y-64.375 Z-17.251
N10165 Y-64.383 Z-17.
N10170 G0 Z11.
N10175 X-17.845 Y16.931
N10180 G1 Z-17. F#103
N10185 X-17.839 Y16.925 Z-17.251
N10190 X-17.823 Y16.908 Z-17.501
N10195 X-17.796 Y16.88 Z-17.75
N10200 X-17.758 Y16.84 Z-17.995
N10205 X-17.71 Y16.789 Z-18.236
N10210 X-17.652 Y16.727 Z-18.472
N10215 X-17.584 Y16.654 Z-18.703
N10220 X-17.505 Y16.571 Z-18.927
N10225 X-17.418 Y16.478 Z-19.143
N10230 X-17.321 Y16.375 Z-19.351
N10235 X-17.215 Y16.263 Z-19.55
N10240 X-17.101 Y16.142 Z-19.738
N10245 X-16.979 Y16.013 Z-19.916
N10250 X-16.85 Y15.875 Z-20.082
N10255 X-16.714 Y15.731 Z-20.236
N10260 X-16.572 Y15.58 Z-20.377
N10265 X-16.423 Y15.422 Z-20.505
N10270 X-16.27 Y15.259 Z-20.619
N10275 X-16.112 Y15.091 Z-20.719
N10280 X-15.95 Y14.919 Z-20.804
N10285 X-15.784 Y14.743 Z-20.874
N10290 X-15.616 Y14.565 Z-20.929
N10295 X-15.446 Y14.384 Z-20.968
N10300 X-15.274 Y14.202 Z-20.992
N10305 X-15.102 Y14.019 Z-21.
N10310 X-7.5 Y5.947
N10315 G2 X-4.737 Y1.463 I-9.5 J-8.947 F#100
N10320 G1 X-3.691 Y-1.398
N10325 X-2.637 Y-4.256
N10330 X-1.575 Y-7.112
N10335 G2 X0.05 Y-16.106 I-24.078 J-8.994
N10340 G1 X0.028 Y-56.941
N10345 X0.025 Y-61.441 F#104
N10350 Y-61.692 Z-20.992
N10355 Y-61.942 Z-20.968
N10360 Y-62.19 Z-20.929
N10365 Y-62.436 Z-20.874
N10370 Y-62.677 Z-20.804
N10375 Y-62.913 Z-20.719
N10380 Y-63.144 Z-20.619
N10385 X0.024 Y-63.368 Z-20.505
N10390 Y-63.584 Z-20.377
N10395 Y-63.792 Z-20.236
N10400 Y-63.991 Z-20.082
N10405 Y-64.179 Z-19.916
N10410 Y-64.357 Z-19.738
N10415 Y-64.523 Z-19.55
N10420 Y-64.677 Z-19.351
N10425 Y-64.818 Z-19.143
N10430 Y-64.946 Z-18.927
N10435 X0.023 Y-65.06 Z-18.703
N10440 Y-65.16 Z-18.472
N10445 Y-65.245 Z-18.236
N10450 Y-65.315 Z-17.995
N10455 Y-65.37 Z-17.75
N10460 Y-65.409 Z-17.501
N10465 Y-65.433 Z-17.251
N10470 Y-65.441 Z-17.
N10475 G0 Z11.
N10480 X-21.484 Y16.931
N10485 G1 Z-17. F#103
N10490 X-21.479 Y16.926 Z-17.251
N10495 X-21.461 Y16.91 Z-17.501
N10500 X-21.431 Y16.884 Z-17.75
N10505 X-21.39 Y16.848 Z-17.995
N10510 X-21.338 Y16.801 Z-18.236
N10515 X-21.274 Y16.745 Z-18.472
N10520 X-21.199 Y16.679 Z-18.703
N10525 X-21.114 Y16.603 Z-18.927
N10530 X-21.018 Y16.518 Z-19.143
N10535 X-20.912 Y16.425 Z-19.351
N10540 X-20.797 Y16.322 Z-19.55
N10545 X-20.673 Y16.212 Z-19.738
N10550 X-20.54 Y16.095 Z-19.916
N10555 X-20.399 Y15.97 Z-20.082
N10560 X-20.25 Y15.838 Z-20.236
N10565 X-20.094 Y15.7 Z-20.377
N10570 X-19.932 Y15.557 Z-20.505
N10575 X-19.765 Y15.408 Z-20.619
N10580 X-19.592 Y15.255 Z-20.719
N10585 X-19.415 Y15.099 Z-20.804
N10590 X-19.234 Y14.939 Z-20.874
N10595 X-19.051 Y14.776 Z-20.929
N10600 X-18.865 Y14.612 Z-20.968
N10605 X-18.678 Y14.446 Z-20.992
N10610 X-18.49 Y14.279 Z-21.
N10615 X-9.078 Y5.947
N10620 G2 X-5.771 Y1.087 I-7.922 J-8.947 F#100
N10625 G1 X-2.494 Y-7.914
N10630 G2 X-1.05 Y-16.106 I-22.506 J-8.191
N10635 G1 X-1.072 Y-56.947
N10640 X-1.075 Y-62.244 F#104
N10645 Y-62.495 Z-20.992
N10650 Y-62.745 Z-20.968
N10655 Y-62.993 Z-20.929
N10660 Y-63.239 Z-20.874
N10665 Y-63.48 Z-20.804
N10670 Y-63.716 Z-20.719
N10675 X-1.076 Y-63.947 Z-20.619
N10680 Y-64.171 Z-20.505
N10685 Y-64.387 Z-20.377
N10690 Y-64.595 Z-20.236
N10695 Y-64.793 Z-20.082
N10700 Y-64.982 Z-19.916
N10705 Y-65.16 Z-19.738
N10710 Y-65.326 Z-19.55
N10715 Y-65.48 Z-19.351
N10720 Y-65.621 Z-19.143
N10725 X-1.077 Y-65.749 Z-18.927
N10730 Y-65.863 Z-18.703
N10735 Y-65.963 Z-18.472
N10740 Y-66.048 Z-18.236
N10745 Y-66.118 Z-17.995
N10750 Y-66.173 Z-17.75
N10755 Y-66.212 Z-17.501
N10760 Y-66.236 Z-17.251
N10765 Y-66.244 Z-17.
N10770 G0 Z11.
N10775 X-26.88 Y16.931
N10780 G1 Z-17. F#103
N10785 X-26.873 Y16.927 Z-17.251
N10790 X-26.854 Y16.914 Z-17.501
N10795 X-26.821 Y16.891 Z-17.75
N10800 X-26.776 Y16.86 Z-17.995
N10805 X-26.718 Y16.821 Z-18.236
N10810 X-26.648 Y16.773 Z-18.472
N10815 X-26.566 Y16.716 Z-18.703
N10820 X-26.472 Y16.652 Z-18.927
N10825 X-26.366 Y16.579 Z-19.143
N10830 X-26.25 Y16.499 Z-19.351
N10835 X-26.123 Y16.412 Z-19.55
N10840 X-25.986 Y16.318 Z-19.738
N10845 X-25.839 Y16.218 Z-19.916
N10850 X-25.684 Y16.111 Z-20.082
N10855 X-25.52 Y15.999 Z-20.236
N10860 X-25.349 Y15.881 Z-20.377
N10865 X-25.17 Y15.759 Z-20.505
N10870 X-24.986 Y15.632 Z-20.619
N10875 X-24.795 Y15.502 Z-20.719
N10880 X-24.6 Y15.368 Z-20.804
N10885 X-24.401 Y15.232 Z-20.874
N10890 X-24.199 Y15.093 Z-20.929
N10895 X-23.994 Y14.953 Z-20.968
N10900 X-23.788 Y14.811 Z-20.992
N10905 X-23.581 Y14.669 Z-21.
N10910 X-10.864 Y5.948
N10915 G2 X-6.804 Y0.711 I-6.136 J-8.948 F#100
N10920 G1 X-3.528 Y-8.291
N10925 G2 X-2.15 Y-16.106 I-21.472 J-7.815
N10930 G1 X-2.172 Y-56.947
N10935 X-2.175 Y-62.853 F#104
N10940 Y-63.104 Z-20.992
N10945 Y-63.355 Z-20.968
N10950 Y-63.603 Z-20.929
N10955 Y-63.848 Z-20.874
N10960 Y-64.089 Z-20.804
N10965 Y-64.326 Z-20.719
N10970 X-2.176 Y-64.556 Z-20.619
N10975 Y-64.78 Z-20.505
N10980 Y-64.996 Z-20.377
N10985 Y-65.204 Z-20.236
N10990 Y-65.403 Z-20.082
N10995 Y-65.591 Z-19.916
N11000 Y-65.769 Z-19.738
N11005 Y-65.935 Z-19.55
N11010 Y-66.089 Z-19.351
N11015 Y-66.23 Z-19.143
N11020 X-2.177 Y-66.358 Z-18.927
N11025 Y-66.472 Z-18.703
N11030 Y-66.572 Z-18.472
N11035 Y-66.657 Z-18.236
N11040 Y-66.727 Z-17.995
N11045 Y-66.782 Z-17.75
N11050 Y-66.822 Z-17.501
N11055 Y-66.845 Z-17.251
N11060 Y-66.853 Z-17.
N11065 G0 Z11.
N11070 X-34.477 Y15.181
N11075 G1 Z-17. F#103
N11080 X-34.47 Y15.178 Z-17.251
N11085 X-34.448 Y15.168 Z-17.501
N11090 X-34.412 Y15.153 Z-17.75
N11095 X-34.362 Y15.131 Z-17.995
N11100 X-34.298 Y15.103 Z-18.236
N11105 X-34.219 Y15.069 Z-18.472
N11110 X-34.128 Y15.03 Z-18.703
N11115 X-34.023 Y14.984 Z-18.927
N11120 X-33.906 Y14.934 Z-19.143
N11125 X-33.776 Y14.878 Z-19.351
N11130 X-33.635 Y14.816 Z-19.55
N11135 X-33.482 Y14.75 Z-19.738
N11140 X-33.319 Y14.68 Z-19.916
N11145 X-33.146 Y14.605 Z-20.082
N11150 X-32.964 Y14.526 Z-20.236
N11155 X-32.773 Y14.444 Z-20.377
N11160 X-32.575 Y14.358 Z-20.505
N11165 X-32.369 Y14.269 Z-20.619
N11170 X-32.157 Y14.178 Z-20.719
N11175 X-31.94 Y14.084 Z-20.804
N11180 X-31.719 Y13.988 Z-20.874
N11185 X-31.494 Y13.891 Z-20.929
N11190 X-31.266 Y13.792 Z-20.968
N11195 X-31.036 Y13.693 Z-20.992
N11200 X-30.806 Y13.593 Z-21.
N11205 X-13.13 Y5.949
N11210 G2 X-7.838 Y0.335 I-3.87 J-8.949 F#100
N11215 G1 X-4.562 Y-8.667
N11220 G2 X-3.25 Y-16.106 I-20.438 J-7.439
N11225 G1 X-3.271 Y-56.947
N11230 X-3.274 Y-62.947 F#104
N11235 X-3.275 Y-63.198 Z-20.992
N11240 Y-63.448 Z-20.968
N11245 Y-63.696 Z-20.929
N11250 Y-63.942 Z-20.874
N11255 Y-64.183 Z-20.804
N11260 Y-64.419 Z-20.719
N11265 Y-64.65 Z-20.619
N11270 Y-64.874 Z-20.505
N11275 X-3.276 Y-65.09 Z-20.377
N11280 Y-65.298 Z-20.236
N11285 Y-65.497 Z-20.082
N11290 Y-65.685 Z-19.916
N11295 Y-65.863 Z-19.738
N11300 Y-66.029 Z-19.55
N11305 Y-66.183 Z-19.351
N11310 Y-66.324 Z-19.143
N11315 Y-66.452 Z-18.927
N11320 Y-66.566 Z-18.703
N11325 Y-66.666 Z-18.472
N11330 Y-66.751 Z-18.236
N11335 Y-66.821 Z-17.995
N11340 Y-66.876 Z-17.75
N11345 Y-66.915 Z-17.501
N11350 X-3.277 Y-66.939 Z-17.251
N11355 Y-66.947 Z-17.
N11360 G0 Z11.
N11365 X-34.453 Y-11.924
N11370 G1 Z-17. F#103
N11375 X-34.45 Y-11.916 Z-17.251
N11380 X-34.442 Y-11.894 Z-17.501
N11385 X-34.429 Y-11.857 Z-17.75
N11390 X-34.41 Y-11.806 Z-17.995
N11395 X-34.386 Y-11.74 Z-18.236
N11400 X-34.357 Y-11.66 Z-18.472
N11405 X-34.323 Y-11.566 Z-18.703
N11410 X-34.284 Y-11.459 Z-18.927
N11415 X-34.24 Y-11.339 Z-19.143
N11420 X-34.192 Y-11.206 Z-19.351
N11425 X-34.139 Y-11.061 Z-19.55
N11430 X-34.082 Y-10.905 Z-19.738
N11435 X-34.022 Y-10.738 Z-19.916
N11440 X-33.957 Y-10.561 Z-20.082
N11445 X-33.889 Y-10.374 Z-20.236
N11450 X-33.818 Y-10.179 Z-20.377
N11455 X-33.744 Y-9.976 Z-20.505
N11460 X-33.667 Y-9.765 Z-20.619
N11465 X-33.589 Y-9.549 Z-20.719
N11470 X-33.508 Y-9.326 Z-20.804
N11475 X-33.425 Y-9.1 Z-20.874
N11480 X-33.341 Y-8.869 Z-20.929
N11485 X-33.256 Y-8.636 Z-20.968
N11490 X-33.171 Y-8.401 Z-20.992
N11495 X-33.085 Y-8.165 Z-21.
N11500 X-32.948 Y-7.789
N11505 X-30.128 Y-0.042 F#100
N11510 G2 X-22. Y5.65 I8.128 J-2.958
N11515 G1 X-17.
N11520 G2 X-8.872 Y-0.042 I0. J-8.65
N11525 G1 X-5.595 Y-9.043
N11530 G2 X-4.35 Y-16.106 I-19.405 J-7.063
N11535 G1 X-4.371 Y-56.947
N11540 X-4.374 Y-62.947 F#104
N11545 Y-63.198 Z-20.992
N11550 Y-63.448 Z-20.968
N11555 Y-63.696 Z-20.929
N11560 X-4.375 Y-63.942 Z-20.874
N11565 Y-64.183 Z-20.804
N11570 Y-64.419 Z-20.719
N11575 Y-64.65 Z-20.619
N11580 Y-64.874 Z-20.505
N11585 Y-65.09 Z-20.377
N11590 Y-65.298 Z-20.236
N11595 Y-65.497 Z-20.082
N11600 X-4.376 Y-65.685 Z-19.916
N11605 Y-65.863 Z-19.738
N11610 Y-66.029 Z-19.55
N11615 Y-66.183 Z-19.351
N11620 Y-66.324 Z-19.143
N11625 Y-66.452 Z-18.927
N11630 Y-66.566 Z-18.703
N11635 Y-66.666 Z-18.472
N11640 Y-66.751 Z-18.236
N11645 Y-66.821 Z-17.995
N11650 Y-66.876 Z-17.75
N11655 Y-66.915 Z-17.501
N11660 Y-66.939 Z-17.251
N11665 Y-66.947 Z-17.
N11670 G0 Z11.
N11675 X-34.032 Y-15.559
N11680 G1 Z-17. F#103
N11685 X-34.03 Y-15.551 Z-17.251
N11690 X-34.024 Y-15.529 Z-17.501
N11695 X-34.014 Y-15.49 Z-17.75
N11700 X-34.001 Y-15.437 Z-17.995
N11705 X-33.983 Y-15.369 Z-18.236
N11710 X-33.962 Y-15.287 Z-18.472
N11715 X-33.938 Y-15.19 Z-18.703
N11720 X-33.91 Y-15.08 Z-18.927
N11725 X-33.878 Y-14.956 Z-19.143
N11730 X-33.844 Y-14.819 Z-19.351
N11735 X-33.806 Y-14.669 Z-19.55
N11740 X-33.765 Y-14.508 Z-19.738
N11745 X-33.721 Y-14.336 Z-19.916
N11750 X-33.675 Y-14.153 Z-20.082
N11755 X-33.626 Y-13.961 Z-20.236
N11760 X-33.575 Y-13.759 Z-20.377
N11765 X-33.521 Y-13.55 Z-20.505
N11770 X-33.466 Y-13.333 Z-20.619
N11775 X-33.41 Y-13.109 Z-20.719
N11780 X-33.351 Y-12.88 Z-20.804
N11785 X-33.292 Y-12.646 Z-20.874
N11790 X-33.232 Y-12.409 Z-20.929
N11795 X-33.171 Y-12.168 Z-20.968
N11800 X-33.109 Y-11.926 Z-20.992
N11805 X-33.047 Y-11.682 Z-21.
N11810 X-32.949 Y-11.294
N11815 G2 X-32.371 Y-9.419 I18.948 J-4.811 F#100
N11820 G1 X-29.095 Y-0.418
N11825 G2 X-22. Y4.55 I7.095 J-2.582
N11830 G1 X-17.
N11835 G2 X-9.905 Y-0.418 I0. J-7.55
N11840 G1 X-6.629 Y-9.419
N11845 G2 X-5.45 Y-16.106 I-18.371 J-6.687
N11850 G1 X-5.471 Y-56.947
N11855 X-5.474 Y-62.947 F#104
N11860 Y-63.198 Z-20.992
N11865 Y-63.448 Z-20.968
N11870 Y-63.696 Z-20.929
N11875 Y-63.942 Z-20.874
N11880 Y-64.183 Z-20.804
N11885 X-5.475 Y-64.419 Z-20.719
N11890 Y-64.65 Z-20.619
N11895 Y-64.874 Z-20.505
N11900 Y-65.09 Z-20.377
N11905 Y-65.298 Z-20.236
N11910 Y-65.497 Z-20.082
N11915 Y-65.685 Z-19.916
N11920 Y-65.863 Z-19.738
N11925 Y-66.029 Z-19.55
N11930 Y-66.183 Z-19.351
N11935 X-5.476 Y-66.324 Z-19.143
N11940 Y-66.452 Z-18.927
N11945 Y-66.566 Z-18.703
N11950 Y-66.666 Z-18.472
N11955 Y-66.751 Z-18.236
N11960 Y-66.821 Z-17.995
N11965 Y-66.876 Z-17.75
N11970 Y-66.915 Z-17.501
N11975 Y-66.939 Z-17.251
N11980 Y-66.947 Z-17.
N11985 G0 Z11.
N11990 X-32.4 Y-67.024
N11995 G1 Z-17. F#103
N12000 G19 G3 Y-63.024 Z-21. J4. K0.
N12005 G1 Y-53.467
N12010 Y-16.106 F#100
N12015 G17 G2 X-31.29 Y-9.813 I18.4 J0.
N12020 G1 X-28.014 Y-0.811
N12025 G2 X-22. Y3.4 I6.014 J-2.189
N12030 G1 X-17.
N12035 G2 X-10.986 Y-0.811 I0. J-6.4
N12040 G1 X-7.71 Y-9.813
N12045 G2 X-6.6 Y-16.106 I-17.29 J-6.293
N12050 G1 Y-56.948
N12055 Y-62.948 F#104
N12060 G19 G2 Y-66.948 Z-17. J0. K4.
N12065 G0 Z11.
N12070 X-33.895 Y-66.436
N12075 G1 Z-17.4 F#103
N12080 X-33.894 Y-66.428 Z-17.635
N12085 X-33.891 Y-66.405 Z-17.87
N12090 X-33.885 Y-66.367 Z-18.102
N12095 X-33.876 Y-66.315 Z-18.332
N12100 X-33.866 Y-66.247 Z-18.557
N12105 X-33.853 Y-66.165 Z-18.778
N12110 X-33.837 Y-66.069 Z-18.992
N12115 X-33.82 Y-65.959 Z-19.2
N12120 X-33.801 Y-65.837 Z-19.4
N12125 X-33.779 Y-65.701 Z-19.592
N12130 X-33.756 Y-65.553 Z-19.774
N12135 X-33.73 Y-65.394 Z-19.946
N12140 X-33.704 Y-65.224 Z-20.107
N12145 X-33.675 Y-65.045 Z-20.256
N12150 X-33.645 Y-64.855 Z-20.393
N12155 X-33.614 Y-64.658 Z-20.518
N12160 X-33.581 Y-64.453 Z-20.629
N12165 X-33.548 Y-64.241 Z-20.726
N12170 X-33.513 Y-64.023 Z-20.809
N12175 X-33.478 Y-63.8 Z-20.877
N12180 X-33.442 Y-63.574 Z-20.931
N12185 X-33.406 Y-63.344 Z-20.969
N12190 X-33.369 Y-63.113 Z-20.992
N12195 X-33.332 Y-62.88 Z-21.
N12200 X-32.049 Y-54.779
N12205 G17 G3 X-32. Y-54.154 I-3.951 J0.626
N12210 G1 Y-16.106 F#100
N12215 G2 X-30.914 Y-9.949 I18. J0.
N12220 G1 X-27.638 Y-0.948
N12225 G2 X-22. Y3. I5.638 J-2.052
N12230 G1 X-17.
N12235 G2 X-11.362 Y-0.948 I0. J-6.
N12240 G1 X-8.086 Y-9.949
N12245 G2 X-7. Y-16.106 I-16.914 J-6.156
N12250 G1 Y-56.948
N12255 G3 X-6.951 Y-57.574 I4. J0. F#104
N12260 G1 X-6.012 Y-63.5
N12265 X-5.973 Y-63.748 Z-20.992
N12270 X-5.934 Y-63.995 Z-20.968
N12275 X-5.895 Y-64.24 Z-20.929
N12280 X-5.857 Y-64.483 Z-20.874
N12285 X-5.819 Y-64.721 Z-20.804
N12290 X-5.782 Y-64.955 Z-20.719
N12295 X-5.746 Y-65.182 Z-20.619
N12300 X-5.711 Y-65.403 Z-20.505
N12305 X-5.677 Y-65.617 Z-20.377
N12310 X-5.644 Y-65.822 Z-20.236
N12315 X-5.613 Y-66.019 Z-20.082
N12320 X-5.584 Y-66.205 Z-19.916
N12325 X-5.556 Y-66.38 Z-19.738
N12330 X-5.53 Y-66.544 Z-19.55
N12335 X-5.506 Y-66.696 Z-19.351
N12340 X-5.484 Y-66.836 Z-19.143
N12345 X-5.464 Y-66.962 Z-18.927
N12350 X-5.446 Y-67.075 Z-18.703
N12355 X-5.43 Y-67.174 Z-18.472
N12360 X-5.417 Y-67.258 Z-18.236
N12365 X-5.406 Y-67.327 Z-17.995
N12370 X-5.397 Y-67.381 Z-17.75
N12375 X-5.391 Y-67.42 Z-17.501
N12380 X-5.388 Y-67.443 Z-17.251
N12385 X-5.386 Y-67.451 Z-17.
N12390 G0 Z11.
N12395 X-33.895 Y-66.436
N12400 G1 Z-17.4 F#103
N12405 X-33.894 Y-66.428 Z-17.635
N12410 X-33.891 Y-66.405 Z-17.87
N12415 X-33.885 Y-66.367 Z-18.102
N12420 X-33.876 Y-66.315 Z-18.332
N12425 X-33.866 Y-66.247 Z-18.557
N12430 X-33.853 Y-66.165 Z-18.778
N12435 X-33.837 Y-66.069 Z-18.992
N12440 X-33.82 Y-65.959 Z-19.2
N12445 X-33.801 Y-65.837 Z-19.4
N12450 X-33.779 Y-65.701 Z-19.592
N12455 X-33.756 Y-65.553 Z-19.774
N12460 X-33.73 Y-65.394 Z-19.946
N12465 X-33.704 Y-65.224 Z-20.107
N12470 X-33.675 Y-65.045 Z-20.256
N12475 X-33.645 Y-64.855 Z-20.393
N12480 X-33.614 Y-64.658 Z-20.518
N12485 X-33.581 Y-64.453 Z-20.629
N12490 X-33.548 Y-64.241 Z-20.726
N12495 X-33.513 Y-64.023 Z-20.809
N12500 X-33.478 Y-63.8 Z-20.877
N12505 X-33.442 Y-63.574 Z-20.931
N12510 X-33.406 Y-63.344 Z-20.969
N12515 X-33.369 Y-63.113 Z-20.992
N12520 X-33.332 Y-62.88 Z-21.
N12525 X-32.049 Y-54.779
N12530 G3 X-32. Y-54.154 I-3.951 J0.626
N12535 G1 Y-16.106 F#100
N12540 G2 X-30.914 Y-9.949 I18. J0.
N12545 G1 X-27.638 Y-0.948
N12550 G2 X-22. Y3. I5.638 J-2.052
N12555 G1 X-17.
N12560 G2 X-11.362 Y-0.948 I0. J-6.
N12565 G1 X-8.086 Y-9.949
N12570 G2 X-7. Y-16.106 I-16.914 J-6.156
N12575 G1 Y-56.948
N12580 G3 X-6.951 Y-57.574 I4. J0. F#104
N12585 G1 X-6.012 Y-63.5
N12590 X-5.973 Y-63.748 Z-20.992
N12595 X-5.934 Y-63.995 Z-20.968
N12600 X-5.895 Y-64.24 Z-20.929
N12605 X-5.857 Y-64.483 Z-20.874
N12610 X-5.819 Y-64.721 Z-20.804
N12615 X-5.782 Y-64.955 Z-20.719
N12620 X-5.746 Y-65.182 Z-20.619
N12625 X-5.711 Y-65.403 Z-20.505
N12630 X-5.677 Y-65.617 Z-20.377
N12635 X-5.644 Y-65.822 Z-20.236
N12640 X-5.613 Y-66.019 Z-20.082
N12645 X-5.584 Y-66.205 Z-19.916
N12650 X-5.556 Y-66.38 Z-19.738
N12655 X-5.53 Y-66.544 Z-19.55
N12660 X-5.506 Y-66.696 Z-19.351
N12665 X-5.484 Y-66.836 Z-19.143
N12670 X-5.464 Y-66.962 Z-18.927
N12675 X-5.446 Y-67.075 Z-18.703
N12680 X-5.43 Y-67.174 Z-18.472
N12685 X-5.417 Y-67.258 Z-18.236
N12690 X-5.406 Y-67.327 Z-17.995
N12695 X-5.397 Y-67.381 Z-17.75
N12700 X-5.391 Y-67.42 Z-17.501
N12705 X-5.388 Y-67.443 Z-17.251
N12710 X-5.386 Y-67.451 Z-17.
N12715 G0 Z11.
N12725 M9
N12730 G53 Z0.
N12735 M30
%
