%
(T6  D=12. CR=0. - ZMIN=-29. - FLAT END MILL)
N10 G90 G94 G17 G91.1
N15 G21
N20 G53 G0 Z0.
(2D ADAPTIVE3)
N25 M9
N30 T6 M6
N35 S2500 M3
N40 G54
N45 M9
N55 G0 X0.635 Y10.019
N60 G43 Z6. H6
N65 #100=300. (CUTTING)
N70 #103=200. (ENTRY)
N75 #104=200. (EXIT)
N80 #105=4600. (DIRECT)
N85 G0 Z-7.99
N90 G1 Z-8.99 F#103
N95 X0.634 Y10.012 Z-9.111
N100 X0.628 Y9.991 Z-9.229
N105 X0.619 Y9.957 Z-9.345
N110 X0.607 Y9.909 Z-9.455
N115 X0.591 Y9.848 Z-9.558
N120 X0.573 Y9.776 Z-9.653
N125 X0.552 Y9.693 Z-9.739
N130 X0.528 Y9.601 Z-9.813
N135 X0.503 Y9.501 Z-9.875
N140 X0.475 Y9.394 Z-9.925
N145 X0.447 Y9.283 Z-9.961
N150 X0.417 Y9.168 Z-9.983
N155 X0.387 Y9.051 Z-9.99
N160 G3 X-0.06 Y5.941 I14.127 J-3.619
N165 G2 X4.142 Y-0.642 I-5.495 J-8.139 F#100
N170 X4.856 Y-8.591 I-33.654 J-7.029
N175 X4.94 Y-23.703 I-555.719 J-10.65
N180 G1 Y-43.259
N185 Y-47.704
N190 G2 X1.55 Y-53.562 I-6.561 J-0.113
N195 X-4.943 Y-55.566 I-7.138 J11.607
N200 G3 X-7.005 Y-57.908 I0.346 J-2.384
N205 G1 X-6.993 Y-58.034 F#104
N210 X-6.965 Y-58.156
N215 X-6.922 Y-58.274
N220 X-6.865 Y-58.386
N225 X-6.794 Y-58.49
N230 X-6.71 Y-58.584
N235 X-6.616 Y-58.667
N240 X-6.512 Y-58.737
N245 X-6.4 Y-58.794
N250 X-6.281 Y-58.837
N255 X-6.159 Y-58.864
N260 X-6.034 Y-58.876
N265 X-5.909 Y-58.872
N270 X-5.785 Y-58.852
N275 X-5.664 Y-58.818
N280 X-5.549 Y-58.768
N285 X-5.441 Y-58.704
N290 X-5.342 Y-58.628
N295 X-5.253 Y-58.539
N300 X-5.176 Y-58.441
N305 X-5.111 Y-58.333
N310 X-5.061 Y-58.218
N315 X-5.026 Y-58.098
N320 X-5.005 Y-57.975
N325 X-5.001 Y-57.849
N330 Y-57.839
N335 X-5.005 Y-57.718 Z-9.983
N340 X-5.01 Y-57.599 Z-9.961
N345 X-5.014 Y-57.484 Z-9.925
N350 X-5.017 Y-57.374 Z-9.875
N355 X-5.021 Y-57.271 Z-9.813
N360 X-5.024 Y-57.176 Z-9.739
N365 X-5.027 Y-57.091 Z-9.653
N370 X-5.03 Y-57.016 Z-9.558
N375 X-5.032 Y-56.954 Z-9.455
N380 X-5.034 Y-56.904 Z-9.345
N385 X-5.035 Y-56.868 Z-9.229
N390 X-5.036 Y-56.847 Z-9.111
N395 Y-56.839 Z-8.99
N400 G0 Z3.
N405 X-32.695 Y-58.248
N410 Z-7.99
N415 G1 Z-8.99 F#103
N420 X-32.694 Y-58.241 Z-9.111
N425 X-32.688 Y-58.22 Z-9.229
N430 X-32.679 Y-58.186 Z-9.345
N435 X-32.667 Y-58.138 Z-9.455
N440 X-32.651 Y-58.077 Z-9.558
N445 X-32.633 Y-58.005 Z-9.653
N450 X-32.612 Y-57.922 Z-9.739
N455 X-32.588 Y-57.83 Z-9.813
N460 X-32.563 Y-57.73 Z-9.875
N465 X-32.535 Y-57.623 Z-9.925
N470 X-32.507 Y-57.512 Z-9.961
N475 X-32.477 Y-57.397 Z-9.983
N480 X-32.447 Y-57.28 Z-9.99
N485 G3 X-32. Y-54.17 I-14.127 J3.619
N490 G1 Y-16.514 F#100
N495 X-31.963 Y-12.979
N500 X-31.937 Y-9.444
N505 X-31.923 Y-5.909
N510 X-31.92 Y-2.373
N515 G2 X-26.948 Y3.389 I7.277 J-1.253
N520 X-20.897 Y4.681 I6.463 J-15.447
N525 X-4.018 Y4.865 I10.653 J-203.502
N530 X2.266 Y-0.898 I-2.099 J-8.597
N535 X3.72 Y-8.716 I-20.119 J-7.784
N540 X3.918 Y-23.825 I-255.037 J-10.9
N545 G1 X3.94 Y-28.269
N550 Y-45.159
N555 G2 X-1.255 Y-52.816 I-8.546 J0.208
N560 X-5.735 Y-54.795 I-31.57 J65.412
N565 G3 X-7.004 Y-57.101 I1.544 J-2.351
N570 G1 X-6.991 Y-57.226 F#104
N575 X-6.963 Y-57.348
N580 X-6.92 Y-57.466
N585 X-6.863 Y-57.578
N590 X-6.792 Y-57.681
N595 X-6.709 Y-57.775
N600 X-6.615 Y-57.858
N605 X-6.511 Y-57.929
N610 X-6.399 Y-57.985
N615 X-6.281 Y-58.028
N620 X-6.159 Y-58.055
N625 X-6.034 Y-58.067
N630 X-5.909 Y-58.063
N635 X-5.785 Y-58.044
N640 X-5.664 Y-58.009
N645 X-5.549 Y-57.96
N650 X-5.441 Y-57.896
N655 X-5.342 Y-57.82
N660 X-5.253 Y-57.731
N665 X-5.176 Y-57.633
N670 X-5.112 Y-57.525
N675 X-5.061 Y-57.41
N680 X-5.026 Y-57.29
N685 X-5.006 Y-57.167
N690 X-5.001 Y-57.042
N695 Y-57.031
N700 X-5.005 Y-56.91 Z-9.983
N705 X-5.01 Y-56.792 Z-9.961
N710 X-5.014 Y-56.677 Z-9.925
N715 X-5.017 Y-56.567 Z-9.875
N720 X-5.021 Y-56.463 Z-9.813
N725 X-5.024 Y-56.368 Z-9.739
N730 X-5.027 Y-56.283 Z-9.653
N735 X-5.03 Y-56.208 Z-9.558
N740 X-5.032 Y-56.146 Z-9.455
N745 X-5.034 Y-56.097 Z-9.345
N750 X-5.035 Y-56.061 Z-9.229
N755 X-5.036 Y-56.039 Z-9.111
N760 Y-56.032 Z-8.99
N765 G0 Z3.
N770 X-32.918 Y-19.738
N775 Z-7.99
N780 G1 Z-8.99 F#103
N785 X-32.916 Y-19.731 Z-9.111
N790 X-32.909 Y-19.71 Z-9.229
N795 X-32.898 Y-19.676 Z-9.345
N800 X-32.883 Y-19.629 Z-9.455
N805 X-32.864 Y-19.569 Z-9.558
N810 X-32.842 Y-19.498 Z-9.653
N815 X-32.816 Y-19.417 Z-9.739
N820 X-32.787 Y-19.326 Z-9.813
N825 X-32.755 Y-19.228 Z-9.875
N830 X-32.722 Y-19.123 Z-9.925
N835 X-32.687 Y-19.013 Z-9.961
N840 X-32.651 Y-18.9 Z-9.983
N845 X-32.614 Y-18.785 Z-9.99
N850 G3 X-31.987 Y-15.707 I-13.892 J4.433
N855 G2 X-31.191 Y-10.126 I35.267 J-2.18 F#100
N860 X-30.797 Y-3.919 I84.619 J-2.257
N865 X-24.447 Y2.426 I9.289 J-2.947
N870 X-20.609 Y3.377 I4.894 J-11.529
N875 X-6.413 Y3.834 I9.905 J-86.851
N880 X0.864 Y-2.05 I-1.607 J-9.429
N885 X2.669 Y-10.688 I-19.951 J-8.678
N890 X2.903 Y-24.017 I-168.703 J-9.629
N895 G1 X2.937 Y-25.795
N900 X2.939 Y-29.351
N905 X2.94 Y-37.351
N910 Y-41.796
N915 G2 X-2.198 Y-51.463 I-10.147 J-0.806
N920 X-4.78 Y-53.1 I-17.011 J23.975
N925 G3 X-6.482 Y-54.511 I2.331 J-4.544
N930 X-7. Y-56.19 I2.464 J-1.679
N935 X-5.001 Y-56.131 I0.999 J0.035 F#104
N940 G1 Y-56.12
N945 X-5.005 Y-56. Z-9.983
N950 X-5.01 Y-55.881 Z-9.961
N955 X-5.014 Y-55.766 Z-9.925
N960 X-5.017 Y-55.656 Z-9.875
N965 X-5.021 Y-55.553 Z-9.813
N970 X-5.024 Y-55.458 Z-9.739
N975 X-5.027 Y-55.372 Z-9.653
N980 X-5.03 Y-55.298 Z-9.558
N985 X-5.032 Y-55.235 Z-9.455
N990 X-5.034 Y-55.186 Z-9.345
N995 X-5.035 Y-55.15 Z-9.229
N1000 X-5.036 Y-55.128 Z-9.111
N1005 Y-55.121 Z-8.99
N1010 G0 Z3.
N1015 X-33.074 Y-15.911
N1020 Z-7.99
N1025 G1 Z-8.99 F#103
N1030 X-33.071 Y-15.904 Z-9.111
N1035 X-33.061 Y-15.885 Z-9.229
N1040 X-33.045 Y-15.853 Z-9.345
N1045 X-33.023 Y-15.808 Z-9.455
N1050 X-32.995 Y-15.753 Z-9.558
N1055 X-32.962 Y-15.686 Z-9.653
N1060 X-32.924 Y-15.61 Z-9.739
N1065 X-32.881 Y-15.525 Z-9.813
N1070 X-32.835 Y-15.432 Z-9.875
N1075 X-32.786 Y-15.334 Z-9.925
N1080 X-32.734 Y-15.231 Z-9.961
N1085 X-32.681 Y-15.124 Z-9.983
N1090 X-32.627 Y-15.017 Z-9.99
N1095 G3 X-31.532 Y-12.072 I-13.041 J6.525
N1100 X-30.026 Y-5.913 I-44.766 J14.208 F#100
N1105 G2 X-28.048 Y-2.105 I11.218 J-3.41
N1110 G1 X-27.933 Y-1.759
N1115 G3 X-28.575 Y-0.499 Z-9.89 I-0.951 J0.309 F#104
N1120 X-29.76 Y-0.966 I-0.31 J-0.951
N1125 G1 X-29.859 Y-1.125
N1130 X-34.431 Y-8.437 F#105
N1135 X-34.55 Y-8.841
N1140 G3 X-33.461 Y-10.92 I1.883 J-0.338
N1145 X-31.937 Y-10.948 I0.794 J1.741 F#103
N1150 X-30.965 Y-10.053 Z-9.976 I-0.73 J1.768
N1155 G1 X-30.875 Y-9.851 Z-9.99
N1160 X-30.868 Y-9.829 F#100
N1165 X-30.805 Y-9.649
N1170 X-27.718 Y-1.168
N1175 X-27.642 Y-0.966
N1180 X-27.557 Y-0.764
N1185 X-27.556 Y-0.761 F#104
N1190 G2 X-26.98 Y0.688 Z-9.89 I4.48 J-0.941
N1195 G1 X-26.964 Y0.714
N1200 G2 X-26.758 Y0.952 I0.849 J-0.528
N1205 G1 X-25.989 Y1.597
N1210 X-25.053 Y2.383 F#103
N1215 G2 X-24.783 Y2.545 I0.643 J-0.766
N1220 G1 X-24.755 Y2.556
N1225 G2 X-23.227 Y2.872 Z-9.99 I1.679 J-4.259
N1230 G1 X-23.225 Y2.873
N1235 G2 X-21.78 Y2.998 I1.302 J-6.625 F#100
N1240 G1 X-17.999 Y2.962
N1245 X-14.217 Y2.936
N1250 X-10.436 Y2.922
N1255 G2 X-0.077 Y-3.98 I0.538 J-10.417
N1260 X1.652 Y-12.643 I-21.748 J-8.845
N1265 X1.895 Y-29.527 I-226.988 J-11.707
N1270 X1.893 Y-41.971 I-337.937 J-6.181
N1275 X-2.906 Y-50.181 I-11.831 J1.409
N1280 G3 X-6.22 Y-53.007 I64.113 J-78.535
N1285 X-7. Y-55.168 I2.659 J-2.181
N1290 X-5.001 Y-55.109 I0.999 J0.035 F#104
N1295 G1 Y-55.098
N1300 X-5.005 Y-54.978 Z-9.983
N1305 X-5.01 Y-54.859 Z-9.961
N1310 X-5.014 Y-54.744 Z-9.925
N1315 X-5.017 Y-54.634 Z-9.875
N1320 X-5.021 Y-54.53 Z-9.813
N1325 X-5.024 Y-54.435 Z-9.739
N1330 X-5.027 Y-54.35 Z-9.653
N1335 X-5.03 Y-54.276 Z-9.558
N1340 X-5.032 Y-54.213 Z-9.455
N1345 X-5.034 Y-54.164 Z-9.345
N1350 X-5.035 Y-54.128 Z-9.229
N1355 X-5.036 Y-54.106 Z-9.111
N1360 Y-54.099 Z-8.99
N1365 G0 Z3.
N1370 X-20.504 Y4.063
N1375 Z-7.99
N1380 G1 Z-8.99 F#103
N1385 X-20.497 Y4.061 Z-9.111
N1390 X-20.476 Y4.054 Z-9.229
N1395 X-20.442 Y4.041 Z-9.345
N1400 X-20.396 Y4.024 Z-9.455
N1405 X-20.337 Y4.003 Z-9.558
N1410 X-20.267 Y3.978 Z-9.653
N1415 X-20.187 Y3.949 Z-9.739
N1420 X-20.097 Y3.917 Z-9.813
N1425 X-20. Y3.881 Z-9.875
N1430 X-19.897 Y3.844 Z-9.925
N1435 X-19.788 Y3.805 Z-9.961
N1440 X-19.676 Y3.764 Z-9.983
N1445 X-19.563 Y3.723 Z-9.99
N1450 G3 X-16.511 Y2.98 I4.958 J13.714
N1455 G1 X-12.883 Y2.205 F#100
N1460 G2 X-6.03 Y0.553 I0.015 J-14.975
N1465 X-0.264 Y-8.082 I-7.248 J-11.082
N1470 X0.792 Y-17.776 I-37.865 J-9.029
N1475 X0.893 Y-39.997 I-537.264 J-13.561
N1480 X-3.866 Y-49.246 I-13.693 J1.197
N1485 G3 X-6.533 Y-52.162 I24.763 J-25.33
N1490 X-7. Y-53.901 I3.186 J-1.787
N1495 X-5.001 Y-53.842 I0.999 J0.035 F#104
N1500 G1 Y-53.831
N1505 X-5.005 Y-53.71 Z-9.983
N1510 X-5.01 Y-53.592 Z-9.961
N1515 X-5.014 Y-53.477 Z-9.925
N1520 X-5.017 Y-53.366 Z-9.875
N1525 X-5.021 Y-53.263 Z-9.813
N1530 X-5.024 Y-53.168 Z-9.739
N1535 X-5.027 Y-53.083 Z-9.653
N1540 X-5.03 Y-53.008 Z-9.558
N1545 X-5.032 Y-52.946 Z-9.455
N1550 X-5.034 Y-52.896 Z-9.345
N1555 X-5.035 Y-52.861 Z-9.229
N1560 X-5.036 Y-52.839 Z-9.111
N1565 Y-52.832 Z-8.99
N1570 G0 Z3.
N1575 X-18.666 Y4.777
N1580 Z-7.99
N1585 G1 Z-8.99 F#103
N1590 X-18.66 Y4.773 Z-9.111
N1595 X-18.642 Y4.761 Z-9.229
N1600 X-18.613 Y4.74 Z-9.345
N1605 X-18.572 Y4.712 Z-9.455
N1610 X-18.521 Y4.676 Z-9.558
N1615 X-18.46 Y4.633 Z-9.653
N1620 X-18.391 Y4.584 Z-9.739
N1625 X-18.313 Y4.529 Z-9.813
N1630 X-18.228 Y4.47 Z-9.875
N1635 X-18.138 Y4.406 Z-9.925
N1640 X-18.044 Y4.34 Z-9.961
N1645 X-17.947 Y4.272 Z-9.983
N1650 X-17.848 Y4.203 Z-9.99
N1655 G3 X-15.098 Y2.684 I8.383 J11.932
N1660 X-10.318 Y1.032 I9.969 J21.095 F#100
N1665 G2 X-1.892 Y-7.471 I-3.894 J-12.285
N1670 X-0.313 Y-17.075 I-28.718 J-9.655
N1675 X-0.125 Y-38.404 I-338.018 J-13.651
N1680 X-4.376 Y-47.96 I-15.48 J1.164
N1685 G3 X-6.731 Y-51.087 I17.143 J-15.361
N1690 G1 X-6.87 Y-51.535
N1695 X-6.967 Y-51.988
N1700 X-7. Y-52.45
N1705 G3 X-5.001 Y-52.391 I0.999 J0.035 F#104
N1710 G1 Y-52.38
N1715 X-5.005 Y-52.26 Z-9.983
N1720 X-5.01 Y-52.141 Z-9.961
N1725 X-5.014 Y-52.026 Z-9.925
N1730 X-5.017 Y-51.916 Z-9.875
N1735 X-5.021 Y-51.813 Z-9.813
N1740 X-5.024 Y-51.718 Z-9.739
N1745 X-5.027 Y-51.632 Z-9.653
N1750 X-5.03 Y-51.558 Z-9.558
N1755 X-5.032 Y-51.495 Z-9.455
N1760 X-5.034 Y-51.446 Z-9.345
N1765 X-5.035 Y-51.41 Z-9.229
N1770 X-5.036 Y-51.388 Z-9.111
N1775 Y-51.381 Z-8.99
N1780 G0 Z3.
N1785 X-17.308 Y4.873
N1790 Z-7.99
N1795 G1 Z-8.99 F#103
N1800 X-17.303 Y4.868 Z-9.111
N1805 X-17.288 Y4.853 Z-9.229
N1810 X-17.262 Y4.828 Z-9.345
N1815 X-17.226 Y4.793 Z-9.455
N1820 X-17.181 Y4.75 Z-9.558
N1825 X-17.127 Y4.698 Z-9.653
N1830 X-17.066 Y4.639 Z-9.739
N1835 X-16.998 Y4.573 Z-9.813
N1840 X-16.923 Y4.501 Z-9.875
N1845 X-16.844 Y4.425 Z-9.925
N1850 X-16.761 Y4.345 Z-9.961
N1855 X-16.675 Y4.262 Z-9.983
N1860 X-16.589 Y4.178 Z-9.99
N1865 G3 X-14.106 Y2.254 I10.124 J10.495
N1870 G1 X-13.58 Y1.893 F#100
N1875 X-13.045 Y1.546
N1880 X-12.502 Y1.213
N1885 X-11.951 Y0.893
N1890 X-11.392 Y0.587
N1895 X-10.825 Y0.295
N1900 X-10.251 Y0.018
N1905 X-9.671 Y-0.245
N1910 G2 X-2.299 Y-10.869 I-7.902 J-13.352
N1915 X-1.233 Y-20.566 I-40.461 J-9.355
N1920 X-1.147 Y-37.452 I-279.858 J-9.863
N1925 X-5.248 Y-47.143 I-18.385 J2.067
N1930 G3 X-6.919 Y-49.937 I11.069 J-8.515
N1935 G1 X-6.972 Y-50.369
N1940 X-7. Y-50.794
N1945 Y-50.841
N1950 G3 X-5.001 Y-50.782 I0.999 J0.035 F#104
N1955 G1 Y-50.771
N1960 X-5.005 Y-50.651 Z-9.983
N1965 X-5.01 Y-50.532 Z-9.961
N1970 X-5.014 Y-50.417 Z-9.925
N1975 X-5.017 Y-50.307 Z-9.875
N1980 X-5.021 Y-50.204 Z-9.813
N1985 X-5.024 Y-50.109 Z-9.739
N1990 X-5.027 Y-50.023 Z-9.653
N1995 X-5.03 Y-49.949 Z-9.558
N2000 X-5.032 Y-49.886 Z-9.455
N2005 X-5.034 Y-49.837 Z-9.345
N2010 X-5.035 Y-49.801 Z-9.229
N2015 X-5.036 Y-49.779 Z-9.111
N2020 Y-49.772 Z-8.99
N2025 G0 Z3.
N2030 X-15.843 Y4.857
N2035 Z-7.99
N2040 G1 Z-8.99 F#103
N2045 X-15.839 Y4.851 Z-9.111
N2050 X-15.827 Y4.833 Z-9.229
N2055 X-15.806 Y4.804 Z-9.345
N2060 X-15.778 Y4.763 Z-9.455
N2065 X-15.742 Y4.712 Z-9.558
N2070 X-15.7 Y4.65 Z-9.653
N2075 X-15.651 Y4.58 Z-9.739
N2080 X-15.597 Y4.502 Z-9.813
N2085 X-15.539 Y4.417 Z-9.875
N2090 X-15.476 Y4.327 Z-9.925
N2095 X-15.41 Y4.232 Z-9.961
N2100 X-15.343 Y4.134 Z-9.983
N2105 X-15.274 Y4.035 Z-9.99
N2110 G3 X-13.219 Y1.659 I11.993 J8.296
N2115 G1 X-12.724 Y1.179 F#100
N2120 X-12.22 Y0.708
N2125 X-11.706 Y0.248
N2130 X-11.183 Y-0.201
N2135 X-10.651 Y-0.64
N2140 X-10.111 Y-1.068
N2145 X-9.562 Y-1.486
N2150 X-9.005 Y-1.892
N2155 G2 X-3.011 Y-13.502 I-12.848 J-13.986
N2160 X-2.17 Y-25.009 I-60.788 J-10.227
N2165 X-2.202 Y-36.562 I-139.479 J-5.381
N2170 X-6.098 Y-46.379 I-21.49 J2.846
N2175 G3 X-7.022 Y-48.911 I4.722 J-3.159
N2180 G1 X-7. Y-50.794
N2185 G3 X-5.001 Y-50.735 I0.999 J0.035 F#104
N2190 G1 Y-50.724
N2195 X-5.005 Y-50.604 Z-9.983
N2200 X-5.01 Y-50.485 Z-9.961
N2205 X-5.014 Y-50.37 Z-9.925
N2210 X-5.017 Y-50.26 Z-9.875
N2215 X-5.021 Y-50.157 Z-9.813
N2220 X-5.024 Y-50.062 Z-9.739
N2225 X-5.027 Y-49.976 Z-9.653
N2230 X-5.03 Y-49.902 Z-9.558
N2235 X-5.032 Y-49.84 Z-9.455
N2240 X-5.034 Y-49.79 Z-9.345
N2245 X-5.035 Y-49.754 Z-9.229
N2250 X-5.036 Y-49.732 Z-9.111
N2255 Y-49.725 Z-8.99
N2260 G0 Z3.
N2265 X-14.726 Y4.563
N2270 Z-7.99
N2275 G1 Z-8.99 F#103
N2280 X-14.722 Y4.557 Z-9.111
N2285 X-14.713 Y4.537 Z-9.229
N2290 X-14.696 Y4.505 Z-9.345
N2295 X-14.674 Y4.461 Z-9.455
N2300 X-14.646 Y4.405 Z-9.558
N2305 X-14.612 Y4.339 Z-9.653
N2310 X-14.574 Y4.262 Z-9.739
N2315 X-14.531 Y4.178 Z-9.813
N2320 X-14.484 Y4.085 Z-9.875
N2325 X-14.434 Y3.987 Z-9.925
N2330 X-14.382 Y3.884 Z-9.961
N2335 X-14.329 Y3.778 Z-9.983
N2340 X-14.274 Y3.671 Z-9.99
N2345 G3 X-12.562 Y1.037 I13.012 J6.583
N2350 X-8.286 Y-4.122 I45.379 J33.265 F#100
N2355 G2 X-3.737 Y-16.483 I-19.667 J-14.256
N2360 X-3.131 Y-29.792 I-96.766 J-11.069
N2365 X-4.627 Y-41.167 I-27.589 J-2.158
N2370 G3 X-6.857 Y-45.796 I135.23 J-67.982
N2375 G1 X-6.964 Y-46.272
N2380 X-7. Y-46.758
N2385 Y-48.913
N2390 G3 X-5.001 Y-48.854 I0.999 J0.035 F#104
N2395 G1 Y-48.843
N2400 X-5.005 Y-48.723 Z-9.983
N2405 X-5.01 Y-48.604 Z-9.961
N2410 X-5.014 Y-48.489 Z-9.925
N2415 X-5.017 Y-48.379 Z-9.875
N2420 X-5.021 Y-48.276 Z-9.813
N2425 X-5.024 Y-48.181 Z-9.739
N2430 X-5.027 Y-48.095 Z-9.653
N2435 X-5.03 Y-48.021 Z-9.558
N2440 X-5.032 Y-47.958 Z-9.455
N2445 X-5.034 Y-47.909 Z-9.345
N2450 X-5.035 Y-47.873 Z-9.229
N2455 X-5.036 Y-47.851 Z-9.111
N2460 Y-47.844 Z-8.99
N2465 G0 Z3.
N2470 X-13.257 Y4.034
N2475 Z-7.99
N2480 G1 Z-8.99 F#103
N2485 X-13.256 Y4.027 Z-9.111
N2490 X-13.25 Y4.006 Z-9.229
N2495 X-13.241 Y3.972 Z-9.345
N2500 X-13.228 Y3.924 Z-9.455
N2505 X-13.213 Y3.863 Z-9.558
N2510 X-13.194 Y3.791 Z-9.653
N2515 X-13.172 Y3.709 Z-9.739
N2520 X-13.148 Y3.617 Z-9.813
N2525 X-13.122 Y3.517 Z-9.875
N2530 X-13.094 Y3.41 Z-9.925
N2535 X-13.064 Y3.299 Z-9.961
N2540 X-13.034 Y3.184 Z-9.983
N2545 X-13.004 Y3.067 Z-9.99
N2550 G3 X-11.884 Y0.132 I14.106 J3.698
N2555 G1 X-11.627 Y-0.426 F#100
N2560 X-11.357 Y-0.977
N2565 X-11.075 Y-1.522
N2570 X-10.78 Y-2.061
N2575 X-10.474 Y-2.593
N2580 X-10.155 Y-3.118
N2585 X-9.825 Y-3.635
N2590 X-9.484 Y-4.146
N2595 X-9.13 Y-4.648
N2600 X-8.766 Y-5.142
N2605 G2 X-4.548 Y-19.497 I-26.336 J-15.536
N2610 X-4.274 Y-34.593 I-101.834 J-9.399
N2615 X-6.918 Y-43.344 I-28.45 J3.821
N2620 G1 X-6.97 Y-43.794
N2625 X-7. Y-44.236
N2630 Y-46.758
N2635 G3 X-5.967 Y-47.723 Z-9.89 I0.999 J0.035 F#104
N2640 X-5.041 Y-47.005 I-0.034 J0.999
N2645 G1 X-4.926 Y-46.709
N2650 X-1.472 Y-37.815 F#105
N2655 X-1.027 Y-35.091
N2660 X-0.823 Y-32.062
N2665 X-0.87 Y-26.207
N2670 X-1.045 Y-21.159
N2675 X-1.504 Y-16.312
N2680 X-2.243 Y-12.476
N2685 X-6.626 Y0.649
N2690 G3 X-10.479 Y1.839 I-2.363 J-0.818
N2695 X-11.373 Y0.581 I1.491 J-2.007 F#103
N2700 X-11.479 Y0.043 Z-9.925 I2.385 J-0.75
N2705 G1 X-11.416 Y-0.764 Z-9.977
N2710 X-11.358 Y-0.966 Z-9.99
N2715 G3 X-8.352 Y-8.046 I60.123 J21.348 F#100
N2720 G2 X-5.393 Y-22.779 I-38.065 J-15.307
N2725 X-5.501 Y-35.204 I-63.851 J-5.659
N2730 X-7.017 Y-40.773 I-52.283 J11.245
N2735 G1 X-7. Y-41.143
N2740 Y-44.236
N2745 G3 X-5.967 Y-45.2 Z-9.89 I0.999 J0.035 F#104
N2750 X-5.076 Y-44.582 I-0.034 J0.999
N2755 G1 X-4.955 Y-44.177
N2760 X-2.103 Y-34.653 F#105
N2765 X-1.869 Y-31.658
N2770 X-1.895 Y-25.399
N2775 X-2.28 Y-19.543
N2780 X-2.679 Y-16.11
N2785 X-5.708 Y-1.976
N2790 G3 X-9.641 Y-0.394 I-2.461 J-0.439
N2795 X-10.547 Y-1.643 I1.472 J-2.021 F#103
N2800 Y-3.187 Z-9.99 I2.378 J-0.772
N2805 G1 X-8.195 Y-9.649 F#100
N2810 G2 X-6.864 Y-17.261 I-22.727 J-7.896
N2815 X-6.378 Y-33.234 I-87.461 J-10.658
N2820 G3 X-7.015 Y-36.888 I58.2 J-12.029
N2825 G1 X-7. Y-41.143
N2830 G3 X-5.967 Y-42.107 Z-9.89 I0.999 J0.035 F#104
N2835 X-5.001 Y-41.149 I-0.034 J0.999
N2840 G1 X-4.993 Y-41.077
N2845 X-2.103 Y-14.899 F#105
N2850 G3 X-5.408 Y-12.19 I-2.475 J0.351
N2855 X-6.634 Y-13.127 I0.831 J-2.358 F#103
N2860 X-7.077 Y-14.606 Z-9.99 I2.057 J-1.421
N2865 G2 X-7. Y-16.514 I-23.573 J-1.909 F#100
N2870 G1 Y-36.89
N2875 G3 X-5.431 Y-37.677 I0.999 J0.035 F#104
N2880 G1 X-5.362 Y-37.613 Z-9.985
N2885 X-5.293 Y-37.549 Z-9.972
N2890 X-5.225 Y-37.486 Z-9.949
N2895 X-5.174 Y-37.402 Z-9.915
N2900 X-5.126 Y-37.321 Z-9.87
N2905 X-5.08 Y-37.245 Z-9.816
N2910 X-5.059 Y-37.167 Z-9.754
N2915 X-5.04 Y-37.095 Z-9.683
N2920 X-5.023 Y-37.03 Z-9.606
N2925 X-5.008 Y-36.973 Z-9.523
N2930 X-5.005 Y-36.925 Z-9.436
N2935 X-5.002 Y-36.885 Z-9.346
N2940 X-5.001 Y-36.855 Z-9.252
N2945 Y-36.831 Z-9.137
N2950 Y-36.823 Z-9.063
N2955 Y-36.82 Z-8.99
N2960 G0 X0.635 Y10.019
N2965 Z-17.98
N2970 G1 Z-18.98 F#103
N2975 X0.634 Y10.012 Z-19.101
N2980 X0.628 Y9.991 Z-19.219
N2985 X0.619 Y9.957 Z-19.335
N2990 X0.607 Y9.909 Z-19.445
N2995 X0.591 Y9.848 Z-19.548
N3000 X0.573 Y9.776 Z-19.643
N3005 X0.552 Y9.693 Z-19.729
N3010 X0.528 Y9.601 Z-19.803
N3015 X0.503 Y9.501 Z-19.865
N3020 X0.475 Y9.394 Z-19.915
N3025 X0.447 Y9.283 Z-19.951
N3030 X0.417 Y9.168 Z-19.973
N3035 X0.387 Y9.051 Z-19.98
N3040 G3 X-0.06 Y5.941 I14.127 J-3.619
N3045 G2 X4.142 Y-0.642 I-5.495 J-8.139 F#100
N3050 X4.856 Y-8.591 I-33.654 J-7.029
N3055 X4.94 Y-23.703 I-555.719 J-10.65
N3060 G1 Y-43.259
N3065 Y-47.704
N3070 G2 X1.55 Y-53.562 I-6.561 J-0.113
N3075 X-4.943 Y-55.566 I-7.138 J11.607
N3080 G3 X-7.005 Y-57.908 I0.346 J-2.384
N3085 G1 X-6.993 Y-58.034 F#104
N3090 X-6.965 Y-58.156
N3095 X-6.922 Y-58.274
N3100 X-6.865 Y-58.386
N3105 X-6.794 Y-58.49
N3110 X-6.71 Y-58.584
N3115 X-6.616 Y-58.667
N3120 X-6.512 Y-58.737
N3125 X-6.4 Y-58.794
N3130 X-6.281 Y-58.837
N3135 X-6.159 Y-58.864
N3140 X-6.034 Y-58.876
N3145 X-5.909 Y-58.872
N3150 X-5.785 Y-58.852
N3155 X-5.664 Y-58.818
N3160 X-5.549 Y-58.768
N3165 X-5.441 Y-58.704
N3170 X-5.342 Y-58.628
N3175 X-5.253 Y-58.539
N3180 X-5.176 Y-58.441
N3185 X-5.111 Y-58.333
N3190 X-5.061 Y-58.218
N3195 X-5.026 Y-58.098
N3200 X-5.005 Y-57.975
N3205 X-5.001 Y-57.849
N3210 Y-57.839
N3215 X-5.005 Y-57.718 Z-19.973
N3220 X-5.01 Y-57.599 Z-19.951
N3225 X-5.014 Y-57.484 Z-19.915
N3230 X-5.017 Y-57.374 Z-19.865
N3235 X-5.021 Y-57.271 Z-19.803
N3240 X-5.024 Y-57.176 Z-19.729
N3245 X-5.027 Y-57.091 Z-19.643
N3250 X-5.03 Y-57.016 Z-19.548
N3255 X-5.032 Y-56.954 Z-19.445
N3260 X-5.034 Y-56.904 Z-19.335
N3265 X-5.035 Y-56.868 Z-19.219
N3270 X-5.036 Y-56.847 Z-19.101
N3275 Y-56.839 Z-18.98
N3280 G0 Z3.
N3285 X-32.695 Y-58.248
N3290 Z-17.98
N3295 G1 Z-18.98 F#103
N3300 X-32.694 Y-58.241 Z-19.101
N3305 X-32.688 Y-58.22 Z-19.219
N3310 X-32.679 Y-58.186 Z-19.335
N3315 X-32.667 Y-58.138 Z-19.445
N3320 X-32.651 Y-58.077 Z-19.548
N3325 X-32.633 Y-58.005 Z-19.643
N3330 X-32.612 Y-57.922 Z-19.729
N3335 X-32.588 Y-57.83 Z-19.803
N3340 X-32.563 Y-57.73 Z-19.865
N3345 X-32.535 Y-57.623 Z-19.915
N3350 X-32.507 Y-57.512 Z-19.951
N3355 X-32.477 Y-57.397 Z-19.973
N3360 X-32.447 Y-57.28 Z-19.98
N3365 G3 X-32. Y-54.17 I-14.127 J3.619
N3370 G1 Y-16.514 F#100
N3375 X-31.963 Y-12.979
N3380 X-31.937 Y-9.444
N3385 X-31.923 Y-5.909
N3390 X-31.92 Y-2.373
N3395 G2 X-26.948 Y3.389 I7.277 J-1.253
N3400 X-20.897 Y4.681 I6.463 J-15.447
N3405 X-4.018 Y4.865 I10.653 J-203.502
N3410 X2.266 Y-0.898 I-2.099 J-8.597
N3415 X3.72 Y-8.716 I-20.119 J-7.784
N3420 X3.918 Y-23.825 I-255.037 J-10.9
N3425 G1 X3.94 Y-28.269
N3430 Y-45.159
N3435 G2 X-1.255 Y-52.816 I-8.546 J0.208
N3440 X-5.735 Y-54.795 I-31.57 J65.412
N3445 G3 X-7.004 Y-57.101 I1.544 J-2.351
N3450 G1 X-6.991 Y-57.226 F#104
N3455 X-6.963 Y-57.348
N3460 X-6.92 Y-57.466
N3465 X-6.863 Y-57.578
N3470 X-6.792 Y-57.681
N3475 X-6.709 Y-57.775
N3480 X-6.615 Y-57.858
N3485 X-6.511 Y-57.929
N3490 X-6.399 Y-57.985
N3495 X-6.281 Y-58.028
N3500 X-6.159 Y-58.055
N3505 X-6.034 Y-58.067
N3510 X-5.909 Y-58.063
N3515 X-5.785 Y-58.044
N3520 X-5.664 Y-58.009
N3525 X-5.549 Y-57.96
N3530 X-5.441 Y-57.896
N3535 X-5.342 Y-57.82
N3540 X-5.253 Y-57.731
N3545 X-5.176 Y-57.633
N3550 X-5.112 Y-57.525
N3555 X-5.061 Y-57.41
N3560 X-5.026 Y-57.29
N3565 X-5.006 Y-57.167
N3570 X-5.001 Y-57.042
N3575 Y-57.031
N3580 X-5.005 Y-56.91 Z-19.973
N3585 X-5.01 Y-56.792 Z-19.951
N3590 X-5.014 Y-56.677 Z-19.915
N3595 X-5.017 Y-56.567 Z-19.865
N3600 X-5.021 Y-56.463 Z-19.803
N3605 X-5.024 Y-56.368 Z-19.729
N3610 X-5.027 Y-56.283 Z-19.643
N3615 X-5.03 Y-56.208 Z-19.548
N3620 X-5.032 Y-56.146 Z-19.445
N3625 X-5.034 Y-56.097 Z-19.335
N3630 X-5.035 Y-56.061 Z-19.219
N3635 X-5.036 Y-56.039 Z-19.101
N3640 Y-56.032 Z-18.98
N3645 G0 Z3.
N3650 X-32.918 Y-19.738
N3655 Z-17.98
N3660 G1 Z-18.98 F#103
N3665 X-32.916 Y-19.731 Z-19.101
N3670 X-32.909 Y-19.71 Z-19.219
N3675 X-32.898 Y-19.676 Z-19.335
N3680 X-32.883 Y-19.629 Z-19.445
N3685 X-32.864 Y-19.569 Z-19.548
N3690 X-32.842 Y-19.498 Z-19.643
N3695 X-32.816 Y-19.417 Z-19.729
N3700 X-32.787 Y-19.326 Z-19.803
N3705 X-32.755 Y-19.228 Z-19.865
N3710 X-32.722 Y-19.123 Z-19.915
N3715 X-32.687 Y-19.013 Z-19.951
N3720 X-32.651 Y-18.9 Z-19.973
N3725 X-32.614 Y-18.785 Z-19.98
N3730 G3 X-31.987 Y-15.707 I-13.892 J4.433
N3735 G2 X-31.191 Y-10.126 I35.267 J-2.18 F#100
N3740 X-30.797 Y-3.919 I84.619 J-2.257
N3745 X-24.447 Y2.426 I9.289 J-2.947
N3750 X-20.609 Y3.377 I4.894 J-11.529
N3755 X-6.413 Y3.834 I9.905 J-86.851
N3760 X0.864 Y-2.05 I-1.607 J-9.429
N3765 X2.669 Y-10.688 I-19.951 J-8.678
N3770 X2.903 Y-24.017 I-168.703 J-9.629
N3775 G1 X2.937 Y-25.795
N3780 X2.939 Y-29.351
N3785 X2.94 Y-37.351
N3790 Y-41.796
N3795 G2 X-2.198 Y-51.463 I-10.147 J-0.806
N3800 X-4.78 Y-53.1 I-17.011 J23.975
N3805 G3 X-6.482 Y-54.511 I2.331 J-4.544
N3810 X-7. Y-56.19 I2.464 J-1.679
N3815 X-5.001 Y-56.131 I0.999 J0.035 F#104
N3820 G1 Y-56.12
N3825 X-5.005 Y-56. Z-19.973
N3830 X-5.01 Y-55.881 Z-19.951
N3835 X-5.014 Y-55.766 Z-19.915
N3840 X-5.017 Y-55.656 Z-19.865
N3845 X-5.021 Y-55.553 Z-19.803
N3850 X-5.024 Y-55.458 Z-19.729
N3855 X-5.027 Y-55.372 Z-19.643
N3860 X-5.03 Y-55.298 Z-19.548
N3865 X-5.032 Y-55.235 Z-19.445
N3870 X-5.034 Y-55.186 Z-19.335
N3875 X-5.035 Y-55.15 Z-19.219
N3880 X-5.036 Y-55.128 Z-19.101
N3885 Y-55.121 Z-18.98
N3890 G0 Z3.
N3895 X-33.074 Y-15.911
N3900 Z-17.98
N3905 G1 Z-18.98 F#103
N3910 X-33.071 Y-15.904 Z-19.101
N3915 X-33.061 Y-15.885 Z-19.219
N3920 X-33.045 Y-15.853 Z-19.335
N3925 X-33.023 Y-15.808 Z-19.445
N3930 X-32.995 Y-15.753 Z-19.548
N3935 X-32.962 Y-15.686 Z-19.643
N3940 X-32.924 Y-15.61 Z-19.729
N3945 X-32.881 Y-15.525 Z-19.803
N3950 X-32.835 Y-15.432 Z-19.865
N3955 X-32.786 Y-15.334 Z-19.915
N3960 X-32.734 Y-15.231 Z-19.951
N3965 X-32.681 Y-15.124 Z-19.973
N3970 X-32.627 Y-15.017 Z-19.98
N3975 G3 X-31.532 Y-12.072 I-13.041 J6.525
N3980 X-30.026 Y-5.913 I-44.766 J14.208 F#100
N3985 G2 X-28.048 Y-2.105 I11.218 J-3.41
N3990 G1 X-27.933 Y-1.759
N3995 G3 X-28.575 Y-0.499 Z-19.88 I-0.951 J0.309 F#104
N4000 X-29.76 Y-0.966 I-0.31 J-0.951
N4005 G1 X-29.859 Y-1.125
N4010 X-34.431 Y-8.437 F#105
N4015 X-34.55 Y-8.841
N4020 G3 X-33.461 Y-10.92 I1.883 J-0.338
N4025 X-31.937 Y-10.948 I0.794 J1.741 F#103
N4030 X-30.965 Y-10.053 Z-19.966 I-0.73 J1.768
N4035 G1 X-30.875 Y-9.851 Z-19.98
N4040 X-30.868 Y-9.829 F#100
N4045 X-30.805 Y-9.649
N4050 X-27.718 Y-1.168
N4055 X-27.642 Y-0.966
N4060 X-27.557 Y-0.764
N4065 X-27.556 Y-0.761 F#104
N4070 G2 X-26.98 Y0.688 Z-19.88 I4.48 J-0.941
N4075 G1 X-26.964 Y0.714
N4080 G2 X-26.758 Y0.952 I0.849 J-0.528
N4085 G1 X-25.989 Y1.597
N4090 X-25.053 Y2.383 F#103
N4095 G2 X-24.783 Y2.545 I0.643 J-0.766
N4100 G1 X-24.755 Y2.556
N4105 G2 X-23.227 Y2.872 Z-19.98 I1.679 J-4.259
N4110 G1 X-23.225 Y2.873
N4115 G2 X-21.78 Y2.998 I1.302 J-6.625 F#100
N4120 G1 X-17.999 Y2.962
N4125 X-14.217 Y2.936
N4130 X-10.436 Y2.922
N4135 G2 X-0.077 Y-3.98 I0.538 J-10.417
N4140 X1.652 Y-12.643 I-21.748 J-8.845
N4145 X1.895 Y-29.527 I-226.988 J-11.707
N4150 X1.893 Y-41.971 I-337.937 J-6.181
N4155 X-2.906 Y-50.181 I-11.831 J1.409
N4160 G3 X-6.22 Y-53.007 I64.113 J-78.535
N4165 X-7. Y-55.168 I2.659 J-2.181
N4170 X-5.001 Y-55.109 I0.999 J0.035 F#104
N4175 G1 Y-55.098
N4180 X-5.005 Y-54.978 Z-19.973
N4185 X-5.01 Y-54.859 Z-19.951
N4190 X-5.014 Y-54.744 Z-19.915
N4195 X-5.017 Y-54.634 Z-19.865
N4200 X-5.021 Y-54.53 Z-19.803
N4205 X-5.024 Y-54.435 Z-19.729
N4210 X-5.027 Y-54.35 Z-19.643
N4215 X-5.03 Y-54.276 Z-19.548
N4220 X-5.032 Y-54.213 Z-19.445
N4225 X-5.034 Y-54.164 Z-19.335
N4230 X-5.035 Y-54.128 Z-19.219
N4235 X-5.036 Y-54.106 Z-19.101
N4240 Y-54.099 Z-18.98
N4245 G0 Z3.
N4250 X-20.504 Y4.063
N4255 Z-17.98
N4260 G1 Z-18.98 F#103
N4265 X-20.497 Y4.061 Z-19.101
N4270 X-20.476 Y4.054 Z-19.219
N4275 X-20.442 Y4.041 Z-19.335
N4280 X-20.396 Y4.024 Z-19.445
N4285 X-20.337 Y4.003 Z-19.548
N4290 X-20.267 Y3.978 Z-19.643
N4295 X-20.187 Y3.949 Z-19.729
N4300 X-20.097 Y3.917 Z-19.803
N4305 X-20. Y3.881 Z-19.865
N4310 X-19.897 Y3.844 Z-19.915
N4315 X-19.788 Y3.805 Z-19.951
N4320 X-19.676 Y3.764 Z-19.973
N4325 X-19.563 Y3.723 Z-19.98
N4330 G3 X-16.511 Y2.98 I4.958 J13.714
N4335 G1 X-12.883 Y2.205 F#100
N4340 G2 X-6.03 Y0.553 I0.015 J-14.975
N4345 X-0.264 Y-8.082 I-7.248 J-11.082
N4350 X0.792 Y-17.776 I-37.865 J-9.029
N4355 X0.893 Y-39.997 I-537.264 J-13.561
N4360 X-3.866 Y-49.246 I-13.693 J1.197
N4365 G3 X-6.533 Y-52.162 I24.763 J-25.33
N4370 X-7. Y-53.901 I3.186 J-1.787
N4375 X-5.001 Y-53.842 I0.999 J0.035 F#104
N4380 G1 Y-53.831
N4385 X-5.005 Y-53.71 Z-19.973
N4390 X-5.01 Y-53.592 Z-19.951
N4395 X-5.014 Y-53.477 Z-19.915
N4400 X-5.017 Y-53.366 Z-19.865
N4405 X-5.021 Y-53.263 Z-19.803
N4410 X-5.024 Y-53.168 Z-19.729
N4415 X-5.027 Y-53.083 Z-19.643
N4420 X-5.03 Y-53.008 Z-19.548
N4425 X-5.032 Y-52.946 Z-19.445
N4430 X-5.034 Y-52.896 Z-19.335
N4435 X-5.035 Y-52.861 Z-19.219
N4440 X-5.036 Y-52.839 Z-19.101
N4445 Y-52.832 Z-18.98
N4450 G0 Z3.
N4455 X-18.666 Y4.777
N4460 Z-17.98
N4465 G1 Z-18.98 F#103
N4470 X-18.66 Y4.773 Z-19.101
N4475 X-18.642 Y4.761 Z-19.219
N4480 X-18.613 Y4.74 Z-19.335
N4485 X-18.572 Y4.712 Z-19.445
N4490 X-18.521 Y4.676 Z-19.548
N4495 X-18.46 Y4.633 Z-19.643
N4500 X-18.391 Y4.584 Z-19.729
N4505 X-18.313 Y4.529 Z-19.803
N4510 X-18.228 Y4.47 Z-19.865
N4515 X-18.138 Y4.406 Z-19.915
N4520 X-18.044 Y4.34 Z-19.951
N4525 X-17.947 Y4.272 Z-19.973
N4530 X-17.848 Y4.203 Z-19.98
N4535 G3 X-15.098 Y2.684 I8.383 J11.932
N4540 X-10.318 Y1.032 I9.969 J21.095 F#100
N4545 G2 X-1.892 Y-7.471 I-3.894 J-12.285
N4550 X-0.313 Y-17.075 I-28.718 J-9.655
N4555 X-0.125 Y-38.404 I-338.018 J-13.651
N4560 X-4.376 Y-47.96 I-15.48 J1.164
N4565 G3 X-6.731 Y-51.087 I17.143 J-15.361
N4570 G1 X-6.87 Y-51.535
N4575 X-6.967 Y-51.988
N4580 X-7. Y-52.45
N4585 G3 X-5.001 Y-52.391 I0.999 J0.035 F#104
N4590 G1 Y-52.38
N4595 X-5.005 Y-52.26 Z-19.973
N4600 X-5.01 Y-52.141 Z-19.951
N4605 X-5.014 Y-52.026 Z-19.915
N4610 X-5.017 Y-51.916 Z-19.865
N4615 X-5.021 Y-51.813 Z-19.803
N4620 X-5.024 Y-51.718 Z-19.729
N4625 X-5.027 Y-51.632 Z-19.643
N4630 X-5.03 Y-51.558 Z-19.548
N4635 X-5.032 Y-51.495 Z-19.445
N4640 X-5.034 Y-51.446 Z-19.335
N4645 X-5.035 Y-51.41 Z-19.219
N4650 X-5.036 Y-51.388 Z-19.101
N4655 Y-51.381 Z-18.98
N4660 G0 Z3.
N4665 X-17.308 Y4.873
N4670 Z-17.98
N4675 G1 Z-18.98 F#103
N4680 X-17.303 Y4.868 Z-19.101
N4685 X-17.288 Y4.853 Z-19.219
N4690 X-17.262 Y4.828 Z-19.335
N4695 X-17.226 Y4.793 Z-19.445
N4700 X-17.181 Y4.75 Z-19.548
N4705 X-17.127 Y4.698 Z-19.643
N4710 X-17.066 Y4.639 Z-19.729
N4715 X-16.998 Y4.573 Z-19.803
N4720 X-16.923 Y4.501 Z-19.865
N4725 X-16.844 Y4.425 Z-19.915
N4730 X-16.761 Y4.345 Z-19.951
N4735 X-16.675 Y4.262 Z-19.973
N4740 X-16.589 Y4.178 Z-19.98
N4745 G3 X-14.106 Y2.254 I10.124 J10.495
N4750 G1 X-13.58 Y1.893 F#100
N4755 X-13.045 Y1.546
N4760 X-12.502 Y1.213
N4765 X-11.951 Y0.893
N4770 X-11.392 Y0.587
N4775 X-10.825 Y0.295
N4780 X-10.251 Y0.018
N4785 X-9.671 Y-0.245
N4790 G2 X-2.299 Y-10.869 I-7.902 J-13.352
N4795 X-1.233 Y-20.566 I-40.461 J-9.355
N4800 X-1.147 Y-37.452 I-279.858 J-9.863
N4805 X-5.248 Y-47.143 I-18.385 J2.067
N4810 G3 X-6.919 Y-49.937 I11.069 J-8.515
N4815 G1 X-6.972 Y-50.369
N4820 X-7. Y-50.794
N4825 Y-50.841
N4830 G3 X-5.001 Y-50.782 I0.999 J0.035 F#104
N4835 G1 Y-50.771
N4840 X-5.005 Y-50.651 Z-19.973
N4845 X-5.01 Y-50.532 Z-19.951
N4850 X-5.014 Y-50.417 Z-19.915
N4855 X-5.017 Y-50.307 Z-19.865
N4860 X-5.021 Y-50.204 Z-19.803
N4865 X-5.024 Y-50.109 Z-19.729
N4870 X-5.027 Y-50.023 Z-19.643
N4875 X-5.03 Y-49.949 Z-19.548
N4880 X-5.032 Y-49.886 Z-19.445
N4885 X-5.034 Y-49.837 Z-19.335
N4890 X-5.035 Y-49.801 Z-19.219
N4895 X-5.036 Y-49.779 Z-19.101
N4900 Y-49.772 Z-18.98
N4905 G0 Z3.
N4910 X-15.843 Y4.857
N4915 Z-17.98
N4920 G1 Z-18.98 F#103
N4925 X-15.839 Y4.851 Z-19.101
N4930 X-15.827 Y4.833 Z-19.219
N4935 X-15.806 Y4.804 Z-19.335
N4940 X-15.778 Y4.763 Z-19.445
N4945 X-15.742 Y4.712 Z-19.548
N4950 X-15.7 Y4.65 Z-19.643
N4955 X-15.651 Y4.58 Z-19.729
N4960 X-15.597 Y4.502 Z-19.803
N4965 X-15.539 Y4.417 Z-19.865
N4970 X-15.476 Y4.327 Z-19.915
N4975 X-15.41 Y4.232 Z-19.951
N4980 X-15.343 Y4.134 Z-19.973
N4985 X-15.274 Y4.035 Z-19.98
N4990 G3 X-13.219 Y1.659 I11.993 J8.296
N4995 G1 X-12.724 Y1.179 F#100
N5000 X-12.22 Y0.708
N5005 X-11.706 Y0.248
N5010 X-11.183 Y-0.201
N5015 X-10.651 Y-0.64
N5020 X-10.111 Y-1.068
N5025 X-9.562 Y-1.486
N5030 X-9.005 Y-1.892
N5035 G2 X-3.011 Y-13.502 I-12.848 J-13.986
N5040 X-2.17 Y-25.009 I-60.788 J-10.227
N5045 X-2.202 Y-36.562 I-139.479 J-5.381
N5050 X-6.098 Y-46.379 I-21.49 J2.846
N5055 G3 X-7.022 Y-48.911 I4.722 J-3.159
N5060 G1 X-7. Y-50.794
N5065 G3 X-5.001 Y-50.735 I0.999 J0.035 F#104
N5070 G1 Y-50.724
N5075 X-5.005 Y-50.604 Z-19.973
N5080 X-5.01 Y-50.485 Z-19.951
N5085 X-5.014 Y-50.37 Z-19.915
N5090 X-5.017 Y-50.26 Z-19.865
N5095 X-5.021 Y-50.157 Z-19.803
N5100 X-5.024 Y-50.062 Z-19.729
N5105 X-5.027 Y-49.976 Z-19.643
N5110 X-5.03 Y-49.902 Z-19.548
N5115 X-5.032 Y-49.84 Z-19.445
N5120 X-5.034 Y-49.79 Z-19.335
N5125 X-5.035 Y-49.754 Z-19.219
N5130 X-5.036 Y-49.732 Z-19.101
N5135 Y-49.725 Z-18.98
N5140 G0 Z3.
N5145 X-14.726 Y4.563
N5150 Z-17.98
N5155 G1 Z-18.98 F#103
N5160 X-14.722 Y4.557 Z-19.101
N5165 X-14.713 Y4.537 Z-19.219
N5170 X-14.696 Y4.505 Z-19.335
N5175 X-14.674 Y4.461 Z-19.445
N5180 X-14.646 Y4.405 Z-19.548
N5185 X-14.612 Y4.339 Z-19.643
N5190 X-14.574 Y4.262 Z-19.729
N5195 X-14.531 Y4.178 Z-19.803
N5200 X-14.484 Y4.085 Z-19.865
N5205 X-14.434 Y3.987 Z-19.915
N5210 X-14.382 Y3.884 Z-19.951
N5215 X-14.329 Y3.778 Z-19.973
N5220 X-14.274 Y3.671 Z-19.98
N5225 G3 X-12.562 Y1.037 I13.012 J6.583
N5230 X-8.286 Y-4.122 I45.379 J33.265 F#100
N5235 G2 X-3.737 Y-16.483 I-19.667 J-14.256
N5240 X-3.131 Y-29.792 I-96.766 J-11.069
N5245 X-4.627 Y-41.167 I-27.589 J-2.158
N5250 G3 X-6.857 Y-45.796 I135.23 J-67.982
N5255 G1 X-6.964 Y-46.272
N5260 X-7. Y-46.758
N5265 Y-48.913
N5270 G3 X-5.001 Y-48.854 I0.999 J0.035 F#104
N5275 G1 Y-48.843
N5280 X-5.005 Y-48.723 Z-19.973
N5285 X-5.01 Y-48.604 Z-19.951
N5290 X-5.014 Y-48.489 Z-19.915
N5295 X-5.017 Y-48.379 Z-19.865
N5300 X-5.021 Y-48.276 Z-19.803
N5305 X-5.024 Y-48.181 Z-19.729
N5310 X-5.027 Y-48.095 Z-19.643
N5315 X-5.03 Y-48.021 Z-19.548
N5320 X-5.032 Y-47.958 Z-19.445
N5325 X-5.034 Y-47.909 Z-19.335
N5330 X-5.035 Y-47.873 Z-19.219
N5335 X-5.036 Y-47.851 Z-19.101
N5340 Y-47.844 Z-18.98
N5345 G0 Z3.
N5350 X-13.257 Y4.034
N5355 Z-17.98
N5360 G1 Z-18.98 F#103
N5365 X-13.256 Y4.027 Z-19.101
N5370 X-13.25 Y4.006 Z-19.219
N5375 X-13.241 Y3.972 Z-19.335
N5380 X-13.228 Y3.924 Z-19.445
N5385 X-13.213 Y3.863 Z-19.548
N5390 X-13.194 Y3.791 Z-19.643
N5395 X-13.172 Y3.709 Z-19.729
N5400 X-13.148 Y3.617 Z-19.803
N5405 X-13.122 Y3.517 Z-19.865
N5410 X-13.094 Y3.41 Z-19.915
N5415 X-13.064 Y3.299 Z-19.951
N5420 X-13.034 Y3.184 Z-19.973
N5425 X-13.004 Y3.067 Z-19.98
N5430 G3 X-11.884 Y0.132 I14.106 J3.698
N5435 G1 X-11.627 Y-0.426 F#100
N5440 X-11.357 Y-0.977
N5445 X-11.075 Y-1.522
N5450 X-10.78 Y-2.061
N5455 X-10.474 Y-2.593
N5460 X-10.155 Y-3.118
N5465 X-9.825 Y-3.635
N5470 X-9.484 Y-4.146
N5475 X-9.13 Y-4.648
N5480 X-8.766 Y-5.142
N5485 G2 X-4.548 Y-19.497 I-26.336 J-15.536
N5490 X-4.274 Y-34.593 I-101.834 J-9.399
N5495 X-6.918 Y-43.344 I-28.45 J3.821
N5500 G1 X-6.97 Y-43.794
N5505 X-7. Y-44.236
N5510 Y-46.758
N5515 G3 X-5.967 Y-47.723 Z-19.88 I0.999 J0.035 F#104
N5520 X-5.041 Y-47.005 I-0.034 J0.999
N5525 G1 X-4.926 Y-46.709
N5530 X-1.472 Y-37.815 F#105
N5535 X-1.027 Y-35.091
N5540 X-0.823 Y-32.062
N5545 X-0.87 Y-26.207
N5550 X-1.045 Y-21.159
N5555 X-1.504 Y-16.312
N5560 X-2.243 Y-12.476
N5565 X-6.626 Y0.649
N5570 G3 X-10.479 Y1.839 I-2.363 J-0.818
N5575 X-11.373 Y0.581 I1.491 J-2.007 F#103
N5580 X-11.479 Y0.043 Z-19.915 I2.385 J-0.75
N5585 G1 X-11.416 Y-0.764 Z-19.967
N5590 X-11.358 Y-0.966 Z-19.98
N5595 G3 X-8.352 Y-8.046 I60.123 J21.348 F#100
N5600 G2 X-5.393 Y-22.779 I-38.065 J-15.307
N5605 X-5.501 Y-35.204 I-63.851 J-5.659
N5610 X-7.017 Y-40.773 I-52.283 J11.245
N5615 G1 X-7. Y-41.143
N5620 Y-44.236
N5625 G3 X-5.967 Y-45.2 Z-19.88 I0.999 J0.035 F#104
N5630 X-5.076 Y-44.582 I-0.034 J0.999
N5635 G1 X-4.955 Y-44.177
N5640 X-2.103 Y-34.653 F#105
N5645 X-1.869 Y-31.658
N5650 X-1.895 Y-25.399
N5655 X-2.28 Y-19.543
N5660 X-2.679 Y-16.11
N5665 X-5.708 Y-1.976
N5670 G3 X-9.641 Y-0.394 I-2.461 J-0.439
N5675 X-10.547 Y-1.643 I1.472 J-2.021 F#103
N5680 Y-3.187 Z-19.98 I2.378 J-0.772
N5685 G1 X-8.195 Y-9.649 F#100
N5690 G2 X-6.864 Y-17.261 I-22.727 J-7.896
N5695 X-6.378 Y-33.234 I-87.461 J-10.658
N5700 G3 X-7.015 Y-36.888 I58.2 J-12.029
N5705 G1 X-7. Y-41.143
N5710 G3 X-5.967 Y-42.107 Z-19.88 I0.999 J0.035 F#104
N5715 X-5.001 Y-41.149 I-0.034 J0.999
N5720 G1 X-4.993 Y-41.077
N5725 X-2.103 Y-14.899 F#105
N5730 G3 X-5.408 Y-12.19 I-2.475 J0.351
N5735 X-6.634 Y-13.127 I0.831 J-2.358 F#103
N5740 X-7.077 Y-14.606 Z-19.98 I2.057 J-1.421
N5745 G2 X-7. Y-16.514 I-23.573 J-1.909 F#100
N5750 G1 Y-36.89
N5755 G3 X-5.431 Y-37.677 I0.999 J0.035 F#104
N5760 G1 X-5.362 Y-37.613 Z-19.975
N5765 X-5.293 Y-37.549 Z-19.962
N5770 X-5.225 Y-37.486 Z-19.939
N5775 X-5.174 Y-37.402 Z-19.905
N5780 X-5.126 Y-37.321 Z-19.86
N5785 X-5.08 Y-37.245 Z-19.806
N5790 X-5.059 Y-37.167 Z-19.744
N5795 X-5.04 Y-37.095 Z-19.673
N5800 X-5.023 Y-37.03 Z-19.596
N5805 X-5.008 Y-36.973 Z-19.513
N5810 X-5.005 Y-36.925 Z-19.426
N5815 X-5.002 Y-36.885 Z-19.336
N5820 X-5.001 Y-36.855 Z-19.242
N5825 Y-36.831 Z-19.127
N5830 Y-36.823 Z-19.053
N5835 Y-36.82 Z-18.98
N5840 G0 X0.635 Y10.019
N5845 Z-27.
N5850 G1 Z-28. F#103
N5855 X0.634 Y10.012 Z-28.121
N5860 X0.628 Y9.991 Z-28.239
N5865 X0.619 Y9.957 Z-28.355
N5870 X0.607 Y9.909 Z-28.465
N5875 X0.591 Y9.848 Z-28.568
N5880 X0.573 Y9.776 Z-28.663
N5885 X0.552 Y9.693 Z-28.749
N5890 X0.528 Y9.601 Z-28.823
N5895 X0.503 Y9.501 Z-28.885
N5900 X0.475 Y9.394 Z-28.935
N5905 X0.447 Y9.283 Z-28.971
N5910 X0.417 Y9.168 Z-28.993
N5915 X0.387 Y9.051 Z-29.
N5920 G3 X-0.06 Y5.941 I14.127 J-3.619
N5925 G2 X4.142 Y-0.642 I-5.495 J-8.139 F#100
N5930 X4.856 Y-8.591 I-33.654 J-7.029
N5935 X4.94 Y-23.703 I-555.719 J-10.65
N5940 G1 Y-43.259
N5945 Y-47.704
N5950 G2 X1.55 Y-53.562 I-6.561 J-0.113
N5955 X-4.943 Y-55.566 I-7.138 J11.607
N5960 G3 X-7.005 Y-57.908 I0.346 J-2.384
N5965 G1 X-6.993 Y-58.034 F#104
N5970 X-6.965 Y-58.156
N5975 X-6.922 Y-58.274
N5980 X-6.865 Y-58.386
N5985 X-6.794 Y-58.49
N5990 X-6.71 Y-58.584
N5995 X-6.616 Y-58.667
N6000 X-6.512 Y-58.737
N6005 X-6.4 Y-58.794
N6010 X-6.281 Y-58.837
N6015 X-6.159 Y-58.864
N6020 X-6.034 Y-58.876
N6025 X-5.909 Y-58.872
N6030 X-5.785 Y-58.852
N6035 X-5.664 Y-58.818
N6040 X-5.549 Y-58.768
N6045 X-5.441 Y-58.704
N6050 X-5.342 Y-58.628
N6055 X-5.253 Y-58.539
N6060 X-5.176 Y-58.441
N6065 X-5.111 Y-58.333
N6070 X-5.061 Y-58.218
N6075 X-5.026 Y-58.098
N6080 X-5.005 Y-57.975
N6085 X-5.001 Y-57.849
N6090 Y-57.839
N6095 X-5.005 Y-57.718 Z-28.993
N6100 X-5.01 Y-57.599 Z-28.971
N6105 X-5.014 Y-57.484 Z-28.935
N6110 X-5.017 Y-57.374 Z-28.885
N6115 X-5.021 Y-57.271 Z-28.823
N6120 X-5.024 Y-57.176 Z-28.749
N6125 X-5.027 Y-57.091 Z-28.663
N6130 X-5.03 Y-57.016 Z-28.568
N6135 X-5.032 Y-56.954 Z-28.465
N6140 X-5.034 Y-56.904 Z-28.355
N6145 X-5.035 Y-56.868 Z-28.239
N6150 X-5.036 Y-56.847 Z-28.121
N6155 Y-56.839 Z-28.
N6160 G0 Z3.
N6165 X-32.695 Y-58.248
N6170 Z-27.
N6175 G1 Z-28. F#103
N6180 X-32.694 Y-58.241 Z-28.121
N6185 X-32.688 Y-58.22 Z-28.239
N6190 X-32.679 Y-58.186 Z-28.355
N6195 X-32.667 Y-58.138 Z-28.465
N6200 X-32.651 Y-58.077 Z-28.568
N6205 X-32.633 Y-58.005 Z-28.663
N6210 X-32.612 Y-57.922 Z-28.749
N6215 X-32.588 Y-57.83 Z-28.823
N6220 X-32.563 Y-57.73 Z-28.885
N6225 X-32.535 Y-57.623 Z-28.935
N6230 X-32.507 Y-57.512 Z-28.971
N6235 X-32.477 Y-57.397 Z-28.993
N6240 X-32.447 Y-57.28 Z-29.
N6245 G3 X-32. Y-54.17 I-14.127 J3.619
N6250 G1 Y-16.514 F#100
N6255 X-31.963 Y-12.979
N6260 X-31.937 Y-9.444
N6265 X-31.923 Y-5.909
N6270 X-31.92 Y-2.373
N6275 G2 X-26.948 Y3.389 I7.277 J-1.253
N6280 X-20.897 Y4.681 I6.463 J-15.447
N6285 X-4.018 Y4.865 I10.653 J-203.502
N6290 X2.266 Y-0.898 I-2.099 J-8.597
N6295 X3.72 Y-8.716 I-20.119 J-7.784
N6300 X3.918 Y-23.825 I-255.037 J-10.9
N6305 G1 X3.94 Y-28.269
N6310 Y-45.159
N6315 G2 X-1.255 Y-52.816 I-8.546 J0.208
N6320 X-5.735 Y-54.795 I-31.57 J65.412
N6325 G3 X-7.004 Y-57.101 I1.544 J-2.351
N6330 G1 X-6.991 Y-57.226 F#104
N6335 X-6.963 Y-57.348
N6340 X-6.92 Y-57.466
N6345 X-6.863 Y-57.578
N6350 X-6.792 Y-57.681
N6355 X-6.709 Y-57.775
N6360 X-6.615 Y-57.858
N6365 X-6.511 Y-57.929
N6370 X-6.399 Y-57.985
N6375 X-6.281 Y-58.028
N6380 X-6.159 Y-58.055
N6385 X-6.034 Y-58.067
N6390 X-5.909 Y-58.063
N6395 X-5.785 Y-58.044
N6400 X-5.664 Y-58.009
N6405 X-5.549 Y-57.96
N6410 X-5.441 Y-57.896
N6415 X-5.342 Y-57.82
N6420 X-5.253 Y-57.731
N6425 X-5.176 Y-57.633
N6430 X-5.112 Y-57.525
N6435 X-5.061 Y-57.41
N6440 X-5.026 Y-57.29
N6445 X-5.006 Y-57.167
N6450 X-5.001 Y-57.042
N6455 Y-57.031
N6460 X-5.005 Y-56.91 Z-28.993
N6465 X-5.01 Y-56.792 Z-28.971
N6470 X-5.014 Y-56.677 Z-28.935
N6475 X-5.017 Y-56.567 Z-28.885
N6480 X-5.021 Y-56.463 Z-28.823
N6485 X-5.024 Y-56.368 Z-28.749
N6490 X-5.027 Y-56.283 Z-28.663
N6495 X-5.03 Y-56.208 Z-28.568
N6500 X-5.032 Y-56.146 Z-28.465
N6505 X-5.034 Y-56.097 Z-28.355
N6510 X-5.035 Y-56.061 Z-28.239
N6515 X-5.036 Y-56.039 Z-28.121
N6520 Y-56.032 Z-28.
N6525 G0 Z3.
N6530 X-32.918 Y-19.738
N6535 Z-27.
N6540 G1 Z-28. F#103
N6545 X-32.916 Y-19.731 Z-28.121
N6550 X-32.909 Y-19.71 Z-28.239
N6555 X-32.898 Y-19.676 Z-28.355
N6560 X-32.883 Y-19.629 Z-28.465
N6565 X-32.864 Y-19.569 Z-28.568
N6570 X-32.842 Y-19.498 Z-28.663
N6575 X-32.816 Y-19.417 Z-28.749
N6580 X-32.787 Y-19.326 Z-28.823
N6585 X-32.755 Y-19.228 Z-28.885
N6590 X-32.722 Y-19.123 Z-28.935
N6595 X-32.687 Y-19.013 Z-28.971
N6600 X-32.651 Y-18.9 Z-28.993
N6605 X-32.614 Y-18.785 Z-29.
N6610 G3 X-31.987 Y-15.707 I-13.892 J4.433
N6615 G2 X-31.191 Y-10.126 I35.267 J-2.18 F#100
N6620 X-30.797 Y-3.919 I84.619 J-2.257
N6625 X-24.447 Y2.426 I9.289 J-2.947
N6630 X-20.609 Y3.377 I4.894 J-11.529
N6635 X-6.413 Y3.834 I9.905 J-86.851
N6640 X0.864 Y-2.05 I-1.607 J-9.429
N6645 X2.669 Y-10.688 I-19.951 J-8.678
N6650 X2.903 Y-24.017 I-168.703 J-9.629
N6655 G1 X2.937 Y-25.795
N6660 X2.939 Y-29.351
N6665 X2.94 Y-37.351
N6670 Y-41.796
N6675 G2 X-2.198 Y-51.463 I-10.147 J-0.806
N6680 X-4.78 Y-53.1 I-17.011 J23.975
N6685 G3 X-6.482 Y-54.511 I2.331 J-4.544
N6690 X-7. Y-56.19 I2.464 J-1.679
N6695 X-5.001 Y-56.131 I0.999 J0.035 F#104
N6700 G1 Y-56.12
N6705 X-5.005 Y-56. Z-28.993
N6710 X-5.01 Y-55.881 Z-28.971
N6715 X-5.014 Y-55.766 Z-28.935
N6720 X-5.017 Y-55.656 Z-28.885
N6725 X-5.021 Y-55.553 Z-28.823
N6730 X-5.024 Y-55.458 Z-28.749
N6735 X-5.027 Y-55.372 Z-28.663
N6740 X-5.03 Y-55.298 Z-28.568
N6745 X-5.032 Y-55.235 Z-28.465
N6750 X-5.034 Y-55.186 Z-28.355
N6755 X-5.035 Y-55.15 Z-28.239
N6760 X-5.036 Y-55.128 Z-28.121
N6765 Y-55.121 Z-28.
N6770 G0 Z3.
N6775 X-33.074 Y-15.911
N6780 Z-27.
N6785 G1 Z-28. F#103
N6790 X-33.071 Y-15.904 Z-28.121
N6795 X-33.061 Y-15.885 Z-28.239
N6800 X-33.045 Y-15.853 Z-28.355
N6805 X-33.023 Y-15.808 Z-28.465
N6810 X-32.995 Y-15.753 Z-28.568
N6815 X-32.962 Y-15.686 Z-28.663
N6820 X-32.924 Y-15.61 Z-28.749
N6825 X-32.881 Y-15.525 Z-28.823
N6830 X-32.835 Y-15.432 Z-28.885
N6835 X-32.786 Y-15.334 Z-28.935
N6840 X-32.734 Y-15.231 Z-28.971
N6845 X-32.681 Y-15.124 Z-28.993
N6850 X-32.627 Y-15.017 Z-29.
N6855 G3 X-31.532 Y-12.072 I-13.041 J6.525
N6860 X-30.026 Y-5.913 I-44.766 J14.208 F#100
N6865 G2 X-28.048 Y-2.105 I11.218 J-3.41
N6870 G1 X-27.933 Y-1.759
N6875 G3 X-28.575 Y-0.499 Z-28.9 I-0.951 J0.309 F#104
N6880 X-29.76 Y-0.966 I-0.31 J-0.951
N6885 G1 X-29.859 Y-1.125
N6890 X-34.431 Y-8.437 F#105
N6895 X-34.55 Y-8.841
N6900 G3 X-33.461 Y-10.92 I1.883 J-0.338
N6905 X-31.937 Y-10.948 I0.794 J1.741 F#103
N6910 X-30.965 Y-10.053 Z-28.986 I-0.73 J1.768
N6915 G1 X-30.875 Y-9.851 Z-29.
N6920 X-30.868 Y-9.829 F#100
N6925 X-30.805 Y-9.649
N6930 X-27.718 Y-1.168
N6935 X-27.642 Y-0.966
N6940 X-27.557 Y-0.764
N6945 X-27.556 Y-0.761 F#104
N6950 G2 X-26.98 Y0.688 Z-28.9 I4.48 J-0.941
N6955 G1 X-26.964 Y0.714
N6960 G2 X-26.758 Y0.952 I0.849 J-0.528
N6965 G1 X-25.989 Y1.597
N6970 X-25.053 Y2.383 F#103
N6975 G2 X-24.783 Y2.545 I0.643 J-0.766
N6980 G1 X-24.755 Y2.556
N6985 G2 X-23.227 Y2.872 Z-29. I1.679 J-4.259
N6990 G1 X-23.225 Y2.873
N6995 G2 X-21.78 Y2.998 I1.302 J-6.625 F#100
N7000 G1 X-17.999 Y2.962
N7005 X-14.217 Y2.936
N7010 X-10.436 Y2.922
N7015 G2 X-0.077 Y-3.98 I0.538 J-10.417
N7020 X1.652 Y-12.643 I-21.748 J-8.845
N7025 X1.895 Y-29.527 I-226.988 J-11.707
N7030 X1.893 Y-41.971 I-337.937 J-6.181
N7035 X-2.906 Y-50.181 I-11.831 J1.409
N7040 G3 X-6.22 Y-53.007 I64.113 J-78.535
N7045 X-7. Y-55.168 I2.659 J-2.181
N7050 X-5.001 Y-55.109 I0.999 J0.035 F#104
N7055 G1 Y-55.098
N7060 X-5.005 Y-54.978 Z-28.993
N7065 X-5.01 Y-54.859 Z-28.971
N7070 X-5.014 Y-54.744 Z-28.935
N7075 X-5.017 Y-54.634 Z-28.885
N7080 X-5.021 Y-54.53 Z-28.823
N7085 X-5.024 Y-54.435 Z-28.749
N7090 X-5.027 Y-54.35 Z-28.663
N7095 X-5.03 Y-54.276 Z-28.568
N7100 X-5.032 Y-54.213 Z-28.465
N7105 X-5.034 Y-54.164 Z-28.355
N7110 X-5.035 Y-54.128 Z-28.239
N7115 X-5.036 Y-54.106 Z-28.121
N7120 Y-54.099 Z-28.
N7125 G0 Z3.
N7130 X-20.504 Y4.063
N7135 Z-27.
N7140 G1 Z-28. F#103
N7145 X-20.497 Y4.061 Z-28.121
N7150 X-20.476 Y4.054 Z-28.239
N7155 X-20.442 Y4.041 Z-28.355
N7160 X-20.396 Y4.024 Z-28.465
N7165 X-20.337 Y4.003 Z-28.568
N7170 X-20.267 Y3.978 Z-28.663
N7175 X-20.187 Y3.949 Z-28.749
N7180 X-20.097 Y3.917 Z-28.823
N7185 X-20. Y3.881 Z-28.885
N7190 X-19.897 Y3.844 Z-28.935
N7195 X-19.788 Y3.805 Z-28.971
N7200 X-19.676 Y3.764 Z-28.993
N7205 X-19.563 Y3.723 Z-29.
N7210 G3 X-16.511 Y2.98 I4.958 J13.714
N7215 G1 X-12.883 Y2.205 F#100
N7220 G2 X-6.03 Y0.553 I0.015 J-14.975
N7225 X-0.264 Y-8.082 I-7.248 J-11.082
N7230 X0.792 Y-17.776 I-37.865 J-9.029
N7235 X0.893 Y-39.997 I-537.264 J-13.561
N7240 X-3.866 Y-49.246 I-13.693 J1.197
N7245 G3 X-6.533 Y-52.162 I24.763 J-25.33
N7250 X-7. Y-53.901 I3.186 J-1.787
N7255 X-5.001 Y-53.842 I0.999 J0.035 F#104
N7260 G1 Y-53.831
N7265 X-5.005 Y-53.71 Z-28.993
N7270 X-5.01 Y-53.592 Z-28.971
N7275 X-5.014 Y-53.477 Z-28.935
N7280 X-5.017 Y-53.366 Z-28.885
N7285 X-5.021 Y-53.263 Z-28.823
N7290 X-5.024 Y-53.168 Z-28.749
N7295 X-5.027 Y-53.083 Z-28.663
N7300 X-5.03 Y-53.008 Z-28.568
N7305 X-5.032 Y-52.946 Z-28.465
N7310 X-5.034 Y-52.896 Z-28.355
N7315 X-5.035 Y-52.861 Z-28.239
N7320 X-5.036 Y-52.839 Z-28.121
N7325 Y-52.832 Z-28.
N7330 G0 Z3.
N7335 X-18.666 Y4.777
N7340 Z-27.
N7345 G1 Z-28. F#103
N7350 X-18.66 Y4.773 Z-28.121
N7355 X-18.642 Y4.761 Z-28.239
N7360 X-18.613 Y4.74 Z-28.355
N7365 X-18.572 Y4.712 Z-28.465
N7370 X-18.521 Y4.676 Z-28.568
N7375 X-18.46 Y4.633 Z-28.663
N7380 X-18.391 Y4.584 Z-28.749
N7385 X-18.313 Y4.529 Z-28.823
N7390 X-18.228 Y4.47 Z-28.885
N7395 X-18.138 Y4.406 Z-28.935
N7400 X-18.044 Y4.34 Z-28.971
N7405 X-17.947 Y4.272 Z-28.993
N7410 X-17.848 Y4.203 Z-29.
N7415 G3 X-15.098 Y2.684 I8.383 J11.932
N7420 X-10.318 Y1.032 I9.969 J21.095 F#100
N7425 G2 X-1.892 Y-7.471 I-3.894 J-12.285
N7430 X-0.313 Y-17.075 I-28.718 J-9.655
N7435 X-0.125 Y-38.404 I-338.018 J-13.651
N7440 X-4.376 Y-47.96 I-15.48 J1.164
N7445 G3 X-6.731 Y-51.087 I17.143 J-15.361
N7450 G1 X-6.87 Y-51.535
N7455 X-6.967 Y-51.988
N7460 X-7. Y-52.45
N7465 G3 X-5.001 Y-52.391 I0.999 J0.035 F#104
N7470 G1 Y-52.38
N7475 X-5.005 Y-52.26 Z-28.993
N7480 X-5.01 Y-52.141 Z-28.971
N7485 X-5.014 Y-52.026 Z-28.935
N7490 X-5.017 Y-51.916 Z-28.885
N7495 X-5.021 Y-51.813 Z-28.823
N7500 X-5.024 Y-51.718 Z-28.749
N7505 X-5.027 Y-51.632 Z-28.663
N7510 X-5.03 Y-51.558 Z-28.568
N7515 X-5.032 Y-51.495 Z-28.465
N7520 X-5.034 Y-51.446 Z-28.355
N7525 X-5.035 Y-51.41 Z-28.239
N7530 X-5.036 Y-51.388 Z-28.121
N7535 Y-51.381 Z-28.
N7540 G0 Z3.
N7545 X-17.308 Y4.873
N7550 Z-27.
N7555 G1 Z-28. F#103
N7560 X-17.303 Y4.868 Z-28.121
N7565 X-17.288 Y4.853 Z-28.239
N7570 X-17.262 Y4.828 Z-28.355
N7575 X-17.226 Y4.793 Z-28.465
N7580 X-17.181 Y4.75 Z-28.568
N7585 X-17.127 Y4.698 Z-28.663
N7590 X-17.066 Y4.639 Z-28.749
N7595 X-16.998 Y4.573 Z-28.823
N7600 X-16.923 Y4.501 Z-28.885
N7605 X-16.844 Y4.425 Z-28.935
N7610 X-16.761 Y4.345 Z-28.971
N7615 X-16.675 Y4.262 Z-28.993
N7620 X-16.589 Y4.178 Z-29.
N7625 G3 X-14.106 Y2.254 I10.124 J10.495
N7630 G1 X-13.58 Y1.893 F#100
N7635 X-13.045 Y1.546
N7640 X-12.502 Y1.213
N7645 X-11.951 Y0.893
N7650 X-11.392 Y0.587
N7655 X-10.825 Y0.295
N7660 X-10.251 Y0.018
N7665 X-9.671 Y-0.245
N7670 G2 X-2.299 Y-10.869 I-7.902 J-13.352
N7675 X-1.233 Y-20.566 I-40.461 J-9.355
N7680 X-1.147 Y-37.452 I-279.858 J-9.863
N7685 X-5.248 Y-47.143 I-18.385 J2.067
N7690 G3 X-6.919 Y-49.937 I11.069 J-8.515
N7695 G1 X-6.972 Y-50.369
N7700 X-7. Y-50.794
N7705 Y-50.841
N7710 G3 X-5.001 Y-50.782 I0.999 J0.035 F#104
N7715 G1 Y-50.771
N7720 X-5.005 Y-50.651 Z-28.993
N7725 X-5.01 Y-50.532 Z-28.971
N7730 X-5.014 Y-50.417 Z-28.935
N7735 X-5.017 Y-50.307 Z-28.885
N7740 X-5.021 Y-50.204 Z-28.823
N7745 X-5.024 Y-50.109 Z-28.749
N7750 X-5.027 Y-50.023 Z-28.663
N7755 X-5.03 Y-49.949 Z-28.568
N7760 X-5.032 Y-49.886 Z-28.465
N7765 X-5.034 Y-49.837 Z-28.355
N7770 X-5.035 Y-49.801 Z-28.239
N7775 X-5.036 Y-49.779 Z-28.121
N7780 Y-49.772 Z-28.
N7785 G0 Z3.
N7790 X-15.843 Y4.857
N7795 Z-27.
N7800 G1 Z-28. F#103
N7805 X-15.839 Y4.851 Z-28.121
N7810 X-15.827 Y4.833 Z-28.239
N7815 X-15.806 Y4.804 Z-28.355
N7820 X-15.778 Y4.763 Z-28.465
N7825 X-15.742 Y4.712 Z-28.568
N7830 X-15.7 Y4.65 Z-28.663
N7835 X-15.651 Y4.58 Z-28.749
N7840 X-15.597 Y4.502 Z-28.823
N7845 X-15.539 Y4.417 Z-28.885
N7850 X-15.476 Y4.327 Z-28.935
N7855 X-15.41 Y4.232 Z-28.971
N7860 X-15.343 Y4.134 Z-28.993
N7865 X-15.274 Y4.035 Z-29.
N7870 G3 X-13.219 Y1.659 I11.993 J8.296
N7875 G1 X-12.724 Y1.179 F#100
N7880 X-12.22 Y0.708
N7885 X-11.706 Y0.248
N7890 X-11.183 Y-0.201
N7895 X-10.651 Y-0.64
N7900 X-10.111 Y-1.068
N7905 X-9.562 Y-1.486
N7910 X-9.005 Y-1.892
N7915 G2 X-3.011 Y-13.502 I-12.848 J-13.986
N7920 X-2.17 Y-25.009 I-60.788 J-10.227
N7925 X-2.202 Y-36.562 I-139.479 J-5.381
N7930 X-6.098 Y-46.379 I-21.49 J2.846
N7935 G3 X-7.022 Y-48.911 I4.722 J-3.159
N7940 G1 X-7. Y-50.794
N7945 G3 X-5.001 Y-50.735 I0.999 J0.035 F#104
N7950 G1 Y-50.724
N7955 X-5.005 Y-50.604 Z-28.993
N7960 X-5.01 Y-50.485 Z-28.971
N7965 X-5.014 Y-50.37 Z-28.935
N7970 X-5.017 Y-50.26 Z-28.885
N7975 X-5.021 Y-50.157 Z-28.823
N7980 X-5.024 Y-50.062 Z-28.749
N7985 X-5.027 Y-49.976 Z-28.663
N7990 X-5.03 Y-49.902 Z-28.568
N7995 X-5.032 Y-49.84 Z-28.465
N8000 X-5.034 Y-49.79 Z-28.355
N8005 X-5.035 Y-49.754 Z-28.239
N8010 X-5.036 Y-49.732 Z-28.121
N8015 Y-49.725 Z-28.
N8020 G0 Z3.
N8025 X-14.726 Y4.563
N8030 Z-27.
N8035 G1 Z-28. F#103
N8040 X-14.722 Y4.557 Z-28.121
N8045 X-14.713 Y4.537 Z-28.239
N8050 X-14.696 Y4.505 Z-28.355
N8055 X-14.674 Y4.461 Z-28.465
N8060 X-14.646 Y4.405 Z-28.568
N8065 X-14.612 Y4.339 Z-28.663
N8070 X-14.574 Y4.262 Z-28.749
N8075 X-14.531 Y4.178 Z-28.823
N8080 X-14.484 Y4.085 Z-28.885
N8085 X-14.434 Y3.987 Z-28.935
N8090 X-14.382 Y3.884 Z-28.971
N8095 X-14.329 Y3.778 Z-28.993
N8100 X-14.274 Y3.671 Z-29.
N8105 G3 X-12.562 Y1.037 I13.012 J6.583
N8110 X-8.286 Y-4.122 I45.379 J33.265 F#100
N8115 G2 X-3.737 Y-16.483 I-19.667 J-14.256
N8120 X-3.131 Y-29.792 I-96.766 J-11.069
N8125 X-4.627 Y-41.167 I-27.589 J-2.158
N8130 G3 X-6.857 Y-45.796 I135.23 J-67.982
N8135 G1 X-6.964 Y-46.272
N8140 X-7. Y-46.758
N8145 Y-48.913
N8150 G3 X-5.001 Y-48.854 I0.999 J0.035 F#104
N8155 G1 Y-48.843
N8160 X-5.005 Y-48.723 Z-28.993
N8165 X-5.01 Y-48.604 Z-28.971
N8170 X-5.014 Y-48.489 Z-28.935
N8175 X-5.017 Y-48.379 Z-28.885
N8180 X-5.021 Y-48.276 Z-28.823
N8185 X-5.024 Y-48.181 Z-28.749
N8190 X-5.027 Y-48.095 Z-28.663
N8195 X-5.03 Y-48.021 Z-28.568
N8200 X-5.032 Y-47.958 Z-28.465
N8205 X-5.034 Y-47.909 Z-28.355
N8210 X-5.035 Y-47.873 Z-28.239
N8215 X-5.036 Y-47.851 Z-28.121
N8220 Y-47.844 Z-28.
N8225 G0 Z3.
N8230 X-13.257 Y4.034
N8235 Z-27.
N8240 G1 Z-28. F#103
N8245 X-13.256 Y4.027 Z-28.121
N8250 X-13.25 Y4.006 Z-28.239
N8255 X-13.241 Y3.972 Z-28.355
N8260 X-13.228 Y3.924 Z-28.465
N8265 X-13.213 Y3.863 Z-28.568
N8270 X-13.194 Y3.791 Z-28.663
N8275 X-13.172 Y3.709 Z-28.749
N8280 X-13.148 Y3.617 Z-28.823
N8285 X-13.122 Y3.517 Z-28.885
N8290 X-13.094 Y3.41 Z-28.935
N8295 X-13.064 Y3.299 Z-28.971
N8300 X-13.034 Y3.184 Z-28.993
N8305 X-13.004 Y3.067 Z-29.
N8310 G3 X-11.884 Y0.132 I14.106 J3.698
N8315 G1 X-11.627 Y-0.426 F#100
N8320 X-11.357 Y-0.977
N8325 X-11.075 Y-1.522
N8330 X-10.78 Y-2.061
N8335 X-10.474 Y-2.593
N8340 X-10.155 Y-3.118
N8345 X-9.825 Y-3.635
N8350 X-9.484 Y-4.146
N8355 X-9.13 Y-4.648
N8360 X-8.766 Y-5.142
N8365 G2 X-4.548 Y-19.497 I-26.336 J-15.536
N8370 X-4.274 Y-34.593 I-101.834 J-9.399
N8375 X-6.918 Y-43.344 I-28.45 J3.821
N8380 G1 X-6.97 Y-43.794
N8385 X-7. Y-44.236
N8390 Y-46.758
N8395 G3 X-5.967 Y-47.723 Z-28.9 I0.999 J0.035 F#104
N8400 X-5.041 Y-47.005 I-0.034 J0.999
N8405 G1 X-4.926 Y-46.709
N8410 X-1.472 Y-37.815 F#105
N8415 X-1.027 Y-35.091
N8420 X-0.823 Y-32.062
N8425 X-0.87 Y-26.207
N8430 X-1.045 Y-21.159
N8435 X-1.504 Y-16.312
N8440 X-2.243 Y-12.476
N8445 X-6.626 Y0.649
N8450 G3 X-10.479 Y1.839 I-2.363 J-0.818
N8455 X-11.373 Y0.581 I1.491 J-2.007 F#103
N8460 X-11.479 Y0.043 Z-28.935 I2.385 J-0.75
N8465 G1 X-11.416 Y-0.764 Z-28.987
N8470 X-11.358 Y-0.966 Z-29.
N8475 G3 X-8.352 Y-8.046 I60.123 J21.348 F#100
N8480 G2 X-5.393 Y-22.779 I-38.065 J-15.307
N8485 X-5.501 Y-35.204 I-63.851 J-5.659
N8490 X-7.017 Y-40.773 I-52.283 J11.245
N8495 G1 X-7. Y-41.143
N8500 Y-44.236
N8505 G3 X-5.967 Y-45.2 Z-28.9 I0.999 J0.035 F#104
N8510 X-5.076 Y-44.582 I-0.034 J0.999
N8515 G1 X-4.955 Y-44.177
N8520 X-2.103 Y-34.653 F#105
N8525 X-1.869 Y-31.658
N8530 X-1.895 Y-25.399
N8535 X-2.28 Y-19.543
N8540 X-2.679 Y-16.11
N8545 X-5.708 Y-1.976
N8550 G3 X-9.641 Y-0.394 I-2.461 J-0.439
N8555 X-10.547 Y-1.643 I1.472 J-2.021 F#103
N8560 Y-3.187 Z-29. I2.378 J-0.772
N8565 G1 X-8.195 Y-9.649 F#100
N8570 G2 X-6.864 Y-17.261 I-22.727 J-7.896
N8575 X-6.378 Y-33.234 I-87.461 J-10.658
N8580 G3 X-7.015 Y-36.888 I58.2 J-12.029
N8585 G1 X-7. Y-41.143
N8590 G3 X-5.967 Y-42.107 Z-28.9 I0.999 J0.035 F#104
N8595 X-5.001 Y-41.149 I-0.034 J0.999
N8600 G1 X-4.993 Y-41.077
N8605 X-2.103 Y-14.899 F#105
N8610 G3 X-5.408 Y-12.19 I-2.475 J0.351
N8615 X-6.634 Y-13.127 I0.831 J-2.358 F#103
N8620 X-7.077 Y-14.606 Z-29. I2.057 J-1.421
N8625 G2 X-7. Y-16.514 I-23.573 J-1.909 F#100
N8630 G1 Y-36.89
N8635 G3 X-5.001 Y-36.831 I0.999 J0.035 F#104
N8640 G1 Y-36.82
N8645 X-5.005 Y-36.7 Z-28.993
N8650 X-5.01 Y-36.581 Z-28.971
N8655 X-5.014 Y-36.466 Z-28.935
N8660 X-5.017 Y-36.356 Z-28.885
N8665 X-5.021 Y-36.252 Z-28.823
N8670 X-5.024 Y-36.157 Z-28.749
N8675 X-5.027 Y-36.072 Z-28.663
N8680 X-5.03 Y-35.998 Z-28.568
N8685 X-5.032 Y-35.935 Z-28.465
N8690 X-5.034 Y-35.886 Z-28.355
N8695 X-5.035 Y-35.85 Z-28.239
N8700 X-5.036 Y-35.828 Z-28.121
N8705 Y-35.821 Z-28.
N8710 G0 Z6.
(2D CONTOUR2)
N8720 M9
N8725 G0 X-1.719 Y-0.543
N8730 #102=300. (FINISH)
N8735 #103=200. (ENTRY)
N8740 #104=200. (EXIT)
N8745 #108=45. (PLUNGE)
N8750 Z4.
N8755 Z3.
N8760 G1 Z0. F#103
N8765 Z-25. F#108
N8770 X-1.726 Y-0.545 Z-25.251
N8775 X-1.749 Y-0.553 Z-25.501
N8780 X-1.786 Y-0.567 Z-25.75
N8785 X-1.837 Y-0.586 Z-25.995
N8790 X-1.903 Y-0.61 Z-26.236
N8795 X-1.983 Y-0.639 Z-26.472
N8800 X-2.077 Y-0.673 Z-26.703
N8805 X-2.184 Y-0.712 Z-26.927
N8810 X-2.304 Y-0.756 Z-27.143
N8815 X-2.437 Y-0.804 Z-27.351
N8820 X-2.582 Y-0.857 Z-27.55
N8825 X-2.738 Y-0.913 Z-27.738
N8830 X-2.905 Y-0.974 Z-27.916
N8835 X-3.082 Y-1.039 Z-28.082
N8840 X-3.268 Y-1.106 Z-28.236
N8845 X-3.464 Y-1.178 Z-28.377
N8850 X-3.667 Y-1.252 Z-28.505
N8855 X-3.877 Y-1.328 Z-28.619
N8860 X-4.094 Y-1.407 Z-28.719
N8865 X-4.316 Y-1.488 Z-28.804
N8870 X-4.543 Y-1.57 Z-28.874
N8875 X-4.773 Y-1.654 Z-28.929
N8880 X-5.007 Y-1.739 Z-28.968
N8885 X-5.242 Y-1.825 Z-28.992
N8890 X-5.478 Y-1.911 Z-29.
N8895 X-6.605 Y-2.321 F#103
N8900 G3 X-8.996 Y-7.448 I1.368 J-3.759
N8905 G1 X-8.086 Y-9.949 F#102
N8910 G2 X-7. Y-16.106 I-16.914 J-6.156
N8915 G1 Y-51.
N8920 G3 X-3. Y-55. I4. J0. F#104
N8925 G1 X-1.8
N8930 G18 G2 X2.2 Z-25. I0. K4.
N8935 G0 Z3.
N8940 X-41.2
N8945 G1 Z0. F#103
N8950 Z-25. F#108
N8955 G2 X-37.2 Z-29. I4. K0.
N8960 G1 X-36. F#103
N8965 G17 G3 X-32. Y-51. I0. J4.
N8970 G1 Y-16.106 F#102
N8975 G2 X-30.914 Y-9.949 I18. J0.
N8980 G1 X-30.004 Y-7.448
N8985 G3 X-32.395 Y-2.321 I-3.759 J1.368 F#104
N8990 G1 X-33.522 Y-1.911
N8995 X-33.758 Y-1.825 Z-28.992
N9000 X-33.993 Y-1.739 Z-28.968
N9005 X-34.227 Y-1.654 Z-28.929
N9010 X-34.457 Y-1.57 Z-28.874
N9015 X-34.684 Y-1.488 Z-28.804
N9020 X-34.906 Y-1.407 Z-28.719
N9025 X-35.123 Y-1.328 Z-28.619
N9030 X-35.333 Y-1.252 Z-28.505
N9035 X-35.536 Y-1.178 Z-28.377
N9040 X-35.732 Y-1.106 Z-28.236
N9045 X-35.918 Y-1.039 Z-28.082
N9050 X-36.095 Y-0.974 Z-27.916
N9055 X-36.262 Y-0.913 Z-27.738
N9060 X-36.418 Y-0.857 Z-27.55
N9065 X-36.563 Y-0.804 Z-27.351
N9070 X-36.696 Y-0.756 Z-27.143
N9075 X-36.816 Y-0.712 Z-26.927
N9080 X-36.923 Y-0.673 Z-26.703
N9085 X-37.017 Y-0.639 Z-26.472
N9090 X-37.097 Y-0.61 Z-26.236
N9095 X-37.163 Y-0.586 Z-25.995
N9100 X-37.214 Y-0.567 Z-25.75
N9105 X-37.251 Y-0.553 Z-25.501
N9110 X-37.274 Y-0.545 Z-25.251
N9115 X-37.281 Y-0.543 Z-25.
N9120 X-40.017 Y-8.06
N9125 X-40.01 Y-8.063 Z-25.251 F#108
N9130 X-39.988 Y-8.071 Z-25.501
N9135 X-39.951 Y-8.084 Z-25.75
N9140 X-39.899 Y-8.103 Z-25.995
N9145 X-39.833 Y-8.127 Z-26.236
N9150 X-39.753 Y-8.156 Z-26.472
N9155 X-39.659 Y-8.19 Z-26.703
N9160 X-39.552 Y-8.229 Z-26.927
N9165 X-39.432 Y-8.273 Z-27.143
N9170 X-39.299 Y-8.321 Z-27.351
N9175 X-39.155 Y-8.374 Z-27.55
N9180 X-38.998 Y-8.431 Z-27.738
N9185 X-38.831 Y-8.492 Z-27.916
N9190 X-38.654 Y-8.556 Z-28.082
N9195 X-38.468 Y-8.624 Z-28.236
N9200 X-38.272 Y-8.695 Z-28.377
N9205 X-38.069 Y-8.769 Z-28.505
N9210 X-37.859 Y-8.846 Z-28.619
N9215 X-37.642 Y-8.924 Z-28.719
N9220 X-37.42 Y-9.005 Z-28.804
N9225 X-37.193 Y-9.088 Z-28.874
N9230 X-36.963 Y-9.172 Z-28.929
N9235 X-36.73 Y-9.257 Z-28.968
N9240 X-36.494 Y-9.342 Z-28.992
N9245 X-36.258 Y-9.428 Z-29.
N9250 X-35.131 Y-9.839 F#103
N9255 G3 X-30.004 Y-7.448 I1.368 J3.759
N9260 G1 X-29.042 Y-4.804 F#102
N9265 X-28.821 Y-4.198
N9270 X-28.613 Y-3.627
N9275 X-28.421 Y-3.099
N9280 X-28.246 Y-2.617
N9285 X-28.09 Y-2.189
N9290 X-27.955 Y-1.817
N9295 X-27.843 Y-1.51
N9300 X-27.636 Y-0.942
N9305 G2 X-22. Y3. I5.636 J-2.058
N9310 G1 X-17.
N9315 G2 X-11.364 Y-0.942 I0. J-6.
N9320 G1 X-11.348 Y-0.985
N9325 X-11.31 Y-1.091
N9330 X-11.246 Y-1.267
N9335 X-11.157 Y-1.51
N9340 X-11.044 Y-1.82
N9345 X-10.91 Y-2.189
N9350 X-10.754 Y-2.617
N9355 X-10.579 Y-3.099
N9360 X-10.387 Y-3.627
N9365 X-10.179 Y-4.198
N9370 X-9.958 Y-4.804
N9375 X-8.996 Y-7.448
N9380 G3 X-3.869 Y-9.839 I3.759 J1.368 F#104
N9385 G1 X-2.742 Y-9.428
N9390 X-2.506 Y-9.342 Z-28.992
N9395 X-2.27 Y-9.257 Z-28.968
N9400 X-2.037 Y-9.172 Z-28.929
N9405 X-1.807 Y-9.088 Z-28.874
N9410 X-1.58 Y-9.005 Z-28.804
N9415 X-1.358 Y-8.924 Z-28.719
N9420 X-1.141 Y-8.846 Z-28.619
N9425 X-0.931 Y-8.769 Z-28.505
N9430 X-0.728 Y-8.695 Z-28.377
N9435 X-0.532 Y-8.624 Z-28.236
N9440 X-0.346 Y-8.556 Z-28.082
N9445 X-0.169 Y-8.492 Z-27.916
N9450 X-0.002 Y-8.431 Z-27.738
N9455 X0.155 Y-8.374 Z-27.55
N9460 X0.299 Y-8.321 Z-27.351
N9465 X0.432 Y-8.273 Z-27.143
N9470 X0.552 Y-8.229 Z-26.927
N9475 X0.659 Y-8.19 Z-26.703
N9480 X0.753 Y-8.156 Z-26.472
N9485 X0.833 Y-8.127 Z-26.236
N9490 X0.899 Y-8.103 Z-25.995
N9495 X0.951 Y-8.084 Z-25.75
N9500 X0.988 Y-8.071 Z-25.501
N9505 X1.01 Y-8.063 Z-25.251
N9510 X1.017 Y-8.06 Z-25.
N9515 X-1.719 Y-0.543
N9520 X-1.726 Y-0.545 Z-25.251 F#108
N9525 X-1.749 Y-0.553 Z-25.501
N9530 X-1.786 Y-0.567 Z-25.75
N9535 X-1.837 Y-0.586 Z-25.995
N9540 X-1.903 Y-0.61 Z-26.236
N9545 X-1.983 Y-0.639 Z-26.472
N9550 X-2.077 Y-0.673 Z-26.703
N9555 X-2.184 Y-0.712 Z-26.927
N9560 X-2.304 Y-0.756 Z-27.143
N9565 X-2.437 Y-0.804 Z-27.351
N9570 X-2.582 Y-0.857 Z-27.55
N9575 X-2.738 Y-0.913 Z-27.738
N9580 X-2.905 Y-0.974 Z-27.916
N9585 X-3.082 Y-1.039 Z-28.082
N9590 X-3.268 Y-1.106 Z-28.236
N9595 X-3.464 Y-1.178 Z-28.377
N9600 X-3.667 Y-1.252 Z-28.505
N9605 X-3.877 Y-1.328 Z-28.619
N9610 X-4.094 Y-1.407 Z-28.719
N9615 X-4.316 Y-1.488 Z-28.804
N9620 X-4.543 Y-1.57 Z-28.874
N9625 X-4.773 Y-1.654 Z-28.929
N9630 X-5.007 Y-1.739 Z-28.968
N9635 X-5.242 Y-1.825 Z-28.992
N9640 X-5.478 Y-1.911 Z-29.
N9645 X-6.605 Y-2.321 F#103
N9650 G3 X-8.996 Y-7.448 I1.368 J-3.759
N9655 G1 X-8.086 Y-9.949 F#102
N9660 G2 X-7. Y-16.106 I-16.914 J-6.156
N9665 G1 Y-51.
N9670 G3 X-3. Y-55. I4. J0. F#104
N9675 G1 X-1.8
N9680 G18 G2 X2.2 Z-25. I0. K4.
N9685 G0 Z3.
N9690 X-41.2
N9695 G1 Z0. F#103
N9700 Z-25. F#108
N9705 G2 X-37.2 Z-29. I4. K0.
N9710 G1 X-36. F#103
N9715 G17 G3 X-32. Y-51. I0. J4.
N9720 G1 Y-16.106 F#102
N9725 G2 X-30.914 Y-9.949 I18. J0.
N9730 G1 X-30.004 Y-7.448
N9735 G3 X-32.395 Y-2.321 I-3.759 J1.368 F#104
N9740 G1 X-33.522 Y-1.911
N9745 X-33.758 Y-1.825 Z-28.992
N9750 X-33.993 Y-1.739 Z-28.968
N9755 X-34.227 Y-1.654 Z-28.929
N9760 X-34.457 Y-1.57 Z-28.874
N9765 X-34.684 Y-1.488 Z-28.804
N9770 X-34.906 Y-1.407 Z-28.719
N9775 X-35.123 Y-1.328 Z-28.619
N9780 X-35.333 Y-1.252 Z-28.505
N9785 X-35.536 Y-1.178 Z-28.377
N9790 X-35.732 Y-1.106 Z-28.236
N9795 X-35.918 Y-1.039 Z-28.082
N9800 X-36.095 Y-0.974 Z-27.916
N9805 X-36.262 Y-0.913 Z-27.738
N9810 X-36.418 Y-0.857 Z-27.55
N9815 X-36.563 Y-0.804 Z-27.351
N9820 X-36.696 Y-0.756 Z-27.143
N9825 X-36.816 Y-0.712 Z-26.927
N9830 X-36.923 Y-0.673 Z-26.703
N9835 X-37.017 Y-0.639 Z-26.472
N9840 X-37.097 Y-0.61 Z-26.236
N9845 X-37.163 Y-0.586 Z-25.995
N9850 X-37.214 Y-0.567 Z-25.75
N9855 X-37.251 Y-0.553 Z-25.501
N9860 X-37.274 Y-0.545 Z-25.251
N9865 X-37.281 Y-0.543 Z-25.
N9870 X-40.017 Y-8.06
N9875 X-40.01 Y-8.063 Z-25.251 F#108
N9880 X-39.988 Y-8.071 Z-25.501
N9885 X-39.951 Y-8.084 Z-25.75
N9890 X-39.899 Y-8.103 Z-25.995
N9895 X-39.833 Y-8.127 Z-26.236
N9900 X-39.753 Y-8.156 Z-26.472
N9905 X-39.659 Y-8.19 Z-26.703
N9910 X-39.552 Y-8.229 Z-26.927
N9915 X-39.432 Y-8.273 Z-27.143
N9920 X-39.299 Y-8.321 Z-27.351
N9925 X-39.155 Y-8.374 Z-27.55
N9930 X-38.998 Y-8.431 Z-27.738
N9935 X-38.831 Y-8.492 Z-27.916
N9940 X-38.654 Y-8.556 Z-28.082
N9945 X-38.468 Y-8.624 Z-28.236
N9950 X-38.272 Y-8.695 Z-28.377
N9955 X-38.069 Y-8.769 Z-28.505
N9960 X-37.859 Y-8.846 Z-28.619
N9965 X-37.642 Y-8.924 Z-28.719
N9970 X-37.42 Y-9.005 Z-28.804
N9975 X-37.193 Y-9.088 Z-28.874
N9980 X-36.963 Y-9.172 Z-28.929
N9985 X-36.73 Y-9.257 Z-28.968
N9990 X-36.494 Y-9.342 Z-28.992
N9995 X-36.258 Y-9.428 Z-29.
N10000 X-35.131 Y-9.839 F#103
N10005 G3 X-30.004 Y-7.448 I1.368 J3.759
N10010 G1 X-29.042 Y-4.804 F#102
N10015 X-28.821 Y-4.198
N10020 X-28.613 Y-3.627
N10025 X-28.421 Y-3.099
N10030 X-28.246 Y-2.617
N10035 X-28.09 Y-2.189
N10040 X-27.955 Y-1.817
N10045 X-27.843 Y-1.51
N10050 X-27.636 Y-0.942
N10055 G2 X-22. Y3. I5.636 J-2.058
N10060 G1 X-17.
N10065 G2 X-11.364 Y-0.942 I0. J-6.
N10070 G1 X-11.348 Y-0.985
N10075 X-11.31 Y-1.091
N10080 X-11.246 Y-1.267
N10085 X-11.157 Y-1.51
N10090 X-11.044 Y-1.82
N10095 X-10.91 Y-2.189
N10100 X-10.754 Y-2.617
N10105 X-10.579 Y-3.099
N10110 X-10.387 Y-3.627
N10115 X-10.179 Y-4.198
N10120 X-9.958 Y-4.804
N10125 X-8.996 Y-7.448
N10130 G3 X-3.869 Y-9.839 I3.759 J1.368 F#104
N10135 G1 X-2.742 Y-9.428
N10140 X-2.506 Y-9.342 Z-28.992
N10145 X-2.27 Y-9.257 Z-28.968
N10150 X-2.037 Y-9.172 Z-28.929
N10155 X-1.807 Y-9.088 Z-28.874
N10160 X-1.58 Y-9.005 Z-28.804
N10165 X-1.358 Y-8.924 Z-28.719
N10170 X-1.141 Y-8.846 Z-28.619
N10175 X-0.931 Y-8.769 Z-28.505
N10180 X-0.728 Y-8.695 Z-28.377
N10185 X-0.532 Y-8.624 Z-28.236
N10190 X-0.346 Y-8.556 Z-28.082
N10195 X-0.169 Y-8.492 Z-27.916
N10200 X-0.002 Y-8.431 Z-27.738
N10205 X0.155 Y-8.374 Z-27.55
N10210 X0.299 Y-8.321 Z-27.351
N10215 X0.432 Y-8.273 Z-27.143
N10220 X0.552 Y-8.229 Z-26.927
N10225 X0.659 Y-8.19 Z-26.703
N10230 X0.753 Y-8.156 Z-26.472
N10235 X0.833 Y-8.127 Z-26.236
N10240 X0.899 Y-8.103 Z-25.995
N10245 X0.951 Y-8.084 Z-25.75
N10250 X0.988 Y-8.071 Z-25.501
N10255 X1.01 Y-8.063 Z-25.251
N10260 X1.017 Y-8.06 Z-25.
N10265 G0 Z4.
N10275 M9
N10280 G53 Z0.
N10285 M30
%
