%
(T6  D=12. CR=0. - ZMIN=-16. - FLAT END MILL)
N10 G90 G94 G17 G91.1
N15 G21
N20 G53 G0 Z0.
(2D CONTOUR3)
N25 M9
N30 T6 M6
N35 S2500 M3
N40 G54
N45 M9
N55 G0 X-24.6 Y-12.594
N60 G43 Z15. H6
N65 #102=300. (FINISH)
N70 #103=200. (ENTRY)
N75 #104=200. (EXIT)
N80 #107=270. (RAMPING)
N85 #108=45. (PLUNGE)
N90 G0 Z5.
N95 G1 Z3.7 F#103
N100 G18 G2 X-23.4 Z2.5 I1.2 K0. F#108
N105 G1 X-22.2 F#103
N110 G17 G3 X-21. Y-11.394 I0. J1.2
N115 S2400
N120 G1 Y-6.5 Z2.336 F#107
N125 G2 X-20.992 Y-6.186 Z2.325 I6. J0.
N130 G1 X-20.956 Y-5.507 Z2.303
N135 G2 X-20.891 Y-4.882 Z2.282 I5.992 J-0.314
N140 G1 X-20.784 Y-4.21 Z2.259
N145 G2 X-20.654 Y-3.596 Z2.238 I5.926 J-0.938
N150 G1 X-20.477 Y-2.938 Z2.215
N155 G2 X-20.283 Y-2.341 Z2.194 I5.796 J-1.553
N160 G1 X-20.039 Y-1.705 Z2.171
N165 G2 X-19.784 Y-1.133 Z2.15 I5.601 J-2.151
N170 G1 X-19.476 Y-0.527 Z2.127
N175 G2 X-19.161 Y0.018 Z2.106 I5.346 J-2.723
N180 G1 X-18.79 Y0.589 Z2.083
N185 G2 X-18.421 Y1.097 Z2.062 I5.032 J-3.268
N190 G1 X-17.993 Y1.625 Z2.039
N195 G2 X-17.573 Y2.092 Z2.018 I4.663 J-3.776
N200 G1 X-17.092 Y2.573 Z1.995
N205 G2 X-16.625 Y2.993 Z1.974 I4.243 J-4.243
N210 G1 X-16.097 Y3.421 Z1.952
N215 G2 X-15.588 Y3.791 Z1.93 I3.776 J-4.663
N220 G1 X-15.018 Y4.161 Z1.908
N225 G2 X-14.474 Y4.475 Z1.887 I3.268 J-5.032
N230 G1 X-13.868 Y4.784 Z1.864
N235 G2 X-13.294 Y5.04 Z1.843 I2.724 J-5.346
N240 G1 X-12.659 Y5.283 Z1.82
N245 G2 X-12.062 Y5.477 Z1.799 I2.15 J-5.602
N250 G1 X-11.404 Y5.654 Z1.776
N255 G2 X-10.79 Y5.784 Z1.755 I1.553 J-5.796
N260 G1 X-10.118 Y5.891 Z1.732
N265 G2 X-9.493 Y5.956 Z1.711 I0.939 J-5.926
N270 G1 X-8.814 Y5.992 Z1.688
N275 G2 X-8.5 Y6. Z1.678 I0.314 J-5.992
N280 G1 X-1. Z1.426
N285 G2 X5. Y0. Z1.11 I0. J-6.
N290 G1 Y-48. Z-0.499
N295 G2 X-1. Y-54. Z-0.815 I-6. J0.
N300 G1 X-6.519 Z-1.
N305 X-1. Z-1.185
N310 G3 X5. Y-48. Z-1.501 I0. J6.
N315 G1 Y0. Z-3.11
N320 G3 X-1. Y6. Z-3.426 I-6. J0.
N325 G1 X-8.5 Z-3.678
N330 G3 X-8.814 Y5.992 Z-3.688 I0. J-6.
N335 G1 X-9.493 Y5.956 Z-3.711
N340 G3 X-10.118 Y5.891 Z-3.732 I0.314 J-5.992
N345 G1 X-10.79 Y5.784 Z-3.755
N350 G3 X-11.404 Y5.654 Z-3.776 I0.939 J-5.926
N355 G1 X-12.062 Y5.477 Z-3.799
N360 G3 X-12.659 Y5.283 Z-3.82 I1.553 J-5.796
N365 G1 X-13.294 Y5.04 Z-3.843
N370 G3 X-13.868 Y4.784 Z-3.864 I2.15 J-5.602
N375 G1 X-14.474 Y4.475 Z-3.887
N380 G3 X-15.018 Y4.161 Z-3.908 I2.724 J-5.346
N385 G1 X-15.588 Y3.791 Z-3.93
N390 G3 X-16.097 Y3.421 Z-3.952 I3.268 J-5.032
N395 G1 X-16.625 Y2.993 Z-3.974
N400 G3 X-17.092 Y2.573 Z-3.995 I3.776 J-4.663
N405 G1 X-17.573 Y2.092 Z-4.018
N410 G3 X-17.993 Y1.625 Z-4.039 I4.243 J-4.243
N415 G1 X-18.421 Y1.097 Z-4.062
N420 G3 X-18.79 Y0.589 Z-4.083 I4.663 J-3.776
N425 G1 X-19.161 Y0.018 Z-4.106
N430 G3 X-19.476 Y-0.527 Z-4.127 I5.032 J-3.268
N435 G1 X-19.784 Y-1.133 Z-4.15
N440 G3 X-20.039 Y-1.705 Z-4.171 I5.346 J-2.723
N445 G1 X-20.283 Y-2.341 Z-4.194
N450 G3 X-20.477 Y-2.938 Z-4.215 I5.601 J-2.151
N455 G1 X-20.654 Y-3.596 Z-4.238
N460 G3 X-20.784 Y-4.21 Z-4.259 I5.796 J-1.553
N465 G1 X-20.891 Y-4.882 Z-4.282
N470 G3 X-20.956 Y-5.507 Z-4.303 I5.926 J-0.938
N475 G1 X-20.992 Y-6.186 Z-4.325
N480 G3 X-21. Y-6.5 Z-4.336 I5.992 J-0.314
N485 G1 Y-19. Z-4.755
N490 X-24. Z-4.856
N495 G3 X-24.393 Y-19.013 Z-4.869 I0. J-6.
N500 G1 X-24.785 Y-19.039 Z-4.882
N505 G3 X-25.561 Y-19.141 Z-4.908 I0.393 J-5.987
N510 G1 X-25.946 Y-19.217 Z-4.921
N515 G3 X-26.706 Y-19.421 Z-4.948 I1.17 J-5.885
N520 G1 X-27.078 Y-19.547 Z-4.961
N525 G3 X-27.801 Y-19.847 Z-4.987 I1.929 J-5.681
N530 G1 X-28.153 Y-20.02 Z-5.
N535 G3 X-28.833 Y-20.413 Z-5.027 I2.653 J-5.381
N540 G1 X-29.159 Y-20.631 Z-5.04
N545 G3 X-29.783 Y-21.11 Z-5.066 I3.333 J-4.989
N550 G1 X-30.078 Y-21.368 Z-5.079
N555 G3 X-30.632 Y-21.922 Z-5.106 I3.957 J-4.51
N560 G1 X-30.89 Y-22.217 Z-5.119
N565 G3 X-31.369 Y-22.841 Z-5.145 I4.51 J-3.957
N570 G1 X-31.587 Y-23.167 Z-5.158
N575 G3 X-31.98 Y-23.847 Z-5.185 I4.989 J-3.333
N580 G1 X-32.153 Y-24.199 Z-5.198
N585 G3 X-32.453 Y-24.922 Z-5.224 I5.381 J-2.653
N590 G1 X-32.579 Y-25.294 Z-5.237
N595 G3 X-32.783 Y-26.054 Z-5.264 I5.681 J-1.929
N600 G1 X-32.859 Y-26.439 Z-5.277
N605 G3 X-32.961 Y-27.215 Z-5.303 I5.885 J-1.17
N610 G1 X-32.987 Y-27.607 Z-5.316
N615 G3 X-33. Y-28. Z-5.329 I5.987 J-0.393
N620 G1 Y-48. Z-6.
N625 Y-28. Z-6.671
N630 G2 X-32.987 Y-27.607 Z-6.684 I6. J0.
N635 G1 X-32.961 Y-27.215 Z-6.697
N640 G2 X-32.859 Y-26.439 Z-6.723 I5.987 J-0.393
N645 G1 X-32.783 Y-26.054 Z-6.736
N650 G2 X-32.579 Y-25.294 Z-6.763 I5.885 J-1.17
N655 G1 X-32.453 Y-24.922 Z-6.776
N660 G2 X-32.153 Y-24.199 Z-6.802 I5.681 J-1.929
N665 G1 X-31.98 Y-23.847 Z-6.815
N670 G2 X-31.587 Y-23.167 Z-6.842 I5.381 J-2.653
N675 G1 X-31.369 Y-22.841 Z-6.855
N680 G2 X-30.89 Y-22.217 Z-6.881 I4.989 J-3.333
N685 G1 X-30.632 Y-21.922 Z-6.894
N690 G2 X-30.078 Y-21.368 Z-6.921 I4.51 J-3.957
N695 G1 X-29.783 Y-21.11 Z-6.934
N700 G2 X-29.159 Y-20.631 Z-6.96 I3.957 J-4.51
N705 G1 X-28.833 Y-20.413 Z-6.973
N710 G2 X-28.153 Y-20.02 Z-7. I3.333 J-4.989
N715 G1 X-27.801 Y-19.847 Z-7.013
N720 G2 X-27.078 Y-19.547 Z-7.039 I2.653 J-5.381
N725 G1 X-26.706 Y-19.421 Z-7.052
N730 G2 X-25.946 Y-19.217 Z-7.079 I1.929 J-5.681
N735 G1 X-25.561 Y-19.141 Z-7.092
N740 G2 X-24.785 Y-19.039 Z-7.118 I1.17 J-5.885
N745 G1 X-24.393 Y-19.013 Z-7.131
N750 G2 X-24. Y-19. Z-7.144 I0.393 J-5.987
N755 G1 X-21. Z-7.245
N760 Y-6.5 Z-7.664
N765 G2 X-20.992 Y-6.186 Z-7.675 I6. J0.
N770 G1 X-20.956 Y-5.507 Z-7.697
N775 G2 X-20.891 Y-4.882 Z-7.718 I5.992 J-0.314
N780 G1 X-20.784 Y-4.21 Z-7.741
N785 G2 X-20.654 Y-3.596 Z-7.762 I5.926 J-0.938
N790 G1 X-20.477 Y-2.938 Z-7.785
N795 G2 X-20.283 Y-2.341 Z-7.806 I5.796 J-1.553
N800 G1 X-20.039 Y-1.705 Z-7.829
N805 G2 X-19.784 Y-1.133 Z-7.85 I5.601 J-2.151
N810 G1 X-19.476 Y-0.527 Z-7.873
N815 G2 X-19.161 Y0.018 Z-7.894 I5.346 J-2.723
N820 G1 X-18.79 Y0.589 Z-7.917
N825 G2 X-18.421 Y1.097 Z-7.938 I5.032 J-3.268
N830 G1 X-17.993 Y1.625 Z-7.961
N835 G2 X-17.573 Y2.092 Z-7.982 I4.663 J-3.776
N840 G1 X-17.092 Y2.573 Z-8.005
N845 G2 X-16.625 Y2.993 Z-8.026 I4.243 J-4.243
N850 G1 X-16.097 Y3.421 Z-8.048
N855 G2 X-15.588 Y3.791 Z-8.069 I3.776 J-4.663
N860 G1 X-15.018 Y4.161 Z-8.092
N865 G2 X-14.474 Y4.475 Z-8.113 I3.268 J-5.032
N870 G1 X-13.868 Y4.784 Z-8.136
N875 G2 X-13.294 Y5.04 Z-8.157 I2.724 J-5.346
N880 G1 X-12.659 Y5.283 Z-8.18
N885 G2 X-12.062 Y5.477 Z-8.201 I2.15 J-5.602
N890 G1 X-11.404 Y5.654 Z-8.224
N895 G2 X-10.79 Y5.784 Z-8.245 I1.553 J-5.796
N900 G1 X-10.118 Y5.891 Z-8.268
N905 G2 X-9.493 Y5.956 Z-8.289 I0.939 J-5.926
N910 G1 X-8.814 Y5.992 Z-8.312
N915 G2 X-8.5 Y6. Z-8.322 I0.314 J-5.992
N920 G1 X-1. Z-8.574
N925 G2 X5. Y0. Z-8.89 I0. J-6.
N930 G1 Y-48. Z-10.499
N935 G2 X-1. Y-54. Z-10.815 I-6. J0.
N940 G1 X-6.519 Z-11.
N945 X-1. Z-11.185
N950 G3 X5. Y-48. Z-11.501 I0. J6.
N955 G1 Y0. Z-13.11
N960 G3 X-1. Y6. Z-13.426 I-6. J0.
N965 G1 X-8.5 Z-13.678
N970 G3 X-8.814 Y5.992 Z-13.688 I0. J-6.
N975 G1 X-9.493 Y5.956 Z-13.711
N980 G3 X-10.118 Y5.891 Z-13.732 I0.314 J-5.992
N985 G1 X-10.79 Y5.784 Z-13.755
N990 G3 X-11.404 Y5.654 Z-13.776 I0.939 J-5.926
N995 G1 X-12.062 Y5.477 Z-13.799
N1000 G3 X-12.659 Y5.283 Z-13.82 I1.553 J-5.796
N1005 G1 X-13.294 Y5.04 Z-13.843
N1010 G3 X-13.868 Y4.784 Z-13.864 I2.15 J-5.602
N1015 G1 X-14.474 Y4.475 Z-13.887
N1020 G3 X-15.018 Y4.161 Z-13.908 I2.724 J-5.346
N1025 G1 X-15.588 Y3.791 Z-13.931
N1030 G3 X-16.097 Y3.421 Z-13.952 I3.268 J-5.032
N1035 G1 X-16.625 Y2.993 Z-13.974
N1040 G3 X-17.092 Y2.573 Z-13.995 I3.776 J-4.663
N1045 G1 X-17.573 Y2.092 Z-14.018
N1050 G3 X-17.993 Y1.625 Z-14.039 I4.243 J-4.243
N1055 G1 X-18.421 Y1.097 Z-14.062
N1060 G3 X-18.79 Y0.589 Z-14.083 I4.663 J-3.776
N1065 G1 X-19.161 Y0.018 Z-14.106
N1070 G3 X-19.476 Y-0.527 Z-14.127 I5.032 J-3.268
N1075 G1 X-19.784 Y-1.133 Z-14.15
N1080 G3 X-20.039 Y-1.705 Z-14.171 I5.346 J-2.723
N1085 G1 X-20.283 Y-2.341 Z-14.194
N1090 G3 X-20.477 Y-2.938 Z-14.215 I5.601 J-2.151
N1095 G1 X-20.654 Y-3.596 Z-14.238
N1100 G3 X-20.784 Y-4.21 Z-14.259 I5.796 J-1.553
N1105 G1 X-20.891 Y-4.882 Z-14.282
N1110 G3 X-20.956 Y-5.507 Z-14.303 I5.926 J-0.938
N1115 G1 X-20.992 Y-6.186 Z-14.325
N1120 G3 X-21. Y-6.5 Z-14.336 I5.992 J-0.314
N1125 G1 Y-19. Z-14.755
N1130 X-24. Z-14.856
N1135 G3 X-24.393 Y-19.013 Z-14.869 I0. J-6.
N1140 G1 X-24.785 Y-19.039 Z-14.882
N1145 G3 X-25.561 Y-19.141 Z-14.908 I0.393 J-5.987
N1150 G1 X-25.946 Y-19.217 Z-14.921
N1155 G3 X-26.706 Y-19.421 Z-14.948 I1.17 J-5.885
N1160 G1 X-27.078 Y-19.547 Z-14.961
N1165 G3 X-27.801 Y-19.847 Z-14.987 I1.929 J-5.681
N1170 G1 X-28.153 Y-20.02 Z-15.
N1175 G3 X-28.833 Y-20.413 Z-15.027 I2.653 J-5.381
N1180 G1 X-29.159 Y-20.631 Z-15.04
N1185 G3 X-29.783 Y-21.11 Z-15.066 I3.333 J-4.989
N1190 G1 X-30.078 Y-21.368 Z-15.079
N1195 G3 X-30.632 Y-21.922 Z-15.106 I3.957 J-4.51
N1200 G1 X-30.89 Y-22.217 Z-15.119
N1205 G3 X-31.369 Y-22.841 Z-15.145 I4.51 J-3.957
N1210 G1 X-31.587 Y-23.167 Z-15.158
N1215 G3 X-31.98 Y-23.847 Z-15.185 I4.989 J-3.333
N1220 G1 X-32.153 Y-24.199 Z-15.198
N1225 G3 X-32.453 Y-24.922 Z-15.224 I5.381 J-2.653
N1230 G1 X-32.579 Y-25.294 Z-15.237
N1235 G3 X-32.783 Y-26.054 Z-15.264 I5.681 J-1.929
N1240 G1 X-32.859 Y-26.439 Z-15.277
N1245 G3 X-32.961 Y-27.215 Z-15.303 I5.885 J-1.17
N1250 G1 X-32.987 Y-27.607 Z-15.316
N1255 G3 X-33. Y-28. Z-15.329 I5.987 J-0.393
N1260 G1 Y-48. Z-16.
N1265 S2500
N1270 Y-31. F#102
N1275 Y-28.
N1280 G2 X-32.987 Y-27.607 I6. J0.
N1285 G1 X-32.961 Y-27.215
N1290 G2 X-32.859 Y-26.439 I5.987 J-0.393
N1295 G1 X-32.783 Y-26.054
N1300 G2 X-32.579 Y-25.294 I5.885 J-1.17
N1305 G1 X-32.453 Y-24.922
N1310 G2 X-32.153 Y-24.199 I5.681 J-1.929
N1315 G1 X-31.98 Y-23.847
N1320 G2 X-31.587 Y-23.167 I5.381 J-2.653
N1325 G1 X-31.369 Y-22.841
N1330 G2 X-30.89 Y-22.217 I4.989 J-3.333
N1335 G1 X-30.632 Y-21.922
N1340 G2 X-30.078 Y-21.368 I4.51 J-3.957
N1345 G1 X-29.783 Y-21.11
N1350 G2 X-29.159 Y-20.631 I3.957 J-4.51
N1355 G1 X-28.833 Y-20.413
N1360 G2 X-28.153 Y-20.02 I3.333 J-4.989
N1365 G1 X-27.801 Y-19.847
N1370 G2 X-27.078 Y-19.547 I2.653 J-5.381
N1375 G1 X-26.706 Y-19.421
N1380 G2 X-25.946 Y-19.217 I1.929 J-5.681
N1385 G1 X-25.561 Y-19.141
N1390 G2 X-24.785 Y-19.039 I1.17 J-5.885
N1395 G1 X-24.393 Y-19.013
N1400 G2 X-24. Y-19. I0.393 J-5.987
N1405 G1 X-21.
N1410 Y-13.106
N1415 Y-9.002
N1420 Y-6.5
N1425 G2 X-20.992 Y-6.186 I6. J0.
N1430 G1 X-20.956 Y-5.507
N1435 G2 X-20.891 Y-4.882 I5.992 J-0.314
N1440 G1 X-20.784 Y-4.21
N1445 G2 X-20.654 Y-3.596 I5.926 J-0.938
N1450 G1 X-20.477 Y-2.938
N1455 G2 X-20.283 Y-2.341 I5.796 J-1.553
N1460 G1 X-20.039 Y-1.705
N1465 G2 X-19.784 Y-1.133 I5.601 J-2.151
N1470 G1 X-19.476 Y-0.527
N1475 G2 X-19.161 Y0.018 I5.346 J-2.723
N1480 G1 X-18.79 Y0.589
N1485 G2 X-18.421 Y1.097 I5.032 J-3.268
N1490 G1 X-17.993 Y1.625
N1495 G2 X-17.573 Y2.092 I4.663 J-3.776
N1500 G1 X-17.092 Y2.573
N1505 G2 X-16.625 Y2.993 I4.243 J-4.243
N1510 G1 X-16.097 Y3.421
N1515 G2 X-15.588 Y3.791 I3.776 J-4.663
N1520 G1 X-15.018 Y4.161
N1525 G2 X-14.474 Y4.475 I3.268 J-5.032
N1530 G1 X-13.868 Y4.784
N1535 G2 X-13.294 Y5.04 I2.724 J-5.346
N1540 G1 X-12.659 Y5.283
N1545 G2 X-12.062 Y5.477 I2.15 J-5.602
N1550 G1 X-11.404 Y5.654
N1555 G2 X-10.79 Y5.784 I1.553 J-5.796
N1560 G1 X-10.118 Y5.891
N1565 G2 X-9.493 Y5.956 I0.939 J-5.926
N1570 G1 X-8.814 Y5.992
N1575 G2 X-8.5 Y6. I0.314 J-5.992
N1580 G1 X-1.
N1585 G2 X5. Y0. I0. J-6.
N1590 G1 Y-9.002
N1595 Y-48.
N1600 G2 X-1. Y-54. I-6. J0.
N1605 G1 X-6.519
N1610 G3 X-7.719 Y-55.2 I0. J-1.2 F#104
N1615 G1 Y-56.4
N1620 G19 G2 Y-57.6 Z-14.8 J0. K1.2
N1625 G0 Z15.
N1630 G17
N1635 M9
N1640 G53 G0 Z0.
N1645 M30
%
