%
(SETUP3-BACK-CAM-FLYING-MOUNT-12MM)
(T1  D=6. CR=0. - ZMIN=-24. - FLAT END MILL)
(T6  D=12. CR=0. - ZMIN=-17. - FLAT END MILL)
N10 G90 G94 G17 G91.1
N15 G21
N20 G53 G0 Z0.
(FACE3)
N25 M9
N30 T6 M6
N35 T1
N40 S2500 M3
N45 G54
N50 M9
N60 G0 X10.717 Y14.057
N65 G43 Z11. H6
N70 #100=300. (CUTTING)
N75 #102=300. (FINISH)
N80 #103=200. (ENTRY)
N85 #104=200. (EXIT)
N90 G0 Z8.
N95 G1 Z2. F#103
N100 G19 G2 Y12.057 Z0. J-2. K0.
N105 G1 Y11.457 F#100
N110 Y-30.726 F#102
N115 Y-36.943 F#100
N120 G17 G2 X7.469 I-1.624 J0.
N125 G1 Y12.86 F#102
N130 Y13. F#100
N135 G3 X4.222 I-1.624 J0.
N140 G1 Y-38.65 F#102
N145 Y-39. F#100
N150 G2 X0.974 I-1.624 J0.
N155 G1 Y13. F#102
N160 G3 X-2.274 I-1.624 J0. F#100
N165 G1 Y-39. F#102
N170 G2 X-5.522 I-1.624 J0. F#100
N175 G1 Y13. F#102
N180 G3 X-8.769 I-1.624 J0. F#100
N185 G1 Y-39. F#102
N190 G2 X-12.017 I-1.624 J0. F#100
N195 G1 Y13. F#102
N200 G3 X-15.265 I-1.624 J0. F#100
N205 G1 Y-38.983 F#102
N210 G19 G2 Y-40.983 Z2. J0. K2. F#104
N215 G0 Z11.
N220 G17
(CONTOUR ROUGHING)
N225 M9
N230 G0 Z12.
N235 X14.917 Y-7.155
N240 #100=300. (CUTTING)
N245 #103=200. (ENTRY)
N250 #104=200. (EXIT)
N255 #106=75. (REDUCED)
N260 #107=270. (RAMPING)
N265 G1 Z0. F#103
N270 X14.911 Y-7.16 Z-0.087
N275 X14.896 Y-7.176 Z-0.171
N280 X14.87 Y-7.203 Z-0.25
N285 X14.835 Y-7.238 Z-0.321
N290 X14.792 Y-7.282 Z-0.383
N295 X14.742 Y-7.333 Z-0.433
N300 X14.686 Y-7.39 Z-0.47
N305 X14.627 Y-7.45 Z-0.492
N310 X14.567 Y-7.512 Z-0.5
N315 X7.947 Y-14.259
N320 G2 X7.296 Y-14.877 I-9.104 J8.932 F#106
N325 G3 X7.178 Y-15.421 I0.312 J-0.352
N330 G2 X7.949 Y-17.665 I-12.504 J-5.55 F#100
N335 X7.964 Y-17.786 Z-0.485 I-0.485 J-0.121
N340 G19 G2 Y-17.882 Z-0.45 J0.122 K0.485
N345 G3 Y-18.1 Z-0.4 J-0.218 K-0.45
N350 G1 Y-27.515
N355 G3 Y-27.733 Z-0.45 J0. K-0.5
N360 G2 Y-27.832 Z-0.486 J-0.218 K0.45
N365 G17 G2 X7.95 Y-27.949 Z-0.5 I-0.5 J0.
N370 X5.69 Y-32.663 I-12.2 J2.949
N375 G3 X5.632 Y-32.759 Z-0.487 I0.396 J-0.305
N380 X5.586 Y-32.964 Z-0.413 I0.454 J-0.21
N385 X5.597 Y-33.075 Z-0.4 I0.5 J-0.004
N390 X6.508 Y-33.236 I0.488 J0.107
N395 G1 X7.899 Y-31.043
N400 G3 X7.97 Y-30.857 I-0.422 J0.268
N405 G1 X8.436 Y-28.067
N410 X8.44 Y-28.032
N415 X8.442 Y-27.998
N420 X8.833 Y-13.255
N425 G3 X8.331 Y-12.742 I-0.5 J0.013
N430 X8.221 Y-12.754 Z-0.413 I0.002 J-0.5
N435 X8.03 Y-12.844 Z-0.487 I0.112 J-0.487
N440 X7.949 Y-12.921 Z-0.5 I0.303 J-0.398
N445 G2 X7.843 Y-13.046 I-9.062 J7.569
N450 X6.106 Y-14.696 I-8.956 J7.694 F#106
N455 G3 X6.019 Y-15.092 I0.193 J-0.25
N460 G2 X7.039 Y-17.712 I-11.011 J-5.795 F#100
N465 X7.401 Y-20.5 I-10.562 J-2.788
N470 G1 Y-25.
N475 G2 X3.43 Y-33.761 I-11.651 J0.
N480 G3 X3.355 Y-33.844 Z-0.487 I0.33 J-0.376
N485 X3.302 Y-33.936 Z-0.45 I0.405 J-0.294
N490 X3.271 Y-34.033 Z-0.414 I0.458 J-0.202
N495 X3.26 Y-34.14 Z-0.4 I0.489 J-0.105
N500 G1 Y-34.148
N505 X3.262 Y-34.689
N510 G2 X2.735 Y-35.19 I-0.5 J-0.002
N515 G1 X-18.272 Y-34.054
N520 G2 X-18.721 Y-33.402 I0.027 J0.499
N525 G1 X-18.627 Y-33.109
N530 X-18.621 Y-33.087
N535 X-18.615 Y-33.064
N540 X-18.609 Y-33.027 Z-0.404
N545 X-18.605 Y-32.99 Z-0.408
N550 X-18.603 Y-32.953 Z-0.413
N555 X-18.605 Y-32.917 Z-0.425
N560 X-18.609 Y-32.882 Z-0.438
N565 X-18.615 Y-32.847 Z-0.45
N570 X-18.624 Y-32.813 Z-0.462
N575 X-18.636 Y-32.78 Z-0.475
N580 X-18.649 Y-32.747 Z-0.487
N585 X-18.666 Y-32.714 Z-0.492
N590 X-18.685 Y-32.682 Z-0.496
N595 X-18.707 Y-32.652 Z-0.5
N600 G2 X-20.95 Y-27.963 I9.941 J7.636
N605 X-20.964 Y-27.845 Z-0.486 I0.486 J0.118
N610 G1 Y-27.794 Z-0.47
N615 Y-27.746 Z-0.45
N620 Y-27.676 Z-0.422
N625 Y-27.603 Z-0.406
N630 Y-27.528 Z-0.4
N635 X-20.965 Y-18.099
N640 Y-18.024 Z-0.406
N645 Y-17.951 Z-0.422
N650 Y-17.881 Z-0.45
N655 Y-17.834 Z-0.47
N660 Y-17.786 Z-0.485
N665 G2 X-20.95 Y-17.665 Z-0.5 I0.5 J0.
N670 X-20.178 Y-15.421 I13.324 J-3.327 F#106
N675 G3 X-20.296 Y-14.877 I-0.43 J0.191
N680 G2 X-20.948 Y-14.258 I8.44 J9.534 F#100
N685 G3 X-21.035 Y-14.187 Z-0.487 I-0.357 J-0.35
N690 X-21.232 Y-14.113 Z-0.413 I-0.271 J-0.42
N695 X-21.344 Y-14.109 Z-0.4 I-0.073 J-0.495
N700 X-21.734 Y-14.865 I0.038 J-0.499
N705 G1 X-21.207 Y-15.745
N710 G3 X-20.349 Y-15.231 I0.429 J0.257
N715 X-21.277 Y-15.45 I-0.429 J-0.257
N720 G1 X-21.435 Y-17.544
N725 G3 X-21.405 Y-17.756 I0.499 J-0.038
N730 G1 X-15.647 Y-33.206
N735 G2 X-16.041 Y-33.875 I-0.469 J-0.175
N740 X-16.152 Y-33.879 Z-0.413 I-0.075 J0.494
N745 X-16.256 Y-33.86 Z-0.45 I0.036 J0.499
N750 X-16.354 Y-33.82 Z-0.487 I0.141 J0.48
N755 X-16.446 Y-33.756 Z-0.5 I0.239 J0.439
N760 X-20.401 Y-25. I7.68 J8.74
N765 G1 Y-20.484
N770 G2 X-20.046 Y-17.736 I10.808 J0.
N775 X-19.944 Y-17.372 I12.139 J-3.192
N780 X-19.049 Y-15.149 I12.038 J-3.556 F#106
N785 G3 X-19.156 Y-14.656 I-0.351 J0.182
N790 G2 X-20.948 Y-12.92 I7.277 J9.302 F#100
N795 G1 X-24.792 Y-8.313 F#104
N800 X-24.847 Y-8.246 Z-0.492
N805 X-24.901 Y-8.181 Z-0.47
N810 X-24.952 Y-8.121 Z-0.433
N815 X-24.998 Y-8.066 Z-0.383
N820 X-25.037 Y-8.018 Z-0.321
N825 X-25.069 Y-7.98 Z-0.25
N830 X-25.093 Y-7.952 Z-0.171
N835 X-25.107 Y-7.934 Z-0.087
N840 X-25.112 Y-7.929 Z0.
N845 G0 Z12.
N850 X-4.251 Y-40.925
N855 G1 Z0. F#103
N860 X-4.258 Y-40.921 Z-0.087
N865 X-4.276 Y-40.908 Z-0.171
N870 X-4.307 Y-40.888 Z-0.25
N875 X-4.349 Y-40.86 Z-0.321
N880 X-4.4 Y-40.826 Z-0.383
N885 X-4.459 Y-40.787 Z-0.433
N890 X-4.525 Y-40.743 Z-0.47
N895 X-4.595 Y-40.696 Z-0.492
N900 X-4.667 Y-40.648 Z-0.5
N905 X-14.719 Y-33.949
N910 G2 X-19.501 Y-25. I5.953 J8.933 F#100
N915 G1 Y-20.484
N920 G2 X-19.069 Y-17.558 I10.123 J0.
N925 X-18.892 Y-17.021 I10.846 J-3.275
N930 X-17.852 Y-14.863 I10.669 J-3.813 F#106
N935 G3 X-17.947 Y-14.422 I-0.276 J0.171
N940 G2 X-20.947 Y-11.422 I6.091 J9.092 F#100
N945 G1 X-24.287 Y-6.438 F#104
N950 X-24.335 Y-6.365 Z-0.492
N955 X-24.382 Y-6.295 Z-0.47
N960 X-24.426 Y-6.23 Z-0.433
N965 X-24.466 Y-6.171 Z-0.383
N970 X-24.5 Y-6.119 Z-0.321
N975 X-24.528 Y-6.078 Z-0.25
N980 X-24.548 Y-6.047 Z-0.171
N985 X-24.561 Y-6.028 Z-0.087
N990 X-24.565 Y-6.022 Z0.
N995 G0 Z12.
N1000 X-12.381 Y-34.179
N1005 G1 Z0. F#103
N1010 X-12.388 Y-34.176 Z-0.087
N1015 X-12.408 Y-34.166 Z-0.171
N1020 X-12.442 Y-34.151 Z-0.25
N1025 X-12.487 Y-34.13 Z-0.321
N1030 X-12.543 Y-34.104 Z-0.383
N1035 X-12.608 Y-34.074 Z-0.433
N1040 X-12.68 Y-34.041 Z-0.47
N1045 X-12.756 Y-34.006 Z-0.492
N1050 X-12.835 Y-33.97 Z-0.5
N1055 X-12.88 Y-33.949
N1060 G2 X-18.601 Y-25. I4.115 J8.933 F#100
N1065 G1 Y-20.484
N1070 G2 X-18.062 Y-17.348 I9.387 J0.
N1075 X-17.767 Y-16.61 I9.648 J-3.42
N1080 X-16.545 Y-14.55 I9.353 J-4.159 F#106
N1085 G3 X-16.628 Y-14.164 I-0.206 J0.157
N1090 G2 X-20.434 Y-10.563 I4.73 J8.809 F#100
N1095 X-20.949 Y-9.6 I8.266 J5.044
N1100 G1 X-23.478 Y-4.159 F#104
N1105 X-23.514 Y-4.08 Z-0.492
N1110 X-23.55 Y-4.004 Z-0.47
N1115 X-23.583 Y-3.932 Z-0.433
N1120 X-23.613 Y-3.867 Z-0.383
N1125 X-23.639 Y-3.811 Z-0.321
N1130 X-23.66 Y-3.766 Z-0.25
N1135 X-23.676 Y-3.733 Z-0.171
N1140 X-23.685 Y-3.712 Z-0.087
N1145 X-23.688 Y-3.705 Z0.
N1150 G0 Z12.
N1155 X14.916 Y-1.041
N1160 G1 Z0. F#103
N1165 X14.912 Y-1.048 Z-0.087
N1170 X14.899 Y-1.066 Z-0.171
N1175 X14.879 Y-1.097 Z-0.25
N1180 X14.851 Y-1.139 Z-0.321
N1185 X14.816 Y-1.19 Z-0.383
N1190 X14.777 Y-1.249 Z-0.433
N1195 X14.733 Y-1.315 Z-0.47
N1200 X14.686 Y-1.385 Z-0.492
N1205 X14.637 Y-1.457 Z-0.5
N1210 X7.947 Y-11.424
N1215 G2 X6.773 Y-12.886 I-9.099 J6.107 F#100
N1220 X4.94 Y-14.427 I-7.925 J7.569 F#106
N1225 G3 X4.847 Y-14.855 I0.175 J-0.262
N1230 G2 X6.069 Y-17.562 I-9.587 J-5.957 F#100
N1235 X6.501 Y-20.5 I-9.772 J-2.938
N1240 G1 Y-25.
N1245 G2 X1.707 Y-33.95 I-10.751 J0.
N1250 G1 X-3.288 Y-37.274 F#104
N1255 X-3.36 Y-37.322 Z-0.492
N1260 X-3.43 Y-37.369 Z-0.47
N1265 X-3.496 Y-37.413 Z-0.433
N1270 X-3.556 Y-37.452 Z-0.383
N1275 X-3.607 Y-37.487 Z-0.321
N1280 X-3.648 Y-37.514 Z-0.25
N1285 X-3.679 Y-37.535 Z-0.171
N1290 X-3.698 Y-37.547 Z-0.087
N1295 X-3.704 Y-37.551 Z0.
N1300 G0 Z12.
N1305 X8.182 Y-9.108
N1310 G1 Z0. F#103
N1315 X8.178 Y-9.115 Z-0.087
N1320 X8.169 Y-9.135 Z-0.171
N1325 X8.153 Y-9.168 Z-0.25
N1330 X8.132 Y-9.214 Z-0.321
N1335 X8.106 Y-9.27 Z-0.383
N1340 X8.076 Y-9.334 Z-0.433
N1345 X8.043 Y-9.406 Z-0.47
N1350 X8.007 Y-9.482 Z-0.492
N1355 X7.971 Y-9.561 Z-0.5
N1360 X7.949 Y-9.606
N1365 G2 X7.431 Y-10.571 I-8.741 J4.071 F#100
N1370 X5.587 Y-12.788 I-8.541 J5.23
N1375 X3.628 Y-14.164 I-6.696 J7.447 F#106
N1380 G3 X3.545 Y-14.55 I0.123 J-0.228
N1385 G2 X5.063 Y-17.356 I-8.108 J-6.2 F#100
N1390 X5.601 Y-20.5 I-8.916 J-3.144
N1395 G1 Y-25.
N1400 G2 X-0.133 Y-33.949 I-9.851 J0.
N1405 X-0.239 Y-33.984 Z-0.487 I-0.209 J0.454
N1410 X-0.344 Y-33.995 Z-0.45 I-0.103 J0.489
N1415 G1 X-0.414 Z-0.422
N1420 X-0.487 Y-33.994 Z-0.406
N1425 X-0.562 Z-0.4
N1430 X-8.469 Y-33.952
N1435 X-8.544 Z-0.406
N1440 X-8.617 Y-33.951 Z-0.422
N1445 X-8.687 Z-0.45
N1450 X-8.757 Z-0.478
N1455 X-8.83 Y-33.95 Z-0.494
N1460 X-8.905 Z-0.5
N1465 G2 X-17.701 Y-25. I0.139 J8.934
N1470 G1 Y-20.484
N1475 G2 X-16.994 Y-17.073 I8.59 J0.
N1480 X-16.497 Y-16.087 I8.531 J-3.692
N1485 X-15.036 Y-14.191 I8.033 J-4.677 F#106
N1490 G3 X-15.107 Y-13.866 I-0.14 J0.14
N1495 G2 X-19.336 Y-10.608 I3.155 J8.469 F#100
N1500 X-20.95 Y-5.654 I7.21 J5.089
N1505 G1 X-21.042 Y0.345 F#104
N1510 X-21.043 Y0.432 Z-0.492
N1515 X-21.044 Y0.516 Z-0.47
N1520 X-21.046 Y0.595 Z-0.433
N1525 X-21.047 Y0.666 Z-0.383
N1530 X-21.048 Y0.728 Z-0.321
N1535 Y0.778 Z-0.25
N1540 X-21.049 Y0.815 Z-0.171
N1545 Y0.837 Z-0.087
N1550 Y0.845 Z0.
N1555 G0 Z12.
N1560 X7.958 Y-5.118
N1565 G1 Z0. F#103
N1570 Y-5.126 Z-0.087
N1575 Y-5.148 Z-0.171
N1580 X7.957 Y-5.185 Z-0.25
N1585 Y-5.235 Z-0.321
N1590 X7.956 Y-5.297 Z-0.383
N1595 X7.955 Y-5.368 Z-0.433
N1600 X7.953 Y-5.447 Z-0.47
N1605 X7.952 Y-5.531 Z-0.492
N1610 X7.951 Y-5.618 Z-0.5
N1615 X7.95 Y-5.668
N1620 G2 X6.324 Y-10.63 I-8.793 J0.133 F#100
N1625 X4.192 Y-12.762 I-7.369 J5.239
N1630 X2.075 Y-13.878 I-5.236 J7.371 F#106
N1635 G3 X2.012 Y-14.167 I0.06 J-0.164
N1640 G2 X3.99 Y-17.064 I-6.512 J-6.57 F#100
N1645 X4.701 Y-20.5 I-7.943 J-3.436
N1650 G1 Y-25.
N1655 G2 X-4.113 Y-33.95 I-8.951 J0.
N1660 G1 X-10.112 Y-34.042 F#104
N1665 X-10.199 Y-34.043 Z-0.492
N1670 X-10.283 Y-34.045 Z-0.47
N1675 X-10.362 Y-34.046 Z-0.433
N1680 X-10.433 Y-34.047 Z-0.383
N1685 X-10.495 Y-34.048 Z-0.321
N1690 X-10.545 Y-34.049 Z-0.25
N1695 X-10.582 Z-0.171
N1700 X-10.604 Y-34.05 Z-0.087
N1705 X-10.612 Z0.
N1710 G0 Z12.
N1715 X-7.702 Y-12.482
N1720 G1 Z6.499 F#103
N1725 S2400
N1730 X-7.696 Y-12.497 Z6.374 F#107
N1735 X-7.677 Y-12.54 Z6.257
N1740 X-7.644 Y-12.607 Z6.155
N1745 X-7.595 Y-12.691 Z6.075
N1750 G3 X-7.53 Y-12.786 Z6.022 I1.095 J0.691
N1755 X-7.45 Y-12.881 Z6. I1.03 J0.786
N1760 X-5.55 Y-11.12 Z5.787 I0.95 J0.881
N1765 X-7.45 Y-12.881 Z5.574 I-0.95 J-0.881
N1770 X-5.55 Y-11.12 Z5.36 I0.95 J0.881
N1775 X-7.45 Y-12.881 Z5.147 I-0.95 J-0.881
N1780 X-5.55 Y-11.12 Z4.934 I0.95 J0.881
N1785 X-7.45 Y-12.881 Z4.721 I-0.95 J-0.881
N1790 X-5.55 Y-11.12 Z4.508 I0.95 J0.881
N1795 X-7.45 Y-12.881 Z4.294 I-0.95 J-0.881
N1800 X-5.55 Y-11.12 Z4.081 I0.95 J0.881
N1805 X-7.45 Y-12.881 Z3.868 I-0.95 J-0.881
N1810 X-5.55 Y-11.12 Z3.655 I0.95 J0.881
N1815 X-7.45 Y-12.881 Z3.441 I-0.95 J-0.881
N1820 X-5.55 Y-11.12 Z3.228 I0.95 J0.881
N1825 X-7.45 Y-12.881 Z3.015 I-0.95 J-0.881
N1830 X-5.55 Y-11.12 Z2.802 I0.95 J0.881
N1835 X-7.45 Y-12.881 Z2.589 I-0.95 J-0.881
N1840 X-5.55 Y-11.12 Z2.375 I0.95 J0.881
N1845 X-7.45 Y-12.881 Z2.162 I-0.95 J-0.881
N1850 X-5.55 Y-11.12 Z1.949 I0.95 J0.881
N1855 X-7.45 Y-12.881 Z1.736 I-0.95 J-0.881
N1860 X-5.55 Y-11.12 Z1.523 I0.95 J0.881
N1865 X-7.45 Y-12.881 Z1.309 I-0.95 J-0.881
N1870 X-5.55 Y-11.12 Z1.096 I0.95 J0.881
N1875 X-7.45 Y-12.881 Z0.883 I-0.95 J-0.881
N1880 X-5.55 Y-11.12 Z0.67 I0.95 J0.881
N1885 X-7.45 Y-12.881 Z0.456 I-0.95 J-0.881
N1890 X-5.55 Y-11.12 Z0.243 I0.95 J0.881
N1895 X-7.45 Y-12.881 Z0.03 I-0.95 J-0.881
N1900 X-5.55 Y-11.12 Z-0.183 I0.95 J0.881
N1905 X-7.45 Y-12.881 Z-0.396 I-0.95 J-0.881
N1910 X-5.662 Y-12.987 Z-0.5 I0.95 J0.881
N1915 X-6.798 Y-11.649 I-0.568 J0.669
N1920 S2500
N1925 G2 X-7.261 Y-11.991 I-2.778 J3.274 F#106
N1930 G1 X-7.69 Y-12.266
N1935 G3 X-7.623 Y-12.494 I0.067 J-0.104
N1940 G1 X-5.377
N1945 G3 X-5.31 Y-12.266 I0. J0.124
N1950 G1 X-5.739 Y-11.991
N1955 G2 X-6.202 Y-11.649 I2.315 J3.616
N1960 G3 X-6.798 I-0.298 J-0.351
N1965 G1 X-6.898 Y-11.731 Z-0.483 F#104
N1970 X-6.993 Y-11.805 Z-0.433
N1975 X-7.076 Y-11.866 Z-0.354
N1980 X-7.141 Y-11.912 Z-0.25
N1985 X-7.183 Y-11.94 Z-0.129
N1990 X-7.197 Y-11.95 Z0.
N1995 G0 Z12.
N2000 X-4.308 Y12.948
N2005 G1 Z0. F#103
N2010 X-4.303 Y12.943 Z-0.087
N2015 X-4.285 Y12.929 Z-0.171
N2020 X-4.257 Y12.905 Z-0.25
N2025 X-4.219 Y12.872 Z-0.321
N2030 X-4.172 Y12.832 Z-0.383
N2035 X-4.118 Y12.786 Z-0.433
N2040 X-4.058 Y12.735 Z-0.47
N2045 X-3.994 Y12.68 Z-0.492
N2050 X-3.928 Y12.624 Z-0.5
N2055 X4.578 Y5.362
N2060 G2 X7.05 Y0. I-4.578 J-5.362 F#100
N2065 G1 Y-5.535
N2070 G2 X5.03 Y-10.825 I-7.938 J0.
N2075 X2.32 Y-12.811 I-6.035 J5.394
N2080 X0.019 Y-13.46 I-3.325 J7.38 F#106
N2085 G3 X-0.032 Y-13.695 I0.016 J-0.127
N2090 G2 X2.766 Y-16.6 I-4.325 J-6.967 F#100
N2095 X3.8 Y-20.5 I-6.84 J-3.9
N2100 G1 Y-25.
N2105 G2 X-4.25 Y-33.05 I-8.05 J0.
N2110 G1 X-8.766
N2115 G2 X-16.8 Y-25. I0. J8.034
N2120 G1 Y-20.484
N2125 G2 X-15.768 Y-16.6 I7.827 J0.
N2130 X-14.805 Y-15.252 I7.142 J-4.082
N2135 X-12.982 Y-13.704 I6.179 J-5.431 F#106
N2140 G3 X-13.036 Y-13.458 I-0.071 J0.114
N2145 G2 X-18.039 Y-10.81 I1.042 J8.02 F#100
N2150 X-20.05 Y-5.519 I5.954 J5.291
N2155 G1 Y0.
N2160 G2 X-17.578 Y5.362 I7.05 J0.
N2165 G3 X-17.511 Y5.439 Z-0.489 I-0.223 J0.261
N2170 G1 X-17.479 Y5.488 Z-0.473
N2175 X-17.449 Y5.536 Z-0.45
N2180 X-17.412 Y5.595 Z-0.422
N2185 X-17.372 Y5.657 Z-0.406
N2190 X-17.332 Y5.72 Z-0.4
N2195 X-16.939 Y6.34
N2200 G3 X-17.519 Y6.708 I-0.29 J0.184
N2205 X-17.217 Y6.181 I0.29 J-0.184
N2210 G1 X1.075 Y6.814
N2215 G2 X1.38 Y6.605 I0.011 J-0.312
N2220 G1 X1.494 Y6.278
N2225 X1.517 Y6.211 Z-0.405
N2230 X1.539 Y6.146 Z-0.42
N2235 G3 X1.574 Y6.076 Z-0.45 I0.295 J0.102
N2240 X1.647 Y5.999 Z-0.487 I0.26 J0.173
N2245 X1.746 Y5.949 Z-0.5 I0.187 J0.249
N2250 G2 X6.2 Y0. I-1.746 J-5.949
N2255 G1 Y-5.519
N2260 G2 X-5.659 Y-11.009 I-7.2 J0.
N2265 G3 X-7.341 I-0.841 J-0.991
N2270 G2 X-19.2 Y-5.519 I-4.659 J5.49
N2275 G1 Y0.
N2280 G2 X-14.747 Y5.949 I6.2 J0.
N2285 G3 X-14.644 Y5.992 Z-0.487 I-0.141 J0.48
N2290 X-14.486 Y6.131 Z-0.413 I-0.244 J0.437
N2295 X-14.43 Y6.228 Z-0.4 I-0.402 J0.297
N2300 X-15. Y6.916 I-0.458 J0.201
N2305 G1 X-17.977 Y6.228
N2310 G3 X-18.35 Y5.857 I0.113 J-0.487
N2315 G1 X-22.187 Y-10.2
N2320 G3 X-22.132 Y-10.569 I0.486 J-0.116
N2325 G1 X-16.804 Y-19.662
N2330 G3 X-16.108 Y-19.834 I0.431 J0.253
N2335 X-16.021 Y-19.765 Z-0.413 I-0.264 J0.424
N2340 X-15.905 Y-19.588 Z-0.487 I-0.352 J0.355
N2345 X-15.877 Y-19.48 Z-0.5 I-0.467 J0.179
N2350 G2 X-8.75 Y-13.3 I7.127 J-1.02
N2355 G1 X-4.25
N2360 G2 X2.95 Y-20.5 I0. J-7.2
N2365 G1 Y-25.
N2370 G2 X-4.25 Y-32.2 I-7.2 J0.
N2375 G1 X-8.75
N2380 G2 X-15.95 Y-25. I0. J7.2
N2385 G1 Y-20.5
N2390 G2 X-15.877 Y-19.48 I7.2 J0.
N2395 G3 X-15.874 Y-19.369 Z-0.487 I-0.495 J0.071
N2400 X-15.935 Y-19.167 Z-0.413 I-0.498 J-0.041
N2405 X-16. Y-19.076 Z-0.4 I-0.437 J-0.242
N2410 X-16.418 Y-18.912 I-0.373 J-0.333
N2415 G1 X-20.673 Y-19.299
N2420 G2 X-21.123 Y-19.095 I-0.045 J0.498
N2425 X-21.178 Y-18.998 Z-0.413 I0.405 J0.293
N2430 X-21.218 Y-18.791 Z-0.487 I0.46 J0.196
N2435 X-21.203 Y-18.68 Z-0.5 I0.5 J-0.011
N2440 G1 X-21.182 Y-18.596 Z-0.508 F#103
N2445 X-21.162 Y-18.514 Z-0.53
N2450 X-21.143 Y-18.438 Z-0.567
N2455 X-21.126 Y-18.369 Z-0.617
N2460 X-21.111 Y-18.309 Z-0.679
N2465 X-21.099 Y-18.26 Z-0.75
N2470 X-21.09 Y-18.224 Z-0.829
N2475 X-21.084 Y-18.203 Z-0.913
N2480 X-21.082 Y-18.195 Z-1.
N2485 Z-5.5
N2490 X-21.081 Y-18.188 Z-5.587
N2495 X-21.075 Y-18.166 Z-5.671
N2500 X-21.066 Y-18.13 Z-5.75
N2505 X-21.054 Y-18.082 Z-5.821
N2510 X-21.039 Y-18.022 Z-5.883
N2515 X-21.022 Y-17.953 Z-5.933
N2520 X-21.003 Y-17.876 Z-5.97
N2525 X-20.982 Y-17.794 Z-5.992
N2530 X-20.961 Y-17.71 Z-6.
N2535 X-20.95 Y-17.665
N2540 G2 X-20.178 Y-15.421 I13.324 J-3.327 F#106
N2545 G3 X-20.296 Y-14.877 I-0.43 J0.191
N2550 G2 X-20.948 Y-14.258 I8.44 J9.534 F#100
N2555 G3 X-21.044 Y-14.203 Z-5.987 I-0.145 J-0.142
N2560 X-21.239 Y-14.259 Z-5.913 I-0.049 J-0.196
N2565 X-21.291 Y-14.357 Z-5.9 I0.146 J-0.14
N2570 X-21.294 Y-14.378 I0.198 J-0.043
N2575 G1 X-21.391 Y-15.29
N2580 X-21.631 Y-31.183
N2585 G3 X-21.46 Y-31.567 I0.5 J-0.008
N2590 G1 X-19.432 Y-33.333
N2595 G3 X-18.615 Y-33.064 I0.328 J0.377
N2600 X-18.603 Y-32.953 Z-5.913 I-0.488 J0.108
N2605 X-18.615 Y-32.847 Z-5.95 I-0.5 J-0.003
N2610 X-18.649 Y-32.747 Z-5.987 I-0.488 J-0.109
N2615 X-18.707 Y-32.652 Z-6. I-0.454 J-0.209
N2620 G2 X-20.95 Y-27.963 I9.941 J7.636
N2625 G3 X-20.988 Y-27.858 Z-5.987 I-0.486 J-0.118
N2630 X-21.119 Y-27.693 Z-5.913 I-0.448 J-0.222
N2635 X-21.213 Y-27.632 Z-5.9 I-0.316 J-0.387
N2640 X-21.832 Y-28.385 I-0.223 J-0.448
N2645 G1 X-17.172 Y-34.437
N2650 G3 X-16.276 Y-34.143 I0.396 J0.305
N2655 X-16.286 Y-34.032 Z-5.913 I-0.5 J0.011
N2660 X-16.371 Y-33.839 Z-5.987 I-0.49 J-0.1
N2665 X-16.446 Y-33.756 Z-6. I-0.405 J-0.293
N2670 G2 X-20.401 Y-25. I7.68 J8.74
N2675 G1 Y-20.484
N2680 G2 X-20.046 Y-17.736 I10.808 J0.
N2685 X-19.944 Y-17.372 I12.139 J-3.192
N2690 X-19.049 Y-15.149 I12.038 J-3.556 F#106
N2695 G3 X-19.156 Y-14.656 I-0.351 J0.182
N2700 G2 X-20.948 Y-12.92 I7.277 J9.302 F#100
N2705 G1 X-24.792 Y-8.313 F#104
N2710 X-24.847 Y-8.246 Z-5.992
N2715 X-24.901 Y-8.181 Z-5.97
N2720 X-24.952 Y-8.121 Z-5.933
N2725 X-24.998 Y-8.066 Z-5.883
N2730 X-25.037 Y-8.018 Z-5.821
N2735 X-25.069 Y-7.98 Z-5.75
N2740 X-25.093 Y-7.952 Z-5.671
N2745 X-25.107 Y-7.934 Z-5.587
N2750 X-25.112 Y-7.929 Z-5.5
N2755 G0 Z12.
N2760 X-4.251 Y-40.925
N2765 G1 Z-5.5 F#103
N2770 X-4.258 Y-40.921 Z-5.587
N2775 X-4.276 Y-40.908 Z-5.671
N2780 X-4.307 Y-40.888 Z-5.75
N2785 X-4.349 Y-40.86 Z-5.821
N2790 X-4.4 Y-40.826 Z-5.883
N2795 X-4.459 Y-40.787 Z-5.933
N2800 X-4.525 Y-40.743 Z-5.97
N2805 X-4.595 Y-40.696 Z-5.992
N2810 X-4.667 Y-40.648 Z-6.
N2815 X-14.719 Y-33.949
N2820 G2 X-19.501 Y-25. I5.953 J8.933 F#100
N2825 G1 Y-20.484
N2830 G2 X-19.069 Y-17.558 I10.123 J0.
N2835 X-18.892 Y-17.021 I10.846 J-3.275
N2840 X-17.852 Y-14.863 I10.669 J-3.813 F#106
N2845 G3 X-17.947 Y-14.422 I-0.276 J0.171
N2850 G2 X-20.947 Y-11.422 I6.091 J9.092 F#100
N2855 G1 X-24.287 Y-6.438 F#104
N2860 X-24.335 Y-6.365 Z-5.992
N2865 X-24.382 Y-6.295 Z-5.97
N2870 X-24.426 Y-6.23 Z-5.933
N2875 X-24.466 Y-6.171 Z-5.883
N2880 X-24.5 Y-6.119 Z-5.821
N2885 X-24.528 Y-6.078 Z-5.75
N2890 X-24.548 Y-6.047 Z-5.671
N2895 X-24.561 Y-6.028 Z-5.587
N2900 X-24.565 Y-6.022 Z-5.5
N2905 G0 Z12.
N2910 X-12.381 Y-34.179
N2915 G1 Z-5.5 F#103
N2920 X-12.388 Y-34.176 Z-5.587
N2925 X-12.408 Y-34.166 Z-5.671
N2930 X-12.442 Y-34.151 Z-5.75
N2935 X-12.487 Y-34.13 Z-5.821
N2940 X-12.543 Y-34.104 Z-5.883
N2945 X-12.608 Y-34.074 Z-5.933
N2950 X-12.68 Y-34.041 Z-5.97
N2955 X-12.756 Y-34.006 Z-5.992
N2960 X-12.835 Y-33.97 Z-6.
N2965 X-12.88 Y-33.949
N2970 G2 X-18.601 Y-25. I4.115 J8.933 F#100
N2975 G1 Y-20.484
N2980 G2 X-18.062 Y-17.348 I9.387 J0.
N2985 X-17.767 Y-16.61 I9.648 J-3.42
N2990 X-16.545 Y-14.55 I9.353 J-4.159 F#106
N2995 G3 X-16.628 Y-14.164 I-0.206 J0.157
N3000 G2 X-20.434 Y-10.563 I4.73 J8.809 F#100
N3005 X-20.949 Y-9.6 I8.266 J5.044
N3010 G1 X-23.478 Y-4.159 F#104
N3015 X-23.514 Y-4.08 Z-5.992
N3020 X-23.55 Y-4.004 Z-5.97
N3025 X-23.583 Y-3.932 Z-5.933
N3030 X-23.613 Y-3.867 Z-5.883
N3035 X-23.639 Y-3.811 Z-5.821
N3040 X-23.66 Y-3.766 Z-5.75
N3045 X-23.676 Y-3.733 Z-5.671
N3050 X-23.685 Y-3.712 Z-5.587
N3055 X-23.688 Y-3.705 Z-5.5
N3060 G0 Z12.
N3065 X14.917 Y-7.155
N3070 G1 Z-5.5 F#103
N3075 X14.911 Y-7.16 Z-5.587
N3080 X14.896 Y-7.176 Z-5.671
N3085 X14.87 Y-7.203 Z-5.75
N3090 X14.835 Y-7.238 Z-5.821
N3095 X14.792 Y-7.282 Z-5.883
N3100 X14.742 Y-7.333 Z-5.933
N3105 X14.686 Y-7.39 Z-5.97
N3110 X14.627 Y-7.45 Z-5.992
N3115 X14.567 Y-7.512 Z-6.
N3120 X7.947 Y-14.259
N3125 G2 X7.296 Y-14.877 I-9.104 J8.932 F#106
N3130 G3 X7.178 Y-15.421 I0.312 J-0.352
N3135 G2 X7.949 Y-17.665 I-12.504 J-5.55 F#100
N3140 X7.964 Y-17.786 Z-5.985 I-0.485 J-0.121
N3145 G19 G2 Y-17.882 Z-5.95 J0.122 K0.485
N3150 G3 Y-18.1 Z-5.9 J-0.218 K-0.45
N3155 G1 Y-27.515
N3160 G3 Y-27.733 Z-5.95 J0. K-0.5
N3165 G2 Y-27.832 Z-5.986 J-0.218 K0.45
N3170 G17 G2 X7.95 Y-27.949 Z-6. I-0.5 J0.
N3175 X5.69 Y-32.663 I-12.2 J2.949
N3180 G3 X5.632 Y-32.759 Z-5.987 I0.396 J-0.305
N3185 X5.586 Y-32.964 Z-5.913 I0.454 J-0.21
N3190 X5.597 Y-33.075 Z-5.9 I0.5 J-0.004
N3195 X6.508 Y-33.236 I0.488 J0.107
N3200 G1 X7.899 Y-31.043
N3205 G3 X7.97 Y-30.857 I-0.422 J0.268
N3210 G1 X8.436 Y-28.067
N3215 X8.44 Y-28.032
N3220 X8.442 Y-27.998
N3225 X8.833 Y-13.255
N3230 G3 X8.331 Y-12.742 I-0.5 J0.013
N3235 X8.221 Y-12.754 Z-5.913 I0.002 J-0.5
N3240 X8.03 Y-12.844 Z-5.987 I0.112 J-0.487
N3245 X7.949 Y-12.921 Z-6. I0.303 J-0.398
N3250 G2 X7.843 Y-13.046 I-9.062 J7.569
N3255 X6.106 Y-14.696 I-8.956 J7.694 F#106
N3260 G3 X6.019 Y-15.092 I0.193 J-0.25
N3265 G2 X7.039 Y-17.712 I-11.011 J-5.795 F#100
N3270 X7.401 Y-20.5 I-10.562 J-2.788
N3275 G1 Y-25.
N3280 G2 X3.43 Y-33.761 I-11.651 J0.
N3285 G1 X-1.082 Y-37.716 F#104
N3290 X-1.147 Y-37.774 Z-5.992
N3295 X-1.211 Y-37.829 Z-5.97
N3300 X-1.27 Y-37.881 Z-5.933
N3305 X-1.324 Y-37.928 Z-5.883
N3310 X-1.37 Y-37.969 Z-5.821
N3315 X-1.408 Y-38.002 Z-5.75
N3320 X-1.435 Y-38.026 Z-5.671
N3325 X-1.452 Y-38.041 Z-5.587
N3330 X-1.458 Y-38.046 Z-5.5
N3335 G0 Z12.
N3340 X14.916 Y-1.041
N3345 G1 Z-5.5 F#103
N3350 X14.912 Y-1.048 Z-5.587
N3355 X14.899 Y-1.066 Z-5.671
N3360 X14.879 Y-1.097 Z-5.75
N3365 X14.851 Y-1.139 Z-5.821
N3370 X14.816 Y-1.19 Z-5.883
N3375 X14.777 Y-1.249 Z-5.933
N3380 X14.733 Y-1.315 Z-5.97
N3385 X14.686 Y-1.385 Z-5.992
N3390 X14.637 Y-1.457 Z-6.
N3395 X7.947 Y-11.424
N3400 G2 X6.773 Y-12.886 I-9.099 J6.107 F#100
N3405 X4.94 Y-14.427 I-7.925 J7.569 F#106
N3410 G3 X4.847 Y-14.855 I0.175 J-0.262
N3415 G2 X6.069 Y-17.562 I-9.587 J-5.957 F#100
N3420 X6.501 Y-20.5 I-9.772 J-2.938
N3425 G1 Y-25.
N3430 G2 X1.707 Y-33.95 I-10.751 J0.
N3435 G1 X-3.288 Y-37.274 F#104
N3440 X-3.36 Y-37.322 Z-5.992
N3445 X-3.43 Y-37.369 Z-5.97
N3450 X-3.496 Y-37.413 Z-5.933
N3455 X-3.556 Y-37.452 Z-5.883
N3460 X-3.607 Y-37.487 Z-5.821
N3465 X-3.648 Y-37.514 Z-5.75
N3470 X-3.679 Y-37.535 Z-5.671
N3475 X-3.698 Y-37.547 Z-5.587
N3480 X-3.704 Y-37.551 Z-5.5
N3485 G0 Z12.
N3490 X8.182 Y-9.108
N3495 G1 Z-5.5 F#103
N3500 X8.178 Y-9.115 Z-5.587
N3505 X8.169 Y-9.135 Z-5.671
N3510 X8.153 Y-9.168 Z-5.75
N3515 X8.132 Y-9.214 Z-5.821
N3520 X8.106 Y-9.27 Z-5.883
N3525 X8.076 Y-9.334 Z-5.933
N3530 X8.043 Y-9.406 Z-5.97
N3535 X8.007 Y-9.482 Z-5.992
N3540 X7.971 Y-9.561 Z-6.
N3545 X7.949 Y-9.606
N3550 G2 X7.431 Y-10.571 I-8.741 J4.071 F#100
N3555 X5.587 Y-12.788 I-8.541 J5.23
N3560 X3.628 Y-14.164 I-6.696 J7.447 F#106
N3565 G3 X3.545 Y-14.55 I0.123 J-0.228
N3570 G2 X5.063 Y-17.356 I-8.108 J-6.2 F#100
N3575 X5.601 Y-20.5 I-8.916 J-3.144
N3580 G1 Y-25.
N3585 G2 X-0.133 Y-33.949 I-9.851 J0.
N3590 X-0.239 Y-33.984 Z-5.987 I-0.209 J0.454
N3595 X-0.344 Y-33.995 Z-5.95 I-0.103 J0.489
N3600 G1 X-0.414 Z-5.922
N3605 X-0.487 Y-33.994 Z-5.906
N3610 X-0.562 Z-5.9
N3615 X-8.469 Y-33.952
N3620 X-8.544 Z-5.906
N3625 X-8.617 Y-33.951 Z-5.922
N3630 X-8.687 Z-5.95
N3635 X-8.757 Z-5.978
N3640 X-8.83 Y-33.95 Z-5.994
N3645 X-8.905 Z-6.
N3650 G2 X-17.701 Y-25. I0.139 J8.934
N3655 G1 Y-20.484
N3660 G2 X-16.994 Y-17.073 I8.59 J0.
N3665 X-16.497 Y-16.087 I8.531 J-3.692
N3670 X-15.036 Y-14.191 I8.033 J-4.677 F#106
N3675 G3 X-15.107 Y-13.866 I-0.14 J0.14
N3680 G2 X-19.336 Y-10.608 I3.155 J8.469 F#100
N3685 X-20.95 Y-5.654 I7.21 J5.089
N3690 G1 X-21.042 Y0.345 F#104
N3695 X-21.043 Y0.432 Z-5.992
N3700 X-21.044 Y0.516 Z-5.97
N3705 X-21.046 Y0.595 Z-5.933
N3710 X-21.047 Y0.666 Z-5.883
N3715 X-21.048 Y0.728 Z-5.821
N3720 Y0.778 Z-5.75
N3725 X-21.049 Y0.815 Z-5.671
N3730 Y0.837 Z-5.587
N3735 Y0.845 Z-5.5
N3740 G0 Z12.
N3745 X7.958 Y-5.118
N3750 G1 Z-5.5 F#103
N3755 Y-5.126 Z-5.587
N3760 Y-5.148 Z-5.671
N3765 X7.957 Y-5.185 Z-5.75
N3770 Y-5.235 Z-5.821
N3775 X7.956 Y-5.297 Z-5.883
N3780 X7.955 Y-5.368 Z-5.933
N3785 X7.953 Y-5.447 Z-5.97
N3790 X7.952 Y-5.531 Z-5.992
N3795 X7.951 Y-5.618 Z-6.
N3800 X7.95 Y-5.668
N3805 G2 X6.324 Y-10.63 I-8.793 J0.133 F#100
N3810 X4.192 Y-12.762 I-7.369 J5.239
N3815 X2.075 Y-13.878 I-5.236 J7.371 F#106
N3820 G3 X2.012 Y-14.167 I0.06 J-0.164
N3825 G2 X3.99 Y-17.064 I-6.512 J-6.57 F#100
N3830 X4.701 Y-20.5 I-7.943 J-3.436
N3835 G1 Y-25.
N3840 G2 X-4.113 Y-33.95 I-8.951 J0.
N3845 G1 X-10.112 Y-34.042 F#104
N3850 X-10.199 Y-34.043 Z-5.992
N3855 X-10.283 Y-34.045 Z-5.97
N3860 X-10.362 Y-34.046 Z-5.933
N3865 X-10.433 Y-34.047 Z-5.883
N3870 X-10.495 Y-34.048 Z-5.821
N3875 X-10.545 Y-34.049 Z-5.75
N3880 X-10.582 Z-5.671
N3885 X-10.604 Y-34.05 Z-5.587
N3890 X-10.612 Z-5.5
N3895 G0 Z12.
N3900 X-7.702 Y-12.482
N3905 G1 Z0.999 F#103
N3910 S2400
N3915 X-7.696 Y-12.497 Z0.874 F#107
N3920 X-7.677 Y-12.54 Z0.757
N3925 X-7.644 Y-12.607 Z0.655
N3930 X-7.595 Y-12.691 Z0.575
N3935 G3 X-7.53 Y-12.786 Z0.522 I1.095 J0.691
N3940 X-7.45 Y-12.881 Z0.5 I1.03 J0.786
N3945 X-5.55 Y-11.12 Z0.287 I0.95 J0.881
N3950 X-7.45 Y-12.881 Z0.074 I-0.95 J-0.881
N3955 X-5.55 Y-11.12 Z-0.14 I0.95 J0.881
N3960 X-7.45 Y-12.881 Z-0.353 I-0.95 J-0.881
N3965 X-5.55 Y-11.12 Z-0.566 I0.95 J0.881
N3970 X-7.45 Y-12.881 Z-0.779 I-0.95 J-0.881
N3975 X-5.55 Y-11.12 Z-0.992 I0.95 J0.881
N3980 X-7.45 Y-12.881 Z-1.206 I-0.95 J-0.881
N3985 X-5.55 Y-11.12 Z-1.419 I0.95 J0.881
N3990 X-7.45 Y-12.881 Z-1.632 I-0.95 J-0.881
N3995 X-5.55 Y-11.12 Z-1.845 I0.95 J0.881
N4000 X-7.45 Y-12.881 Z-2.059 I-0.95 J-0.881
N4005 X-5.55 Y-11.12 Z-2.272 I0.95 J0.881
N4010 X-7.45 Y-12.881 Z-2.485 I-0.95 J-0.881
N4015 X-5.55 Y-11.12 Z-2.698 I0.95 J0.881
N4020 X-7.45 Y-12.881 Z-2.911 I-0.95 J-0.881
N4025 X-5.55 Y-11.12 Z-3.125 I0.95 J0.881
N4030 X-7.45 Y-12.881 Z-3.338 I-0.95 J-0.881
N4035 X-5.55 Y-11.12 Z-3.551 I0.95 J0.881
N4040 X-7.45 Y-12.881 Z-3.764 I-0.95 J-0.881
N4045 X-5.55 Y-11.12 Z-3.977 I0.95 J0.881
N4050 X-7.45 Y-12.881 Z-4.191 I-0.95 J-0.881
N4055 X-5.55 Y-11.12 Z-4.404 I0.95 J0.881
N4060 X-7.45 Y-12.881 Z-4.617 I-0.95 J-0.881
N4065 X-5.55 Y-11.12 Z-4.83 I0.95 J0.881
N4070 X-7.45 Y-12.881 Z-5.044 I-0.95 J-0.881
N4075 X-5.55 Y-11.12 Z-5.257 I0.95 J0.881
N4080 X-7.45 Y-12.881 Z-5.47 I-0.95 J-0.881
N4085 X-5.55 Y-11.12 Z-5.683 I0.95 J0.881
N4090 X-7.45 Y-12.881 Z-5.896 I-0.95 J-0.881
N4095 X-5.662 Y-12.987 Z-6. I0.95 J0.881
N4100 X-6.798 Y-11.649 I-0.568 J0.669
N4105 S2500
N4110 G2 X-7.261 Y-11.991 I-2.778 J3.274 F#106
N4115 G1 X-7.69 Y-12.266
N4120 G3 X-7.623 Y-12.494 I0.067 J-0.104
N4125 G1 X-5.377
N4130 G3 X-5.31 Y-12.266 I0. J0.124
N4135 G1 X-5.739 Y-11.991
N4140 G2 X-6.202 Y-11.649 I2.315 J3.616
N4145 G3 X-6.798 I-0.298 J-0.351
N4150 G1 X-6.898 Y-11.731 Z-5.983 F#104
N4155 X-6.993 Y-11.805 Z-5.933
N4160 X-7.076 Y-11.866 Z-5.854
N4165 X-7.141 Y-11.912 Z-5.75
N4170 X-7.183 Y-11.94 Z-5.629
N4175 X-7.197 Y-11.95 Z-5.5
N4180 G0 Z12.
N4185 X-4.308 Y12.948
N4190 G1 Z-5.5 F#103
N4195 X-4.303 Y12.943 Z-5.587
N4200 X-4.285 Y12.929 Z-5.671
N4205 X-4.257 Y12.905 Z-5.75
N4210 X-4.219 Y12.872 Z-5.821
N4215 X-4.172 Y12.832 Z-5.883
N4220 X-4.118 Y12.786 Z-5.933
N4225 X-4.058 Y12.735 Z-5.97
N4230 X-3.994 Y12.68 Z-5.992
N4235 X-3.928 Y12.624 Z-6.
N4240 X4.578 Y5.362
N4245 G2 X7.05 Y0. I-4.578 J-5.362 F#100
N4250 G1 Y-5.535
N4255 G2 X5.03 Y-10.825 I-7.938 J0.
N4260 X2.32 Y-12.811 I-6.035 J5.394
N4265 X0.019 Y-13.46 I-3.325 J7.38 F#106
N4270 G3 X-0.032 Y-13.695 I0.016 J-0.127
N4275 G2 X2.766 Y-16.6 I-4.325 J-6.967 F#100
N4280 X3.8 Y-20.5 I-6.84 J-3.9
N4285 G1 Y-25.
N4290 G2 X-4.25 Y-33.05 I-8.05 J0.
N4295 G1 X-8.766
N4300 G2 X-16.8 Y-25. I0. J8.034
N4305 G1 Y-20.484
N4310 G2 X-15.768 Y-16.6 I7.827 J0.
N4315 X-14.805 Y-15.252 I7.142 J-4.082
N4320 X-12.982 Y-13.704 I6.179 J-5.431 F#106
N4325 G3 X-13.036 Y-13.458 I-0.071 J0.114
N4330 G2 X-18.039 Y-10.81 I1.042 J8.02 F#100
N4335 X-20.05 Y-5.519 I5.954 J5.291
N4340 G1 Y0.
N4345 G2 X-17.578 Y5.362 I7.05 J0.
N4350 G3 X-17.511 Y5.439 Z-5.989 I-0.223 J0.261
N4355 G1 X-17.479 Y5.488 Z-5.973
N4360 X-17.449 Y5.536 Z-5.95
N4365 X-17.412 Y5.595 Z-5.922
N4370 X-17.372 Y5.657 Z-5.906
N4375 X-17.332 Y5.72 Z-5.9
N4380 X-16.939 Y6.34
N4385 G3 X-17.519 Y6.708 I-0.29 J0.184
N4390 X-17.217 Y6.181 I0.29 J-0.184
N4395 G1 X1.075 Y6.814
N4400 G2 X1.38 Y6.605 I0.011 J-0.312
N4405 G1 X1.494 Y6.278
N4410 X1.517 Y6.211 Z-5.905
N4415 X1.539 Y6.146 Z-5.92
N4420 G3 X1.574 Y6.076 Z-5.95 I0.295 J0.102
N4425 X1.647 Y5.999 Z-5.987 I0.26 J0.173
N4430 X1.746 Y5.949 Z-6. I0.187 J0.249
N4435 G2 X6.2 Y0. I-1.746 J-5.949
N4440 G1 Y-5.519
N4445 G2 X-5.659 Y-11.009 I-7.2 J0.
N4450 G3 X-7.341 I-0.841 J-0.991
N4455 G2 X-19.2 Y-5.519 I-4.659 J5.49
N4460 G1 Y0.
N4465 G2 X-14.747 Y5.949 I6.2 J0.
N4470 G3 X-14.644 Y5.992 Z-5.987 I-0.141 J0.48
N4475 X-14.486 Y6.131 Z-5.913 I-0.244 J0.437
N4480 X-14.43 Y6.228 Z-5.9 I-0.402 J0.297
N4485 X-15. Y6.916 I-0.458 J0.201
N4490 G1 X-17.977 Y6.228
N4495 G3 X-18.35 Y5.857 I0.113 J-0.487
N4500 G1 X-22.187 Y-10.2
N4505 G3 X-22.132 Y-10.569 I0.486 J-0.116
N4510 G1 X-16.804 Y-19.662
N4515 G3 X-16.108 Y-19.834 I0.431 J0.253
N4520 X-16.021 Y-19.765 Z-5.913 I-0.264 J0.424
N4525 X-15.905 Y-19.588 Z-5.987 I-0.352 J0.355
N4530 X-15.877 Y-19.48 Z-6. I-0.467 J0.179
N4535 G2 X-8.75 Y-13.3 I7.127 J-1.02
N4540 G1 X-4.25
N4545 G2 X2.95 Y-20.5 I0. J-7.2
N4550 G1 Y-25.
N4555 G2 X-4.25 Y-32.2 I-7.2 J0.
N4560 G1 X-8.75
N4565 G2 X-15.95 Y-25. I0. J7.2
N4570 G1 Y-20.5
N4575 G2 X-15.877 Y-19.48 I7.2 J0.
N4580 G3 X-15.874 Y-19.369 Z-5.987 I-0.495 J0.071
N4585 X-15.935 Y-19.167 Z-5.913 I-0.498 J-0.041
N4590 X-16. Y-19.076 Z-5.9 I-0.437 J-0.242
N4595 X-16.418 Y-18.912 I-0.373 J-0.333
N4600 G1 X-20.673 Y-19.299
N4605 G2 X-21.123 Y-19.095 I-0.045 J0.498
N4610 X-21.178 Y-18.998 Z-5.913 I0.405 J0.293
N4615 X-21.218 Y-18.791 Z-5.987 I0.46 J0.196
N4620 X-21.203 Y-18.68 Z-6. I0.5 J-0.011
N4625 G1 X-21.182 Y-18.596 Z-6.008 F#103
N4630 X-21.162 Y-18.514 Z-6.03
N4635 X-21.143 Y-18.438 Z-6.067
N4640 X-21.126 Y-18.369 Z-6.117
N4645 X-21.111 Y-18.309 Z-6.179
N4650 X-21.099 Y-18.26 Z-6.25
N4655 X-21.09 Y-18.224 Z-6.329
N4660 X-21.084 Y-18.203 Z-6.413
N4665 X-21.082 Y-18.195 Z-6.5
N4670 Z-11.
N4675 X-21.081 Y-18.188 Z-11.087
N4680 X-21.075 Y-18.166 Z-11.171
N4685 X-21.066 Y-18.13 Z-11.25
N4690 X-21.054 Y-18.082 Z-11.321
N4695 X-21.039 Y-18.022 Z-11.383
N4700 X-21.022 Y-17.953 Z-11.433
N4705 X-21.003 Y-17.876 Z-11.47
N4710 X-20.982 Y-17.794 Z-11.492
N4715 X-20.961 Y-17.71 Z-11.5
N4720 X-20.95 Y-17.665
N4725 G2 X-20.178 Y-15.421 I13.324 J-3.327 F#106
N4730 G3 X-20.296 Y-14.877 I-0.43 J0.191
N4735 G2 X-20.948 Y-14.258 I8.44 J9.534 F#100
N4740 G3 X-21.044 Y-14.203 Z-11.487 I-0.145 J-0.142
N4745 X-21.239 Y-14.259 Z-11.413 I-0.049 J-0.196
N4750 X-21.291 Y-14.357 Z-11.4 I0.146 J-0.14
N4755 X-21.294 Y-14.378 I0.198 J-0.043
N4760 G1 X-21.391 Y-15.29
N4765 X-21.631 Y-31.183
N4770 G3 X-21.46 Y-31.567 I0.5 J-0.008
N4775 G1 X-19.432 Y-33.333
N4780 G3 X-18.615 Y-33.064 I0.328 J0.377
N4785 X-18.603 Y-32.953 Z-11.413 I-0.488 J0.108
N4790 X-18.615 Y-32.847 Z-11.45 I-0.5 J-0.003
N4795 X-18.649 Y-32.747 Z-11.487 I-0.488 J-0.109
N4800 X-18.707 Y-32.652 Z-11.5 I-0.454 J-0.209
N4805 G2 X-20.95 Y-27.963 I9.941 J7.636
N4810 G3 X-20.988 Y-27.858 Z-11.487 I-0.486 J-0.118
N4815 X-21.119 Y-27.693 Z-11.413 I-0.448 J-0.222
N4820 X-21.213 Y-27.632 Z-11.4 I-0.316 J-0.387
N4825 X-21.832 Y-28.385 I-0.223 J-0.448
N4830 G1 X-17.172 Y-34.437
N4835 G3 X-16.276 Y-34.143 I0.396 J0.305
N4840 X-16.286 Y-34.032 Z-11.413 I-0.5 J0.011
N4845 X-16.371 Y-33.839 Z-11.487 I-0.49 J-0.1
N4850 X-16.446 Y-33.756 Z-11.5 I-0.405 J-0.293
N4855 G2 X-20.401 Y-25. I7.68 J8.74
N4860 G1 Y-20.484
N4865 G2 X-20.046 Y-17.736 I10.808 J0.
N4870 X-19.944 Y-17.372 I12.139 J-3.192
N4875 X-19.049 Y-15.149 I12.038 J-3.556 F#106
N4880 G3 X-19.156 Y-14.656 I-0.351 J0.182
N4885 G2 X-20.948 Y-12.92 I7.277 J9.302 F#100
N4890 G1 X-24.792 Y-8.313 F#104
N4895 X-24.847 Y-8.246 Z-11.492
N4900 X-24.901 Y-8.181 Z-11.47
N4905 X-24.952 Y-8.121 Z-11.433
N4910 X-24.998 Y-8.066 Z-11.383
N4915 X-25.037 Y-8.018 Z-11.321
N4920 X-25.069 Y-7.98 Z-11.25
N4925 X-25.093 Y-7.952 Z-11.171
N4930 X-25.107 Y-7.934 Z-11.087
N4935 X-25.112 Y-7.929 Z-11.
N4940 G0 Z12.
N4945 X-4.251 Y-40.925
N4950 G1 Z-11. F#103
N4955 X-4.258 Y-40.921 Z-11.087
N4960 X-4.276 Y-40.908 Z-11.171
N4965 X-4.307 Y-40.888 Z-11.25
N4970 X-4.349 Y-40.86 Z-11.321
N4975 X-4.4 Y-40.826 Z-11.383
N4980 X-4.459 Y-40.787 Z-11.433
N4985 X-4.525 Y-40.743 Z-11.47
N4990 X-4.595 Y-40.696 Z-11.492
N4995 X-4.667 Y-40.648 Z-11.5
N5000 X-14.719 Y-33.949
N5005 G2 X-19.501 Y-25. I5.953 J8.933 F#100
N5010 G1 Y-20.484
N5015 G2 X-19.069 Y-17.558 I10.123 J0.
N5020 X-18.892 Y-17.021 I10.846 J-3.275
N5025 X-17.852 Y-14.863 I10.669 J-3.813 F#106
N5030 G3 X-17.947 Y-14.422 I-0.276 J0.171
N5035 G2 X-20.947 Y-11.422 I6.091 J9.092 F#100
N5040 G1 X-24.287 Y-6.438 F#104
N5045 X-24.335 Y-6.365 Z-11.492
N5050 X-24.382 Y-6.295 Z-11.47
N5055 X-24.426 Y-6.23 Z-11.433
N5060 X-24.466 Y-6.171 Z-11.383
N5065 X-24.5 Y-6.119 Z-11.321
N5070 X-24.528 Y-6.078 Z-11.25
N5075 X-24.548 Y-6.047 Z-11.171
N5080 X-24.561 Y-6.028 Z-11.087
N5085 X-24.565 Y-6.022 Z-11.
N5090 G0 Z12.
N5095 X-12.381 Y-34.179
N5100 G1 Z-11. F#103
N5105 X-12.388 Y-34.176 Z-11.087
N5110 X-12.408 Y-34.166 Z-11.171
N5115 X-12.442 Y-34.151 Z-11.25
N5120 X-12.487 Y-34.13 Z-11.321
N5125 X-12.543 Y-34.104 Z-11.383
N5130 X-12.608 Y-34.074 Z-11.433
N5135 X-12.68 Y-34.041 Z-11.47
N5140 X-12.756 Y-34.006 Z-11.492
N5145 X-12.835 Y-33.97 Z-11.5
N5150 X-12.88 Y-33.949
N5155 G2 X-18.601 Y-25. I4.115 J8.933 F#100
N5160 G1 Y-20.484
N5165 G2 X-18.062 Y-17.348 I9.387 J0.
N5170 X-17.767 Y-16.61 I9.648 J-3.42
N5175 X-16.545 Y-14.55 I9.353 J-4.159 F#106
N5180 G3 X-16.628 Y-14.164 I-0.206 J0.157
N5185 G2 X-20.434 Y-10.563 I4.73 J8.809 F#100
N5190 X-20.949 Y-9.6 I8.266 J5.044
N5195 G1 X-23.478 Y-4.159 F#104
N5200 X-23.514 Y-4.08 Z-11.492
N5205 X-23.55 Y-4.004 Z-11.47
N5210 X-23.583 Y-3.932 Z-11.433
N5215 X-23.613 Y-3.867 Z-11.383
N5220 X-23.639 Y-3.811 Z-11.321
N5225 X-23.66 Y-3.766 Z-11.25
N5230 X-23.676 Y-3.733 Z-11.171
N5235 X-23.685 Y-3.712 Z-11.087
N5240 X-23.688 Y-3.705 Z-11.
N5245 G0 Z12.
N5250 X14.917 Y-7.155
N5255 G1 Z-11. F#103
N5260 X14.911 Y-7.16 Z-11.087
N5265 X14.896 Y-7.176 Z-11.171
N5270 X14.87 Y-7.203 Z-11.25
N5275 X14.835 Y-7.238 Z-11.321
N5280 X14.792 Y-7.282 Z-11.383
N5285 X14.742 Y-7.333 Z-11.433
N5290 X14.686 Y-7.39 Z-11.47
N5295 X14.627 Y-7.45 Z-11.492
N5300 X14.567 Y-7.512 Z-11.5
N5305 X7.947 Y-14.259
N5310 G2 X7.296 Y-14.877 I-9.104 J8.932 F#106
N5315 G3 X7.178 Y-15.421 I0.312 J-0.352
N5320 G2 X7.949 Y-17.665 I-12.504 J-5.55 F#100
N5325 X7.964 Y-17.786 Z-11.485 I-0.485 J-0.121
N5330 G19 G2 Y-17.882 Z-11.45 J0.122 K0.485
N5335 G3 Y-18.1 Z-11.4 J-0.218 K-0.45
N5340 G1 Y-27.515
N5345 G3 Y-27.733 Z-11.45 J0. K-0.5
N5350 G2 Y-27.832 Z-11.486 J-0.218 K0.45
N5355 G17 G2 X7.95 Y-27.949 Z-11.5 I-0.5 J0.
N5360 X5.69 Y-32.663 I-12.2 J2.949
N5365 G3 X5.632 Y-32.759 Z-11.487 I0.396 J-0.305
N5370 X5.586 Y-32.964 Z-11.413 I0.454 J-0.21
N5375 X5.597 Y-33.075 Z-11.4 I0.5 J-0.004
N5380 X6.508 Y-33.236 I0.488 J0.107
N5385 G1 X7.899 Y-31.043
N5390 G3 X7.97 Y-30.857 I-0.422 J0.268
N5395 G1 X8.436 Y-28.067
N5400 X8.44 Y-28.032
N5405 X8.442 Y-27.998
N5410 X8.833 Y-13.255
N5415 G3 X8.331 Y-12.742 I-0.5 J0.013
N5420 X8.221 Y-12.754 Z-11.413 I0.002 J-0.5
N5425 X8.03 Y-12.844 Z-11.487 I0.112 J-0.487
N5430 X7.949 Y-12.921 Z-11.5 I0.303 J-0.398
N5435 G2 X7.843 Y-13.046 I-9.062 J7.569
N5440 X6.106 Y-14.696 I-8.956 J7.694 F#106
N5445 G3 X6.019 Y-15.092 I0.193 J-0.25
N5450 G2 X7.039 Y-17.712 I-11.011 J-5.795 F#100
N5455 X7.401 Y-20.5 I-10.562 J-2.788
N5460 G1 Y-25.
N5465 G2 X3.43 Y-33.761 I-11.651 J0.
N5470 G1 X-1.082 Y-37.716 F#104
N5475 X-1.147 Y-37.774 Z-11.492
N5480 X-1.211 Y-37.829 Z-11.47
N5485 X-1.27 Y-37.881 Z-11.433
N5490 X-1.324 Y-37.928 Z-11.383
N5495 X-1.37 Y-37.969 Z-11.321
N5500 X-1.408 Y-38.002 Z-11.25
N5505 X-1.435 Y-38.026 Z-11.171
N5510 X-1.452 Y-38.041 Z-11.087
N5515 X-1.458 Y-38.046 Z-11.
N5520 G0 Z12.
N5525 X14.916 Y-1.041
N5530 G1 Z-11. F#103
N5535 X14.912 Y-1.048 Z-11.087
N5540 X14.899 Y-1.066 Z-11.171
N5545 X14.879 Y-1.097 Z-11.25
N5550 X14.851 Y-1.139 Z-11.321
N5555 X14.816 Y-1.19 Z-11.383
N5560 X14.777 Y-1.249 Z-11.433
N5565 X14.733 Y-1.315 Z-11.47
N5570 X14.686 Y-1.385 Z-11.492
N5575 X14.637 Y-1.457 Z-11.5
N5580 X7.947 Y-11.424
N5585 G2 X6.773 Y-12.886 I-9.099 J6.107 F#100
N5590 X4.94 Y-14.427 I-7.925 J7.569 F#106
N5595 G3 X4.847 Y-14.855 I0.175 J-0.262
N5600 G2 X6.069 Y-17.562 I-9.587 J-5.957 F#100
N5605 X6.501 Y-20.5 I-9.772 J-2.938
N5610 G1 Y-25.
N5615 G2 X1.707 Y-33.95 I-10.751 J0.
N5620 G1 X-3.288 Y-37.274 F#104
N5625 X-3.36 Y-37.322 Z-11.492
N5630 X-3.43 Y-37.369 Z-11.47
N5635 X-3.496 Y-37.413 Z-11.433
N5640 X-3.556 Y-37.452 Z-11.383
N5645 X-3.607 Y-37.487 Z-11.321
N5650 X-3.648 Y-37.514 Z-11.25
N5655 X-3.679 Y-37.535 Z-11.171
N5660 X-3.698 Y-37.547 Z-11.087
N5665 X-3.704 Y-37.551 Z-11.
N5670 G0 Z12.
N5675 X8.182 Y-9.108
N5680 G1 Z-11. F#103
N5685 X8.178 Y-9.115 Z-11.087
N5690 X8.169 Y-9.135 Z-11.171
N5695 X8.153 Y-9.168 Z-11.25
N5700 X8.132 Y-9.214 Z-11.321
N5705 X8.106 Y-9.27 Z-11.383
N5710 X8.076 Y-9.334 Z-11.433
N5715 X8.043 Y-9.406 Z-11.47
N5720 X8.007 Y-9.482 Z-11.492
N5725 X7.971 Y-9.561 Z-11.5
N5730 X7.949 Y-9.606
N5735 G2 X7.431 Y-10.571 I-8.741 J4.071 F#100
N5740 X5.587 Y-12.788 I-8.541 J5.23
N5745 X3.628 Y-14.164 I-6.696 J7.447 F#106
N5750 G3 X3.545 Y-14.55 I0.123 J-0.228
N5755 G2 X5.063 Y-17.356 I-8.108 J-6.2 F#100
N5760 X5.601 Y-20.5 I-8.916 J-3.144
N5765 G1 Y-25.
N5770 G2 X-0.133 Y-33.949 I-9.851 J0.
N5775 X-0.239 Y-33.984 Z-11.487 I-0.209 J0.454
N5780 X-0.344 Y-33.995 Z-11.45 I-0.103 J0.489
N5785 G1 X-0.414 Z-11.422
N5790 X-0.487 Y-33.994 Z-11.406
N5795 X-0.562 Z-11.4
N5800 X-8.469 Y-33.952
N5805 X-8.544 Z-11.406
N5810 X-8.617 Y-33.951 Z-11.422
N5815 X-8.687 Z-11.45
N5820 X-8.757 Z-11.478
N5825 X-8.83 Y-33.95 Z-11.494
N5830 X-8.905 Z-11.5
N5835 G2 X-17.701 Y-25. I0.139 J8.934
N5840 G1 Y-20.484
N5845 G2 X-16.994 Y-17.073 I8.59 J0.
N5850 X-16.497 Y-16.087 I8.531 J-3.692
N5855 X-15.036 Y-14.191 I8.033 J-4.677 F#106
N5860 G3 X-15.107 Y-13.866 I-0.14 J0.14
N5865 G2 X-19.336 Y-10.608 I3.155 J8.469 F#100
N5870 X-20.95 Y-5.654 I7.21 J5.089
N5875 G1 X-21.042 Y0.345 F#104
N5880 X-21.043 Y0.432 Z-11.492
N5885 X-21.044 Y0.516 Z-11.47
N5890 X-21.046 Y0.595 Z-11.433
N5895 X-21.047 Y0.666 Z-11.383
N5900 X-21.048 Y0.728 Z-11.321
N5905 Y0.778 Z-11.25
N5910 X-21.049 Y0.815 Z-11.171
N5915 Y0.837 Z-11.087
N5920 Y0.845 Z-11.
N5925 G0 Z12.
N5930 X7.958 Y-5.118
N5935 G1 Z-11. F#103
N5940 Y-5.126 Z-11.087
N5945 Y-5.148 Z-11.171
N5950 X7.957 Y-5.185 Z-11.25
N5955 Y-5.235 Z-11.321
N5960 X7.956 Y-5.297 Z-11.383
N5965 X7.955 Y-5.368 Z-11.433
N5970 X7.953 Y-5.447 Z-11.47
N5975 X7.952 Y-5.531 Z-11.492
N5980 X7.951 Y-5.618 Z-11.5
N5985 X7.95 Y-5.668
N5990 G2 X6.324 Y-10.63 I-8.793 J0.133 F#100
N5995 X4.192 Y-12.762 I-7.369 J5.239
N6000 X2.075 Y-13.878 I-5.236 J7.371 F#106
N6005 G3 X2.012 Y-14.167 I0.06 J-0.164
N6010 G2 X3.99 Y-17.064 I-6.512 J-6.57 F#100
N6015 X4.701 Y-20.5 I-7.943 J-3.436
N6020 G1 Y-25.
N6025 G2 X-4.113 Y-33.95 I-8.951 J0.
N6030 G1 X-10.112 Y-34.042 F#104
N6035 X-10.199 Y-34.043 Z-11.492
N6040 X-10.283 Y-34.045 Z-11.47
N6045 X-10.362 Y-34.046 Z-11.433
N6050 X-10.433 Y-34.047 Z-11.383
N6055 X-10.495 Y-34.048 Z-11.321
N6060 X-10.545 Y-34.049 Z-11.25
N6065 X-10.582 Z-11.171
N6070 X-10.604 Y-34.05 Z-11.087
N6075 X-10.612 Z-11.
N6080 G0 Z12.
N6085 X-7.702 Y-12.482
N6090 G1 Z-4.501 F#103
N6095 S2400
N6100 X-7.696 Y-12.497 Z-4.626 F#107
N6105 X-7.677 Y-12.54 Z-4.743
N6110 X-7.644 Y-12.607 Z-4.845
N6115 X-7.595 Y-12.691 Z-4.925
N6120 G3 X-7.53 Y-12.786 Z-4.978 I1.095 J0.691
N6125 X-7.45 Y-12.881 Z-5. I1.03 J0.786
N6130 X-5.55 Y-11.12 Z-5.213 I0.95 J0.881
N6135 X-7.45 Y-12.881 Z-5.426 I-0.95 J-0.881
N6140 X-5.55 Y-11.12 Z-5.64 I0.95 J0.881
N6145 X-7.45 Y-12.881 Z-5.853 I-0.95 J-0.881
N6150 X-5.55 Y-11.12 Z-6.066 I0.95 J0.881
N6155 X-7.45 Y-12.881 Z-6.279 I-0.95 J-0.881
N6160 X-5.55 Y-11.12 Z-6.492 I0.95 J0.881
N6165 X-7.45 Y-12.881 Z-6.706 I-0.95 J-0.881
N6170 X-5.55 Y-11.12 Z-6.919 I0.95 J0.881
N6175 X-7.45 Y-12.881 Z-7.132 I-0.95 J-0.881
N6180 X-5.55 Y-11.12 Z-7.345 I0.95 J0.881
N6185 X-7.45 Y-12.881 Z-7.559 I-0.95 J-0.881
N6190 X-5.55 Y-11.12 Z-7.772 I0.95 J0.881
N6195 X-7.45 Y-12.881 Z-7.985 I-0.95 J-0.881
N6200 X-5.55 Y-11.12 Z-8.198 I0.95 J0.881
N6205 X-7.45 Y-12.881 Z-8.411 I-0.95 J-0.881
N6210 X-5.55 Y-11.12 Z-8.625 I0.95 J0.881
N6215 X-7.45 Y-12.881 Z-8.838 I-0.95 J-0.881
N6220 X-5.55 Y-11.12 Z-9.051 I0.95 J0.881
N6225 X-7.45 Y-12.881 Z-9.264 I-0.95 J-0.881
N6230 X-5.55 Y-11.12 Z-9.477 I0.95 J0.881
N6235 X-7.45 Y-12.881 Z-9.691 I-0.95 J-0.881
N6240 X-5.55 Y-11.12 Z-9.904 I0.95 J0.881
N6245 X-7.45 Y-12.881 Z-10.117 I-0.95 J-0.881
N6250 X-5.55 Y-11.12 Z-10.33 I0.95 J0.881
N6255 X-7.45 Y-12.881 Z-10.544 I-0.95 J-0.881
N6260 X-5.55 Y-11.12 Z-10.757 I0.95 J0.881
N6265 X-7.45 Y-12.881 Z-10.97 I-0.95 J-0.881
N6270 X-5.55 Y-11.12 Z-11.183 I0.95 J0.881
N6275 X-7.45 Y-12.881 Z-11.396 I-0.95 J-0.881
N6280 X-5.662 Y-12.987 Z-11.5 I0.95 J0.881
N6285 X-6.798 Y-11.649 I-0.568 J0.669
N6290 S2500
N6295 G2 X-7.261 Y-11.991 I-2.778 J3.274 F#106
N6300 G1 X-7.69 Y-12.266
N6305 G3 X-7.623 Y-12.494 I0.067 J-0.104
N6310 G1 X-5.377
N6315 G3 X-5.31 Y-12.266 I0. J0.124
N6320 G1 X-5.739 Y-11.991
N6325 G2 X-6.202 Y-11.649 I2.315 J3.616
N6330 G3 X-6.798 I-0.298 J-0.351
N6335 G1 X-6.898 Y-11.731 Z-11.483 F#104
N6340 X-6.993 Y-11.805 Z-11.433
N6345 X-7.076 Y-11.866 Z-11.354
N6350 X-7.141 Y-11.912 Z-11.25
N6355 X-7.183 Y-11.94 Z-11.129
N6360 X-7.197 Y-11.95 Z-11.
N6365 G0 Z12.
N6370 X-4.308 Y12.948
N6375 G1 Z-11. F#103
N6380 X-4.303 Y12.943 Z-11.087
N6385 X-4.285 Y12.929 Z-11.171
N6390 X-4.257 Y12.905 Z-11.25
N6395 X-4.219 Y12.872 Z-11.321
N6400 X-4.172 Y12.832 Z-11.383
N6405 X-4.118 Y12.786 Z-11.433
N6410 X-4.058 Y12.735 Z-11.47
N6415 X-3.994 Y12.68 Z-11.492
N6420 X-3.928 Y12.624 Z-11.5
N6425 X4.578 Y5.362
N6430 G2 X7.05 Y0. I-4.578 J-5.362 F#100
N6435 G1 Y-5.535
N6440 G2 X5.03 Y-10.825 I-7.938 J0.
N6445 X2.32 Y-12.811 I-6.035 J5.394
N6450 X0.019 Y-13.46 I-3.325 J7.38 F#106
N6455 G3 X-0.032 Y-13.695 I0.016 J-0.127
N6460 G2 X2.766 Y-16.6 I-4.325 J-6.967 F#100
N6465 X3.8 Y-20.5 I-6.84 J-3.9
N6470 G1 Y-25.
N6475 G2 X-4.25 Y-33.05 I-8.05 J0.
N6480 G1 X-8.766
N6485 G2 X-16.8 Y-25. I0. J8.034
N6490 G1 Y-20.484
N6495 G2 X-15.768 Y-16.6 I7.827 J0.
N6500 X-14.805 Y-15.252 I7.142 J-4.082
N6505 X-12.982 Y-13.704 I6.179 J-5.431 F#106
N6510 G3 X-13.036 Y-13.458 I-0.071 J0.114
N6515 G2 X-18.039 Y-10.81 I1.042 J8.02 F#100
N6520 X-20.05 Y-5.519 I5.954 J5.291
N6525 G1 Y0.
N6530 G2 X-17.578 Y5.362 I7.05 J0.
N6535 G3 X-17.511 Y5.439 Z-11.489 I-0.223 J0.261
N6540 G1 X-17.479 Y5.488 Z-11.473
N6545 X-17.449 Y5.536 Z-11.45
N6550 X-17.412 Y5.595 Z-11.422
N6555 X-17.372 Y5.657 Z-11.406
N6560 X-17.332 Y5.72 Z-11.4
N6565 X-16.939 Y6.34
N6570 G3 X-17.519 Y6.708 I-0.29 J0.184
N6575 X-17.217 Y6.181 I0.29 J-0.184
N6580 G1 X1.075 Y6.814
N6585 G2 X1.38 Y6.605 I0.011 J-0.312
N6590 G1 X1.494 Y6.278
N6595 X1.517 Y6.211 Z-11.405
N6600 X1.539 Y6.146 Z-11.42
N6605 G3 X1.574 Y6.076 Z-11.45 I0.295 J0.102
N6610 X1.647 Y5.999 Z-11.487 I0.26 J0.173
N6615 X1.746 Y5.949 Z-11.5 I0.187 J0.249
N6620 G2 X6.2 Y0. I-1.746 J-5.949
N6625 G1 Y-5.519
N6630 G2 X-5.659 Y-11.009 I-7.2 J0.
N6635 G3 X-7.341 I-0.841 J-0.991
N6640 G2 X-19.2 Y-5.519 I-4.659 J5.49
N6645 G1 Y0.
N6650 G2 X-14.747 Y5.949 I6.2 J0.
N6655 G3 X-14.644 Y5.992 Z-11.487 I-0.141 J0.48
N6660 X-14.486 Y6.131 Z-11.413 I-0.244 J0.437
N6665 X-14.43 Y6.228 Z-11.4 I-0.402 J0.297
N6670 X-15. Y6.916 I-0.458 J0.201
N6675 G1 X-17.977 Y6.228
N6680 G3 X-18.35 Y5.857 I0.113 J-0.487
N6685 G1 X-22.187 Y-10.2
N6690 G3 X-22.132 Y-10.569 I0.486 J-0.116
N6695 G1 X-16.804 Y-19.662
N6700 G3 X-16.108 Y-19.834 I0.431 J0.253
N6705 X-16.021 Y-19.765 Z-11.413 I-0.264 J0.424
N6710 X-15.905 Y-19.588 Z-11.487 I-0.352 J0.355
N6715 X-15.877 Y-19.48 Z-11.5 I-0.467 J0.179
N6720 G2 X-8.75 Y-13.3 I7.127 J-1.02
N6725 G1 X-4.25
N6730 G2 X2.95 Y-20.5 I0. J-7.2
N6735 G1 Y-25.
N6740 G2 X-4.25 Y-32.2 I-7.2 J0.
N6745 G1 X-8.75
N6750 G2 X-15.95 Y-25. I0. J7.2
N6755 G1 Y-20.5
N6760 G2 X-15.877 Y-19.48 I7.2 J0.
N6765 G3 X-15.874 Y-19.369 Z-11.487 I-0.495 J0.071
N6770 X-15.935 Y-19.167 Z-11.413 I-0.498 J-0.041
N6775 X-16. Y-19.076 Z-11.4 I-0.437 J-0.242
N6780 X-16.373 Y-18.909 I-0.373 J-0.333
N6785 G1 X-20.748 Y-18.915
N6790 G2 X-21.161 Y-18.697 I-0.001 J0.5
N6795 X-21.213 Y-18.599 Z-11.413 I0.413 J0.282
N6800 X-21.248 Y-18.391 Z-11.487 I0.465 J0.184
N6805 X-21.23 Y-18.281 Z-11.5 I0.499 J-0.024
N6810 G1 X-21.206 Y-18.197 Z-11.508 F#103
N6815 X-21.184 Y-18.116 Z-11.53
N6820 X-21.163 Y-18.04 Z-11.567
N6825 X-21.143 Y-17.971 Z-11.617
N6830 X-21.127 Y-17.912 Z-11.679
N6835 X-21.113 Y-17.864 Z-11.75
N6840 X-21.104 Y-17.828 Z-11.829
N6845 X-21.097 Y-17.806 Z-11.913
N6850 X-21.095 Y-17.799 Z-12.
N6855 Z-16.5
N6860 X-21.093 Y-17.792 Z-16.587
N6865 X-21.087 Y-17.77 Z-16.671
N6870 X-21.077 Y-17.735 Z-16.75
N6875 X-21.064 Y-17.686 Z-16.821
N6880 X-21.047 Y-17.627 Z-16.883
N6885 X-21.028 Y-17.558 Z-16.933
N6890 X-21.007 Y-17.482 Z-16.97
N6895 X-20.984 Y-17.401 Z-16.992
N6900 X-20.961 Y-17.318 Z-17.
N6905 X-20.948 Y-17.272
N6910 G2 X-20.3 Y-15.45 I13.417 J-3.745 F#106
N6915 G3 X-20.42 Y-14.901 I-0.44 J0.192
N6920 G2 X-20.949 Y-14.398 I8.588 J9.573 F#100
N6925 G3 X-21.048 Y-14.349 Z-16.987 I-0.123 J-0.122
N6930 X-21.151 Y-14.366 Z-16.95 I-0.025 J-0.171
N6935 X-21.213 Y-14.419 Z-16.919 I0.079 J-0.154
N6940 X-21.244 Y-14.499 Z-16.902 I0.141 J-0.101
N6945 G1 X-21.25 Y-14.547 Z-16.9
N6950 X-21.339 Y-15.284
N6955 X-21.971 Y-30.656
N6960 G3 X-21.816 Y-31.039 I0.5 J-0.021
N6965 G1 X-19.912 Y-32.852
N6970 G3 X-19.084 Y-32.622 I0.345 J0.362
N6975 X-19.067 Y-32.512 Z-16.913 I-0.482 J0.132
N6980 X-19.103 Y-32.304 Z-16.987 I-0.5 J0.021
N6985 X-19.156 Y-32.206 Z-17. I-0.464 J-0.186
N6990 G2 X-20.882 Y-28.599 I10.39 J7.19
N6995 G3 X-20.926 Y-28.496 Z-16.987 I-0.479 J-0.142
N7000 X-21.065 Y-28.338 Z-16.913 I-0.436 J-0.245
N7005 X-21.162 Y-28.282 Z-16.9 I-0.297 J-0.403
N7010 X-21.749 Y-29.057 I-0.2 J-0.458
N7015 G1 X-17.417 Y-34.355
N7020 G3 X-16.53 Y-34.06 I0.387 J0.317
N7025 X-16.538 Y-33.948 Z-16.913 I-0.5 J0.021
N7030 X-16.619 Y-33.754 Z-16.987 I-0.492 J-0.09
N7035 X-16.692 Y-33.67 Z-17. I-0.411 J-0.285
N7040 G2 X-20.501 Y-25. I7.926 J8.654
N7045 G1 Y-20.484
N7050 G2 X-20.153 Y-17.754 I10.888 J0.
N7055 X-20.059 Y-17.409 I12.259 J-3.176
N7060 X-19.177 Y-15.18 I12.164 J-3.521 F#106
N7065 G3 X-19.286 Y-14.682 I-0.359 J0.183
N7070 G2 X-20.95 Y-13.072 I7.433 J9.345 F#100
N7075 G1 X-24.836 Y-8.501 F#104
N7080 X-24.892 Y-8.435 Z-16.992
N7085 X-24.947 Y-8.37 Z-16.97
N7090 X-24.998 Y-8.31 Z-16.933
N7095 X-25.044 Y-8.256 Z-16.883
N7100 X-25.084 Y-8.209 Z-16.821
N7105 X-25.117 Y-8.171 Z-16.75
N7110 X-25.141 Y-8.143 Z-16.671
N7115 X-25.155 Y-8.126 Z-16.587
N7120 X-25.16 Y-8.12 Z-16.5
N7125 G0 Z12.
N7130 X-4.744 Y-40.924
N7135 G1 Z-16.5 F#103
N7140 X-4.75 Y-40.92 Z-16.587
N7145 X-4.768 Y-40.907 Z-16.671
N7150 X-4.799 Y-40.886 Z-16.75
N7155 X-4.84 Y-40.858 Z-16.821
N7160 X-4.891 Y-40.823 Z-16.883
N7165 X-4.95 Y-40.783 Z-16.933
N7170 X-5.015 Y-40.738 Z-16.97
N7175 X-5.084 Y-40.69 Z-16.992
N7180 X-5.156 Y-40.641 Z-17.
N7185 X-14.901 Y-33.947
N7190 G2 X-19.601 Y-25. I6.135 J8.931 F#100
N7195 G1 Y-20.484
N7200 G2 X-19.178 Y-17.579 I10.187 J0.
N7205 X-19.011 Y-17.062 I11.037 J-3.284
N7210 X-17.989 Y-14.895 I10.869 J-3.801 F#106
N7215 G3 X-18.086 Y-14.448 I-0.284 J0.172
N7220 G2 X-20.948 Y-11.604 I6.171 J9.072 F#100
N7225 G1 X-24.354 Y-6.664 F#104
N7230 X-24.403 Y-6.593 Z-16.992
N7235 X-24.451 Y-6.524 Z-16.97
N7240 X-24.496 Y-6.459 Z-16.933
N7245 X-24.536 Y-6.4 Z-16.883
N7250 X-24.571 Y-6.349 Z-16.821
N7255 X-24.6 Y-6.308 Z-16.75
N7260 X-24.621 Y-6.278 Z-16.671
N7265 X-24.633 Y-6.259 Z-16.587
N7270 X-24.638 Y-6.253 Z-16.5
N7275 G0 Z12.
N7280 X-12.618 Y-34.19
N7285 G1 Z-16.5 F#103
N7290 X-12.625 Y-34.187 Z-16.587
N7295 X-12.645 Y-34.177 Z-16.671
N7300 X-12.678 Y-34.161 Z-16.75
N7305 X-12.723 Y-34.139 Z-16.821
N7310 X-12.779 Y-34.112 Z-16.883
N7315 X-12.843 Y-34.081 Z-16.933
N7320 X-12.914 Y-34.046 Z-16.97
N7325 X-12.989 Y-34.01 Z-16.992
N7330 X-13.068 Y-33.972 Z-17.
N7335 X-13.113 Y-33.95
N7340 G2 X-18.701 Y-25. I4.347 J8.934 F#100
N7345 G1 Y-20.484
N7350 G2 X-18.174 Y-17.374 I9.451 J0.
N7355 X-17.896 Y-16.66 I9.841 J-3.43
N7360 X-16.697 Y-14.586 I9.562 J-4.144 F#106
N7365 G3 X-16.783 Y-14.194 I-0.214 J0.159
N7370 G2 X-20.553 Y-10.564 I4.84 J8.8 F#100
N7375 X-20.949 Y-9.837 I8.403 J5.044
N7380 G1 X-23.592 Y-4.451 F#104
N7385 X-23.63 Y-4.373 Z-16.992
N7390 X-23.667 Y-4.297 Z-16.97
N7395 X-23.702 Y-4.226 Z-16.933
N7400 X-23.734 Y-4.162 Z-16.883
N7405 X-23.761 Y-4.107 Z-16.821
N7410 X-23.783 Y-4.062 Z-16.75
N7415 X-23.799 Y-4.029 Z-16.671
N7420 X-23.809 Y-4.009 Z-16.587
N7425 X-23.812 Y-4.002 Z-16.5
N7430 G0 Z12.
N7435 X14.917 Y-7.401
N7440 G1 Z-16.5 F#103
N7445 X14.911 Y-7.406 Z-16.587
N7450 X14.896 Y-7.422 Z-16.671
N7455 X14.87 Y-7.448 Z-16.75
N7460 X14.834 Y-7.484 Z-16.821
N7465 X14.791 Y-7.527 Z-16.883
N7470 X14.74 Y-7.578 Z-16.933
N7475 X14.685 Y-7.634 Z-16.97
N7480 X14.625 Y-7.694 Z-16.992
N7485 X14.564 Y-7.755 Z-17.
N7490 X7.946 Y-14.402
N7495 G2 X7.42 Y-14.901 I-9.128 J9.089 F#106
N7500 G3 X7.3 Y-15.45 I0.32 J-0.357
N7505 G2 X7.95 Y-17.278 I-12.719 J-5.545 F#100
N7510 X7.968 Y-17.415 Z-16.98 I-0.482 J-0.134
N7515 G1 X7.967 Y-17.495 Z-16.95
N7520 Y-17.565 Z-16.922
N7525 Y-17.638 Z-16.906
N7530 X7.966 Y-17.713 Z-16.9
N7535 X7.906 Y-28.146
N7540 Y-28.221 Z-16.906
N7545 X7.905 Y-28.294 Z-16.922
N7550 Y-28.364 Z-16.95
N7555 X7.904 Y-28.441 Z-16.98
N7560 G2 X7.899 Y-28.511 Z-16.995 I-0.5 J0.003
N7565 X7.884 Y-28.58 Z-17. I-0.495 J0.072
N7570 X6.133 Y-32.228 I-12.134 J3.58
N7575 G3 X6.08 Y-32.326 Z-16.987 I0.41 J-0.286
N7580 X6.044 Y-32.534 Z-16.913 I0.463 J-0.188
N7585 X6.06 Y-32.644 Z-16.9 I0.5 J0.02
N7590 X6.97 Y-32.773 I0.483 J0.13
N7595 G1 X7.989 Y-31.097
N7600 G3 X8.057 Y-30.907 I-0.427 J0.26
N7605 G1 X8.364 Y-28.721
N7610 X8.367 Y-28.694
N7615 X8.368 Y-28.667
N7620 X8.829 Y-13.412
N7625 G3 X8.332 Y-12.897 I-0.5 J0.015
N7630 X8.221 Y-12.909 Z-16.913 I-0.003 J-0.5
N7635 X8.03 Y-12.997 Z-16.987 I0.108 J-0.488
N7640 X7.948 Y-13.073 Z-17. I0.299 J-0.4
N7645 G2 X6.297 Y-14.672 I-9.113 J7.755 F#106
N7650 G3 X6.184 Y-15.194 I0.263 J-0.33
N7655 G2 X7.157 Y-17.769 I-11.148 J-5.68 F#100
N7660 X7.501 Y-20.5 I-10.659 J-2.731
N7665 G1 Y-25.
N7670 G2 X3.676 Y-33.675 I-11.751 J0.
N7675 G1 X-0.753 Y-37.722 F#104
N7680 X-0.817 Y-37.781 Z-16.992
N7685 X-0.879 Y-37.838 Z-16.97
N7690 X-0.938 Y-37.891 Z-16.933
N7695 X-0.99 Y-37.939 Z-16.883
N7700 X-1.036 Y-37.981 Z-16.821
N7705 X-1.073 Y-38.014 Z-16.75
N7710 X-1.1 Y-38.039 Z-16.671
N7715 X-1.117 Y-38.054 Z-16.587
N7720 X-1.122 Y-38.06 Z-16.5
N7725 G0 Z12.
N7730 X14.916 Y-1.522
N7735 G1 Z-16.5 F#103
N7740 X14.911 Y-1.529 Z-16.587
N7745 X14.899 Y-1.547 Z-16.671
N7750 X14.878 Y-1.577 Z-16.75
N7755 X14.849 Y-1.619 Z-16.821
N7760 X14.814 Y-1.669 Z-16.883
N7765 X14.774 Y-1.728 Z-16.933
N7770 X14.729 Y-1.793 Z-16.97
N7775 X14.681 Y-1.862 Z-16.992
N7780 X14.632 Y-1.934 Z-17.
N7785 X7.947 Y-11.609
N7790 G2 X6.898 Y-12.905 I-9.038 J6.244 F#100
N7795 X5.073 Y-14.457 I-7.989 J7.54 F#106
N7800 G3 X4.981 Y-14.882 I0.177 J-0.261
N7805 G2 X6.177 Y-17.58 I-9.795 J-5.957 F#100
N7810 X6.601 Y-20.5 I-9.847 J-2.92
N7815 G1 Y-25.
N7820 G2 X1.889 Y-33.948 I-10.851 J0.
N7825 G1 X-3.059 Y-37.342 F#104
N7830 X-3.13 Y-37.391 Z-16.992
N7835 X-3.2 Y-37.439 Z-16.97
N7840 X-3.265 Y-37.483 Z-16.933
N7845 X-3.324 Y-37.524 Z-16.883
N7850 X-3.375 Y-37.559 Z-16.821
N7855 X-3.416 Y-37.587 Z-16.75
N7860 X-3.446 Y-37.608 Z-16.671
N7865 X-3.465 Y-37.621 Z-16.587
N7870 X-3.471 Y-37.625 Z-16.5
N7875 G0 Z12.
N7880 X8.191 Y-9.35
N7885 G1 Z-16.5 F#103
N7890 X8.188 Y-9.357 Z-16.587
N7895 X8.178 Y-9.377 Z-16.671
N7900 X8.162 Y-9.411 Z-16.75
N7905 X8.139 Y-9.455 Z-16.821
N7910 X8.112 Y-9.511 Z-16.883
N7915 X8.081 Y-9.575 Z-16.933
N7920 X8.046 Y-9.646 Z-16.97
N7925 X8.009 Y-9.721 Z-16.992
N7930 X7.97 Y-9.799 Z-17.
N7935 X7.948 Y-9.844
N7940 G2 X7.551 Y-10.572 I-8.757 J4.309 F#100
N7945 X5.728 Y-12.799 I-8.617 J5.191
N7950 X3.783 Y-14.194 I-6.794 J7.419 F#106
N7955 G3 X3.697 Y-14.586 I0.128 J-0.233
N7960 G2 X5.176 Y-17.382 I-8.34 J-6.2 F#100
N7965 X5.701 Y-20.5 I-8.994 J-3.118
N7970 G1 Y-25.
N7975 G2 X0.105 Y-33.948 I-9.951 J0.
N7980 X0. Y-33.985 Z-16.987 I-0.219 J0.45
N7985 X-0.106 Y-33.998 Z-16.95 I-0.114 J0.487
N7990 G1 X-0.116 Z-16.945
N7995 X-0.183 Z-16.92
N8000 X-0.252 Y-33.997 Z-16.905
N8005 X-0.323 Z-16.9
N8010 X-9.678 Y-33.957
N8015 X-9.753 Z-16.906
N8020 X-9.826 Y-33.956 Z-16.922
N8025 X-9.896 Z-16.95
N8030 X-9.967 Z-16.978
N8035 X-10.041 Z-16.995
N8040 G2 X-10.113 Y-33.95 Z-17. I0.002 J0.5
N8045 X-17.801 Y-25. I1.348 J8.934
N8050 G1 Y-20.484
N8055 G2 X-17.119 Y-17.108 I8.695 J0.
N8060 X-16.651 Y-16.153 I8.615 J-3.63
N8065 X-15.22 Y-14.235 I8.147 J-4.585 F#106
N8070 G3 X-15.292 Y-13.902 I-0.147 J0.142
N8075 G2 X-19.466 Y-10.6 I3.316 J8.479 F#100
N8080 X-20.95 Y-6.86 I7.35 J5.081
N8085 G1 X-21.85 Y-0.928 F#104
N8090 X-21.863 Y-0.842 Z-16.992
N8095 X-21.876 Y-0.759 Z-16.97
N8100 X-21.888 Y-0.681 Z-16.933
N8105 X-21.898 Y-0.61 Z-16.883
N8110 X-21.908 Y-0.549 Z-16.821
N8115 X-21.915 Y-0.5 Z-16.75
N8120 X-21.921 Y-0.464 Z-16.671
N8125 X-21.924 Y-0.441 Z-16.587
N8130 X-21.925 Y-0.434 Z-16.5
N8135 G0 Z12.
N8140 X8.032 Y-6.333
N8145 G1 Z-16.5 F#103
N8150 X8.031 Y-6.34 Z-16.587
N8155 X8.028 Y-6.363 Z-16.671
N8160 X8.022 Y-6.399 Z-16.75
N8165 X8.015 Y-6.449 Z-16.821
N8170 X8.005 Y-6.509 Z-16.883
N8175 X7.995 Y-6.58 Z-16.933
N8180 X7.983 Y-6.658 Z-16.97
N8185 X7.97 Y-6.741 Z-16.992
N8190 X7.957 Y-6.827 Z-17.
N8195 X7.949 Y-6.877
N8200 G2 X6.463 Y-10.608 I-8.796 J1.342 F#100
N8205 X4.387 Y-12.746 I-7.492 J5.199
N8210 X2.292 Y-13.902 I-5.416 J7.337 F#106
N8215 G3 X2.22 Y-14.235 I0.074 J-0.19
N8220 G2 X4.12 Y-17.116 I-6.699 J-6.486 F#100
N8225 X4.801 Y-20.5 I-8.072 J-3.384
N8230 G1 Y-25.
N8235 G2 X-2.901 Y-33.95 I-9.051 J0.
N8240 G1 X-8.834 Y-34.844 F#104
N8245 X-8.919 Y-34.857 Z-16.992
N8250 X-9.003 Y-34.87 Z-16.97
N8255 X-9.081 Y-34.882 Z-16.933
N8260 X-9.151 Y-34.892 Z-16.883
N8265 X-9.212 Y-34.901 Z-16.821
N8270 X-9.262 Y-34.909 Z-16.75
N8275 X-9.298 Y-34.914 Z-16.671
N8280 X-9.321 Y-34.918 Z-16.587
N8285 X-9.328 Y-34.919 Z-16.5
N8290 G0 Z12.
N8295 X-7.533 Y-12.681
N8300 G1 Z-10.001 F#103
N8305 S2400
N8310 X-7.527 Y-12.695 Z-10.126 F#107
N8315 X-7.509 Y-12.738 Z-10.243
N8320 X-7.476 Y-12.805 Z-10.345
N8325 X-7.427 Y-12.89 Z-10.425
N8330 G3 X-7.361 Y-12.984 Z-10.478 I1.095 J0.691
N8335 X-7.281 Y-13.079 Z-10.5 I1.03 J0.786
N8340 X-5.382 Y-11.318 Z-10.713 I0.95 J0.881
N8345 X-7.281 Y-13.079 Z-10.926 I-0.95 J-0.881
N8350 X-5.382 Y-11.318 Z-11.14 I0.95 J0.881
N8355 X-7.281 Y-13.079 Z-11.353 I-0.95 J-0.881
N8360 X-5.382 Y-11.318 Z-11.566 I0.95 J0.881
N8365 X-7.281 Y-13.079 Z-11.779 I-0.95 J-0.881
N8370 X-5.382 Y-11.318 Z-11.992 I0.95 J0.881
N8375 X-7.281 Y-13.079 Z-12.206 I-0.95 J-0.881
N8380 X-5.382 Y-11.318 Z-12.419 I0.95 J0.881
N8385 X-7.281 Y-13.079 Z-12.632 I-0.95 J-0.881
N8390 X-5.382 Y-11.318 Z-12.845 I0.95 J0.881
N8395 X-7.281 Y-13.079 Z-13.059 I-0.95 J-0.881
N8400 X-5.382 Y-11.318 Z-13.272 I0.95 J0.881
N8405 X-7.281 Y-13.079 Z-13.485 I-0.95 J-0.881
N8410 X-5.382 Y-11.318 Z-13.698 I0.95 J0.881
N8415 X-7.281 Y-13.079 Z-13.911 I-0.95 J-0.881
N8420 X-5.382 Y-11.318 Z-14.125 I0.95 J0.881
N8425 X-7.281 Y-13.079 Z-14.338 I-0.95 J-0.881
N8430 X-5.382 Y-11.318 Z-14.551 I0.95 J0.881
N8435 X-7.281 Y-13.079 Z-14.764 I-0.95 J-0.881
N8440 X-5.382 Y-11.318 Z-14.977 I0.95 J0.881
N8445 X-7.281 Y-13.079 Z-15.191 I-0.95 J-0.881
N8450 X-5.382 Y-11.318 Z-15.404 I0.95 J0.881
N8455 X-7.281 Y-13.079 Z-15.617 I-0.95 J-0.881
N8460 X-5.382 Y-11.318 Z-15.83 I0.95 J0.881
N8465 X-7.281 Y-13.079 Z-16.044 I-0.95 J-0.881
N8470 X-5.382 Y-11.318 Z-16.257 I0.95 J0.881
N8475 X-7.281 Y-13.079 Z-16.47 I-0.95 J-0.881
N8480 X-5.382 Y-11.318 Z-16.683 I0.95 J0.881
N8485 X-7.281 Y-13.079 Z-16.896 I-0.95 J-0.881
N8490 X-5.494 Y-13.186 Z-17. I0.95 J0.881
N8495 X-6.74 Y-11.718 I-0.623 J0.734
N8500 S2500
N8505 G2 X-7.042 Y-11.947 I-2.267 J2.671 F#106
N8510 G3 X-7.354 Y-12.162 I15.669 J-23.132
N8515 X-7.281 Y-12.394 I0.073 J-0.105
N8520 G1 X-5.719
N8525 G3 X-5.646 Y-12.162 I0. J0.128
N8530 X-5.958 Y-11.947 I-16.009 J-22.956
N8535 G2 X-6.26 Y-11.718 I1.965 J2.901
N8540 G3 X-6.74 I-0.24 J-0.282
N8545 G1 X-6.822 Y-11.785 Z-16.988 F#104
N8550 X-6.903 Y-11.848 Z-16.954
N8555 X-6.977 Y-11.902 Z-16.899
N8560 X-7.042 Y-11.947 Z-16.825
N8565 X-7.096 Y-11.984 Z-16.728
N8570 X-7.13 Y-12.007 Z-16.617
N8575 X-7.141 Y-12.015 Z-16.5
N8580 G0 Z12.
N8585 X-2.886 Y12.949
N8590 G1 Z-16.5 F#103
N8595 X-2.88 Y12.943 Z-16.587
N8600 X-2.864 Y12.927 Z-16.671
N8605 X-2.838 Y12.901 Z-16.75
N8610 X-2.803 Y12.866 Z-16.821
N8615 X-2.759 Y12.823 Z-16.883
N8620 X-2.709 Y12.772 Z-16.933
N8625 X-2.653 Y12.717 Z-16.97
N8630 X-2.593 Y12.657 Z-16.992
N8635 X-2.531 Y12.596 Z-17.
N8640 X5.04 Y5.071
N8645 G2 X7.15 Y0. I-5.04 J-5.071 F#100
N8650 G1 Y-5.535
N8655 G2 X5.192 Y-10.79 I-8.032 J0.
N8660 X2.574 Y-12.801 I-6.202 J5.366
N8665 X0.294 Y-13.521 I-3.584 J7.376 F#106
N8670 G3 X0.243 Y-13.753 I0.02 J-0.126
N8675 G2 X2.917 Y-16.668 I-4.617 J-6.919 F#100
N8680 X3.9 Y-20.5 I-6.977 J-3.832
N8685 G1 Y-25.
N8690 G2 X-4.25 Y-33.15 I-8.15 J0.
N8695 G1 X-8.766
N8700 G2 X-16.9 Y-25. I0. J8.134
N8705 G1 Y-20.484
N8710 G2 X-15.922 Y-16.675 I7.909 J0.
N8715 X-15.042 Y-15.379 I7.32 J-4.022
N8720 X-13.271 Y-13.772 I6.44 J-5.319 F#106
N8725 G3 X-13.326 Y-13.516 I-0.079 J0.117
N8730 G2 X-18.205 Y-10.769 I1.341 J8.088 F#100
N8735 X-20.15 Y-5.519 I6.114 J5.25
N8740 G1 Y0.
N8745 G2 X-18.039 Y5.072 I7.15 J0.
N8750 G3 X-17.985 Y5.142 Z-16.992 I-0.251 J0.253
N8755 G1 X-17.951 Y5.198 Z-16.975
N8760 X-17.918 Y5.253 Z-16.95
N8765 X-17.882 Y5.313 Z-16.922
N8770 X-17.845 Y5.375 Z-16.906
N8775 X-17.806 Y5.44 Z-16.9
N8780 X-17.437 Y6.056
N8785 G3 X-18.048 Y6.422 I-0.306 J0.183
N8790 X-17.725 Y5.883 I0.306 J-0.183
N8795 G1 X1.075 Y6.801
N8800 G2 X1.385 Y6.592 I0.015 J-0.312
N8805 G1 X1.494 Y6.278
N8810 X1.517 Y6.211 Z-16.905
N8815 X1.539 Y6.146 Z-16.92
N8820 G3 X1.574 Y6.076 Z-16.95 I0.295 J0.102
N8825 X1.647 Y5.999 Z-16.987 I0.26 J0.173
N8830 X1.746 Y5.949 Z-17. I0.187 J0.249
N8835 G2 X6.2 Y0. I-1.746 J-5.949
N8840 G1 Y-5.519
N8845 G2 X-5.659 Y-11.009 I-7.2 J0.
N8850 G3 X-7.341 I-0.841 J-0.991
N8855 G2 X-19.2 Y-5.519 I-4.659 J5.49
N8860 G1 Y0.
N8865 G2 X-14.747 Y5.949 I6.2 J0.
N8870 G3 X-14.674 Y5.991 Z-16.993 I-0.049 J0.168
N8875 X-14.63 Y6.06 Z-16.971 I-0.122 J0.126
N8880 G1 X-14.614 Y6.108 Z-16.95
N8885 X-14.591 Y6.174 Z-16.922
N8890 X-14.567 Y6.243 Z-16.906
N8895 X-14.542 Y6.314 Z-16.9
N8900 X-14.534 Y6.336
N8905 G2 X-14.369 Y6.454 I0.166 J-0.058
N8910 G1 X0.32 Y6.467
N8915 G2 X0.475 Y6.372 I0. J-0.174
N8920 G1 X0.521 Y6.281
N8925 X0.555 Y6.215 Z-16.906
N8930 X0.588 Y6.149 Z-16.922
N8935 X0.62 Y6.087 Z-16.95
N8940 X0.642 Y6.044 Z-16.971
N8945 G3 X0.696 Y5.981 Z-16.993 I0.155 J0.079
N8950 X0.775 Y5.95 Z-17. I0.101 J0.141
N8955 G2 X6. Y0. I-0.775 J-5.95
N8960 G1 Y-5.519
N8965 G2 X-5.529 Y-10.856 I-7. J0.
N8970 G3 X-7.47 I-0.971 J-1.144
N8975 G2 X-19. Y-5.519 I-4.529 J5.337
N8980 G1 Y0.
N8985 G2 X-13.775 Y5.95 I6. J0.
N8990 G3 X-13.666 Y5.976 Z-16.987 I-0.065 J0.496
N8995 X-13.488 Y6.089 Z-16.913 I-0.173 J0.469
N9000 X-13.418 Y6.176 Z-16.9 I-0.351 J0.356
N9005 X-13.865 Y6.945 I-0.421 J0.27
N9010 G1 X-17.667 Y6.75
N9015 G3 X-18.112 Y6.42 I0.026 J-0.499
N9020 G1 X-23.109 Y-7.459
N9025 G3 X-23.08 Y-7.863 I0.47 J-0.169
N9030 G1 X-16.814 Y-19.644
N9035 G3 X-16.108 Y-19.834 I0.441 J0.235
N9040 X-16.021 Y-19.765 Z-16.913 I-0.264 J0.424
N9045 X-15.905 Y-19.588 Z-16.987 I-0.352 J0.355
N9050 X-15.877 Y-19.48 Z-17. I-0.467 J0.179
N9055 G2 X-8.75 Y-13.3 I7.127 J-1.02
N9060 G1 X-4.25
N9065 G2 X2.95 Y-20.5 I0. J-7.2
N9070 G1 Y-25.
N9075 G2 X-4.25 Y-32.2 I-7.2 J0.
N9080 G1 X-8.75
N9085 G2 X-15.95 Y-25. I0. J7.2
N9090 G1 Y-20.5
N9095 G2 X-15.877 Y-19.48 I7.2 J0.
N9100 X-15.755 Y-19.345 I0.161 J-0.023
N9105 G3 X-15.631 Y-19.213 I-0.041 J0.163
N9110 G2 X-8.75 Y-13.5 I6.881 J-1.287
N9115 G1 X-4.25
N9120 G2 X2.75 Y-20.5 I0. J-7.
N9125 G1 Y-25.
N9130 G2 X-4.25 Y-32. I-7. J0.
N9135 G1 X-8.75
N9140 G2 X-15.75 Y-25. I0. J7.
N9145 G1 Y-20.5
N9150 G2 X-15.631 Y-19.213 I7. J0.
N9155 G3 X-15.883 Y-18.682 I-0.491 J0.092 F#104
N9160 G1 X-21.151 Y-15.81
N9165 X-21.227 Y-15.768 Z-16.992
N9170 X-21.301 Y-15.728 Z-16.97
N9175 X-21.37 Y-15.69 Z-16.933
N9180 X-21.433 Y-15.656 Z-16.883
N9185 X-21.487 Y-15.626 Z-16.821
N9190 X-21.531 Y-15.602 Z-16.75
N9195 X-21.563 Y-15.585 Z-16.671
N9200 X-21.583 Y-15.574 Z-16.587
N9205 X-21.59 Y-15.57 Z-16.5
N9210 G0 Z12.
N9220 M5
N9225 G53 Z0.
(2D CONTOUR5)
N9230 M9
N9235 M1
N9240 T1 M6
N9245 T6
N9250 S3200 M3
N9255 M8
N9265 G0 X-14.55 Y-25.6
N9270 G43 Z20. H1
N9275 #102=330. (FINISH)
N9280 #103=200. (ENTRY)
N9285 #104=200. (EXIT)
N9290 #108=100. (PLUNGE)
N9295 G0 Z10.
N9300 G1 Z6. F#103
N9305 Z-16.4 F#108
N9310 G18 G2 X-13.95 Z-17. I0.6 K0.
N9315 G1 X-13.35 F#103
N9320 G17 G3 X-12.75 Y-25. I0. J0.6
N9325 G1 Y-20.5 F#102
N9330 G2 X-8.75 Y-16.5 I4. J0.
N9335 G1 X-4.25
N9340 G2 X-0.25 Y-20.5 I0. J-4.
N9345 G1 Y-25.
N9350 G2 X-4.25 Y-29. I-4. J0.
N9355 G1 X-8.75
N9360 G2 X-12.75 Y-25. I0. J4.
N9365 G3 X-13.35 Y-24.4 I-0.6 J0. F#104
N9370 G1 X-13.95
N9375 G18 G3 X-14.55 Z-16.4 I0. K0.6
N9380 G0 Z10.
N9385 X4.8 Y-4.919
N9390 G1 Z6. F#103
N9395 Z-16.4 F#108
N9400 G3 X4.2 Z-17. I-0.6 K0.
N9405 G1 X3.6 F#103
N9410 G17 G3 X3. Y-5.519 I0. J-0.6
N9415 G2 X-3.588 Y-8.569 I-4. J0. F#102
N9420 G3 X-9.412 I-2.912 J-3.431
N9425 G2 X-16. Y-5.519 I-2.588 J3.05
N9430 G3 X-16.6 Y-4.919 I-0.6 J0. F#104
N9435 G1 X-17.2
N9440 G18 G3 X-17.8 Z-16.4 I0. K0.6
N9445 G0 Z20.
N9450 G17
(2D CONTOUR6)
N9455 M8
N9460 G0 X4.489 Y-9.557
N9465 #102=330. (FINISH)
N9470 #103=200. (ENTRY)
N9475 #104=200. (EXIT)
N9480 #108=100. (PLUNGE)
N9485 Z20.
N9490 Z10.
N9495 G1 Z6. F#103
N9500 Z-22. F#108
N9505 X4.486 Y-9.564 Z-22.174
N9510 X4.478 Y-9.586 Z-22.347
N9515 X4.465 Y-9.621 Z-22.518
N9520 X4.447 Y-9.671 Z-22.684
N9525 X4.425 Y-9.733 Z-22.845
N9530 X4.397 Y-9.809 Z-23.
N9535 X4.365 Y-9.897 Z-23.147
N9540 X4.329 Y-9.997 Z-23.286
N9545 X4.288 Y-10.108 Z-23.414
N9550 X4.244 Y-10.229 Z-23.532
N9555 X4.197 Y-10.359 Z-23.638
N9560 X4.147 Y-10.497 Z-23.732
N9565 X4.094 Y-10.642 Z-23.813
N9570 X4.039 Y-10.794 Z-23.879
N9575 X3.982 Y-10.95 Z-23.932
N9580 X3.923 Y-11.11 Z-23.97
N9585 X3.864 Y-11.273 Z-23.992
N9590 X3.805 Y-11.437 Z-24.
N9595 X3.121 Y-13.316 F#103
N9600 G3 X3. Y-14. I1.879 J-0.684
N9605 G1 Y-23. F#102
N9610 G2 X2.994 Y-23.196 I-3. J0.
N9615 G1 X2.968 Y-23.588
N9620 G2 X2.917 Y-23.977 I-2.994 J0.196
N9625 G1 X2.84 Y-24.362
N9630 G2 X2.739 Y-24.741 I-2.942 J0.585
N9635 G1 X2.612 Y-25.112
N9640 G2 X2.462 Y-25.475 I-2.841 J0.964
N9645 G1 X2.289 Y-25.827
N9650 G2 X2.093 Y-26.167 I-2.691 J1.327
N9655 G1 X1.875 Y-26.493
N9660 G2 X1.635 Y-26.804 I-2.494 J1.667
N9665 G1 X1.377 Y-27.099
N9670 G2 X1.1 Y-27.377 I-2.255 J1.978
N9675 G1 X0.805 Y-27.635
N9680 G2 X0.493 Y-27.875 I-1.978 J2.255
N9685 G1 X0.167 Y-28.093
N9690 G2 X-0.174 Y-28.289 I-1.667 J2.494
N9695 G1 X-0.525 Y-28.462
N9700 G2 X-0.887 Y-28.612 I-1.326 J2.691
N9705 G1 X-1.259 Y-28.738
N9710 G2 X-1.639 Y-28.84 I-0.965 J2.841
N9715 G1 X-2.024 Y-28.917
N9720 G2 X-2.412 Y-28.968 I-0.585 J2.942
N9725 G1 X-2.804 Y-28.994
N9730 G2 X-3. Y-29. I-0.196 J2.994
N9735 G1 X-10.
N9740 G2 X-10.196 Y-28.994 I0. J3.
N9745 G1 X-10.588 Y-28.968
N9750 G2 X-10.976 Y-28.917 I0.196 J2.994
N9755 G1 X-11.361 Y-28.84
N9760 G2 X-11.741 Y-28.738 I0.585 J2.942
N9765 G1 X-12.113 Y-28.612
N9770 G2 X-12.475 Y-28.462 I0.965 J2.841
N9775 G1 X-12.827 Y-28.289
N9780 G2 X-13.167 Y-28.093 I1.327 J2.691
N9785 G1 X-13.493 Y-27.875
N9790 G2 X-13.805 Y-27.635 I1.667 J2.495
N9795 G1 X-14.1 Y-27.376
N9800 G2 X-14.376 Y-27.1 I1.978 J2.255
N9805 G1 X-14.635 Y-26.805
N9810 G2 X-14.875 Y-26.493 I2.255 J1.978
N9815 G1 X-15.093 Y-26.167
N9820 G2 X-15.289 Y-25.827 I2.495 J1.667
N9825 G1 X-15.462 Y-25.475
N9830 G2 X-15.612 Y-25.113 I2.691 J1.327
N9835 G1 X-15.738 Y-24.741
N9840 G2 X-15.84 Y-24.361 I2.841 J0.965
N9845 G1 X-15.917 Y-23.976
N9850 G2 X-15.968 Y-23.588 I2.942 J0.585
N9855 G1 X-15.994 Y-23.196
N9860 G2 X-16. Y-23. I2.994 J0.196
N9865 G1 Y-18.
N9870 Y-14.
N9875 G3 X-16.121 Y-13.316 I-2. J0. F#104
N9880 G1 X-16.805 Y-11.437
N9885 X-16.864 Y-11.273 Z-23.992
N9890 X-16.923 Y-11.11 Z-23.97
N9895 X-16.982 Y-10.95 Z-23.932
N9900 X-17.039 Y-10.794 Z-23.879
N9905 X-17.094 Y-10.642 Z-23.813
N9910 X-17.147 Y-10.497 Z-23.732
N9915 X-17.197 Y-10.359 Z-23.638
N9920 X-17.244 Y-10.229 Z-23.532
N9925 X-17.288 Y-10.108 Z-23.414
N9930 X-17.329 Y-9.997 Z-23.286
N9935 X-17.365 Y-9.897 Z-23.147
N9940 X-17.397 Y-9.809 Z-23.
N9945 X-17.425 Y-9.733 Z-22.845
N9950 X-17.447 Y-9.671 Z-22.684
N9955 X-17.465 Y-9.621 Z-22.518
N9960 X-17.478 Y-9.586 Z-22.347
N9965 X-17.486 Y-9.564 Z-22.174
N9970 X-17.489 Y-9.557 Z-22.
N9975 G0 Z20.
N9985 M9
N9990 G53 Z0.
N9995 M30
%
