%
(1001)
(T10  D=6. CR=0. - ZMIN=-41.2 - FLAT END MILL)
N10 G90 G94 G17 G91.1
N15 G21
N20 G53 G0 Z0.
(FACE1)
N25 M9
N30 T10 M6
N35 S4000 M3
N40 G54
N45 M9
N55 G0 X7.298 Y-50.036
N60 G43 Z2. H10
N65 #100=800. (CUTTING)
N70 #102=800. (FINISH)
N75 #103=600. (ENTRY)
N80 #104=600. (EXIT)
N85 G18 G3 X5.298 Z0. I-2. K0. F#103
N90 G1 X4. F#100
N95 X-54. F#102
N100 G17 G2 Y-45.123 I0. J2.457 F#100
N105 G1 X4. F#102
N110 G3 Y-40.209 I0. J2.457 F#100
N115 G1 X-54. F#102
N120 G2 Y-35.295 I0. J2.457 F#100
N125 G1 X4. F#102
N130 G3 Y-30.382 I0. J2.457 F#100
N135 G1 X-54. F#102
N140 G2 Y-25.468 I0. J2.457 F#100
N145 G1 X4. F#102
N150 G3 Y-20.555 I0. J2.457 F#100
N155 G1 X-54. F#102
N160 G2 Y-15.641 I0. J2.457 F#100
N165 G1 X4. F#102
N170 G3 Y-10.727 I0. J2.457 F#100
N175 G1 X-54. F#102
N180 G2 Y-5.814 I0. J2.457 F#100
N185 G1 X4. F#102
N190 G3 Y-0.9 I0. J2.457 F#100
N195 G1 X-54. F#102
N200 G18 G3 X-56. Z2. I0. K2. F#104
N205 G17
(2D ADAPTIVE5)
N210 M9
N215 G0 X-25.004 Y-28.398
N220 #100=800. (CUTTING)
N225 #103=600. (ENTRY)
N230 #104=600. (EXIT)
N235 #107=600. (RAMPING)
N240 Z2.
N245 Z1.5
N250 G1 Z1. F#103
N255 S3800
N260 G3 X-21.631 Y-24.561 Z0.084 I0.004 J3.398 F#107
N265 X-25.776 Y-21.784 Z-0.832 I-3.29 J-0.429
N270 X-27.935 Y-26.149 Z-1.747 I0.835 J-3.129
N275 X-23.438 Y-27.68 Z-2.663 I2.919 J1.206
N280 X-22.531 Y-23.14 Z-3.579 I-1.537 J2.668
N285 X-27.031 Y-22.842 Z-4.495 I-2.381 J-1.824
N290 X-26.747 Y-27.222 Z-5.411 I2.063 J-2.066
N295 X-22.558 Y-26.391 Z-6.327 I1.73 J2.252
N300 X-23.891 Y-22.461 Z-7.242 I-2.39 J1.381
N305 X-27.506 Y-24.242 Z-8.158 I-1.027 J-2.476
N310 X-25.334 Y-27.494 Z-9.074 I2.512 J-0.674
N315 X-22.484 Y-24.995 Z-9.99 I0.329 J2.499
N320 X-27.526 I-2.521 J0.
N325 X-22.484 I2.521 J0.
N330 S4000
N335 X-22.555 Y-23.119 I-4.636 J0.764 F#100
N340 X-28.169 Y-23.845 I-2.646 J-1.61
N345 X-26.173 Y-28.223 I3.162 J-1.202
N350 X-21.818 Y-26.178 I1.166 J3.176
N355 X-26.774 Y-21.048 I-3.294 J1.776
N360 X-23.308 Y-29.077 I1.733 J-4.014
N365 X-21.628 Y-27.795 I-1.733 J4.014
N370 X-27.605 Y-20.261 I-3.541 J3.329
N375 X-29.484 Y-28.237 I2.558 J-4.812
N380 X-21.331 Y-29.057 I4.436 J3.164
N385 X-27.974 Y-19.178 I-3.845 J4.588
N390 X-23.431 Y-31.438 I2.885 J-5.902
N395 X-18.364 Y-22.238 I-1.745 J6.956
N400 X-27.906 Y-17.85 I-6.812 J-2.244
N405 X-22.936 Y-32.548 I2.811 J-7.239
N410 X-17.113 Y-22.118 I-2.22 J8.08
N415 X-27.636 Y-16.464 I-8.043 J-2.35
N420 X-28.882 Y-33.208 I2.46 J-8.602
N425 X-15.61 Y-25.418 I3.948 J8.476
N430 X-29.805 Y-15.957 I-9.606 J0.967
N435 X-22.875 Y-35.135 I4.707 J-9.14
N440 X-25.81 Y-13.575 I-2.249 J10.674
N445 X-31.732 Y-34.523 I0.585 J-11.477
N450 X-13.601 Y-28.423 I6.835 J9.68
N455 X-30.311 Y-13.292 I-11.606 J3.976
N460 X-28.942 Y-37.39 I5.148 J-11.795
N465 X-12.845 Y-18.836 I3.976 J12.81
N470 X-36.623 Y-16.707 I-12.5 J-5.757
N475 X-18.643 Y-37.891 I11.582 J-8.392
N480 X-26.333 Y-9.571 I-6.488 J13.442
N485 X-34.519 Y-37.5 I1.094 J-15.485
N490 X-9.557 Y-29.126 I9.635 J12.669
N495 X-31.805 Y-9.488 I-15.658 J4.682
N500 X-25.58 Y-42.083 I6.667 J-15.619
N505 X-10.652 Y-14.394 I0.581 J17.555
N510 X-42.182 Y-18.332 I-14.724 J-10.306
N515 X-16.127 Y-41.26 I17.166 J-6.761
N520 X-27.74 Y-5.543 I-9.019 J16.814
N525 X-36.085 Y-41.49 I2.506 J-19.523
N530 X-5.092 Y-28.384 I11.205 J16.701
N535 X-35.647 Y-7.045 I-19.935 J4.
N540 X-15.153 Y-43.434 I10.609 J-17.991
N545 X-17.526 Y-5.466 I-9.805 J18.445
N550 G1 X-17.611 Y-5.446 F#104
N555 X-17.7 Y-5.442
N560 X-17.787 Y-5.453
N565 X-17.872 Y-5.479
N570 X-17.95 Y-5.52
N575 X-18.02 Y-5.575
N580 X-18.079 Y-5.641
N585 X-18.126 Y-5.716
N590 X-18.158 Y-5.799
N595 X-18.176 Y-5.886
N600 X-18.177 Y-5.975
N605 X-18.163 Y-6.063
N610 X-18.133 Y-6.124 Z-9.985
N615 X-18.104 Y-6.183 Z-9.971
N620 X-18.076 Y-6.241 Z-9.949
N625 X-18.02 Y-6.29 Z-9.908
N630 X-17.97 Y-6.334 Z-9.856
N635 X-17.928 Y-6.371 Z-9.793
N640 X-17.891 Y-6.388 Z-9.731
N645 X-17.863 Y-6.4 Z-9.664
N650 X-17.845 Y-6.409 Z-9.593
N655 X-17.837 Y-6.411 Z-9.542
N660 X-17.835 Y-6.412 Z-9.49
N665 G0 Z-8.49
N670 X-25.004 Y-28.398
N675 G1 Z-8.99 F#103
N680 S3800
N685 G3 X-21.631 Y-24.561 Z-9.906 I0.004 J3.398 F#107
N690 X-25.776 Y-21.784 Z-10.822 I-3.29 J-0.429
N695 X-27.935 Y-26.149 Z-11.738 I0.835 J-3.129
N700 X-23.438 Y-27.68 Z-12.653 I2.919 J1.206
N705 X-22.531 Y-23.14 Z-13.569 I-1.537 J2.668
N710 X-27.031 Y-22.842 Z-14.485 I-2.381 J-1.824
N715 X-26.747 Y-27.222 Z-15.401 I2.063 J-2.066
N720 X-22.558 Y-26.391 Z-16.317 I1.73 J2.252
N725 X-23.891 Y-22.461 Z-17.233 I-2.39 J1.381
N730 X-27.506 Y-24.242 Z-18.148 I-1.027 J-2.476
N735 X-25.334 Y-27.494 Z-19.064 I2.512 J-0.674
N740 X-22.484 Y-24.995 Z-19.98 I0.329 J2.499
N745 X-27.526 I-2.521 J0.
N750 X-22.484 I2.521 J0.
N755 S4000
N760 X-22.555 Y-23.119 I-4.636 J0.764 F#100
N765 X-28.169 Y-23.845 I-2.646 J-1.61
N770 X-26.173 Y-28.223 I3.162 J-1.202
N775 X-21.818 Y-26.178 I1.166 J3.176
N780 X-26.774 Y-21.048 I-3.294 J1.776
N785 X-23.308 Y-29.077 I1.733 J-4.014
N790 X-21.628 Y-27.795 I-1.733 J4.014
N795 X-27.605 Y-20.261 I-3.541 J3.329
N800 X-29.484 Y-28.237 I2.558 J-4.812
N805 X-21.331 Y-29.057 I4.436 J3.164
N810 X-27.974 Y-19.178 I-3.845 J4.588
N815 X-23.431 Y-31.438 I2.885 J-5.902
N820 X-18.364 Y-22.238 I-1.745 J6.956
N825 X-27.906 Y-17.85 I-6.812 J-2.244
N830 X-22.936 Y-32.548 I2.811 J-7.239
N835 X-17.113 Y-22.118 I-2.22 J8.08
N840 X-27.636 Y-16.464 I-8.043 J-2.35
N845 X-28.882 Y-33.208 I2.46 J-8.602
N850 X-15.61 Y-25.418 I3.948 J8.476
N855 X-29.805 Y-15.957 I-9.606 J0.967
N860 X-22.875 Y-35.135 I4.707 J-9.14
N865 X-25.81 Y-13.575 I-2.249 J10.674
N870 X-31.732 Y-34.523 I0.585 J-11.477
N875 X-13.601 Y-28.423 I6.835 J9.68
N880 X-30.311 Y-13.292 I-11.606 J3.976
N885 X-28.942 Y-37.39 I5.148 J-11.795
N890 X-12.845 Y-18.836 I3.976 J12.81
N895 X-36.623 Y-16.707 I-12.5 J-5.757
N900 X-18.643 Y-37.891 I11.582 J-8.392
N905 X-26.333 Y-9.571 I-6.488 J13.442
N910 X-34.519 Y-37.5 I1.094 J-15.485
N915 X-9.557 Y-29.126 I9.635 J12.669
N920 X-31.805 Y-9.488 I-15.658 J4.682
N925 X-25.58 Y-42.083 I6.667 J-15.619
N930 X-10.652 Y-14.394 I0.581 J17.555
N935 X-42.182 Y-18.332 I-14.724 J-10.306
N940 X-16.127 Y-41.26 I17.166 J-6.761
N945 X-27.74 Y-5.543 I-9.019 J16.814
N950 X-36.085 Y-41.49 I2.506 J-19.523
N955 X-5.092 Y-28.384 I11.205 J16.701
N960 X-35.647 Y-7.045 I-19.935 J4.
N965 X-15.153 Y-43.434 I10.609 J-17.991
N970 X-17.526 Y-5.466 I-9.805 J18.445
N975 G1 X-17.611 Y-5.446 F#104
N980 X-17.7 Y-5.442
N985 X-17.787 Y-5.453
N990 X-17.872 Y-5.479
N995 X-17.95 Y-5.52
N1000 X-18.02 Y-5.575
N1005 X-18.079 Y-5.641
N1010 X-18.126 Y-5.716
N1015 X-18.158 Y-5.799
N1020 X-18.176 Y-5.886
N1025 X-18.177 Y-5.975
N1030 X-18.163 Y-6.063
N1035 X-18.133 Y-6.124 Z-19.975
N1040 X-18.104 Y-6.183 Z-19.961
N1045 X-18.076 Y-6.241 Z-19.939
N1050 X-18.02 Y-6.29 Z-19.898
N1055 X-17.97 Y-6.334 Z-19.846
N1060 X-17.928 Y-6.371 Z-19.783
N1065 X-17.891 Y-6.388 Z-19.721
N1070 X-17.863 Y-6.4 Z-19.654
N1075 X-17.845 Y-6.409 Z-19.583
N1080 X-17.837 Y-6.411 Z-19.532
N1085 X-17.835 Y-6.412 Z-19.48
N1090 G0 Z-18.48
N1095 X-25.004 Y-28.398
N1100 G1 Z-18.98 F#103
N1105 S3800
N1110 G3 X-21.631 Y-24.561 Z-19.896 I0.004 J3.398 F#107
N1115 X-25.776 Y-21.784 Z-20.812 I-3.29 J-0.429
N1120 X-27.935 Y-26.149 Z-21.728 I0.835 J-3.129
N1125 X-23.438 Y-27.68 Z-22.643 I2.919 J1.206
N1130 X-22.531 Y-23.14 Z-23.559 I-1.537 J2.668
N1135 X-27.031 Y-22.842 Z-24.475 I-2.381 J-1.824
N1140 X-26.747 Y-27.222 Z-25.391 I2.063 J-2.066
N1145 X-22.558 Y-26.391 Z-26.307 I1.73 J2.252
N1150 X-23.891 Y-22.461 Z-27.222 I-2.39 J1.381
N1155 X-27.506 Y-24.242 Z-28.138 I-1.027 J-2.476
N1160 X-25.334 Y-27.494 Z-29.054 I2.512 J-0.674
N1165 X-22.484 Y-24.995 Z-29.97 I0.329 J2.499
N1170 X-27.526 I-2.521 J0.
N1175 X-22.484 I2.521 J0.
N1180 S4000
N1185 X-22.555 Y-23.119 I-4.636 J0.764 F#100
N1190 X-28.169 Y-23.845 I-2.646 J-1.61
N1195 X-26.173 Y-28.223 I3.162 J-1.202
N1200 X-21.818 Y-26.178 I1.166 J3.176
N1205 X-26.774 Y-21.048 I-3.294 J1.776
N1210 X-23.308 Y-29.077 I1.733 J-4.014
N1215 X-21.628 Y-27.795 I-1.733 J4.014
N1220 X-27.605 Y-20.261 I-3.541 J3.329
N1225 X-29.484 Y-28.237 I2.558 J-4.812
N1230 X-21.331 Y-29.057 I4.436 J3.164
N1235 X-27.974 Y-19.178 I-3.845 J4.588
N1240 X-23.431 Y-31.438 I2.885 J-5.902
N1245 X-18.364 Y-22.238 I-1.745 J6.956
N1250 X-27.906 Y-17.85 I-6.812 J-2.244
N1255 X-22.936 Y-32.548 I2.811 J-7.239
N1260 X-17.113 Y-22.118 I-2.22 J8.08
N1265 X-27.636 Y-16.464 I-8.043 J-2.35
N1270 X-28.882 Y-33.208 I2.46 J-8.602
N1275 X-15.61 Y-25.418 I3.948 J8.476
N1280 X-29.805 Y-15.957 I-9.606 J0.967
N1285 X-22.875 Y-35.135 I4.707 J-9.14
N1290 X-25.81 Y-13.575 I-2.249 J10.674
N1295 X-31.732 Y-34.523 I0.585 J-11.477
N1300 X-13.601 Y-28.423 I6.835 J9.68
N1305 X-30.311 Y-13.292 I-11.606 J3.976
N1310 X-28.942 Y-37.39 I5.148 J-11.795
N1315 X-12.845 Y-18.836 I3.976 J12.81
N1320 X-36.623 Y-16.707 I-12.5 J-5.757
N1325 X-18.643 Y-37.891 I11.582 J-8.392
N1330 X-26.333 Y-9.571 I-6.488 J13.442
N1335 X-34.519 Y-37.5 I1.094 J-15.485
N1340 X-9.557 Y-29.126 I9.635 J12.669
N1345 X-31.805 Y-9.488 I-15.658 J4.682
N1350 X-25.58 Y-42.083 I6.667 J-15.619
N1355 X-10.652 Y-14.394 I0.581 J17.555
N1360 X-42.182 Y-18.332 I-14.724 J-10.306
N1365 X-16.127 Y-41.26 I17.166 J-6.761
N1370 X-27.74 Y-5.543 I-9.019 J16.814
N1375 X-36.085 Y-41.49 I2.506 J-19.523
N1380 X-5.092 Y-28.384 I11.205 J16.701
N1385 X-35.647 Y-7.045 I-19.935 J4.
N1390 X-15.153 Y-43.434 I10.609 J-17.991
N1395 X-17.526 Y-5.466 I-9.805 J18.445
N1400 G1 X-17.611 Y-5.446 F#104
N1405 X-17.7 Y-5.442
N1410 X-17.787 Y-5.453
N1415 X-17.872 Y-5.479
N1420 X-17.95 Y-5.52
N1425 X-18.02 Y-5.575
N1430 X-18.079 Y-5.641
N1435 X-18.126 Y-5.716
N1440 X-18.158 Y-5.799
N1445 X-18.176 Y-5.886
N1450 X-18.177 Y-5.975
N1455 X-18.163 Y-6.063
N1460 X-18.133 Y-6.124 Z-29.965
N1465 X-18.104 Y-6.183 Z-29.951
N1470 X-18.076 Y-6.241 Z-29.929
N1475 X-18.02 Y-6.29 Z-29.888
N1480 X-17.97 Y-6.334 Z-29.836
N1485 X-17.928 Y-6.371 Z-29.773
N1490 X-17.891 Y-6.388 Z-29.711
N1495 X-17.863 Y-6.4 Z-29.644
N1500 X-17.845 Y-6.409 Z-29.573
N1505 X-17.837 Y-6.411 Z-29.522
N1510 X-17.835 Y-6.412 Z-29.47
N1515 G0 Z-28.47
N1520 X-27.354 Y-22.89
N1525 G1 Z-28.97 F#103
N1530 S3800
N1535 G3 X-26.932 Y-27.502 Z-29.793 I2.354 J-2.11 F#107
N1540 X-22.468 Y-26.762 Z-30.616 I1.889 J2.445
N1545 X-23.507 Y-22.465 Z-31.439 I-2.517 J1.665
N1550 X-27.616 Y-23.783 Z-32.262 I-1.442 J-2.569
N1555 X-26.041 Y-27.688 Z-33.085 I2.602 J-1.22
N1560 X-22.356 Y-25.878 Z-33.908 I1.001 J2.618
N1565 X-24.377 Y-22.425 Z-34.731 I-2.615 J0.787
N1570 X-27.586 Y-24.634 Z-35.554 I-0.578 J-2.596
N1575 X-25.215 Y-27.591 Z-36.377 I2.56 J-0.377
N1580 X-22.515 Y-25.082 Z-37.2 I0.184 J2.509
N1585 X-27.548 I-2.516 J0.
N1590 X-22.515 I2.516 J0.
N1595 S4000
N1600 X-22.587 Y-23.206 I-4.612 J0.762 F#100
N1605 X-28.193 Y-23.94 I-2.64 J-1.61
N1610 X-26.188 Y-28.308 I3.16 J-1.195
N1615 X-21.844 Y-26.249 I1.155 J3.174
N1620 X-26.805 Y-21.145 I-3.293 J1.762
N1625 X-23.336 Y-29.155 I1.734 J-4.005
N1630 X-21.843 Y-28.088 I-1.734 J4.005
N1635 X-27.895 Y-20.503 I-3.367 J3.52
N1640 X-29.41 Y-28.447 I2.824 J-4.655
N1645 X-21.351 Y-29.134 I4.339 J3.289
N1650 X-28.008 Y-19.276 I-3.852 J4.575
N1655 X-22.725 Y-31.292 I2.902 J-5.893
N1660 X-18.613 Y-21.76 I-2.483 J6.724
N1665 X-28.332 Y-18.115 I-6.596 J-2.807
N1670 X-25.146 Y-32.911 I3.189 J-7.054
N1675 X-21.545 Y-17.058 I0.02 J8.331
N1680 X-33.159 Y-29.077 I-3.767 J-7.98
N1685 X-17.96 Y-30.894 I8.18 J3.948
N1690 X-28.281 Y-15.417 I-7.235 J6.355
N1695 X-26.392 Y-35.343 I3.109 J-9.758
N1700 X-15.591 Y-19.417 I1.358 J10.705
N1705 X-35.209 Y-19.517 I-9.783 J-5.315
N1710 X-19.184 Y-35.209 I10.152 J-5.661
N1715 X-27.649 Y-12.556 I-5.994 J10.668
N1720 X-31.611 Y-36.284 I2.415 J-12.598
N1725 X-11.763 Y-26.347 I6.682 J11.443
N1730 X-31.932 Y-12.669 I-13.501 J1.801
N1735 X-25.803 Y-39.409 I6.776 J-12.519
N1740 X-16.032 Y-12.805 I0.744 J14.823
N1745 X-40.698 Y-24.566 I-9.366 J-12.104
N1750 X-14.861 Y-37.156 I15.699 J-0.59
N1755 X-28.515 Y-8.566 I-10.326 J12.624
N1760 X-34.648 Y-39.207 I3.266 J-16.588
N1765 X-7.846 Y-27.865 I9.734 J14.337
N1770 X-32.79 Y-8.493 I-17.408 J3.331
N1775 X-28.016 Y-43.318 I7.613 J-16.696
N1780 X-8.998 Y-14.536 I3.011 J18.685
N1785 X-42.572 Y-15.901 I-16.4 J-10.206
N1790 X-16.541 Y-43.089 I17.515 J-9.286
N1795 X-33.762 Y-5.985 I-8.61 J18.552
N1800 X-39.59 Y-10.051 I8.61 J-18.552
N1805 X-10.39 Y-39.994 I14.6 J-14.971
N1810 X-12.788 Y-8.039 I-14.6 J14.972
N1815 X-22.842 Y-4.192 I-12.077 J-16.505
N1820 G1 X-22.928 Y-4.197 F#104
N1825 X-23.012 Y-4.217
N1830 X-23.092 Y-4.251
N1835 X-23.164 Y-4.299
N1840 X-23.227 Y-4.358
N1845 X-23.279 Y-4.427
N1850 X-23.319 Y-4.504
N1855 X-23.344 Y-4.586
N1860 X-23.355 Y-4.672
N1865 X-23.351 Y-4.759
N1870 X-23.332 Y-4.843
N1875 X-23.299 Y-4.923
N1880 X-23.252 Y-4.996
N1885 X-23.194 Y-5.06
N1890 X-23.125 Y-5.113
N1895 X-23.049 Y-5.153
N1900 X-22.966 Y-5.179
N1905 X-22.88 Y-5.191
N1910 X-22.87
N1915 X-22.783 Y-5.194 Z-37.192
N1920 X-22.699 Y-5.196 Z-37.17
N1925 X-22.62 Y-5.198 Z-37.133
N1930 X-22.548 Y-5.2 Z-37.083
N1935 X-22.487 Y-5.202 Z-37.021
N1940 X-22.437 Y-5.203 Z-36.95
N1945 X-22.4 Y-5.204 Z-36.871
N1950 X-22.377 Y-5.205 Z-36.787
N1955 X-22.37 Z-36.7
N1960 G0 Z0.2
(2D ADAPTIVE5 2)
N1970 M9
N1975 G0 X-22.079 Y-25.542
N1980 #100=800. (CUTTING)
N1985 #103=600. (ENTRY)
N1990 #104=600. (EXIT)
N1995 #105=3000. (DIRECT)
N2000 #107=600. (RAMPING)
N2005 Z0.2
N2010 Z-34.7
N2015 G1 Z-35.2 F#103
N2020 S3800
N2025 G3 X-24.016 Y-22.196 Z-35.867 I-2.921 J0.542 F#107
N2030 X-27.549 Y-23.57 Z-36.533 I-0.965 J-2.749
N2035 X-26.75 Y-27.198 Z-37.2 I2.517 J-1.348
N2040 X-23.118 Y-26.971 Z-37.867 I1.683 J2.234
N2045 X-22.792 Y-23.422 Z-38.533 I-1.908 J1.965
N2050 X-26.175 Y-22.573 Z-39.2 I-2.187 J-1.55
N2055 X-27.504 Y-25.716 Z-39.867 I1.17 J-2.347
N2060 X-24.666 Y-27.473 Z-40.533 I2.444 J0.778
N2065 X-22.544 Y-24.995 Z-41.2 I-0.385 J2.477
N2070 X-27.558 I-2.507 J0.
N2075 X-22.544 I2.507 J0.
N2080 S4000
N2085 X-22.621 Y-23.12 I-4.432 J0.757 F#100
N2090 X-28.14 Y-23.693 I-2.623 J-1.598
N2095 X-26.274 Y-28.186 I3.086 J-1.352
N2100 X-21.864 Y-26.132 I1.221 J3.141
N2105 X-26.834 Y-21.076 I-3.292 J1.734
N2110 X-28.837 Y-27.284 I1.734 J-3.987
N2115 X-22.427 Y-28.493 I3.738 J2.221
N2120 X-21.394 Y-21.512 I-2.83 J3.986
N2125 X-28.412 Y-20.774 I-3.863 J-2.995
N2130 X-29.218 Y-28.601 I3.325 J-4.297
N2135 X-21.361 Y-29.026 I4.131 J3.53
N2140 X-28.043 Y-19.211 I-3.865 J4.551
N2145 X-22.374 Y-31.039 I2.922 J-5.872
N2150 X-18.734 Y-21.48 I-2.855 J6.56
N2155 X-28.371 Y-18.053 I-6.495 J-3.
N2160 X-26.016 Y-32.754 I3.198 J-7.026
N2165 X-18.396 Y-19.69 I0.914 J8.221
N2170 X-33.424 Y-21.656 I-6.988 J-5.009
N2175 X-19.547 Y-32.233 I8.361 J-3.423
N2180 X-27.792 Y-15.198 I-5.661 J7.773
N2185 X-26.373 Y-35.244 I2.598 J-9.889
N2190 X-15.12 Y-20.411 I1.331 J10.676
N2195 X-34.551 Y-18.38 I-10.26 J-4.195
N2200 X-19.77 Y-35.406 I9.461 J-6.714
N2205 X-27.014 Y-12.376 I-5.42 J10.949
N2210 X-30.28 Y-36.867 I1.769 J-12.699
N2215 X-11.681 Y-24.69 I5.323 J12.161
N2220 X-32.672 Y-13.016 I-13.623 J0.215
N2225 X-22.524 Y-39.106 I7.527 J-12.091
N2230 X-20.568 Y-10.32 I-2.601 J14.636
N2235 X-38.987 Y-32.18 I-4.794 J-14.65
N2240 X-12.376 Y-34.478 I14.024 J7.177
N2245 X-32.448 Y-9.796 I-12.877 J10.03
N2250 G1 X-32.518 Y-9.843 F#104
N2255 X-32.579 Y-9.901
N2260 X-32.628 Y-9.969
N2265 X-32.665 Y-10.046
N2270 X-32.689 Y-10.127
N2275 X-32.697 Y-10.212
N2280 X-32.69 Y-10.298
N2285 X-32.668 Y-10.381
N2290 X-32.631 Y-10.459
N2295 X-32.582 Y-10.53
N2300 X-32.52 Y-10.591
N2305 X-32.448 Y-10.64
N2310 X-32.368 Y-10.676
N2315 X-32.283 Y-10.697
N2320 X-32.195 Y-10.703
N2325 X-32.108 Y-10.694
N2330 X-32.023 Y-10.669
N2335 X-31.968 Y-10.646
N2340 X-30.33 Y-9.965 F#105
N2345 X-30.29 Y-9.948 F#103
N2350 G3 X-30.633 Y-9.01 I-0.192 J0.462
N2355 X-34.341 Y-10.847 I4.793 J-14.33 F#100
N2360 G1 X-34.406 Y-10.906 F#104
N2365 X-34.46 Y-10.976
N2370 X-34.5 Y-11.055
N2375 X-34.526 Y-11.139
N2380 X-34.537 Y-11.226
N2385 X-34.532 Y-11.315
N2390 X-34.512 Y-11.401
N2395 X-34.477 Y-11.482
N2400 X-34.428 Y-11.555
N2405 X-34.366 Y-11.619
N2410 X-34.294 Y-11.671
N2415 X-34.214 Y-11.709
N2420 X-34.129 Y-11.733
N2425 X-34.041 Y-11.741
N2430 X-33.952 Y-11.733
N2435 X-33.867 Y-11.71
N2440 X-33.786 Y-11.672
N2445 X-33.737 Y-11.643
N2450 X-32.617 Y-10.98 F#105
N2455 X-32.578 Y-10.957 F#103
N2460 G3 X-33.046 Y-10.075 I-0.255 J0.43
N2465 X-16.942 Y-39.945 I8.052 J-14.935 F#100
N2470 X-30.385 Y-8.922 I-8.052 J14.935
N2475 G1 X-30.462 Y-8.96 F#104
N2480 X-30.532 Y-9.012
N2485 X-30.591 Y-9.074
N2490 X-30.639 Y-9.146
N2495 X-30.674 Y-9.226
N2500 X-30.695 Y-9.31
N2505 X-30.701 Y-9.396
N2510 X-30.692 Y-9.482
N2515 X-30.668 Y-9.565
N2520 X-30.63 Y-9.643
N2525 X-30.579 Y-9.713
N2530 X-30.517 Y-9.774
N2535 X-30.446 Y-9.822
N2540 X-30.367 Y-9.858
N2545 X-30.283 Y-9.88
N2550 X-30.197 Y-9.886
N2555 X-30.111 Y-9.878
N2560 X-30.027 Y-9.855
N2565 X-30.017 Y-9.851
N2570 X-29.936 Y-9.82 Z-41.192
N2575 X-29.858 Y-9.789 Z-41.17
N2580 X-29.785 Y-9.76 Z-41.133
N2585 X-29.718 Y-9.733 Z-41.083
N2590 X-29.661 Y-9.711 Z-41.021
N2595 X-29.614 Y-9.692 Z-40.95
N2600 X-29.58 Y-9.679 Z-40.871
N2605 X-29.559 Y-9.671 Z-40.787
N2610 X-29.552 Y-9.668 Z-40.7
N2615 G0 Z0.2
N2625 M9
N2630 G53 Z0.
N2635 M30
%
