%
(1001)
(T10  D=6. CR=0. - ZMIN=-41.2 - FLAT END MILL)
N10 G90 G94 G17 G91.1
N15 G21
N20 G53 G0 Z0.
(FACE1)
N25 M9
N30 T10 M6
N35 S4000 M3
N40 G54
N45 M9
N55 G0 X7.298 Y-50.036
N60 G43 Z2. H10
N65 #100=800. (CUTTING)
N70 #102=800. (FINISH)
N75 #103=600. (ENTRY)
N80 #104=600. (EXIT)
N85 G18 G3 X5.298 Z0. I-2. K0. F#103
N90 G1 X4. F#100
N95 X-54. F#102
N100 G17 G2 Y-45.123 I0. J2.457 F#100
N105 G1 X4. F#102
N110 G3 Y-40.209 I0. J2.457 F#100
N115 G1 X-54. F#102
N120 G2 Y-35.295 I0. J2.457 F#100
N125 G1 X4. F#102
N130 G3 Y-30.382 I0. J2.457 F#100
N135 G1 X-54. F#102
N140 G2 Y-25.468 I0. J2.457 F#100
N145 G1 X4. F#102
N150 G3 Y-20.555 I0. J2.457 F#100
N155 G1 X-54. F#102
N160 G2 Y-15.641 I0. J2.457 F#100
N165 G1 X4. F#102
N170 G3 Y-10.727 I0. J2.457 F#100
N175 G1 X-54. F#102
N180 G2 Y-5.814 I0. J2.457 F#100
N185 G1 X4. F#102
N190 G3 Y-0.9 I0. J2.457 F#100
N195 G1 X-54. F#102
N200 G18 G3 X-56. Z2. I0. K2. F#104
N205 G17
(2D ADAPTIVE5)
N210 M9
N215 G0 X-25.004 Y-28.398
N220 #100=800. (CUTTING)
N225 #103=600. (ENTRY)
N230 #104=600. (EXIT)
N235 #105=3000. (DIRECT)
N240 #107=600. (RAMPING)
N245 Z2.
N250 Z1.5
N255 G1 Z1. F#103
N260 S3800
N265 G3 X-21.631 Y-24.561 Z0.084 I0.004 J3.398 F#107
N270 X-25.776 Y-21.784 Z-0.832 I-3.29 J-0.429
N275 X-27.935 Y-26.149 Z-1.747 I0.835 J-3.129
N280 X-23.438 Y-27.68 Z-2.663 I2.919 J1.206
N285 X-22.531 Y-23.14 Z-3.579 I-1.537 J2.668
N290 X-27.031 Y-22.842 Z-4.495 I-2.381 J-1.824
N295 X-26.747 Y-27.222 Z-5.411 I2.063 J-2.066
N300 X-22.558 Y-26.391 Z-6.327 I1.73 J2.252
N305 X-23.891 Y-22.461 Z-7.242 I-2.39 J1.381
N310 X-27.506 Y-24.242 Z-8.158 I-1.027 J-2.476
N315 X-25.334 Y-27.494 Z-9.074 I2.512 J-0.674
N320 X-22.484 Y-24.995 Z-9.99 I0.329 J2.499
N325 X-27.526 I-2.521 J0.
N330 X-22.484 I2.521 J0.
N335 S4000
N340 X-22.388 Y-23.468 I-2.551 J0.927 F#100
N345 X-27.299 Y-22.54 I-2.749 J-1.09
N350 X-22.737 Y-27.547 I2.281 J-2.503
N355 X-21.909 Y-26.388 I-2.281 J2.503
N360 X-26.227 Y-20.851 I-3.132 J2.009
N365 X-23.881 Y-29.267 I1.173 J-4.208
N370 X-22.272 Y-28.427 I-1.173 J4.208
N375 X-27.748 Y-20.333 I-2.879 J3.952
N380 X-29.565 Y-28.121 I2.698 J-4.736
N385 X-21.661 Y-29.338 I4.516 J3.052
N390 X-27.499 Y-18.959 I-3.47 J4.88
N395 X-23.95 Y-31.543 I2.405 J-6.115
N400 X-18.161 Y-22.776 I-1.182 J7.074
N405 X-27.326 Y-17.64 I-6.97 J-1.692
N410 X-23.544 Y-32.689 I2.224 J-7.44
N415 X-26.462 Y-16.192 I-1.562 J8.23
N420 X-26.658 Y-33.919 I1.313 J-8.879
N425 X-15.861 Y-21.882 I1.683 J9.351
N430 X-32.75 Y-18.221 I-9.424 J-2.688
N435 X-20.81 Y-34.492 I7.7 J-6.866
N440 X-26.787 Y-13.647 I-4.298 J10.047
N445 X-32.476 Y-33.961 I1.572 J-11.394
N450 X-13.652 Y-28.681 I7.588 J9.144
N455 X-29.36 Y-12.903 I-11.511 J4.248
N460 X-27.097 Y-37.828 I4.215 J-12.183
N465 X-14.648 Y-15.856 I2.114 J13.315
N470 X-38.637 Y-20.655 I-10.7 J-8.871
N475 X-17.454 Y-37.265 I13.635 J-4.424
N480 X-26.509 Y-9.561 I-7.65 J12.832
N485 X-34.335 Y-37.639 I1.292 J-15.49
N490 X-9.236 Y-28.048 I9.462 J12.876
N495 X-32.543 Y-9.812 I-15.968 J3.604
N500 X-24.634 Y-42.086 I7.422 J-15.287
N505 X-8.273 Y-19.116 I-0.316 J17.537
N510 X-39.836 Y-14.111 I-17.048 J-5.485
N515 X-18.847 Y-42.447 I14.787 J-10.988
N520 X-23.636 Y-5.438 I-6.228 J18.008
N525 X-40.315 Y-37.639 I-1.628 J-19.576
N530 X-7.52 Y-34.872 I15.44 J12.734
N535 X-30.653 Y-4.682 I-17.636 J10.444
N540 X-40.296 Y-10.339 I4.771 J-19.182
N545 G1 X-40.348 Y-10.408 F#104
N550 X-40.386 Y-10.485
N555 X-40.41 Y-10.569
N560 X-40.419 Y-10.655
N565 X-40.413 Y-10.742
N570 X-40.391 Y-10.826
N575 X-40.355 Y-10.905
N580 X-40.305 Y-10.977
N585 X-40.243 Y-11.039
N590 X-40.17 Y-11.089
N595 X-40.09 Y-11.125
N600 X-40.005 Y-11.147
N605 X-39.917 Y-11.153
N610 X-39.829 Y-11.144
N615 X-39.744 Y-11.118
N620 X-39.664 Y-11.079
N625 X-39.593 Y-11.025
N630 X-39.553 Y-10.989
N635 X-37.728 Y-9.312 F#105
N640 X-37.696 Y-9.282 F#103
N645 G3 X-38.34 Y-8.518 I-0.338 J0.368
N650 G1 X-38.787 Y-8.89 F#100
N655 X-39.223 Y-9.274
N660 X-39.649 Y-9.67
N665 X-40.064 Y-10.077
N670 X-40.468 Y-10.496
N675 X-40.86 Y-10.926
N680 X-41.24 Y-11.366
N685 X-41.608 Y-11.816
N690 X-41.963 Y-12.277
N695 X-42.305 Y-12.747
N700 X-42.635 Y-13.226
N705 X-42.951 Y-13.714
N710 X-43.254 Y-14.21
N715 X-43.543 Y-14.715
N720 X-43.819 Y-15.227
N725 X-44.08 Y-15.747
N730 X-44.326 Y-16.273
N735 X-44.559 Y-16.806
N740 X-44.776 Y-17.346
N745 X-44.979 Y-17.891
N750 X-45.166 Y-18.441
N755 X-45.339 Y-18.997
N760 X-45.496 Y-19.556
N765 X-45.638 Y-20.12
N770 X-45.764 Y-20.688
N775 X-45.875 Y-21.259
N780 X-45.97 Y-21.833
N785 X-46.049 Y-22.409
N790 X-46.112 Y-22.987
N795 X-46.16 Y-23.567
N800 X-46.192 Y-24.147
N805 X-46.207 Y-24.729
N810 Y-25.31
N815 X-46.191 Y-25.891
N820 X-46.159 Y-26.472
N825 X-46.111 Y-27.052
N830 X-46.047 Y-27.63
N835 X-45.967 Y-28.206
N840 X-45.872 Y-28.779
N845 X-45.761 Y-29.35
N850 X-45.634 Y-29.918
N855 X-45.492 Y-30.482
N860 X-45.334 Y-31.041
N865 X-45.161 Y-31.597
N870 X-44.973 Y-32.147
N875 X-44.77 Y-32.692
N880 X-44.552 Y-33.231
N885 X-44.32 Y-33.764
N890 X-44.073 Y-34.29
N895 X-43.811 Y-34.81
N900 X-43.536 Y-35.322
N905 X-43.246 Y-35.826
N910 X-42.943 Y-36.322
N915 X-42.626 Y-36.81
N920 X-42.296 Y-37.289
N925 X-41.953 Y-37.759
N930 X-41.598 Y-38.219
N935 X-41.229 Y-38.669
N940 X-40.849 Y-39.109
N945 X-40.457 Y-39.538
N950 X-40.053 Y-39.956
N955 X-39.638 Y-40.364
N960 X-39.211 Y-40.759
N965 X-38.774 Y-41.143
N970 X-38.327 Y-41.515
N975 X-37.87 Y-41.874
N980 X-37.403 Y-42.221
N985 X-36.927 Y-42.554
N990 X-36.441 Y-42.875
N995 X-35.948 Y-43.182
N1000 X-35.446 Y-43.475
N1005 X-34.936 Y-43.755
N1010 X-34.418 Y-44.02
N1015 X-33.894 Y-44.272
N1020 X-33.363 Y-44.508
N1025 X-32.825 Y-44.731
N1030 X-32.282 Y-44.938
N1035 X-31.733 Y-45.13
N1040 X-31.179 Y-45.307
N1045 X-30.621 Y-45.469
N1050 X-30.058 Y-45.616
N1055 X-29.491 Y-45.747
N1060 X-28.921 Y-45.863
N1065 X-28.348 Y-45.963
N1070 X-27.773 Y-46.047
N1075 X-27.196 Y-46.115
N1080 X-26.616 Y-46.168
N1085 X-26.036 Y-46.204
N1090 X-25.455 Y-46.225
N1095 X-24.873 Y-46.23
N1100 X-24.292 Y-46.219
N1105 X-23.711 Y-46.191
N1110 X-23.131 Y-46.148
N1115 X-22.553 Y-46.09
N1120 X-21.976 Y-46.015
N1125 X-21.401 Y-45.924
N1130 X-20.83 Y-45.818
N1135 X-20.261 Y-45.696
N1140 X-19.696 Y-45.559
N1145 X-19.135 Y-45.406
N1150 X-18.578 Y-45.238
N1155 X-18.026 Y-45.055
N1160 X-17.48 Y-44.856
N1165 X-16.939 Y-44.643
N1170 X-16.404 Y-44.415
N1175 X-15.875 Y-44.172
N1180 X-15.353 Y-43.915
N1185 X-14.839 Y-43.644
N1190 X-14.332 Y-43.359
N1195 X-13.833 Y-43.06
N1200 X-13.343 Y-42.748
N1205 X-12.861 Y-42.422
N1210 X-12.389 Y-42.083
N1215 X-11.926 Y-41.731
N1220 X-11.472 Y-41.367
N1225 X-11.029 Y-40.99
N1230 X-10.597 Y-40.602
N1235 X-10.175 Y-40.201
N1240 X-9.764 Y-39.79
N1245 X-9.365 Y-39.367
N1250 X-8.977 Y-38.933
N1255 X-8.602 Y-38.489
N1260 X-8.238 Y-38.035
N1265 X-7.888 Y-37.571
N1270 X-7.55 Y-37.098
N1275 X-7.225 Y-36.615
N1280 X-6.914 Y-36.124
N1285 X-6.616 Y-35.624
N1290 X-6.332 Y-35.117
N1295 X-6.063 Y-34.602
N1300 X-5.807 Y-34.079
N1305 X-5.566 Y-33.55
N1310 X-5.339 Y-33.015
N1315 X-5.127 Y-32.473
N1320 X-4.93 Y-31.926
N1325 X-4.748 Y-31.374
N1330 X-4.581 Y-30.817
N1335 X-4.43 Y-30.255
N1340 X-4.294 Y-29.69
N1345 X-4.173 Y-29.121
N1350 X-4.068 Y-28.549
N1355 X-3.979 Y-27.974
N1360 X-3.906 Y-27.397
N1365 X-3.849 Y-26.819
N1370 X-3.807 Y-26.239
N1375 X-3.781 Y-25.658
N1380 X-3.772 Y-25.076
N1385 X-3.778 Y-24.495
N1390 X-3.8 Y-23.914
N1395 X-3.838 Y-23.333
N1400 X-3.892 Y-22.754
N1405 X-3.962 Y-22.177
N1410 X-4.047 Y-21.602
N1415 X-4.148 Y-21.029
N1420 X-4.265 Y-20.459
N1425 X-4.398 Y-19.893
N1430 X-4.546 Y-19.331
N1435 X-4.709 Y-18.773
N1440 X-4.888 Y-18.219
N1445 X-5.082 Y-17.671
N1450 X-5.29 Y-17.128
N1455 X-5.514 Y-16.591
N1460 X-5.752 Y-16.061
N1465 X-6.004 Y-15.537
N1470 X-6.271 Y-15.02
N1475 X-6.552 Y-14.511
N1480 X-6.846 Y-14.009
N1485 X-7.155 Y-13.516
N1490 X-7.476 Y-13.032
N1495 X-7.811 Y-12.556
N1500 X-8.159 Y-12.09
N1505 X-8.519 Y-11.634
N1510 X-8.892 Y-11.188
N1515 X-9.277 Y-10.752
N1520 X-9.674 Y-10.326
N1525 X-10.082 Y-9.912
N1530 X-10.501 Y-9.509
N1535 X-10.932 Y-9.118
N1540 X-11.372 Y-8.739
N1545 X-11.823 Y-8.372
N1550 X-12.284 Y-8.017
N1555 X-12.755 Y-7.675
N1560 X-13.235 Y-7.346
N1565 X-13.723 Y-7.031
N1570 X-14.22 Y-6.729
N1575 X-14.725 Y-6.441
N1580 X-15.238 Y-6.166
N1585 X-15.758 Y-5.906
N1590 X-16.285 Y-5.66
N1595 X-16.819 Y-5.429
N1600 X-17.358 Y-5.212
N1605 X-17.904 Y-5.011
N1610 X-18.454 Y-4.824
N1615 X-19.01 Y-4.652
N1620 X-19.57 Y-4.496
N1625 X-20.134 Y-4.355
N1630 X-20.702 Y-4.23
N1635 X-21.273 Y-4.12
N1640 X-21.847 Y-4.026
N1645 X-22.424 Y-3.948
N1650 X-23.002 Y-3.886
N1655 X-23.581 Y-3.839
N1660 X-24.162 Y-3.808
N1665 X-24.743 Y-3.794
N1670 X-25.325 Y-3.795
N1675 X-25.906 Y-3.812
N1680 X-26.487 Y-3.845
N1685 X-27.066 Y-3.894
N1690 X-27.644 Y-3.959
N1695 X-28.22 Y-4.04
N1700 X-28.794 Y-4.136
N1705 X-29.364 Y-4.248
N1710 X-29.932 Y-4.376
N1715 X-30.495 Y-4.519
N1720 X-31.055 Y-4.677
N1725 X-31.61 Y-4.851
N1730 X-32.16 Y-5.04
N1735 X-32.704 Y-5.244
N1740 X-33.243 Y-5.463
N1745 X-33.776 Y-5.696
N1750 X-34.302 Y-5.944
N1755 X-34.821 Y-6.207
N1760 X-35.332 Y-6.483
N1765 X-35.836 Y-6.774
N1770 X-36.332 Y-7.078
N1775 X-36.819 Y-7.395
N1780 X-37.297 Y-7.726
N1785 X-37.767 Y-8.07
N1790 X-38.226 Y-8.426
N1795 X-38.287 Y-8.491 F#104
N1800 X-38.336 Y-8.565
N1805 X-38.37 Y-8.647
N1810 X-38.39 Y-8.734
N1815 X-38.394 Y-8.822
N1820 X-38.382 Y-8.911
N1825 X-38.354 Y-8.995
N1830 X-38.312 Y-9.074
N1835 X-38.257 Y-9.143
N1840 X-38.19 Y-9.202
N1845 X-38.114 Y-9.248
N1850 X-38.03 Y-9.28
N1855 X-37.962 Y-9.289 Z-9.985
N1860 X-37.895 Y-9.299 Z-9.971
N1865 X-37.825 Y-9.285 Z-9.944
N1870 X-37.76 Y-9.271 Z-9.907
N1875 X-37.701 Y-9.26 Z-9.86
N1880 X-37.656 Y-9.232 Z-9.803
N1885 X-37.618 Y-9.209 Z-9.739
N1890 X-37.59 Y-9.191 Z-9.668
N1895 X-37.571 Y-9.18 Z-9.593
N1900 X-37.565 Y-9.174 Z-9.542
N1905 X-37.563 Y-9.173 Z-9.49
N1910 G0 Z-8.49
N1915 X-25.004 Y-28.398
N1920 G1 Z-8.99 F#103
N1925 S3800
N1930 G3 X-21.631 Y-24.561 Z-9.906 I0.004 J3.398 F#107
N1935 X-25.776 Y-21.784 Z-10.822 I-3.29 J-0.429
N1940 X-27.935 Y-26.149 Z-11.738 I0.835 J-3.129
N1945 X-23.438 Y-27.68 Z-12.653 I2.919 J1.206
N1950 X-22.531 Y-23.14 Z-13.569 I-1.537 J2.668
N1955 X-27.031 Y-22.842 Z-14.485 I-2.381 J-1.824
N1960 X-26.747 Y-27.222 Z-15.401 I2.063 J-2.066
N1965 X-22.558 Y-26.391 Z-16.317 I1.73 J2.252
N1970 X-23.891 Y-22.461 Z-17.233 I-2.39 J1.381
N1975 X-27.506 Y-24.242 Z-18.148 I-1.027 J-2.476
N1980 X-25.334 Y-27.494 Z-19.064 I2.512 J-0.674
N1985 X-22.484 Y-24.995 Z-19.98 I0.329 J2.499
N1990 X-27.526 I-2.521 J0.
N1995 X-22.484 I2.521 J0.
N2000 S4000
N2005 X-22.388 Y-23.468 I-2.551 J0.927 F#100
N2010 X-27.299 Y-22.54 I-2.749 J-1.09
N2015 X-22.737 Y-27.547 I2.281 J-2.503
N2020 X-21.909 Y-26.388 I-2.281 J2.503
N2025 X-26.227 Y-20.851 I-3.132 J2.009
N2030 X-23.881 Y-29.267 I1.173 J-4.208
N2035 X-22.272 Y-28.427 I-1.173 J4.208
N2040 X-27.748 Y-20.333 I-2.879 J3.952
N2045 X-29.565 Y-28.121 I2.698 J-4.736
N2050 X-21.661 Y-29.338 I4.516 J3.052
N2055 X-27.499 Y-18.959 I-3.47 J4.88
N2060 X-23.95 Y-31.543 I2.405 J-6.115
N2065 X-18.161 Y-22.776 I-1.182 J7.074
N2070 X-27.326 Y-17.64 I-6.97 J-1.692
N2075 X-23.544 Y-32.689 I2.224 J-7.44
N2080 X-26.462 Y-16.192 I-1.562 J8.23
N2085 X-26.658 Y-33.919 I1.313 J-8.879
N2090 X-15.861 Y-21.882 I1.683 J9.351
N2095 X-32.75 Y-18.221 I-9.424 J-2.688
N2100 X-20.81 Y-34.492 I7.7 J-6.866
N2105 X-26.787 Y-13.647 I-4.298 J10.047
N2110 X-32.476 Y-33.961 I1.572 J-11.394
N2115 X-13.652 Y-28.681 I7.588 J9.144
N2120 X-29.36 Y-12.903 I-11.511 J4.248
N2125 X-27.097 Y-37.828 I4.215 J-12.183
N2130 X-14.648 Y-15.856 I2.114 J13.315
N2135 X-38.637 Y-20.655 I-10.7 J-8.871
N2140 X-17.454 Y-37.265 I13.635 J-4.424
N2145 X-26.509 Y-9.561 I-7.65 J12.832
N2150 X-34.335 Y-37.639 I1.292 J-15.49
N2155 X-9.236 Y-28.048 I9.462 J12.876
N2160 X-32.543 Y-9.812 I-15.968 J3.604
N2165 X-24.634 Y-42.086 I7.422 J-15.287
N2170 X-8.273 Y-19.116 I-0.316 J17.537
N2175 X-39.836 Y-14.111 I-17.048 J-5.485
N2180 X-18.847 Y-42.447 I14.787 J-10.988
N2185 X-23.636 Y-5.438 I-6.228 J18.008
N2190 X-40.315 Y-37.639 I-1.628 J-19.576
N2195 X-7.52 Y-34.872 I15.44 J12.734
N2200 X-30.653 Y-4.682 I-17.636 J10.444
N2205 X-40.296 Y-10.339 I4.771 J-19.182
N2210 G1 X-40.348 Y-10.408 F#104
N2215 X-40.386 Y-10.485
N2220 X-40.41 Y-10.569
N2225 X-40.419 Y-10.655
N2230 X-40.413 Y-10.742
N2235 X-40.391 Y-10.826
N2240 X-40.355 Y-10.905
N2245 X-40.305 Y-10.977
N2250 X-40.243 Y-11.039
N2255 X-40.17 Y-11.089
N2260 X-40.09 Y-11.125
N2265 X-40.005 Y-11.147
N2270 X-39.917 Y-11.153
N2275 X-39.829 Y-11.144
N2280 X-39.744 Y-11.118
N2285 X-39.664 Y-11.079
N2290 X-39.593 Y-11.025
N2295 X-39.553 Y-10.989
N2300 X-37.728 Y-9.312 F#105
N2305 X-37.696 Y-9.282 F#103
N2310 G3 X-38.34 Y-8.518 I-0.338 J0.368
N2315 G1 X-38.787 Y-8.89 F#100
N2320 X-39.223 Y-9.274
N2325 X-39.649 Y-9.67
N2330 X-40.064 Y-10.077
N2335 X-40.468 Y-10.496
N2340 X-40.86 Y-10.926
N2345 X-41.24 Y-11.366
N2350 X-41.608 Y-11.816
N2355 X-41.963 Y-12.277
N2360 X-42.305 Y-12.747
N2365 X-42.635 Y-13.226
N2370 X-42.951 Y-13.714
N2375 X-43.254 Y-14.21
N2380 X-43.543 Y-14.715
N2385 X-43.819 Y-15.227
N2390 X-44.08 Y-15.747
N2395 X-44.326 Y-16.273
N2400 X-44.559 Y-16.806
N2405 X-44.776 Y-17.346
N2410 X-44.979 Y-17.891
N2415 X-45.166 Y-18.441
N2420 X-45.339 Y-18.997
N2425 X-45.496 Y-19.556
N2430 X-45.638 Y-20.12
N2435 X-45.764 Y-20.688
N2440 X-45.875 Y-21.259
N2445 X-45.97 Y-21.833
N2450 X-46.049 Y-22.409
N2455 X-46.112 Y-22.987
N2460 X-46.16 Y-23.567
N2465 X-46.192 Y-24.147
N2470 X-46.207 Y-24.729
N2475 Y-25.31
N2480 X-46.191 Y-25.891
N2485 X-46.159 Y-26.472
N2490 X-46.111 Y-27.052
N2495 X-46.047 Y-27.63
N2500 X-45.967 Y-28.206
N2505 X-45.872 Y-28.779
N2510 X-45.761 Y-29.35
N2515 X-45.634 Y-29.918
N2520 X-45.492 Y-30.482
N2525 X-45.334 Y-31.041
N2530 X-45.161 Y-31.597
N2535 X-44.973 Y-32.147
N2540 X-44.77 Y-32.692
N2545 X-44.552 Y-33.231
N2550 X-44.32 Y-33.764
N2555 X-44.073 Y-34.29
N2560 X-43.811 Y-34.81
N2565 X-43.536 Y-35.322
N2570 X-43.246 Y-35.826
N2575 X-42.943 Y-36.322
N2580 X-42.626 Y-36.81
N2585 X-42.296 Y-37.289
N2590 X-41.953 Y-37.759
N2595 X-41.598 Y-38.219
N2600 X-41.229 Y-38.669
N2605 X-40.849 Y-39.109
N2610 X-40.457 Y-39.538
N2615 X-40.053 Y-39.956
N2620 X-39.638 Y-40.364
N2625 X-39.211 Y-40.759
N2630 X-38.774 Y-41.143
N2635 X-38.327 Y-41.515
N2640 X-37.87 Y-41.874
N2645 X-37.403 Y-42.221
N2650 X-36.927 Y-42.554
N2655 X-36.441 Y-42.875
N2660 X-35.948 Y-43.182
N2665 X-35.446 Y-43.475
N2670 X-34.936 Y-43.755
N2675 X-34.418 Y-44.02
N2680 X-33.894 Y-44.272
N2685 X-33.363 Y-44.508
N2690 X-32.825 Y-44.731
N2695 X-32.282 Y-44.938
N2700 X-31.733 Y-45.13
N2705 X-31.179 Y-45.307
N2710 X-30.621 Y-45.469
N2715 X-30.058 Y-45.616
N2720 X-29.491 Y-45.747
N2725 X-28.921 Y-45.863
N2730 X-28.348 Y-45.963
N2735 X-27.773 Y-46.047
N2740 X-27.196 Y-46.115
N2745 X-26.616 Y-46.168
N2750 X-26.036 Y-46.204
N2755 X-25.455 Y-46.225
N2760 X-24.873 Y-46.23
N2765 X-24.292 Y-46.219
N2770 X-23.711 Y-46.191
N2775 X-23.131 Y-46.148
N2780 X-22.553 Y-46.09
N2785 X-21.976 Y-46.015
N2790 X-21.401 Y-45.924
N2795 X-20.83 Y-45.818
N2800 X-20.261 Y-45.696
N2805 X-19.696 Y-45.559
N2810 X-19.135 Y-45.406
N2815 X-18.578 Y-45.238
N2820 X-18.026 Y-45.055
N2825 X-17.48 Y-44.856
N2830 X-16.939 Y-44.643
N2835 X-16.404 Y-44.415
N2840 X-15.875 Y-44.172
N2845 X-15.353 Y-43.915
N2850 X-14.839 Y-43.644
N2855 X-14.332 Y-43.359
N2860 X-13.833 Y-43.06
N2865 X-13.343 Y-42.748
N2870 X-12.861 Y-42.422
N2875 X-12.389 Y-42.083
N2880 X-11.926 Y-41.731
N2885 X-11.472 Y-41.367
N2890 X-11.029 Y-40.99
N2895 X-10.597 Y-40.602
N2900 X-10.175 Y-40.201
N2905 X-9.764 Y-39.79
N2910 X-9.365 Y-39.367
N2915 X-8.977 Y-38.933
N2920 X-8.602 Y-38.489
N2925 X-8.238 Y-38.035
N2930 X-7.888 Y-37.571
N2935 X-7.55 Y-37.098
N2940 X-7.225 Y-36.615
N2945 X-6.914 Y-36.124
N2950 X-6.616 Y-35.624
N2955 X-6.332 Y-35.117
N2960 X-6.063 Y-34.602
N2965 X-5.807 Y-34.079
N2970 X-5.566 Y-33.55
N2975 X-5.339 Y-33.015
N2980 X-5.127 Y-32.473
N2985 X-4.93 Y-31.926
N2990 X-4.748 Y-31.374
N2995 X-4.581 Y-30.817
N3000 X-4.43 Y-30.255
N3005 X-4.294 Y-29.69
N3010 X-4.173 Y-29.121
N3015 X-4.068 Y-28.549
N3020 X-3.979 Y-27.974
N3025 X-3.906 Y-27.397
N3030 X-3.849 Y-26.819
N3035 X-3.807 Y-26.239
N3040 X-3.781 Y-25.658
N3045 X-3.772 Y-25.076
N3050 X-3.778 Y-24.495
N3055 X-3.8 Y-23.914
N3060 X-3.838 Y-23.333
N3065 X-3.892 Y-22.754
N3070 X-3.962 Y-22.177
N3075 X-4.047 Y-21.602
N3080 X-4.148 Y-21.029
N3085 X-4.265 Y-20.459
N3090 X-4.398 Y-19.893
N3095 X-4.546 Y-19.331
N3100 X-4.709 Y-18.773
N3105 X-4.888 Y-18.219
N3110 X-5.082 Y-17.671
N3115 X-5.29 Y-17.128
N3120 X-5.514 Y-16.591
N3125 X-5.752 Y-16.061
N3130 X-6.004 Y-15.537
N3135 X-6.271 Y-15.02
N3140 X-6.552 Y-14.511
N3145 X-6.846 Y-14.009
N3150 X-7.155 Y-13.516
N3155 X-7.476 Y-13.032
N3160 X-7.811 Y-12.556
N3165 X-8.159 Y-12.09
N3170 X-8.519 Y-11.634
N3175 X-8.892 Y-11.188
N3180 X-9.277 Y-10.752
N3185 X-9.674 Y-10.326
N3190 X-10.082 Y-9.912
N3195 X-10.501 Y-9.509
N3200 X-10.932 Y-9.118
N3205 X-11.372 Y-8.739
N3210 X-11.823 Y-8.372
N3215 X-12.284 Y-8.017
N3220 X-12.755 Y-7.675
N3225 X-13.235 Y-7.346
N3230 X-13.723 Y-7.031
N3235 X-14.22 Y-6.729
N3240 X-14.725 Y-6.441
N3245 X-15.238 Y-6.166
N3250 X-15.758 Y-5.906
N3255 X-16.285 Y-5.66
N3260 X-16.819 Y-5.429
N3265 X-17.358 Y-5.212
N3270 X-17.904 Y-5.011
N3275 X-18.454 Y-4.824
N3280 X-19.01 Y-4.652
N3285 X-19.57 Y-4.496
N3290 X-20.134 Y-4.355
N3295 X-20.702 Y-4.23
N3300 X-21.273 Y-4.12
N3305 X-21.847 Y-4.026
N3310 X-22.424 Y-3.948
N3315 X-23.002 Y-3.886
N3320 X-23.581 Y-3.839
N3325 X-24.162 Y-3.808
N3330 X-24.743 Y-3.794
N3335 X-25.325 Y-3.795
N3340 X-25.906 Y-3.812
N3345 X-26.487 Y-3.845
N3350 X-27.066 Y-3.894
N3355 X-27.644 Y-3.959
N3360 X-28.22 Y-4.04
N3365 X-28.794 Y-4.136
N3370 X-29.364 Y-4.248
N3375 X-29.932 Y-4.376
N3380 X-30.495 Y-4.519
N3385 X-31.055 Y-4.677
N3390 X-31.61 Y-4.851
N3395 X-32.16 Y-5.04
N3400 X-32.704 Y-5.244
N3405 X-33.243 Y-5.463
N3410 X-33.776 Y-5.696
N3415 X-34.302 Y-5.944
N3420 X-34.821 Y-6.207
N3425 X-35.332 Y-6.483
N3430 X-35.836 Y-6.774
N3435 X-36.332 Y-7.078
N3440 X-36.819 Y-7.395
N3445 X-37.297 Y-7.726
N3450 X-37.767 Y-8.07
N3455 X-38.226 Y-8.426
N3460 X-38.287 Y-8.491 F#104
N3465 X-38.336 Y-8.565
N3470 X-38.37 Y-8.647
N3475 X-38.39 Y-8.734
N3480 X-38.394 Y-8.822
N3485 X-38.382 Y-8.911
N3490 X-38.354 Y-8.995
N3495 X-38.312 Y-9.074
N3500 X-38.257 Y-9.143
N3505 X-38.19 Y-9.202
N3510 X-38.114 Y-9.248
N3515 X-38.03 Y-9.28
N3520 X-37.962 Y-9.289 Z-19.975
N3525 X-37.895 Y-9.299 Z-19.961
N3530 X-37.825 Y-9.285 Z-19.934
N3535 X-37.76 Y-9.271 Z-19.897
N3540 X-37.701 Y-9.26 Z-19.85
N3545 X-37.656 Y-9.232 Z-19.793
N3550 X-37.618 Y-9.209 Z-19.729
N3555 X-37.59 Y-9.191 Z-19.658
N3560 X-37.571 Y-9.18 Z-19.583
N3565 X-37.565 Y-9.174 Z-19.532
N3570 X-37.563 Y-9.173 Z-19.48
N3575 G0 Z-18.48
N3580 X-25.004 Y-28.398
N3585 G1 Z-18.98 F#103
N3590 S3800
N3595 G3 X-21.631 Y-24.561 Z-19.896 I0.004 J3.398 F#107
N3600 X-25.776 Y-21.784 Z-20.812 I-3.29 J-0.429
N3605 X-27.935 Y-26.149 Z-21.728 I0.835 J-3.129
N3610 X-23.438 Y-27.68 Z-22.643 I2.919 J1.206
N3615 X-22.531 Y-23.14 Z-23.559 I-1.537 J2.668
N3620 X-27.031 Y-22.842 Z-24.475 I-2.381 J-1.824
N3625 X-26.747 Y-27.222 Z-25.391 I2.063 J-2.066
N3630 X-22.558 Y-26.391 Z-26.307 I1.73 J2.252
N3635 X-23.891 Y-22.461 Z-27.222 I-2.39 J1.381
N3640 X-27.506 Y-24.242 Z-28.138 I-1.027 J-2.476
N3645 X-25.334 Y-27.494 Z-29.054 I2.512 J-0.674
N3650 X-22.484 Y-24.995 Z-29.97 I0.329 J2.499
N3655 X-27.526 I-2.521 J0.
N3660 X-22.484 I2.521 J0.
N3665 S4000
N3670 X-22.525 Y-23.169 I-5.068 J0.8 F#100
N3675 X-28.073 Y-23.608 I-2.669 J-1.541
N3680 X-26.352 Y-28.152 I3.064 J-1.438
N3685 X-21.862 Y-26.292 I1.343 J3.107
N3690 X-26.911 Y-21.109 I-3.26 J1.876
N3695 X-23.163 Y-29.015 I1.874 J-3.953
N3700 X-21.505 Y-27.642 I-1.874 J3.953
N3705 X-27.508 Y-20.214 I-3.651 J3.189
N3710 X-29.892 Y-27.578 I2.443 J-4.859
N3715 X-22.497 Y-29.866 I4.826 J2.506
N3720 X-19.985 Y-21.49 I-2.7 J5.374
N3725 X-28.49 Y-19.458 I-5.212 J-3.001
N3730 X-22.479 Y-31.129 I3.418 J-5.623
N3735 X-18.589 Y-21.641 I-2.701 J6.649
N3740 X-28.157 Y-17.95 I-6.591 J-2.84
N3745 X-22.659 Y-32.468 I3.067 J-7.138
N3750 X-27.465 Y-16.412 I-2.495 J8.
N3755 X-26.63 Y-33.927 I2.317 J-8.667
N3760 X-16.077 Y-21.346 I1.63 J9.349
N3765 X-32.774 Y-18.258 I-9.23 J-3.222
N3770 X-20.259 Y-34.226 I7.727 J-6.833
N3775 X-27.464 Y-13.778 I-4.889 J9.771
N3780 X-30.829 Y-35.107 I2.263 J-11.287
N3785 X-13.04 Y-25.98 I5.921 J10.359
N3790 X-30.727 Y-13.477 I-12.181 J1.53
N3795 X-23.383 Y-37.896 I5.616 J-11.625
N3800 X-18.864 Y-12.464 I-1.681 J13.416
N3805 X-38.865 Y-28.626 I-6.471 J-12.449
N3810 X-14.803 Y-35.218 I13.915 J3.581
N3815 X-29.08 Y-10.012 I-10.365 J10.776
N3820 X-33.553 Y-38.185 I3.873 J-15.056
N3825 X-9.087 Y-27.079 I8.658 J13.428
N3830 X-33.468 Y-10.31 I-16.156 J2.619
N3835 X-23.573 Y-42.03 I8.353 J-14.798
N3840 X-9.759 Y-15.809 I-1.426 J17.501
N3845 X-41.712 Y-17.27 I-15.605 J-8.863
N3850 X-16.988 Y-41.68 I16.681 J-7.831
N3855 X-25.734 Y-5.396 I-8.137 J17.235
N3860 X-38.27 Y-39.771 I0.483 J-19.649
N3865 X-6.229 Y-32.193 I13.391 J14.907
N3870 X-32.755 Y-5.381 I-18.979 J7.751
N3875 X-43.349 Y-14.394 I6.942 J-18.894
N3880 G1 X-43.382 Y-14.474 F#104
N3885 X-43.4 Y-14.559
N3890 X-43.402 Y-14.646
N3895 X-43.39 Y-14.732
N3900 X-43.362 Y-14.815
N3905 X-43.32 Y-14.891
N3910 X-43.264 Y-14.959
N3915 X-43.198 Y-15.016
N3920 X-43.122 Y-15.061
N3925 X-43.04 Y-15.091
N3930 X-42.953 Y-15.106
N3935 X-42.865
N3940 X-42.778 Y-15.09
N3945 X-42.695 Y-15.059
N3950 X-42.619 Y-15.014
N3955 X-42.552 Y-14.956
N3960 X-42.496 Y-14.886
N3965 X-42.466 Y-14.84
N3970 X-41.362 Y-13.151 F#105
N3975 X-41.339 Y-13.116 F#103
N3980 G3 X-42.151 Y-12.534 I-0.418 J0.274
N3985 G1 X-42.486 Y-13.009 F#100
N3990 X-42.808 Y-13.492
N3995 X-43.117 Y-13.985
N4000 X-43.412 Y-14.485
N4005 X-43.693 Y-14.993
N4010 X-43.96 Y-15.509
N4015 X-44.213 Y-16.032
N4020 X-44.452 Y-16.562
N4025 X-44.676 Y-17.098
N4030 X-44.885 Y-17.64
N4035 X-45.079 Y-18.188
N4040 X-45.258 Y-18.74
N4045 X-45.422 Y-19.298
N4050 X-45.571 Y-19.859
N4055 X-45.704 Y-20.425
N4060 X-45.822 Y-20.994
N4065 X-45.924 Y-21.566
N4070 X-46.011 Y-22.14
N4075 X-46.081 Y-22.717
N4080 X-46.136 Y-23.295
N4085 X-46.175 Y-23.875
N4090 X-46.198 Y-24.455
N4095 X-46.205 Y-25.036
N4100 X-46.197 Y-25.617
N4105 X-46.172 Y-26.198
N4110 X-46.132 Y-26.777
N4115 X-46.075 Y-27.356
N4120 X-46.003 Y-27.932
N4125 X-45.915 Y-28.506
N4130 X-45.812 Y-29.078
N4135 X-45.692 Y-29.647
N4140 X-45.558 Y-30.212
N4145 X-45.408 Y-30.773
N4150 X-45.242 Y-31.33
N4155 X-45.061 Y-31.882
N4160 X-44.866 Y-32.429
N4165 X-44.655 Y-32.971
N4170 X-44.43 Y-33.506
N4175 X-44.19 Y-34.035
N4180 X-43.935 Y-34.558
N4185 X-43.667 Y-35.073
N4190 X-43.384 Y-35.581
N4195 X-43.088 Y-36.08
N4200 X-42.778 Y-36.572
N4205 X-42.455 Y-37.054
N4210 X-42.119 Y-37.528
N4215 X-41.769 Y-37.993
N4220 X-41.408 Y-38.447
N4225 X-41.034 Y-38.892
N4230 X-40.647 Y-39.326
N4235 X-40.25 Y-39.749
N4240 X-39.84 Y-40.162
N4245 X-39.42 Y-40.562
N4250 X-38.989 Y-40.952
N4255 X-38.547 Y-41.329
N4260 X-38.095 Y-41.694
N4265 X-37.633 Y-42.047
N4270 X-37.162 Y-42.387
N4275 X-36.682 Y-42.714
N4280 X-36.193 Y-43.027
N4285 X-35.695 Y-43.327
N4290 X-35.19 Y-43.613
N4295 X-34.676 Y-43.886
N4300 X-34.156 Y-44.144
N4305 X-33.629 Y-44.388
N4310 X-33.095 Y-44.617
N4315 X-32.555 Y-44.832
N4320 X-32.009 Y-45.032
N4325 X-31.459 Y-45.216
N4330 X-30.903 Y-45.386
N4335 X-30.343 Y-45.54
N4340 X-29.779 Y-45.679
N4345 X-29.211 Y-45.803
N4350 X-28.64 Y-45.911
N4355 X-28.066 Y-46.003
N4360 X-27.49 Y-46.079
N4365 X-26.913 Y-46.14
N4370 X-26.333 Y-46.185
N4375 X-25.753 Y-46.214
N4380 X-25.172 Y-46.227
N4385 X-24.591 Y-46.224
N4390 X-24.011 Y-46.205
N4395 X-23.431 Y-46.17
N4400 X-22.852 Y-46.12
N4405 X-22.275 Y-46.053
N4410 X-21.7 Y-45.971
N4415 X-21.127 Y-45.873
N4420 X-20.557 Y-45.76
N4425 X-19.991 Y-45.631
N4430 X-19.428 Y-45.486
N4435 X-18.869 Y-45.326
N4440 X-18.315 Y-45.151
N4445 X-17.766 Y-44.961
N4450 X-17.223 Y-44.756
N4455 X-16.685 Y-44.536
N4460 X-16.154 Y-44.301
N4465 X-15.629 Y-44.052
N4470 X-15.111 Y-43.789
N4475 X-14.6 Y-43.511
N4480 X-14.098 Y-43.22
N4485 X-13.603 Y-42.915
N4490 X-13.117 Y-42.597
N4495 X-12.64 Y-42.265
N4500 X-12.172 Y-41.921
N4505 X-11.714 Y-41.563
N4510 X-11.266 Y-41.194
N4515 X-10.828 Y-40.812
N4520 X-10.401 Y-40.419
N4525 X-9.984 Y-40.013
N4530 X-9.579 Y-39.597
N4535 X-9.185 Y-39.17
N4540 X-8.804 Y-38.732
N4545 X-8.434 Y-38.284
N4550 X-8.077 Y-37.825
N4555 X-7.732 Y-37.358
N4560 X-7.4 Y-36.881
N4565 X-7.082 Y-36.395
N4570 X-6.777 Y-35.9
N4575 X-6.486 Y-35.398
N4580 X-6.208 Y-34.887
N4585 X-5.945 Y-34.369
N4590 X-5.696 Y-33.844
N4595 X-5.461 Y-33.313
N4600 X-5.241 Y-32.775
N4605 X-5.036 Y-32.232
N4610 X-4.845 Y-31.683
N4615 X-4.67 Y-31.129
N4620 X-4.51 Y-30.57
N4625 X-4.366 Y-30.008
N4630 X-4.237 Y-29.441
N4635 X-4.123 Y-28.871
N4640 X-4.025 Y-28.299
N4645 X-3.943 Y-27.724
N4650 X-3.876 Y-27.146
N4655 X-3.826 Y-26.568
N4660 X-3.791 Y-25.988
N4665 X-3.772 Y-25.407
N4670 X-3.769 Y-24.826
N4675 X-3.782 Y-24.245
N4680 X-3.811 Y-23.665
N4685 X-3.856 Y-23.086
N4690 X-3.916 Y-22.508
N4695 X-3.993 Y-21.932
N4700 X-4.085 Y-21.358
N4705 X-4.193 Y-20.787
N4710 X-4.316 Y-20.22
N4715 X-4.455 Y-19.655
N4720 X-4.609 Y-19.095
N4725 X-4.779 Y-18.54
N4730 X-4.963 Y-17.989
N4735 X-5.163 Y-17.443
N4740 X-5.378 Y-16.903
N4745 X-5.607 Y-16.369
N4750 X-5.851 Y-15.842
N4755 X-6.109 Y-15.322
N4760 X-6.381 Y-14.808
N4765 X-6.667 Y-14.303
N4770 X-6.967 Y-13.805
N4775 X-7.281 Y-13.316
N4780 X-7.608 Y-12.836
N4785 X-7.947 Y-12.364
N4790 X-8.3 Y-11.903
N4795 X-8.665 Y-11.451
N4800 X-9.042 Y-11.009
N4805 X-9.432 Y-10.578
N4810 X-9.833 Y-10.157
N4815 X-10.245 Y-9.748
N4820 X-10.668 Y-9.35
N4825 X-11.102 Y-8.964
N4830 X-11.547 Y-8.59
N4835 X-12.001 Y-8.228
N4840 X-12.466 Y-7.879
N4845 X-12.939 Y-7.542
N4850 X-13.422 Y-7.219
N4855 X-13.914 Y-6.909
N4860 X-14.413 Y-6.613
N4865 X-14.921 Y-6.33
N4870 X-15.436 Y-6.061
N4875 X-15.958 Y-5.807
N4880 X-16.487 Y-5.567
N4885 X-17.023 Y-5.342
N4890 X-17.564 Y-5.131
N4895 X-18.111 Y-4.935
N4900 X-18.664 Y-4.754
N4905 X-19.22 Y-4.589
N4910 X-19.782 Y-4.439
N4915 X-20.347 Y-4.304
N4920 X-20.915 Y-4.185
N4925 X-21.487 Y-4.081
N4930 X-22.061 Y-3.993
N4935 X-22.638 Y-3.921
N4940 X-23.216 Y-3.864
N4945 X-23.796 Y-3.824
N4950 X-24.376 Y-3.799
N4955 X-24.957 Y-3.79
N4960 X-25.538 Y-3.797
N4965 X-26.119 Y-3.82
N4970 X-26.698 Y-3.859
N4975 X-27.277 Y-3.914
N4980 X-27.853 Y-3.985
N4985 X-28.428 Y-4.071
N4990 X-29. Y-4.173
N4995 X-29.569 Y-4.291
N5000 X-30.134 Y-4.424
N5005 X-30.696 Y-4.573
N5010 X-31.253 Y-4.737
N5015 X-31.806 Y-4.916
N5020 X-32.353 Y-5.11
N5025 X-32.896 Y-5.319
N5030 X-33.432 Y-5.543
N5035 X-33.961 Y-5.782
N5040 X-34.484 Y-6.034
N5045 X-35. Y-6.302
N5050 X-35.509 Y-6.583
N5055 X-36.009 Y-6.878
N5060 X-36.502 Y-7.186
N5065 X-36.985 Y-7.508
N5070 X-37.46 Y-7.843
N5075 X-37.925 Y-8.191
N5080 X-38.381 Y-8.552
N5085 X-38.826 Y-8.925
N5090 X-39.261 Y-9.31
N5095 X-39.686 Y-9.706
N5100 X-40.099 Y-10.114
N5105 X-40.152 Y-10.185 F#104
N5110 X-40.19 Y-10.265
N5115 X-40.215 Y-10.349
N5120 X-40.223 Y-10.437
N5125 X-40.216 Y-10.525
N5130 X-40.194 Y-10.611
N5135 X-40.157 Y-10.691
N5140 X-40.105 Y-10.764
N5145 X-40.042 Y-10.826
N5150 X-39.969 Y-10.876
N5155 X-39.888 Y-10.913
N5160 X-39.801 Y-10.934
N5165 X-39.727 Y-10.94 Z-29.964
N5170 X-39.659 Y-10.926 Z-29.949
N5175 X-39.594 Y-10.913 Z-29.923
N5180 X-39.534 Y-10.901 Z-29.889
N5185 X-39.48 Y-10.864 Z-29.838
N5190 X-39.434 Y-10.833 Z-29.778
N5195 X-39.397 Y-10.808 Z-29.709
N5200 X-39.37 Y-10.789 Z-29.635
N5205 X-39.358 Y-10.777 Z-29.573
N5210 X-39.353 Y-10.771 Z-29.522
N5215 X-39.351 Y-10.769 Z-29.47
N5220 G0 Z-28.47
N5225 X-27.354 Y-22.89
N5230 G1 Z-28.97 F#103
N5235 S3800
N5240 G3 X-26.932 Y-27.502 Z-29.793 I2.354 J-2.11 F#107
N5245 X-22.468 Y-26.762 Z-30.616 I1.889 J2.445
N5250 X-23.507 Y-22.465 Z-31.439 I-2.517 J1.665
N5255 X-27.616 Y-23.783 Z-32.262 I-1.442 J-2.569
N5260 X-26.041 Y-27.688 Z-33.085 I2.602 J-1.22
N5265 X-22.356 Y-25.878 Z-33.908 I1.001 J2.618
N5270 X-24.377 Y-22.425 Z-34.731 I-2.615 J0.787
N5275 X-27.586 Y-24.634 Z-35.554 I-0.578 J-2.596
N5280 X-25.215 Y-27.591 Z-36.377 I2.56 J-0.377
N5285 X-22.515 Y-25.082 Z-37.2 I0.184 J2.509
N5290 X-27.548 I-2.516 J0.
N5295 X-22.515 I2.516 J0.
N5300 S4000
N5305 X-22.557 Y-23.256 I-5.041 J0.797 F#100
N5310 X-28.097 Y-23.702 I-2.664 J-1.541
N5315 X-26.366 Y-28.239 I3.062 J-1.43
N5320 X-21.888 Y-26.363 I1.331 J3.106
N5325 X-26.942 Y-21.205 I-3.26 J1.861
N5330 X-23.186 Y-29.093 I1.878 J-3.944
N5335 X-21.53 Y-27.717 I-1.878 J3.944
N5340 X-27.54 Y-20.311 I-3.652 J3.178
N5345 X-23.083 Y-30.197 I2.441 J-4.847
N5350 X-19.874 Y-21.845 I-2.143 J5.616
N5355 X-28.523 Y-19.557 I-5.351 J-2.736
N5360 X-22.145 Y-31.047 I3.429 J-5.612
N5365 X-28.193 Y-18.05 I-3.06 J6.482
N5370 X-23.105 Y-32.667 I3.072 J-7.125
N5375 X-17.1 Y-22.355 I-2.074 J8.112
N5380 X-27.504 Y-16.512 I-8.079 J-2.2
N5385 X-27.632 Y-33.774 I2.318 J-8.649
N5390 X-15.722 Y-22.987 I2.637 J9.057
N5395 X-31.572 Y-17.182 I-9.576 J-1.606
N5400 X-20.817 Y-34.551 I6.482 J-8.
N5405 X-26.885 Y-13.767 I-4.347 J10.008
N5410 X-30.254 Y-35.505 I1.66 J-11.387
N5415 X-13.007 Y-25.36 I5.317 J10.694
N5420 X-31.404 Y-13.91 I-12.256 J0.812
N5425 X-23.386 Y-37.975 I6.27 J-11.279
N5430 X-21.796 Y-11.436 I-1.723 J13.42
N5435 X-37.328 Y-32.435 I-3.529 J-13.634
N5440 X-13.168 Y-33.389 I12.39 J7.362
N5445 X-29.151 Y-10.116 I-12.031 J8.862
N5450 X-28.93 Y-40.297 I3.956 J-15.063
N5455 X-10.27 Y-18.065 I3.948 J15.633
N5460 X-38.591 Y-14.832 I-15.1 J-6.605
N5465 X-18.608 Y-40.941 I13.515 J-10.358
N5470 X-25.915 Y-6.887 I-6.541 J16.408
N5475 X-42.384 Y-31.383 I0.58 J-18.174
N5480 X-10.356 Y-36.513 I17.436 J6.314
N5485 X-30.094 Y-6.084 I-14.845 J11.986
N5490 X-30.872 Y-44.057 I4.886 J-19.094
N5495 X-5.338 Y-19.718 I5.921 J19.351
N5500 X-39.978 Y-10.12 I-20.007 J-4.902
N5505 X-44.544 Y-16.806 I12.865 J-13.689
N5510 G1 X-44.566 Y-16.89 F#104
N5515 X-44.574 Y-16.976
N5520 X-44.565 Y-17.062
N5525 X-44.542 Y-17.146
N5530 X-44.504 Y-17.224
N5535 X-44.453 Y-17.295
N5540 X-44.39 Y-17.355
N5545 X-44.317 Y-17.403
N5550 X-44.236 Y-17.438
N5555 X-44.151 Y-17.458
N5560 X-44.063 Y-17.463
N5565 X-43.976 Y-17.451
N5570 X-43.892 Y-17.425
N5575 X-43.813 Y-17.384
N5580 X-43.743 Y-17.329
N5585 X-43.684 Y-17.263
N5590 X-43.637 Y-17.188
N5595 X-43.613 Y-17.137
N5600 X-42.671 Y-15.21 F#105
N5605 X-42.653 Y-15.172 F#103
N5610 G3 X-43.531 Y-14.697 I-0.449 J0.22
N5615 G1 X-43.806 Y-15.208 F#100
N5620 X-44.068 Y-15.726
N5625 X-44.314 Y-16.252
N5630 X-44.547 Y-16.784
N5635 X-44.764 Y-17.322
N5640 X-44.967 Y-17.866
N5645 X-45.155 Y-18.415
N5650 X-45.328 Y-18.969
N5655 X-45.485 Y-19.528
N5660 X-45.627 Y-20.091
N5665 X-45.754 Y-20.657
N5670 X-45.865 Y-21.227
N5675 X-45.961 Y-21.8
N5680 X-46.041 Y-22.375
N5685 X-46.105 Y-22.952
N5690 X-46.153 Y-23.53
N5695 X-46.186 Y-24.11
N5700 X-46.202 Y-24.69
N5705 X-46.203 Y-25.271
N5710 X-46.188 Y-25.851
N5715 X-46.157 Y-26.43
N5720 X-46.11 Y-27.009
N5725 X-46.047 Y-27.586
N5730 X-45.969 Y-28.161
N5735 X-45.875 Y-28.734
N5740 X-45.765 Y-29.304
N5745 X-45.64 Y-29.871
N5750 X-45.499 Y-30.434
N5755 X-45.343 Y-30.993
N5760 X-45.172 Y-31.548
N5765 X-44.985 Y-32.098
N5770 X-44.784 Y-32.642
N5775 X-44.567 Y-33.181
N5780 X-44.336 Y-33.713
N5785 X-44.091 Y-34.239
N5790 X-43.831 Y-34.759
N5795 X-43.558 Y-35.27
N5800 X-43.27 Y-35.775
N5805 X-42.968 Y-36.271
N5810 X-42.654 Y-36.758
N5815 X-42.326 Y-37.237
N5820 X-41.984 Y-37.707
N5825 X-41.631 Y-38.167
N5830 X-41.264 Y-38.618
N5835 X-40.886 Y-39.058
N5840 X-40.496 Y-39.488
N5845 X-40.094 Y-39.906
N5850 X-39.681 Y-40.314
N5855 X-39.256 Y-40.71
N5860 X-38.821 Y-41.095
N5865 X-38.376 Y-41.467
N5870 X-37.921 Y-41.827
N5875 X-37.456 Y-42.175
N5880 X-36.982 Y-42.51
N5885 X-36.498 Y-42.831
N5890 X-36.006 Y-43.14
N5895 X-35.506 Y-43.434
N5900 X-34.998 Y-43.715
N5905 X-34.483 Y-43.982
N5910 X-33.96 Y-44.235
N5915 X-33.431 Y-44.473
N5920 X-32.895 Y-44.697
N5925 X-32.354 Y-44.906
N5930 X-31.807 Y-45.1
N5935 X-31.254 Y-45.279
N5940 X-30.697 Y-45.443
N5945 X-30.136 Y-45.591
N5950 X-29.571 Y-45.724
N5955 X-29.003 Y-45.842
N5960 X-28.431 Y-45.944
N5965 X-27.857 Y-46.031
N5970 X-27.281 Y-46.101
N5975 X-26.703 Y-46.156
N5980 X-26.124 Y-46.195
N5985 X-25.544 Y-46.218
N5990 X-24.964 Y-46.226
N5995 X-24.383 Y-46.217
N6000 X-23.803 Y-46.193
N6005 X-23.224 Y-46.153
N6010 X-22.646 Y-46.096
N6015 X-22.07 Y-46.025
N6020 X-21.496 Y-45.937
N6025 X-20.925 Y-45.834
N6030 X-20.357 Y-45.715
N6035 X-19.792 Y-45.58
N6040 X-19.231 Y-45.431
N6045 X-18.675 Y-45.265
N6050 X-18.123 Y-45.085
N6055 X-17.576 Y-44.89
N6060 X-17.035 Y-44.68
N6065 X-16.5 Y-44.455
N6070 X-15.971 Y-44.216
N6075 X-15.449 Y-43.962
N6080 X-14.934 Y-43.694
N6085 X-14.427 Y-43.412
N6090 X-13.927 Y-43.116
N6095 X-13.436 Y-42.807
N6100 X-12.954 Y-42.484
N6105 X-12.48 Y-42.148
N6110 X-12.016 Y-41.8
N6115 X-11.561 Y-41.439
N6120 X-11.117 Y-41.065
N6125 X-10.683 Y-40.68
N6130 X-10.259 Y-40.283
N6135 X-9.847 Y-39.874
N6140 X-9.446 Y-39.455
N6145 X-9.056 Y-39.024
N6150 X-8.679 Y-38.583
N6155 X-8.314 Y-38.132
N6160 X-7.961 Y-37.671
N6165 X-7.621 Y-37.2
N6170 X-7.294 Y-36.721
N6175 X-6.98 Y-36.233
N6180 X-6.68 Y-35.736
N6185 X-6.393 Y-35.231
N6190 X-6.12 Y-34.719
N6195 X-5.862 Y-34.199
N6200 X-5.617 Y-33.672
N6205 X-5.388 Y-33.139
N6210 X-5.173 Y-32.6
N6215 X-4.972 Y-32.055
N6220 X-4.787 Y-31.505
N6225 X-4.617 Y-30.95
N6230 X-4.462 Y-30.391
N6235 X-4.322 Y-29.827
N6240 X-4.198 Y-29.26
N6245 X-4.09 Y-28.69
N6250 X-3.997 Y-28.117
N6255 X-3.919 Y-27.541
N6260 X-3.858 Y-26.964
N6265 X-3.812 Y-26.385
N6270 X-3.783 Y-25.806
N6275 X-3.769 Y-25.225
N6280 X-3.771 Y-24.645
N6285 X-3.788 Y-24.065
N6290 X-3.822 Y-23.485
N6295 X-3.872 Y-22.907
N6300 X-3.937 Y-22.33
N6305 X-4.018 Y-21.755
N6310 X-4.115 Y-21.183
N6315 X-4.227 Y-20.613
N6320 X-4.355 Y-20.047
N6325 X-4.499 Y-19.485
N6330 X-4.658 Y-18.926
N6335 X-4.831 Y-18.372
N6340 X-5.021 Y-17.824
N6345 X-5.225 Y-17.28
N6350 X-5.443 Y-16.742
N6355 X-5.677 Y-16.211
N6360 X-5.925 Y-15.686
N6365 X-6.187 Y-15.168
N6370 X-6.463 Y-14.657
N6375 X-6.753 Y-14.155
N6380 X-7.057 Y-13.66
N6385 X-7.374 Y-13.174
N6390 X-7.704 Y-12.696
N6395 X-8.047 Y-12.228
N6400 X-8.403 Y-11.769
N6405 X-8.772 Y-11.321
N6410 X-9.152 Y-10.882
N6415 X-9.544 Y-10.455
N6420 X-9.948 Y-10.038
N6425 X-10.363 Y-9.632
N6430 X-10.789 Y-9.238
N6435 X-11.226 Y-8.855
N6440 X-11.673 Y-8.485
N6445 X-12.13 Y-8.127
N6450 X-12.597 Y-7.781
N6455 X-13.072 Y-7.449
N6460 X-13.557 Y-7.129
N6465 X-14.051 Y-6.824
N6470 X-14.552 Y-6.531
N6475 X-15.061 Y-6.253
N6480 X-15.578 Y-5.988
N6485 X-16.102 Y-5.738
N6490 X-16.632 Y-5.502
N6495 X-17.169 Y-5.281
N6500 X-17.712 Y-5.074
N6505 X-18.26 Y-4.883
N6510 X-18.813 Y-4.706
N6515 X-19.37 Y-4.545
N6520 X-19.932 Y-4.399
N6525 X-20.498 Y-4.269
N6530 X-21.067 Y-4.154
N6535 X-21.639 Y-4.054
N6540 X-22.213 Y-3.97
N6545 X-22.79 Y-3.902
N6550 X-23.368 Y-3.85
N6555 X-23.947 Y-3.814
N6560 X-24.527 Y-3.793
N6565 X-25.108 Y-3.789
N6570 X-25.688 Y-3.8
N6575 X-26.268 Y-3.827
N6580 X-26.847 Y-3.87
N6585 X-27.424 Y-3.929
N6590 X-28. Y-4.004
N6595 X-28.574 Y-4.094
N6600 X-29.144 Y-4.2
N6605 X-29.712 Y-4.321
N6610 X-30.276 Y-4.458
N6615 X-30.836 Y-4.611
N6620 X-31.392 Y-4.778
N6625 X-31.943 Y-4.961
N6630 X-32.489 Y-5.159
N6635 X-33.029 Y-5.372
N6640 X-33.563 Y-5.599
N6645 X-34.091 Y-5.841
N6650 X-34.611 Y-6.097
N6655 X-35.125 Y-6.368
N6660 X-35.631 Y-6.652
N6665 X-36.129 Y-6.95
N6670 X-36.619 Y-7.262
N6675 X-37.1 Y-7.586
N6680 X-37.572 Y-7.924
N6685 X-38.035 Y-8.275
N6690 X-38.488 Y-8.638
N6695 X-38.93 Y-9.014
N6700 X-39.363 Y-9.401
N6705 X-39.784 Y-9.8
N6710 X-40.195 Y-10.211
N6715 X-40.594 Y-10.632
N6720 X-40.981 Y-11.065
N6725 X-41.357 Y-11.507
N6730 X-41.72 Y-11.96
N6735 X-42.07 Y-12.423
N6740 X-42.408 Y-12.895
N6745 X-42.733 Y-13.376
N6750 X-43.045 Y-13.866
N6755 X-43.343 Y-14.364
N6760 X-43.375 Y-14.444 F#104
N6765 X-43.393 Y-14.527
N6770 X-43.396 Y-14.613
N6775 X-43.384 Y-14.698
N6780 X-43.358 Y-14.78
N6785 X-43.318 Y-14.856
N6790 X-43.266 Y-14.924
N6795 X-43.202 Y-14.982
N6800 X-43.13 Y-15.029
N6805 X-43.05 Y-15.062
N6810 X-42.966 Y-15.081
N6815 X-42.88 Y-15.085
N6820 X-42.794 Y-15.074
N6825 X-42.712 Y-15.049
N6830 X-42.635 Y-15.009
N6835 X-42.566 Y-14.957
N6840 X-42.507 Y-14.894
N6845 X-42.459 Y-14.822
N6850 X-42.454 Y-14.812
N6855 X-42.415 Y-14.735 Z-37.192
N6860 X-42.377 Y-14.66 Z-37.17
N6865 X-42.342 Y-14.589 Z-37.133
N6870 X-42.31 Y-14.525 Z-37.083
N6875 X-42.282 Y-14.47 Z-37.021
N6880 X-42.259 Y-14.426 Z-36.95
N6885 X-42.243 Y-14.393 Z-36.871
N6890 X-42.232 Y-14.373 Z-36.787
N6895 X-42.229 Y-14.366 Z-36.7
N6900 G0 Z0.2
(2D ADAPTIVE5 2)
N6910 M9
N6915 G0 X-22.079 Y-25.542
N6920 #100=800. (CUTTING)
N6925 #103=600. (ENTRY)
N6930 #104=600. (EXIT)
N6935 #105=3000. (DIRECT)
N6940 #107=600. (RAMPING)
N6945 Z0.2
N6950 Z-34.7
N6955 G1 Z-35.2 F#103
N6960 S3800
N6965 G3 X-24.016 Y-22.196 Z-35.867 I-2.921 J0.542 F#107
N6970 X-27.549 Y-23.57 Z-36.533 I-0.965 J-2.749
N6975 X-26.75 Y-27.198 Z-37.2 I2.517 J-1.348
N6980 X-23.118 Y-26.971 Z-37.867 I1.683 J2.234
N6985 X-22.792 Y-23.422 Z-38.533 I-1.908 J1.965
N6990 X-26.175 Y-22.573 Z-39.2 I-2.187 J-1.55
N6995 X-27.504 Y-25.716 Z-39.867 I1.17 J-2.347
N7000 X-24.666 Y-27.473 Z-40.533 I2.444 J0.778
N7005 X-22.544 Y-24.995 Z-41.2 I-0.385 J2.477
N7010 X-27.558 I-2.507 J0.
N7015 X-22.544 I2.507 J0.
N7020 S4000
N7025 X-22.621 Y-23.12 I-4.432 J0.757 F#100
N7030 X-28.14 Y-23.693 I-2.623 J-1.598
N7035 X-26.274 Y-28.186 I3.086 J-1.352
N7040 X-21.864 Y-26.132 I1.221 J3.141
N7045 X-26.834 Y-21.076 I-3.292 J1.734
N7050 X-28.837 Y-27.284 I1.734 J-3.987
N7055 X-22.427 Y-28.493 I3.738 J2.221
N7060 X-21.394 Y-21.512 I-2.83 J3.986
N7065 X-28.412 Y-20.774 I-3.863 J-2.995
N7070 X-29.218 Y-28.601 I3.325 J-4.297
N7075 X-21.361 Y-29.026 I4.131 J3.53
N7080 X-28.043 Y-19.211 I-3.865 J4.551
N7085 X-22.374 Y-31.039 I2.922 J-5.872
N7090 X-18.734 Y-21.48 I-2.855 J6.56
N7095 X-28.371 Y-18.053 I-6.495 J-3.
N7100 X-26.016 Y-32.754 I3.198 J-7.026
N7105 X-18.396 Y-19.69 I0.914 J8.221
N7110 X-33.424 Y-21.656 I-6.988 J-5.009
N7115 X-19.547 Y-32.233 I8.361 J-3.423
N7120 X-27.792 Y-15.198 I-5.661 J7.773
N7125 X-26.373 Y-35.244 I2.598 J-9.889
N7130 X-15.12 Y-20.411 I1.331 J10.676
N7135 X-34.551 Y-18.38 I-10.26 J-4.195
N7140 X-19.77 Y-35.406 I9.461 J-6.714
N7145 X-27.014 Y-12.376 I-5.42 J10.949
N7150 X-30.28 Y-36.867 I1.769 J-12.699
N7155 X-11.681 Y-24.69 I5.323 J12.161
N7160 X-32.672 Y-13.016 I-13.623 J0.215
N7165 X-22.524 Y-39.106 I7.527 J-12.091
N7170 X-20.568 Y-10.32 I-2.601 J14.636
N7175 X-38.987 Y-32.18 I-4.794 J-14.65
N7180 X-12.376 Y-34.478 I14.024 J7.177
N7185 X-32.448 Y-9.796 I-12.877 J10.03
N7190 G1 X-32.518 Y-9.843 F#104
N7195 X-32.579 Y-9.901
N7200 X-32.628 Y-9.969
N7205 X-32.665 Y-10.046
N7210 X-32.689 Y-10.127
N7215 X-32.697 Y-10.212
N7220 X-32.69 Y-10.298
N7225 X-32.668 Y-10.381
N7230 X-32.631 Y-10.459
N7235 X-32.582 Y-10.53
N7240 X-32.52 Y-10.591
N7245 X-32.448 Y-10.64
N7250 X-32.368 Y-10.676
N7255 X-32.283 Y-10.697
N7260 X-32.195 Y-10.703
N7265 X-32.108 Y-10.694
N7270 X-32.023 Y-10.669
N7275 X-31.968 Y-10.646
N7280 X-30.33 Y-9.965 F#105
N7285 X-30.29 Y-9.948 F#103
N7290 G3 X-30.633 Y-9.01 I-0.192 J0.462
N7295 X-34.341 Y-10.847 I4.793 J-14.33 F#100
N7300 G1 X-34.406 Y-10.906 F#104
N7305 X-34.46 Y-10.976
N7310 X-34.5 Y-11.055
N7315 X-34.526 Y-11.139
N7320 X-34.537 Y-11.226
N7325 X-34.532 Y-11.315
N7330 X-34.512 Y-11.401
N7335 X-34.477 Y-11.482
N7340 X-34.428 Y-11.555
N7345 X-34.366 Y-11.619
N7350 X-34.294 Y-11.671
N7355 X-34.214 Y-11.709
N7360 X-34.129 Y-11.733
N7365 X-34.041 Y-11.741
N7370 X-33.952 Y-11.733
N7375 X-33.867 Y-11.71
N7380 X-33.786 Y-11.672
N7385 X-33.737 Y-11.643
N7390 X-32.617 Y-10.98 F#105
N7395 X-32.578 Y-10.957 F#103
N7400 G3 X-33.046 Y-10.075 I-0.255 J0.43
N7405 X-16.942 Y-39.945 I8.052 J-14.935 F#100
N7410 X-30.385 Y-8.922 I-8.052 J14.935
N7415 G1 X-30.462 Y-8.96 F#104
N7420 X-30.532 Y-9.012
N7425 X-30.591 Y-9.074
N7430 X-30.639 Y-9.146
N7435 X-30.674 Y-9.226
N7440 X-30.695 Y-9.31
N7445 X-30.701 Y-9.396
N7450 X-30.692 Y-9.482
N7455 X-30.668 Y-9.565
N7460 X-30.63 Y-9.643
N7465 X-30.579 Y-9.713
N7470 X-30.517 Y-9.774
N7475 X-30.446 Y-9.822
N7480 X-30.367 Y-9.858
N7485 X-30.283 Y-9.88
N7490 X-30.197 Y-9.886
N7495 X-30.111 Y-9.878
N7500 X-30.027 Y-9.855
N7505 X-30.017 Y-9.851
N7510 X-29.936 Y-9.82 Z-41.192
N7515 X-29.858 Y-9.789 Z-41.17
N7520 X-29.785 Y-9.76 Z-41.133
N7525 X-29.718 Y-9.733 Z-41.083
N7530 X-29.661 Y-9.711 Z-41.021
N7535 X-29.614 Y-9.692 Z-40.95
N7540 X-29.58 Y-9.679 Z-40.871
N7545 X-29.559 Y-9.671 Z-40.787
N7550 X-29.552 Y-9.668 Z-40.7
N7555 G0 Z0.2
N7565 M9
N7570 G53 Z0.
N7575 M30
%
