%
(1001)
(6MM TWO FLUTE)
(T1  D=6. CR=0. - ZMIN=-6.2 - FLAT END MILL)
N10 G90 G94 G17 G91.1
N15 G21
N20 G53 G0 Z0.
(2D CONTOUR2 2)
N25 M9
N30 T1 M6
N35 S3200 M3
N40 G54
N45 M8
N55 G0 X-13.981 Y-152.273
N60 G43 Z4. H1
N65 #100=330. (CUTTING)
N70 #103=200. (ENTRY)
N75 #104=200. (EXIT)
N80 #108=100. (PLUNGE)
N85 G0 Z2.
N90 G1 Z1. F#103
N95 Z-5.6 F#108
N100 X-13.976 Y-152.268 Z-5.694
N105 X-13.961 Y-152.252 Z-5.785
N110 X-13.935 Y-152.227 Z-5.872
N115 X-13.9 Y-152.192 Z-5.953
N120 X-13.857 Y-152.149 Z-6.024
N125 X-13.806 Y-152.098 Z-6.085
N130 X-13.75 Y-152.041 Z-6.135
N135 X-13.688 Y-151.98 Z-6.171
N140 X-13.623 Y-151.915 Z-6.193
N145 X-13.557 Y-151.849 Z-6.2
N150 X-13.133 Y-151.424 F#103
N155 G3 X-12.957 Y-151. I-0.424 J0.424
N160 G1 Y-133.928 F#100
N165 G3 X-14.757 Y-132.889 I-1.2 J0.
N170 G1 X-44.326 Y-149.961
N175 G3 Y-152.039 I0.6 J-1.039
N180 G1 X-14.757 Y-169.111
N185 G3 X-12.957 Y-168.072 I0.6 J1.039
N190 G1 Y-150.
N195 G3 X-13.133 Y-149.576 I-0.6 J0. F#104
N200 G1 X-13.557 Y-149.151
N205 X-13.623 Y-149.085 Z-6.193
N210 X-13.688 Y-149.02 Z-6.171
N215 X-13.75 Y-148.959 Z-6.135
N220 X-13.806 Y-148.902 Z-6.085
N225 X-13.857 Y-148.851 Z-6.024
N230 X-13.9 Y-148.808 Z-5.953
N235 X-13.935 Y-148.773 Z-5.872
N240 X-13.961 Y-148.748 Z-5.785
N245 X-13.976 Y-148.732 Z-5.694
N250 X-13.981 Y-148.727 Z-5.6
N255 G0 Z2.
N260 X-31.752 Y-113.948
N265 G1 Z1. F#103
N270 Z-5.6 F#108
N275 X-31.753 Y-113.941 Z-5.694
N280 X-31.759 Y-113.92 Z-5.785
N285 X-31.768 Y-113.885 Z-5.872
N290 X-31.781 Y-113.838 Z-5.953
N295 X-31.797 Y-113.779 Z-6.024
N300 X-31.816 Y-113.709 Z-6.085
N305 X-31.836 Y-113.632 Z-6.135
N310 X-31.859 Y-113.548 Z-6.171
N315 X-31.883 Y-113.459 Z-6.193
N320 X-31.907 Y-113.369 Z-6.2
N325 X-32.062 Y-112.789 F#103
N330 G3 X-32.342 Y-112.425 I-0.58 J-0.155
N335 G1 X-47.126 Y-103.889 F#100
N340 G3 X-48.926 Y-104.928 I-0.6 J-1.039
N345 G1 Y-139.072
N350 G3 X-47.126 Y-140.111 I1.2 J0.
N355 G1 X-17.557 Y-123.039
N360 G3 Y-120.961 I-0.6 J1.039
N365 G1 X-33.208 Y-111.925
N370 G3 X-33.663 Y-111.865 I-0.3 J-0.52 F#104
N375 G1 X-34.243 Y-112.02
N380 X-34.333 Y-112.045 Z-6.193
N385 X-34.422 Y-112.068 Z-6.171
N390 X-34.506 Y-112.091 Z-6.135
N395 X-34.583 Y-112.112 Z-6.085
N400 X-34.652 Y-112.13 Z-6.024
N405 X-34.711 Y-112.146 Z-5.953
N410 X-34.759 Y-112.159 Z-5.872
N415 X-34.794 Y-112.168 Z-5.785
N420 X-34.815 Y-112.174 Z-5.694
N425 X-34.822 Y-112.176 Z-5.6
N430 G0 Z2.
N435 X-13.981 Y-94.273
N440 G1 Z1. F#103
N445 Z-5.6 F#108
N450 X-13.976 Y-94.268 Z-5.694
N455 X-13.961 Y-94.252 Z-5.785
N460 X-13.935 Y-94.227 Z-5.872
N465 X-13.9 Y-94.192 Z-5.953
N470 X-13.857 Y-94.149 Z-6.024
N475 X-13.806 Y-94.098 Z-6.085
N480 X-13.75 Y-94.041 Z-6.135
N485 X-13.688 Y-93.98 Z-6.171
N490 X-13.623 Y-93.915 Z-6.193
N495 X-13.557 Y-93.849 Z-6.2
N500 X-13.133 Y-93.424 F#103
N505 G3 X-12.957 Y-93. I-0.424 J0.424
N510 G1 Y-75.928 F#100
N515 G3 X-14.757 Y-74.889 I-1.2 J0.
N520 G1 X-44.326 Y-91.961
N525 G3 Y-94.039 I0.6 J-1.039
N530 G1 X-14.757 Y-111.111
N535 G3 X-12.957 Y-110.072 I0.6 J1.039
N540 G1 Y-92.
N545 G3 X-13.133 Y-91.576 I-0.6 J0. F#104
N550 G1 X-13.557 Y-91.151
N555 X-13.623 Y-91.085 Z-6.193
N560 X-13.688 Y-91.02 Z-6.171
N565 X-13.75 Y-90.959 Z-6.135
N570 X-13.806 Y-90.902 Z-6.085
N575 X-13.857 Y-90.851 Z-6.024
N580 X-13.9 Y-90.808 Z-5.953
N585 X-13.935 Y-90.773 Z-5.872
N590 X-13.961 Y-90.748 Z-5.785
N595 X-13.976 Y-90.732 Z-5.694
N600 X-13.981 Y-90.727 Z-5.6
N605 G0 Z2.
N610 X-33.956 Y-73.324
N615 G1 Z1. F#103
N620 Z-5.6 F#108
N625 X-33.949 Y-73.326 Z-5.694
N630 X-33.928 Y-73.332 Z-5.785
N635 X-33.893 Y-73.341 Z-5.872
N640 X-33.845 Y-73.354 Z-5.953
N645 X-33.786 Y-73.37 Z-6.024
N650 X-33.717 Y-73.388 Z-6.085
N655 X-33.64 Y-73.409 Z-6.135
N660 X-33.556 Y-73.432 Z-6.171
N665 X-33.467 Y-73.455 Z-6.193
N670 X-33.377 Y-73.48 Z-6.2
N675 X-32.797 Y-73.635 F#103
N680 G3 X-32.342 Y-73.575 I0.155 J0.58
N685 G1 X-17.557 Y-65.039 F#100
N690 G3 Y-62.961 I-0.6 J1.039
N695 G1 X-47.126 Y-45.889
N700 G3 X-48.926 Y-46.928 I-0.6 J-1.039
N705 G1 Y-81.072
N710 G3 X-47.126 Y-82.111 I1.2 J0.
N715 G1 X-31.476 Y-73.075
N720 G3 X-31.196 Y-72.711 I-0.3 J0.52 F#104
N725 G1 X-31.041 Y-72.131
N730 X-31.017 Y-72.041 Z-6.193
N735 X-30.993 Y-71.952 Z-6.171
N740 X-30.97 Y-71.868 Z-6.135
N745 X-30.95 Y-71.791 Z-6.085
N750 X-30.931 Y-71.721 Z-6.024
N755 X-30.915 Y-71.662 Z-5.953
N760 X-30.902 Y-71.615 Z-5.872
N765 X-30.893 Y-71.58 Z-5.785
N770 X-30.887 Y-71.559 Z-5.694
N775 X-30.886 Y-71.552 Z-5.6
N780 G0 Z2.
N785 X-31.752 Y-171.948
N790 G1 Z1. F#103
N795 Z-5.6 F#108
N800 X-31.753 Y-171.941 Z-5.694
N805 X-31.759 Y-171.92 Z-5.785
N810 X-31.768 Y-171.885 Z-5.872
N815 X-31.781 Y-171.838 Z-5.953
N820 X-31.797 Y-171.779 Z-6.024
N825 X-31.816 Y-171.709 Z-6.085
N830 X-31.836 Y-171.632 Z-6.135
N835 X-31.859 Y-171.548 Z-6.171
N840 X-31.883 Y-171.459 Z-6.193
N845 X-31.907 Y-171.369 Z-6.2
N850 X-32.062 Y-170.789 F#103
N855 G3 X-32.342 Y-170.425 I-0.58 J-0.155
N860 G1 X-47.126 Y-161.889 F#100
N865 G3 X-48.926 Y-162.928 I-0.6 J-1.039
N870 G1 Y-197.072
N875 G3 X-47.126 Y-198.111 I1.2 J0.
N880 G1 X-17.557 Y-181.039
N885 G3 Y-178.961 I-0.6 J1.039
N890 G1 X-33.208 Y-169.925
N895 G3 X-33.663 Y-169.865 I-0.3 J-0.52 F#104
N900 G1 X-34.243 Y-170.02
N905 X-34.333 Y-170.045 Z-6.193
N910 X-34.422 Y-170.068 Z-6.171
N915 X-34.506 Y-170.091 Z-6.135
N920 X-34.583 Y-170.112 Z-6.085
N925 X-34.652 Y-170.13 Z-6.024
N930 X-34.711 Y-170.146 Z-5.953
N935 X-34.759 Y-170.159 Z-5.872
N940 X-34.794 Y-170.168 Z-5.785
N945 X-34.815 Y-170.174 Z-5.694
N950 X-34.822 Y-170.176 Z-5.6
N955 G0 Z2.
N960 X-13.981 Y-210.273
N965 G1 Z1. F#103
N970 Z-5.6 F#108
N975 X-13.976 Y-210.268 Z-5.694
N980 X-13.961 Y-210.252 Z-5.785
N985 X-13.935 Y-210.227 Z-5.872
N990 X-13.9 Y-210.192 Z-5.953
N995 X-13.857 Y-210.149 Z-6.024
N1000 X-13.806 Y-210.098 Z-6.085
N1005 X-13.75 Y-210.041 Z-6.135
N1010 X-13.688 Y-209.98 Z-6.171
N1015 X-13.623 Y-209.915 Z-6.193
N1020 X-13.557 Y-209.849 Z-6.2
N1025 X-13.133 Y-209.424 F#103
N1030 G3 X-12.957 Y-209. I-0.424 J0.424
N1035 G1 Y-191.928 F#100
N1040 G3 X-14.757 Y-190.889 I-1.2 J0.
N1045 G1 X-44.326 Y-207.961
N1050 G3 Y-210.039 I0.6 J-1.039
N1055 G1 X-14.757 Y-227.111
N1060 G3 X-12.957 Y-226.072 I0.6 J1.039
N1065 G1 Y-208.
N1070 G3 X-13.133 Y-207.576 I-0.6 J0. F#104
N1075 G1 X-13.557 Y-207.151
N1080 X-13.623 Y-207.085 Z-6.193
N1085 X-13.688 Y-207.02 Z-6.171
N1090 X-13.75 Y-206.959 Z-6.135
N1095 X-13.806 Y-206.902 Z-6.085
N1100 X-13.857 Y-206.851 Z-6.024
N1105 X-13.9 Y-206.808 Z-5.953
N1110 X-13.935 Y-206.773 Z-5.872
N1115 X-13.961 Y-206.748 Z-5.785
N1120 X-13.976 Y-206.732 Z-5.694
N1125 X-13.981 Y-206.727 Z-5.6
N1130 G0 Z4.
N1140 M9
N1145 G53 Z0.
N1150 M30
%
