%
(1001)
(6MM TWO FLUTE)
(T1  D=6. CR=0. - ZMIN=-6.5 - FLAT END MILL)
N10 G90 G94 G17 G91.1
N15 G21
N20 G53 G0 Z0.
(2D CONTOUR2 2)
N25 M9
N30 T1 M6
N35 S3200 M3
N40 G54
N45 M8
N55 G0 X-13.681 Y-152.273
N60 G43 Z4. H1
N65 #100=330. (CUTTING)
N70 #103=200. (ENTRY)
N75 #104=200. (EXIT)
N80 #108=100. (PLUNGE)
N85 G0 Z2.
N90 G1 Z1. F#103
N95 Z-5.9 F#108
N100 X-13.676 Y-152.268 Z-5.994
N105 X-13.661 Y-152.252 Z-6.085
N110 X-13.635 Y-152.227 Z-6.172
N115 X-13.6 Y-152.192 Z-6.253
N120 X-13.557 Y-152.149 Z-6.324
N125 X-13.506 Y-152.098 Z-6.385
N130 X-13.45 Y-152.041 Z-6.435
N135 X-13.388 Y-151.98 Z-6.471
N140 X-13.323 Y-151.915 Z-6.493
N145 X-13.257 Y-151.849 Z-6.5
N150 X-12.833 Y-151.424 F#103
N155 G3 X-12.657 Y-151. I-0.424 J0.424
N160 G1 Y-133.928 F#100
N165 G3 X-14.907 Y-132.629 I-1.5 J0.
N170 G1 X-44.476 Y-149.701
N175 G3 Y-152.299 I0.75 J-1.299
N180 G1 X-14.907 Y-169.371
N185 G3 X-12.657 Y-168.072 I0.75 J1.299
N190 G1 Y-150.
N195 G3 X-12.833 Y-149.576 I-0.6 J0. F#104
N200 G1 X-13.257 Y-149.151
N205 X-13.323 Y-149.085 Z-6.493
N210 X-13.388 Y-149.02 Z-6.471
N215 X-13.45 Y-148.959 Z-6.435
N220 X-13.506 Y-148.902 Z-6.385
N225 X-13.557 Y-148.851 Z-6.324
N230 X-13.6 Y-148.808 Z-6.253
N235 X-13.635 Y-148.773 Z-6.172
N240 X-13.661 Y-148.748 Z-6.085
N245 X-13.676 Y-148.732 Z-5.994
N250 X-13.681 Y-148.727 Z-5.9
N255 G0 Z2.
N260 X-31.602 Y-113.689
N265 G1 Z1. F#103
N270 Z-5.9 F#108
N275 X-31.603 Y-113.681 Z-5.994
N280 X-31.609 Y-113.66 Z-6.085
N285 X-31.618 Y-113.625 Z-6.172
N290 X-31.631 Y-113.578 Z-6.253
N295 X-31.647 Y-113.519 Z-6.324
N300 X-31.666 Y-113.45 Z-6.385
N305 X-31.686 Y-113.372 Z-6.435
N310 X-31.709 Y-113.288 Z-6.471
N315 X-31.733 Y-113.2 Z-6.493
N320 X-31.757 Y-113.109 Z-6.5
N325 X-31.912 Y-112.529 F#103
N330 G3 X-32.192 Y-112.165 I-0.58 J-0.155
N335 G1 X-46.976 Y-103.629 F#100
N340 G3 X-49.226 Y-104.928 I-0.75 J-1.299
N345 G1 Y-139.072
N350 G3 X-46.976 Y-140.371 I1.5 J0.
N355 G1 X-17.407 Y-123.299
N360 G3 Y-120.701 I-0.75 J1.299
N365 G1 X-33.058 Y-111.665
N370 G3 X-33.513 Y-111.605 I-0.3 J-0.52 F#104
N375 G1 X-34.093 Y-111.76
N380 X-34.183 Y-111.785 Z-6.493
N385 X-34.272 Y-111.808 Z-6.471
N390 X-34.356 Y-111.831 Z-6.435
N395 X-34.433 Y-111.852 Z-6.385
N400 X-34.502 Y-111.87 Z-6.324
N405 X-34.561 Y-111.886 Z-6.253
N410 X-34.609 Y-111.899 Z-6.172
N415 X-34.644 Y-111.908 Z-6.085
N420 X-34.665 Y-111.914 Z-5.994
N425 X-34.672 Y-111.916 Z-5.9
N430 G0 Z2.
N435 X-13.681 Y-94.273
N440 G1 Z1. F#103
N445 Z-5.9 F#108
N450 X-13.676 Y-94.268 Z-5.994
N455 X-13.661 Y-94.252 Z-6.085
N460 X-13.635 Y-94.227 Z-6.172
N465 X-13.6 Y-94.192 Z-6.253
N470 X-13.557 Y-94.149 Z-6.324
N475 X-13.506 Y-94.098 Z-6.385
N480 X-13.45 Y-94.041 Z-6.435
N485 X-13.388 Y-93.98 Z-6.471
N490 X-13.323 Y-93.915 Z-6.493
N495 X-13.257 Y-93.849 Z-6.5
N500 X-12.833 Y-93.424 F#103
N505 G3 X-12.657 Y-93. I-0.424 J0.424
N510 G1 Y-75.928 F#100
N515 G3 X-14.907 Y-74.629 I-1.5 J0.
N520 G1 X-44.476 Y-91.701
N525 G3 Y-94.299 I0.75 J-1.299
N530 G1 X-14.907 Y-111.371
N535 G3 X-12.657 Y-110.072 I0.75 J1.299
N540 G1 Y-92.
N545 G3 X-12.833 Y-91.576 I-0.6 J0. F#104
N550 G1 X-13.257 Y-91.151
N555 X-13.323 Y-91.085 Z-6.493
N560 X-13.388 Y-91.02 Z-6.471
N565 X-13.45 Y-90.959 Z-6.435
N570 X-13.506 Y-90.902 Z-6.385
N575 X-13.557 Y-90.851 Z-6.324
N580 X-13.6 Y-90.808 Z-6.253
N585 X-13.635 Y-90.773 Z-6.172
N590 X-13.661 Y-90.748 Z-6.085
N595 X-13.676 Y-90.732 Z-5.994
N600 X-13.681 Y-90.727 Z-5.9
N605 G0 Z2.
N610 X-33.806 Y-73.584
N615 G1 Z1. F#103
N620 Z-5.9 F#108
N625 X-33.799 Y-73.586 Z-5.994
N630 X-33.778 Y-73.592 Z-6.085
N635 X-33.743 Y-73.601 Z-6.172
N640 X-33.695 Y-73.614 Z-6.253
N645 X-33.636 Y-73.63 Z-6.324
N650 X-33.567 Y-73.648 Z-6.385
N655 X-33.49 Y-73.669 Z-6.435
N660 X-33.406 Y-73.692 Z-6.471
N665 X-33.317 Y-73.715 Z-6.493
N670 X-33.227 Y-73.74 Z-6.5
N675 X-32.647 Y-73.895 F#103
N680 G3 X-32.192 Y-73.835 I0.155 J0.58
N685 G1 X-17.407 Y-65.299 F#100
N690 G3 Y-62.701 I-0.75 J1.299
N695 G1 X-46.976 Y-45.629
N700 G3 X-49.226 Y-46.928 I-0.75 J-1.299
N705 G1 Y-81.072
N710 G3 X-46.976 Y-82.371 I1.5 J0.
N715 G1 X-31.326 Y-73.335
N720 G3 X-31.046 Y-72.971 I-0.3 J0.52 F#104
N725 G1 X-30.891 Y-72.391
N730 X-30.867 Y-72.3 Z-6.493
N735 X-30.843 Y-72.212 Z-6.471
N740 X-30.82 Y-72.128 Z-6.435
N745 X-30.8 Y-72.05 Z-6.385
N750 X-30.781 Y-71.981 Z-6.324
N755 X-30.765 Y-71.922 Z-6.253
N760 X-30.752 Y-71.875 Z-6.172
N765 X-30.743 Y-71.84 Z-6.085
N770 X-30.737 Y-71.819 Z-5.994
N775 X-30.736 Y-71.811 Z-5.9
N780 G0 Z2.
N785 X-31.602 Y-171.689
N790 G1 Z1. F#103
N795 Z-5.9 F#108
N800 X-31.603 Y-171.681 Z-5.994
N805 X-31.609 Y-171.66 Z-6.085
N810 X-31.618 Y-171.625 Z-6.172
N815 X-31.631 Y-171.578 Z-6.253
N820 X-31.647 Y-171.519 Z-6.324
N825 X-31.666 Y-171.45 Z-6.385
N830 X-31.686 Y-171.372 Z-6.435
N835 X-31.709 Y-171.288 Z-6.471
N840 X-31.733 Y-171.2 Z-6.493
N845 X-31.757 Y-171.109 Z-6.5
N850 X-31.912 Y-170.529 F#103
N855 G3 X-32.192 Y-170.165 I-0.58 J-0.155
N860 G1 X-46.976 Y-161.629 F#100
N865 G3 X-49.226 Y-162.928 I-0.75 J-1.299
N870 G1 Y-197.072
N875 G3 X-46.976 Y-198.371 I1.5 J0.
N880 G1 X-17.407 Y-181.299
N885 G3 Y-178.701 I-0.75 J1.299
N890 G1 X-33.058 Y-169.665
N895 G3 X-33.513 Y-169.605 I-0.3 J-0.52 F#104
N900 G1 X-34.093 Y-169.76
N905 X-34.183 Y-169.785 Z-6.493
N910 X-34.272 Y-169.808 Z-6.471
N915 X-34.356 Y-169.831 Z-6.435
N920 X-34.433 Y-169.852 Z-6.385
N925 X-34.502 Y-169.87 Z-6.324
N930 X-34.561 Y-169.886 Z-6.253
N935 X-34.609 Y-169.899 Z-6.172
N940 X-34.644 Y-169.908 Z-6.085
N945 X-34.665 Y-169.914 Z-5.994
N950 X-34.672 Y-169.916 Z-5.9
N955 G0 Z2.
N960 X-13.681 Y-210.273
N965 G1 Z1. F#103
N970 Z-5.9 F#108
N975 X-13.676 Y-210.268 Z-5.994
N980 X-13.661 Y-210.252 Z-6.085
N985 X-13.635 Y-210.227 Z-6.172
N990 X-13.6 Y-210.192 Z-6.253
N995 X-13.557 Y-210.149 Z-6.324
N1000 X-13.506 Y-210.098 Z-6.385
N1005 X-13.45 Y-210.041 Z-6.435
N1010 X-13.388 Y-209.98 Z-6.471
N1015 X-13.323 Y-209.915 Z-6.493
N1020 X-13.257 Y-209.849 Z-6.5
N1025 X-12.833 Y-209.424 F#103
N1030 G3 X-12.657 Y-209. I-0.424 J0.424
N1035 G1 Y-191.928 F#100
N1040 G3 X-14.907 Y-190.629 I-1.5 J0.
N1045 G1 X-44.476 Y-207.701
N1050 G3 Y-210.299 I0.75 J-1.299
N1055 G1 X-14.907 Y-227.371
N1060 G3 X-12.657 Y-226.072 I0.75 J1.299
N1065 G1 Y-208.
N1070 G3 X-12.833 Y-207.576 I-0.6 J0. F#104
N1075 G1 X-13.257 Y-207.151
N1080 X-13.323 Y-207.085 Z-6.493
N1085 X-13.388 Y-207.02 Z-6.471
N1090 X-13.45 Y-206.959 Z-6.435
N1095 X-13.506 Y-206.902 Z-6.385
N1100 X-13.557 Y-206.851 Z-6.324
N1105 X-13.6 Y-206.808 Z-6.253
N1110 X-13.635 Y-206.773 Z-6.172
N1115 X-13.661 Y-206.748 Z-6.085
N1120 X-13.676 Y-206.732 Z-5.994
N1125 X-13.681 Y-206.727 Z-5.9
N1130 G0 Z4.
N1140 M9
N1145 G53 Z0.
N1150 M30
%
