%
(1001)
(6MM TWO FLUTE)
(T1  D=6. CR=0. - ZMIN=-6. - FLAT END MILL)
N10 G90 G94 G17 G91.1
N15 G21
N20 G53 G0 Z0.
(2D CONTOUR2)
N25 M9
N30 T1 M6
N35 S3200 M3
N40 G54
N45 M8
N55 G0 X-23.151 Y-138.082
N60 G43 Z4. H1
N65 #100=330. (CUTTING)
N70 #107=270. (RAMPING)
N75 G0 Z2.5
N80 S3000
N85 G1 X-44.176 Y-150.221 Z2.275 F#107
N90 G3 Y-151.779 Z2.258 I0.45 J-0.779
N95 G1 X-14.607 Y-168.851 Z1.942
N100 G3 X-13.257 Y-168.072 Z1.925 I0.45 J0.779
N105 G1 Y-133.928 Z1.609
N110 G3 X-14.607 Y-133.149 Z1.591 I-0.9 J0.
N115 G1 X-44.176 Y-150.221 Z1.275
N120 G3 Y-151.779 Z1.258 I0.45 J-0.779
N125 G1 X-14.607 Y-168.851 Z0.942
N130 G3 X-13.257 Y-168.072 Z0.925 I0.45 J0.779
N135 G1 Y-133.928 Z0.609
N140 G3 X-14.607 Y-133.149 Z0.591 I-0.9 J0.
N145 G1 X-44.176 Y-150.221 Z0.275
N150 G3 Y-151.779 Z0.258 I0.45 J-0.779
N155 G1 X-14.607 Y-168.851 Z-0.058
N160 G3 X-13.257 Y-168.072 Z-0.075 I0.45 J0.779
N165 G1 Y-133.928 Z-0.391
N170 G3 X-14.607 Y-133.149 Z-0.409 I-0.9 J0.
N175 G1 X-44.176 Y-150.221 Z-0.725
N180 G3 Y-151.779 Z-0.742 I0.45 J-0.779
N185 G1 X-14.607 Y-168.851 Z-1.058
N190 G3 X-13.257 Y-168.072 Z-1.075 I0.45 J0.779
N195 G1 Y-133.928 Z-1.391
N200 G3 X-14.607 Y-133.149 Z-1.409 I-0.9 J0.
N205 G1 X-44.176 Y-150.221 Z-1.725
N210 G3 Y-151.779 Z-1.742 I0.45 J-0.779
N215 G1 X-14.607 Y-168.851 Z-2.058
N220 G3 X-13.257 Y-168.072 Z-2.075 I0.45 J0.779
N225 G1 Y-133.928 Z-2.391
N230 G3 X-14.607 Y-133.149 Z-2.409 I-0.9 J0.
N235 G1 X-44.176 Y-150.221 Z-2.725
N240 G3 Y-151.779 Z-2.742 I0.45 J-0.779
N245 G1 X-14.607 Y-168.851 Z-3.058
N250 G3 X-13.257 Y-168.072 Z-3.075 I0.45 J0.779
N255 G1 Y-133.928 Z-3.391
N260 G3 X-14.607 Y-133.149 Z-3.409 I-0.9 J0.
N265 G1 X-44.176 Y-150.221 Z-3.725
N270 G3 Y-151.779 Z-3.742 I0.45 J-0.779
N275 G1 X-14.607 Y-168.851 Z-4.058
N280 G3 X-13.257 Y-168.072 Z-4.075 I0.45 J0.779
N285 G1 Y-133.928 Z-4.391
N290 G3 X-14.607 Y-133.149 Z-4.409 I-0.9 J0.
N295 G1 X-44.176 Y-150.221 Z-4.725
N300 G3 Y-151.779 Z-4.742 I0.45 J-0.779
N305 G1 X-14.607 Y-168.851 Z-5.058
N310 G3 X-13.257 Y-168.072 Z-5.075 I0.45 J0.779
N315 G1 Y-133.928 Z-5.391
N320 G3 X-14.607 Y-133.149 Z-5.409 I-0.9 J0.
N325 G1 X-44.176 Y-150.221 Z-5.725
N330 G3 Y-151.779 Z-5.742 I0.45 J-0.779
N335 G1 X-29.392 Y-160.315 Z-5.9
N340 S3200
N345 X-14.607 Y-168.851 F#100
N350 G3 X-13.257 Y-168.072 I0.45 J0.779
N355 G1 Y-133.928
N360 G3 X-14.607 Y-133.149 I-0.9 J0.
N365 G1 X-44.176 Y-150.221
N370 G3 Y-151.779 I0.45 J-0.779
N375 G1 X-29.392 Y-160.315
N380 G0 Z2.5
N385 X-26.251 Y-174.288
N390 S3000
N395 G1 X-47.276 Y-162.149 Z2.275 F#107
N400 G3 X-48.626 Y-162.928 Z2.258 I-0.45 J-0.779
N405 G1 Y-197.072 Z1.942
N410 G3 X-47.276 Y-197.851 Z1.925 I0.9 J0.
N415 G1 X-17.707 Y-180.779 Z1.609
N420 G3 Y-179.221 Z1.591 I-0.45 J0.779
N425 G1 X-47.276 Y-162.149 Z1.275
N430 G3 X-48.626 Y-162.928 Z1.258 I-0.45 J-0.779
N435 G1 Y-197.072 Z0.942
N440 G3 X-47.276 Y-197.851 Z0.925 I0.9 J0.
N445 G1 X-17.707 Y-180.779 Z0.609
N450 G3 Y-179.221 Z0.591 I-0.45 J0.779
N455 G1 X-47.276 Y-162.149 Z0.275
N460 G3 X-48.626 Y-162.928 Z0.258 I-0.45 J-0.779
N465 G1 Y-197.072 Z-0.058
N470 G3 X-47.276 Y-197.851 Z-0.075 I0.9 J0.
N475 G1 X-17.707 Y-180.779 Z-0.391
N480 G3 Y-179.221 Z-0.409 I-0.45 J0.779
N485 G1 X-47.276 Y-162.149 Z-0.725
N490 G3 X-48.626 Y-162.928 Z-0.742 I-0.45 J-0.779
N495 G1 Y-197.072 Z-1.058
N500 G3 X-47.276 Y-197.851 Z-1.075 I0.9 J0.
N505 G1 X-17.707 Y-180.779 Z-1.391
N510 G3 Y-179.221 Z-1.409 I-0.45 J0.779
N515 G1 X-47.276 Y-162.149 Z-1.725
N520 G3 X-48.626 Y-162.928 Z-1.742 I-0.45 J-0.779
N525 G1 Y-197.072 Z-2.058
N530 G3 X-47.276 Y-197.851 Z-2.075 I0.9 J0.
N535 G1 X-17.707 Y-180.779 Z-2.391
N540 G3 Y-179.221 Z-2.409 I-0.45 J0.779
N545 G1 X-47.276 Y-162.149 Z-2.725
N550 G3 X-48.626 Y-162.928 Z-2.742 I-0.45 J-0.779
N555 G1 Y-197.072 Z-3.058
N560 G3 X-47.276 Y-197.851 Z-3.075 I0.9 J0.
N565 G1 X-17.707 Y-180.779 Z-3.391
N570 G3 Y-179.221 Z-3.409 I-0.45 J0.779
N575 G1 X-47.276 Y-162.149 Z-3.725
N580 G3 X-48.626 Y-162.928 Z-3.742 I-0.45 J-0.779
N585 G1 Y-197.072 Z-4.058
N590 G3 X-47.276 Y-197.851 Z-4.075 I0.9 J0.
N595 G1 X-17.707 Y-180.779 Z-4.391
N600 G3 Y-179.221 Z-4.409 I-0.45 J0.779
N605 G1 X-47.276 Y-162.149 Z-4.725
N610 G3 X-48.626 Y-162.928 Z-4.742 I-0.45 J-0.779
N615 G1 Y-197.072 Z-5.058
N620 G3 X-47.276 Y-197.851 Z-5.075 I0.9 J0.
N625 G1 X-17.707 Y-180.779 Z-5.391
N630 G3 Y-179.221 Z-5.409 I-0.45 J0.779
N635 G1 X-47.276 Y-162.149 Z-5.725
N640 G3 X-48.626 Y-162.928 Z-5.742 I-0.45 J-0.779
N645 G1 Y-180. Z-5.9
N650 S3200
N655 Y-197.072 F#100
N660 G3 X-47.276 Y-197.851 I0.9 J0.
N665 G1 X-17.707 Y-180.779
N670 G3 Y-179.221 I-0.45 J0.779
N675 G1 X-47.276 Y-162.149
N680 G3 X-48.626 Y-162.928 I-0.45 J-0.779
N685 G1 Y-180.
N690 G0 Z2.5
N695 X-35.632 Y-214.712
N700 S3000
N705 G1 X-14.607 Y-226.851 Z2.275 F#107
N710 G3 X-13.257 Y-226.072 Z2.258 I0.45 J0.779
N715 G1 Y-191.928 Z1.942
N720 G3 X-14.607 Y-191.149 Z1.925 I-0.9 J0.
N725 G1 X-44.176 Y-208.221 Z1.609
N730 G3 Y-209.779 Z1.591 I0.45 J-0.779
N735 G1 X-14.607 Y-226.851 Z1.275
N740 G3 X-13.257 Y-226.072 Z1.258 I0.45 J0.779
N745 G1 Y-191.928 Z0.942
N750 G3 X-14.607 Y-191.149 Z0.925 I-0.9 J0.
N755 G1 X-44.176 Y-208.221 Z0.609
N760 G3 Y-209.779 Z0.591 I0.45 J-0.779
N765 G1 X-14.607 Y-226.851 Z0.275
N770 G3 X-13.257 Y-226.072 Z0.258 I0.45 J0.779
N775 G1 Y-191.928 Z-0.058
N780 G3 X-14.607 Y-191.149 Z-0.075 I-0.9 J0.
N785 G1 X-44.176 Y-208.221 Z-0.391
N790 G3 Y-209.779 Z-0.409 I0.45 J-0.779
N795 G1 X-14.607 Y-226.851 Z-0.725
N800 G3 X-13.257 Y-226.072 Z-0.742 I0.45 J0.779
N805 G1 Y-191.928 Z-1.058
N810 G3 X-14.607 Y-191.149 Z-1.075 I-0.9 J0.
N815 G1 X-44.176 Y-208.221 Z-1.391
N820 G3 Y-209.779 Z-1.409 I0.45 J-0.779
N825 G1 X-14.607 Y-226.851 Z-1.725
N830 G3 X-13.257 Y-226.072 Z-1.742 I0.45 J0.779
N835 G1 Y-191.928 Z-2.058
N840 G3 X-14.607 Y-191.149 Z-2.075 I-0.9 J0.
N845 G1 X-44.176 Y-208.221 Z-2.391
N850 G3 Y-209.779 Z-2.409 I0.45 J-0.779
N855 G1 X-14.607 Y-226.851 Z-2.725
N860 G3 X-13.257 Y-226.072 Z-2.742 I0.45 J0.779
N865 G1 Y-191.928 Z-3.058
N870 G3 X-14.607 Y-191.149 Z-3.075 I-0.9 J0.
N875 G1 X-44.176 Y-208.221 Z-3.391
N880 G3 Y-209.779 Z-3.409 I0.45 J-0.779
N885 G1 X-14.607 Y-226.851 Z-3.725
N890 G3 X-13.257 Y-226.072 Z-3.742 I0.45 J0.779
N895 G1 Y-191.928 Z-4.058
N900 G3 X-14.607 Y-191.149 Z-4.075 I-0.9 J0.
N905 G1 X-44.176 Y-208.221 Z-4.391
N910 G3 Y-209.779 Z-4.409 I0.45 J-0.779
N915 G1 X-14.607 Y-226.851 Z-4.725
N920 G3 X-13.257 Y-226.072 Z-4.742 I0.45 J0.779
N925 G1 Y-191.928 Z-5.058
N930 G3 X-14.607 Y-191.149 Z-5.075 I-0.9 J0.
N935 G1 X-44.176 Y-208.221 Z-5.391
N940 G3 Y-209.779 Z-5.409 I0.45 J-0.779
N945 G1 X-14.607 Y-226.851 Z-5.725
N950 G3 X-13.257 Y-226.072 Z-5.742 I0.45 J0.779
N955 G1 Y-209. Z-5.9
N960 S3200
N965 Y-191.928 F#100
N970 G3 X-14.607 Y-191.149 I-0.9 J0.
N975 G1 X-44.176 Y-208.221
N980 G3 Y-209.779 I0.45 J-0.779
N985 G1 X-14.607 Y-226.851
N990 G3 X-13.257 Y-226.072 I0.45 J0.779
N995 G1 Y-209.
N1000 G0 Z2.5
N1005 X-26.251 Y-116.288
N1010 S3000
N1015 G1 X-47.276 Y-104.149 Z2.275 F#107
N1020 G3 X-48.626 Y-104.928 Z2.258 I-0.45 J-0.779
N1025 G1 Y-139.072 Z1.942
N1030 G3 X-47.276 Y-139.851 Z1.925 I0.9 J0.
N1035 G1 X-17.707 Y-122.779 Z1.609
N1040 G3 Y-121.221 Z1.591 I-0.45 J0.779
N1045 G1 X-47.276 Y-104.149 Z1.275
N1050 G3 X-48.626 Y-104.928 Z1.258 I-0.45 J-0.779
N1055 G1 Y-139.072 Z0.942
N1060 G3 X-47.276 Y-139.851 Z0.925 I0.9 J0.
N1065 G1 X-17.707 Y-122.779 Z0.609
N1070 G3 Y-121.221 Z0.591 I-0.45 J0.779
N1075 G1 X-47.276 Y-104.149 Z0.275
N1080 G3 X-48.626 Y-104.928 Z0.258 I-0.45 J-0.779
N1085 G1 Y-139.072 Z-0.058
N1090 G3 X-47.276 Y-139.851 Z-0.075 I0.9 J0.
N1095 G1 X-17.707 Y-122.779 Z-0.391
N1100 G3 Y-121.221 Z-0.409 I-0.45 J0.779
N1105 G1 X-47.276 Y-104.149 Z-0.725
N1110 G3 X-48.626 Y-104.928 Z-0.742 I-0.45 J-0.779
N1115 G1 Y-139.072 Z-1.058
N1120 G3 X-47.276 Y-139.851 Z-1.075 I0.9 J0.
N1125 G1 X-17.707 Y-122.779 Z-1.391
N1130 G3 Y-121.221 Z-1.409 I-0.45 J0.779
N1135 G1 X-47.276 Y-104.149 Z-1.725
N1140 G3 X-48.626 Y-104.928 Z-1.742 I-0.45 J-0.779
N1145 G1 Y-139.072 Z-2.058
N1150 G3 X-47.276 Y-139.851 Z-2.075 I0.9 J0.
N1155 G1 X-17.707 Y-122.779 Z-2.391
N1160 G3 Y-121.221 Z-2.409 I-0.45 J0.779
N1165 G1 X-47.276 Y-104.149 Z-2.725
N1170 G3 X-48.626 Y-104.928 Z-2.742 I-0.45 J-0.779
N1175 G1 Y-139.072 Z-3.058
N1180 G3 X-47.276 Y-139.851 Z-3.075 I0.9 J0.
N1185 G1 X-17.707 Y-122.779 Z-3.391
N1190 G3 Y-121.221 Z-3.409 I-0.45 J0.779
N1195 G1 X-47.276 Y-104.149 Z-3.725
N1200 G3 X-48.626 Y-104.928 Z-3.742 I-0.45 J-0.779
N1205 G1 Y-139.072 Z-4.058
N1210 G3 X-47.276 Y-139.851 Z-4.075 I0.9 J0.
N1215 G1 X-17.707 Y-122.779 Z-4.391
N1220 G3 Y-121.221 Z-4.409 I-0.45 J0.779
N1225 G1 X-47.276 Y-104.149 Z-4.725
N1230 G3 X-48.626 Y-104.928 Z-4.742 I-0.45 J-0.779
N1235 G1 Y-139.072 Z-5.058
N1240 G3 X-47.276 Y-139.851 Z-5.075 I0.9 J0.
N1245 G1 X-17.707 Y-122.779 Z-5.391
N1250 G3 Y-121.221 Z-5.409 I-0.45 J0.779
N1255 G1 X-47.276 Y-104.149 Z-5.725
N1260 G3 X-48.626 Y-104.928 Z-5.742 I-0.45 J-0.779
N1265 G1 Y-122. Z-5.9
N1270 S3200
N1275 Y-139.072 F#100
N1280 G3 X-47.276 Y-139.851 I0.9 J0.
N1285 G1 X-17.707 Y-122.779
N1290 G3 Y-121.221 I-0.45 J0.779
N1295 G1 X-47.276 Y-104.149
N1300 G3 X-48.626 Y-104.928 I-0.45 J-0.779
N1305 G1 Y-122.
N1310 G0 Z2.5
N1315 X-13.257 Y-100.206
N1320 S3000
N1325 G1 Y-75.928 Z2.275 F#107
N1330 G3 X-14.607 Y-75.149 Z2.258 I-0.9 J0.
N1335 G1 X-44.176 Y-92.221 Z1.942
N1340 G3 Y-93.779 Z1.925 I0.45 J-0.779
N1345 G1 X-14.607 Y-110.851 Z1.609
N1350 G3 X-13.257 Y-110.072 Z1.591 I0.45 J0.779
N1355 G1 Y-75.928 Z1.275
N1360 G3 X-14.607 Y-75.149 Z1.258 I-0.9 J0.
N1365 G1 X-44.176 Y-92.221 Z0.942
N1370 G3 Y-93.779 Z0.925 I0.45 J-0.779
N1375 G1 X-14.607 Y-110.851 Z0.609
N1380 G3 X-13.257 Y-110.072 Z0.591 I0.45 J0.779
N1385 G1 Y-75.928 Z0.275
N1390 G3 X-14.607 Y-75.149 Z0.258 I-0.9 J0.
N1395 G1 X-44.176 Y-92.221 Z-0.058
N1400 G3 Y-93.779 Z-0.075 I0.45 J-0.779
N1405 G1 X-14.607 Y-110.851 Z-0.391
N1410 G3 X-13.257 Y-110.072 Z-0.409 I0.45 J0.779
N1415 G1 Y-75.928 Z-0.725
N1420 G3 X-14.607 Y-75.149 Z-0.742 I-0.9 J0.
N1425 G1 X-44.176 Y-92.221 Z-1.058
N1430 G3 Y-93.779 Z-1.075 I0.45 J-0.779
N1435 G1 X-14.607 Y-110.851 Z-1.391
N1440 G3 X-13.257 Y-110.072 Z-1.409 I0.45 J0.779
N1445 G1 Y-75.928 Z-1.725
N1450 G3 X-14.607 Y-75.149 Z-1.742 I-0.9 J0.
N1455 G1 X-44.176 Y-92.221 Z-2.058
N1460 G3 Y-93.779 Z-2.075 I0.45 J-0.779
N1465 G1 X-14.607 Y-110.851 Z-2.391
N1470 G3 X-13.257 Y-110.072 Z-2.409 I0.45 J0.779
N1475 G1 Y-75.928 Z-2.725
N1480 G3 X-14.607 Y-75.149 Z-2.742 I-0.9 J0.
N1485 G1 X-44.176 Y-92.221 Z-3.058
N1490 G3 Y-93.779 Z-3.075 I0.45 J-0.779
N1495 G1 X-14.607 Y-110.851 Z-3.391
N1500 G3 X-13.257 Y-110.072 Z-3.409 I0.45 J0.779
N1505 G1 Y-75.928 Z-3.725
N1510 G3 X-14.607 Y-75.149 Z-3.742 I-0.9 J0.
N1515 G1 X-44.176 Y-92.221 Z-4.058
N1520 G3 Y-93.779 Z-4.075 I0.45 J-0.779
N1525 G1 X-14.607 Y-110.851 Z-4.391
N1530 G3 X-13.257 Y-110.072 Z-4.409 I0.45 J0.779
N1535 G1 Y-75.928 Z-4.725
N1540 G3 X-14.607 Y-75.149 Z-4.742 I-0.9 J0.
N1545 G1 X-44.176 Y-92.221 Z-5.058
N1550 G3 Y-93.779 Z-5.075 I0.45 J-0.779
N1555 G1 X-14.607 Y-110.851 Z-5.391
N1560 G3 X-13.257 Y-110.072 Z-5.409 I0.45 J0.779
N1565 G1 Y-75.928 Z-5.725
N1570 G3 X-14.607 Y-75.149 Z-5.742 I-0.9 J0.
N1575 G1 X-29.392 Y-83.685 Z-5.9
N1580 S3200
N1585 X-44.176 Y-92.221 F#100
N1590 G3 Y-93.779 I0.45 J-0.779
N1595 G1 X-14.607 Y-110.851
N1600 G3 X-13.257 Y-110.072 I0.45 J0.779
N1605 G1 Y-75.928
N1610 G3 X-14.607 Y-75.149 I-0.9 J0.
N1615 G1 X-29.392 Y-83.685
N1620 G0 Z2.5
N1625 X-48.626 Y-56.794
N1630 S3000
N1635 G1 Y-81.072 Z2.275 F#107
N1640 G3 X-47.276 Y-81.851 Z2.258 I0.9 J0.
N1645 G1 X-17.707 Y-64.779 Z1.942
N1650 G3 Y-63.221 Z1.925 I-0.45 J0.779
N1655 G1 X-47.276 Y-46.149 Z1.609
N1660 G3 X-48.626 Y-46.928 Z1.591 I-0.45 J-0.779
N1665 G1 Y-81.072 Z1.275
N1670 G3 X-47.276 Y-81.851 Z1.258 I0.9 J0.
N1675 G1 X-17.707 Y-64.779 Z0.942
N1680 G3 Y-63.221 Z0.925 I-0.45 J0.779
N1685 G1 X-47.276 Y-46.149 Z0.609
N1690 G3 X-48.626 Y-46.928 Z0.591 I-0.45 J-0.779
N1695 G1 Y-81.072 Z0.275
N1700 G3 X-47.276 Y-81.851 Z0.258 I0.9 J0.
N1705 G1 X-17.707 Y-64.779 Z-0.058
N1710 G3 Y-63.221 Z-0.075 I-0.45 J0.779
N1715 G1 X-47.276 Y-46.149 Z-0.391
N1720 G3 X-48.626 Y-46.928 Z-0.409 I-0.45 J-0.779
N1725 G1 Y-81.072 Z-0.725
N1730 G3 X-47.276 Y-81.851 Z-0.742 I0.9 J0.
N1735 G1 X-17.707 Y-64.779 Z-1.058
N1740 G3 Y-63.221 Z-1.075 I-0.45 J0.779
N1745 G1 X-47.276 Y-46.149 Z-1.391
N1750 G3 X-48.626 Y-46.928 Z-1.409 I-0.45 J-0.779
N1755 G1 Y-81.072 Z-1.725
N1760 G3 X-47.276 Y-81.851 Z-1.742 I0.9 J0.
N1765 G1 X-17.707 Y-64.779 Z-2.058
N1770 G3 Y-63.221 Z-2.075 I-0.45 J0.779
N1775 G1 X-47.276 Y-46.149 Z-2.391
N1780 G3 X-48.626 Y-46.928 Z-2.409 I-0.45 J-0.779
N1785 G1 Y-81.072 Z-2.725
N1790 G3 X-47.276 Y-81.851 Z-2.742 I0.9 J0.
N1795 G1 X-17.707 Y-64.779 Z-3.058
N1800 G3 Y-63.221 Z-3.075 I-0.45 J0.779
N1805 G1 X-47.276 Y-46.149 Z-3.391
N1810 G3 X-48.626 Y-46.928 Z-3.409 I-0.45 J-0.779
N1815 G1 Y-81.072 Z-3.725
N1820 G3 X-47.276 Y-81.851 Z-3.742 I0.9 J0.
N1825 G1 X-17.707 Y-64.779 Z-4.058
N1830 G3 Y-63.221 Z-4.075 I-0.45 J0.779
N1835 G1 X-47.276 Y-46.149 Z-4.391
N1840 G3 X-48.626 Y-46.928 Z-4.409 I-0.45 J-0.779
N1845 G1 Y-81.072 Z-4.725
N1850 G3 X-47.276 Y-81.851 Z-4.742 I0.9 J0.
N1855 G1 X-17.707 Y-64.779 Z-5.058
N1860 G3 Y-63.221 Z-5.075 I-0.45 J0.779
N1865 G1 X-47.276 Y-46.149 Z-5.391
N1870 G3 X-48.626 Y-46.928 Z-5.409 I-0.45 J-0.779
N1875 G1 Y-81.072 Z-5.725
N1880 G3 X-47.276 Y-81.851 Z-5.742 I0.9 J0.
N1885 G1 X-32.492 Y-73.315 Z-5.9
N1890 S3200
N1895 X-17.707 Y-64.779 F#100
N1900 G3 Y-63.221 I-0.45 J0.779
N1905 G1 X-47.276 Y-46.149
N1910 G3 X-48.626 Y-46.928 I-0.45 J-0.779
N1915 G1 Y-81.072
N1920 G3 X-47.276 Y-81.851 I0.9 J0.
N1925 G1 X-32.492 Y-73.315
N1930 G0 Z4.
(2D CONTOUR2 2)
N1940 M8
N1945 G0 X-14.181 Y-152.273
N1950 #100=330. (CUTTING)
N1955 #103=200. (ENTRY)
N1960 #104=200. (EXIT)
N1965 #108=100. (PLUNGE)
N1970 Z4.
N1975 Z2.
N1980 G1 Z1. F#103
N1985 Z-5.4 F#108
N1990 X-14.176 Y-152.268 Z-5.494
N1995 X-14.161 Y-152.252 Z-5.585
N2000 X-14.135 Y-152.227 Z-5.672
N2005 X-14.1 Y-152.192 Z-5.753
N2010 X-14.057 Y-152.149 Z-5.824
N2015 X-14.006 Y-152.098 Z-5.885
N2020 X-13.95 Y-152.041 Z-5.935
N2025 X-13.888 Y-151.98 Z-5.971
N2030 X-13.823 Y-151.915 Z-5.993
N2035 X-13.757 Y-151.849 Z-6.
N2040 X-13.333 Y-151.424 F#103
N2045 G3 X-13.157 Y-151. I-0.424 J0.424
N2050 G1 Y-133.928 F#100
N2055 G3 X-14.657 Y-133.062 I-1. J0.
N2060 G1 X-44.226 Y-150.134
N2065 G3 Y-151.866 I0.5 J-0.866
N2070 G1 X-14.657 Y-168.938
N2075 G3 X-13.157 Y-168.072 I0.5 J0.866
N2080 G1 Y-151.
N2085 G3 X-13.333 Y-150.576 I-0.6 J0. F#104
N2090 G1 X-13.757 Y-150.151
N2095 X-13.823 Y-150.085 Z-5.993
N2100 X-13.888 Y-150.02 Z-5.971
N2105 X-13.95 Y-149.959 Z-5.935
N2110 X-14.006 Y-149.902 Z-5.885
N2115 X-14.057 Y-149.851 Z-5.824
N2120 X-14.1 Y-149.808 Z-5.753
N2125 X-14.135 Y-149.773 Z-5.672
N2130 X-14.161 Y-149.748 Z-5.585
N2135 X-14.176 Y-149.732 Z-5.494
N2140 X-14.181 Y-149.727 Z-5.4
N2145 G0 Z2.
N2150 X-31.852 Y-114.122
N2155 G1 Z1. F#103
N2160 Z-5.4 F#108
N2165 X-31.853 Y-114.114 Z-5.494
N2170 X-31.859 Y-114.093 Z-5.585
N2175 X-31.868 Y-114.058 Z-5.672
N2180 X-31.881 Y-114.011 Z-5.753
N2185 X-31.897 Y-113.952 Z-5.824
N2190 X-31.916 Y-113.883 Z-5.885
N2195 X-31.936 Y-113.805 Z-5.935
N2200 X-31.959 Y-113.721 Z-5.971
N2205 X-31.983 Y-113.633 Z-5.993
N2210 X-32.007 Y-113.542 Z-6.
N2215 X-32.162 Y-112.962 F#103
N2220 G3 X-32.442 Y-112.598 I-0.58 J-0.155
N2225 G1 X-47.226 Y-104.062 F#100
N2230 G3 X-48.726 Y-104.928 I-0.5 J-0.866
N2235 G1 Y-139.072
N2240 G3 X-47.226 Y-139.938 I1. J0.
N2245 G1 X-17.657 Y-122.866
N2250 G3 Y-121.134 I-0.5 J0.866
N2255 G1 X-32.442 Y-112.598
N2260 G3 X-32.897 Y-112.538 I-0.3 J-0.52 F#104
N2265 G1 X-33.476 Y-112.693
N2270 X-33.567 Y-112.718 Z-5.993
N2275 X-33.656 Y-112.741 Z-5.971
N2280 X-33.74 Y-112.764 Z-5.935
N2285 X-33.817 Y-112.785 Z-5.885
N2290 X-33.886 Y-112.803 Z-5.824
N2295 X-33.945 Y-112.819 Z-5.753
N2300 X-33.993 Y-112.832 Z-5.672
N2305 X-34.028 Y-112.841 Z-5.585
N2310 X-34.049 Y-112.847 Z-5.494
N2315 X-34.056 Y-112.849 Z-5.4
N2320 G0 Z2.
N2325 X-14.181 Y-94.273
N2330 G1 Z1. F#103
N2335 Z-5.4 F#108
N2340 X-14.176 Y-94.268 Z-5.494
N2345 X-14.161 Y-94.252 Z-5.585
N2350 X-14.135 Y-94.227 Z-5.672
N2355 X-14.1 Y-94.192 Z-5.753
N2360 X-14.057 Y-94.149 Z-5.824
N2365 X-14.006 Y-94.098 Z-5.885
N2370 X-13.95 Y-94.041 Z-5.935
N2375 X-13.888 Y-93.98 Z-5.971
N2380 X-13.823 Y-93.915 Z-5.993
N2385 X-13.757 Y-93.849 Z-6.
N2390 X-13.333 Y-93.424 F#103
N2395 G3 X-13.157 Y-93. I-0.424 J0.424
N2400 G1 Y-75.928 F#100
N2405 G3 X-14.657 Y-75.062 I-1. J0.
N2410 G1 X-44.226 Y-92.134
N2415 G3 Y-93.866 I0.5 J-0.866
N2420 G1 X-14.657 Y-110.938
N2425 G3 X-13.157 Y-110.072 I0.5 J0.866
N2430 G1 Y-93.
N2435 G3 X-13.333 Y-92.576 I-0.6 J0. F#104
N2440 G1 X-13.757 Y-92.151
N2445 X-13.823 Y-92.085 Z-5.993
N2450 X-13.888 Y-92.02 Z-5.971
N2455 X-13.95 Y-91.959 Z-5.935
N2460 X-14.006 Y-91.902 Z-5.885
N2465 X-14.057 Y-91.851 Z-5.824
N2470 X-14.1 Y-91.808 Z-5.753
N2475 X-14.135 Y-91.773 Z-5.672
N2480 X-14.161 Y-91.748 Z-5.585
N2485 X-14.176 Y-91.732 Z-5.494
N2490 X-14.181 Y-91.727 Z-5.4
N2495 G0 Z2.
N2500 X-34.056 Y-73.151
N2505 G1 Z1. F#103
N2510 Z-5.4 F#108
N2515 X-34.049 Y-73.153 Z-5.494
N2520 X-34.028 Y-73.159 Z-5.585
N2525 X-33.993 Y-73.168 Z-5.672
N2530 X-33.945 Y-73.181 Z-5.753
N2535 X-33.886 Y-73.197 Z-5.824
N2540 X-33.817 Y-73.215 Z-5.885
N2545 X-33.74 Y-73.236 Z-5.935
N2550 X-33.656 Y-73.259 Z-5.971
N2555 X-33.567 Y-73.282 Z-5.993
N2560 X-33.477 Y-73.307 Z-6.
N2565 X-32.897 Y-73.462 F#103
N2570 G3 X-32.442 Y-73.402 I0.155 J0.58
N2575 G1 X-17.657 Y-64.866 F#100
N2580 G3 Y-63.134 I-0.5 J0.866
N2585 G1 X-47.226 Y-46.062
N2590 G3 X-48.726 Y-46.928 I-0.5 J-0.866
N2595 G1 Y-81.072
N2600 G3 X-47.226 Y-81.938 I1. J0.
N2605 G1 X-32.442 Y-73.402
N2610 G3 X-32.162 Y-73.038 I-0.3 J0.52 F#104
N2615 G1 X-32.007 Y-72.458
N2620 X-31.983 Y-72.367 Z-5.993
N2625 X-31.959 Y-72.279 Z-5.971
N2630 X-31.936 Y-72.195 Z-5.935
N2635 X-31.916 Y-72.117 Z-5.885
N2640 X-31.897 Y-72.048 Z-5.824
N2645 X-31.881 Y-71.989 Z-5.753
N2650 X-31.868 Y-71.942 Z-5.672
N2655 X-31.859 Y-71.907 Z-5.585
N2660 X-31.853 Y-71.886 Z-5.494
N2665 X-31.852 Y-71.878 Z-5.4
N2670 G0 Z2.
N2675 Y-172.122
N2680 G1 Z1. F#103
N2685 Z-5.4 F#108
N2690 X-31.853 Y-172.114 Z-5.494
N2695 X-31.859 Y-172.093 Z-5.585
N2700 X-31.868 Y-172.058 Z-5.672
N2705 X-31.881 Y-172.011 Z-5.753
N2710 X-31.897 Y-171.952 Z-5.824
N2715 X-31.916 Y-171.883 Z-5.885
N2720 X-31.936 Y-171.805 Z-5.935
N2725 X-31.959 Y-171.721 Z-5.971
N2730 X-31.983 Y-171.633 Z-5.993
N2735 X-32.007 Y-171.542 Z-6.
N2740 X-32.162 Y-170.962 F#103
N2745 G3 X-32.442 Y-170.598 I-0.58 J-0.155
N2750 G1 X-47.226 Y-162.062 F#100
N2755 G3 X-48.726 Y-162.928 I-0.5 J-0.866
N2760 G1 Y-197.072
N2765 G3 X-47.226 Y-197.938 I1. J0.
N2770 G1 X-17.657 Y-180.866
N2775 G3 Y-179.134 I-0.5 J0.866
N2780 G1 X-32.442 Y-170.598
N2785 G3 X-32.897 Y-170.538 I-0.3 J-0.52 F#104
N2790 G1 X-33.476 Y-170.693
N2795 X-33.567 Y-170.718 Z-5.993
N2800 X-33.656 Y-170.741 Z-5.971
N2805 X-33.74 Y-170.764 Z-5.935
N2810 X-33.817 Y-170.785 Z-5.885
N2815 X-33.886 Y-170.803 Z-5.824
N2820 X-33.945 Y-170.819 Z-5.753
N2825 X-33.993 Y-170.832 Z-5.672
N2830 X-34.028 Y-170.841 Z-5.585
N2835 X-34.049 Y-170.847 Z-5.494
N2840 X-34.056 Y-170.849 Z-5.4
N2845 G0 Z2.
N2850 X-14.181 Y-210.273
N2855 G1 Z1. F#103
N2860 Z-5.4 F#108
N2865 X-14.176 Y-210.268 Z-5.494
N2870 X-14.161 Y-210.252 Z-5.585
N2875 X-14.135 Y-210.227 Z-5.672
N2880 X-14.1 Y-210.192 Z-5.753
N2885 X-14.057 Y-210.149 Z-5.824
N2890 X-14.006 Y-210.098 Z-5.885
N2895 X-13.95 Y-210.041 Z-5.935
N2900 X-13.888 Y-209.98 Z-5.971
N2905 X-13.823 Y-209.915 Z-5.993
N2910 X-13.757 Y-209.849 Z-6.
N2915 X-13.333 Y-209.424 F#103
N2920 G3 X-13.157 Y-209. I-0.424 J0.424
N2925 G1 Y-191.928 F#100
N2930 G3 X-14.657 Y-191.062 I-1. J0.
N2935 G1 X-44.226 Y-208.134
N2940 G3 Y-209.866 I0.5 J-0.866
N2945 G1 X-14.657 Y-226.938
N2950 G3 X-13.157 Y-226.072 I0.5 J0.866
N2955 G1 Y-209.
N2960 G3 X-13.333 Y-208.576 I-0.6 J0. F#104
N2965 G1 X-13.757 Y-208.151
N2970 X-13.823 Y-208.085 Z-5.993
N2975 X-13.888 Y-208.02 Z-5.971
N2980 X-13.95 Y-207.959 Z-5.935
N2985 X-14.006 Y-207.902 Z-5.885
N2990 X-14.057 Y-207.851 Z-5.824
N2995 X-14.1 Y-207.808 Z-5.753
N3000 X-14.135 Y-207.773 Z-5.672
N3005 X-14.161 Y-207.748 Z-5.585
N3010 X-14.176 Y-207.732 Z-5.494
N3015 X-14.181 Y-207.727 Z-5.4
N3020 G0 Z4.
N3030 M9
N3035 G53 Z0.
N3040 M30
%
