%
(1001)
(6MM TWO FLUTE)
(T1  D=6. CR=0. - ZMIN=-6.5 - FLAT END MILL)
N10 G90 G94 G17 G91.1
N15 G21
N20 G53 G0 Z0.
(2D ADAPTIVE2)
N25 M9
N30 T1 M6
N35 S3200 M3
N40 G54
N45 M8
N55 G0 X-8.119 Y-168.508
N60 G43 Z4. H1
N65 #100=330. (CUTTING)
N70 #103=200. (ENTRY)
N75 #104=200. (EXIT)
N80 #105=3000. (DIRECT)
N85 #107=270. (RAMPING)
N90 G0 Z1.15
N95 G1 Z0.65 F#103
N100 S3000
N105 G3 X-8.943 Y-164.765 Z0.415 I-1.737 J1.58 F#107
N110 X-12.172 Y-166.768 Z0.18 I-0.905 J-2.145
N115 X-9.235 Y-169.127 Z-0.055 I2.303 J-0.14
N120 X-7.998 Y-165.605 Z-0.29 I-0.628 J2.199
N125 X-11.697 Y-165.608 Z-0.525 I-1.849 J-1.311
N130 X-10.476 Y-169.065 Z-0.76 I1.834 J-1.296
N135 X-7.648 Y-166.785 Z-0.995 I0.607 J2.141
N140 X-10.709 Y-164.892 Z-1.23 I-2.201 J-0.137
N145 X-11.47 Y-168.376 Z-1.465 I0.853 J-2.011
N150 X-7.964 Y-167.94 Z-1.7 I1.598 J1.459
N155 X-9.526 Y-164.808 Z-1.935 I-1.889 J1.013
N160 X-11.937 Y-167.298 Z-2.17 I-0.324 J-2.098
N165 X-8.818 Y-168.731 Z-2.405 I2.067 J0.388
N170 X-8.506 Y-165.346 Z-2.64 I-1.042 J1.803
N175 X-11.77 Y-166.169 Z-2.875 I-1.341 J-1.566
N180 X-9.928 Y-168.946 Z-3.11 I1.904 J-0.736
N185 X-7.941 Y-166.312 Z-3.345 I0.061 J2.02
N190 X-11.053 Y-165.324 Z-3.58 I-1.906 J-0.607
N195 X-10.952 Y-168.554 Z-3.815 I1.194 J-1.58
N200 X-7.97 Y-167.398 Z-4.05 I1.082 J1.634
N205 X-10.03 Y-164.995 Z-4.285 I-1.881 J0.472
N210 X-11.596 Y-167.707 Z-4.52 I0.178 J-1.91
N215 X-8.55 Y-168.276 Z-4.755 I1.724 J0.794
N220 X-9.02 Y-165.247 Z-4.99 I-1.307 J1.348
N225 X-11.691 Y-166.682 Z-5.225 I-0.828 J-1.663
N230 X-9.475 Y-168.702 Z-5.46 I1.823 J-0.225
N235 X-8.32 Y-165.971 Z-5.695 I-0.389 J1.774
N240 X-11.246 Y-165.791 Z-5.93 I-1.527 J-0.946
N245 X-10.452 Y-168.578 Z-6.165 I1.383 J-1.113
N250 X-8.114 Y-166.923 Z-6.4 I0.583 J1.655
N255 X-11.624 I-1.755 J0.
N260 X-8.114 I1.755 J0.
N265 S3200
N270 X-11.257 Y-165.573 I-1.761 J0.235 F#100
N275 G1 X-11.375 Y-165.701
N280 X-11.48 Y-165.839
N285 X-11.573 Y-165.986
N290 X-11.653 Y-166.141
N295 X-11.718 Y-166.302
N300 X-11.769 Y-166.468
N305 X-11.805 Y-166.638
N310 X-11.826 Y-166.81
N315 X-11.832 Y-166.984
N320 X-11.822 Y-167.158
N325 X-11.797 Y-167.33
N330 X-11.757 Y-167.499
N335 X-11.702 Y-167.664
N340 X-11.632 Y-167.823
N345 X-11.549 Y-167.976
N350 X-11.452 Y-168.12
N355 X-11.343 Y-168.256
N360 X-11.223 Y-168.381
N365 X-11.092 Y-168.495
N370 X-10.951 Y-168.597
N375 X-10.802 Y-168.686
N380 X-10.645 Y-168.762
N385 X-10.483 Y-168.823
N390 X-10.315 Y-168.87
N395 X-10.144 Y-168.902
N400 X-9.971 Y-168.918
N405 X-9.797 Y-168.919
N410 X-9.624 Y-168.905
N415 X-9.453 Y-168.876
N420 X-9.285 Y-168.831
N425 X-9.121 Y-168.772
N430 X-8.964 Y-168.698
N435 X-8.814 Y-168.611
N440 X-8.672 Y-168.511
N445 X-8.539 Y-168.398
N450 X-8.417 Y-168.275
N455 X-8.306 Y-168.141
N460 X-8.208 Y-167.997
N465 X-8.122 Y-167.846
N470 X-8.051 Y-167.688
N475 X-7.994 Y-167.523
N480 X-7.951 Y-167.355
N485 X-7.924 Y-167.183
N490 G3 X-11.393 Y-165.368 I-1.951 J0.495
N495 G1 X-11.523 Y-165.503
N500 X-11.64 Y-165.648
N505 X-11.745 Y-165.802
N510 X-11.837 Y-165.965
N515 X-11.914 Y-166.136
N520 X-11.977 Y-166.312
N525 X-12.024 Y-166.492
N530 X-12.056 Y-166.677
N535 X-12.073 Y-166.863
N540 Y-167.05
N545 X-12.058 Y-167.236
N550 X-12.027 Y-167.42
N555 X-11.98 Y-167.601
N560 X-11.918 Y-167.778
N565 X-11.842 Y-167.948
N570 X-11.751 Y-168.111
N575 X-11.646 Y-168.266
N580 X-11.529 Y-168.412
N585 X-11.4 Y-168.547
N590 X-11.26 Y-168.671
N595 X-11.111 Y-168.783
N600 X-10.952 Y-168.881
N605 X-10.785 Y-168.966
N610 X-10.612 Y-169.036
N615 X-10.433 Y-169.091
N620 X-10.251 Y-169.131
N625 X-10.065 Y-169.155
N630 X-9.879 Y-169.164
N635 X-9.692 Y-169.156
N640 X-9.506 Y-169.133
N645 X-9.324 Y-169.094
N650 X-9.145 Y-169.04
N655 X-8.971 Y-168.971
N660 X-8.804 Y-168.887
N665 X-8.645 Y-168.79
N670 X-8.494 Y-168.679
N675 X-8.353 Y-168.556
N680 X-8.224 Y-168.421
N685 X-8.106 Y-168.276
N690 X-8.001 Y-168.122
N695 X-7.909 Y-167.959
N700 X-7.831 Y-167.789
N705 X-7.769 Y-167.613
N710 X-7.721 Y-167.432
N715 X-7.669 Y-167.25
N720 X-7.632 Y-167.065
N725 X-7.61 Y-166.877
N730 X-7.604 Y-166.688
N735 X-7.614 Y-166.499
N740 X-7.639 Y-166.312
N745 X-7.68 Y-166.127
N750 X-7.736 Y-165.946
N755 X-7.807 Y-165.771
N760 X-7.892 Y-165.602
N765 X-7.99 Y-165.441
N770 X-8.102 Y-165.288
N775 X-8.226 Y-165.145
N780 X-8.361 Y-165.013
N785 X-8.507 Y-164.892
N790 X-8.662 Y-164.784
N795 X-8.825 Y-164.689
N800 X-8.996 Y-164.608
N805 X-9.173 Y-164.542
N810 X-9.355 Y-164.49
N815 X-9.541 Y-164.454
N820 X-9.729 Y-164.433
N825 X-9.918 Y-164.427
N830 X-10.106 Y-164.437
N835 X-10.294 Y-164.463
N840 X-10.478 Y-164.504
N845 X-10.659 Y-164.561
N850 X-10.834 Y-164.632
N855 X-11.003 Y-164.717
N860 X-11.164 Y-164.816
N865 X-11.316 Y-164.928
N870 X-11.459 Y-165.052
N875 X-11.591 Y-165.188
N880 X-11.711 Y-165.334
N885 X-11.835 Y-165.486
N890 X-11.946 Y-165.647
N895 X-12.044 Y-165.817
N900 X-12.129 Y-165.994
N905 X-12.199 Y-166.177
N910 X-12.254 Y-166.365
N915 X-12.294 Y-166.557
N920 X-12.318 Y-166.752
N925 X-12.327 Y-166.948
N930 X-12.321 Y-167.144
N935 X-12.298 Y-167.338
N940 X-12.26 Y-167.531
N945 X-12.208 Y-167.72
N950 X-12.14 Y-167.904
N955 X-12.057 Y-168.082
N960 X-11.961 Y-168.252
N965 X-11.852 Y-168.415
N970 X-11.729 Y-168.568
N975 X-11.595 Y-168.712
N980 X-11.45 Y-168.844
N985 X-11.295 Y-168.964
N990 X-11.131 Y-169.071
N995 X-10.959 Y-169.165
N1000 X-10.78 Y-169.244
N1005 X-10.595 Y-169.31
N1010 X-10.405 Y-169.36
N1015 X-10.213 Y-169.395
N1020 X-10.017 Y-169.415
N1025 X-9.821 Y-169.419
N1030 X-9.626 Y-169.407
N1035 X-9.431 Y-169.38
N1040 X-9.24 Y-169.337
N1045 X-9.053 Y-169.279
N1050 X-8.871 Y-169.207
N1055 X-8.695 Y-169.12
N1060 X-8.526 Y-169.019
N1065 X-8.367 Y-168.906
N1070 X-8.216 Y-168.78
N1075 X-8.077 Y-168.642
N1080 X-7.949 Y-168.494
N1085 X-7.833 Y-168.336
N1090 X-7.729 Y-168.169
N1095 X-7.64 Y-167.994
N1100 X-7.565 Y-167.813
N1105 X-7.504 Y-167.627
N1110 X-7.441 Y-167.435
N1115 X-7.392 Y-167.239
N1120 X-7.36 Y-167.039
N1125 X-7.343 Y-166.838
N1130 X-7.342 Y-166.636
N1135 X-7.357 Y-166.434
N1140 X-7.388 Y-166.235
N1145 X-7.434 Y-166.038
N1150 X-7.496 Y-165.845
N1155 X-7.573 Y-165.659
N1160 X-7.664 Y-165.478
N1165 X-7.77 Y-165.306
N1170 X-7.888 Y-165.142
N1175 X-8.019 Y-164.988
N1180 X-8.162 Y-164.845
N1185 X-8.316 Y-164.714
N1190 X-8.479 Y-164.595
N1195 X-8.652 Y-164.49
N1200 X-8.832 Y-164.399
N1205 X-9.019 Y-164.322
N1210 X-9.211 Y-164.259
N1215 X-9.408 Y-164.213
N1220 X-9.608 Y-164.182
N1225 X-9.809 Y-164.167
N1230 X-10.011
N1235 X-10.213 Y-164.184
N1240 X-10.412 Y-164.217
N1245 X-10.608 Y-164.265
N1250 X-10.8 Y-164.328
N1255 X-10.986 Y-164.407
N1260 X-11.166 Y-164.5
N1265 X-11.337 Y-164.606
N1270 X-11.5 Y-164.726
N1275 X-11.653 Y-164.859
N1280 X-11.794 Y-165.003
N1285 X-11.924 Y-165.158
N1290 X-12.042 Y-165.322
N1295 X-12.159 Y-165.49
N1300 X-12.263 Y-165.667
N1305 X-12.354 Y-165.85
N1310 X-12.43 Y-166.04
N1315 X-12.492 Y-166.236
N1320 X-12.54 Y-166.435
N1325 X-12.572 Y-166.637
N1330 X-12.589 Y-166.841
N1335 X-12.59 Y-167.046
N1340 X-12.576 Y-167.251
N1345 X-12.547 Y-167.453
N1350 X-12.502 Y-167.653
N1355 X-12.443 Y-167.849
N1360 X-12.369 Y-168.041
N1365 X-12.281 Y-168.226
N1370 X-12.179 Y-168.403
N1375 X-12.065 Y-168.573
N1380 X-11.937 Y-168.734
N1385 X-11.798 Y-168.884
N1390 X-11.649 Y-169.024
N1395 X-11.489 Y-169.152
N1400 X-11.319 Y-169.268
N1405 X-11.142 Y-169.37
N1410 X-10.958 Y-169.459
N1415 X-10.767 Y-169.534
N1420 X-10.571 Y-169.594
N1425 X-10.371 Y-169.64
N1430 X-10.169 Y-169.67
N1435 X-9.964 Y-169.685
N1440 X-9.76 Y-169.684
N1445 X-9.555 Y-169.669
N1450 X-9.353 Y-169.637
N1455 X-9.153 Y-169.591
N1460 X-8.958 Y-169.53
N1465 X-8.767 Y-169.454
N1470 X-8.583 Y-169.365
N1475 X-8.406 Y-169.261
N1480 X-8.238 Y-169.145
N1485 X-8.078 Y-169.016
N1490 X-7.929 Y-168.876
N1495 X-7.791 Y-168.725
N1500 X-7.664 Y-168.564
N1505 X-7.55 Y-168.393
N1510 X-7.449 Y-168.215
N1515 X-7.362 Y-168.03
N1520 X-7.289 Y-167.838
N1525 X-7.213 Y-167.639
N1530 X-7.153 Y-167.435
N1535 X-7.108 Y-167.226
N1540 X-7.079 Y-167.015
N1545 X-7.066 Y-166.802
N1550 X-7.069 Y-166.589
N1555 X-7.088 Y-166.377
N1560 X-7.123 Y-166.166
N1565 X-7.173 Y-165.959
N1570 X-7.239 Y-165.757
N1575 X-7.319 Y-165.559
N1580 X-7.415 Y-165.369
N1585 X-7.524 Y-165.186
N1590 X-7.647 Y-165.011
N1595 X-7.782 Y-164.847
N1600 X-7.93 Y-164.693
N1605 X-8.088 Y-164.55
N1610 X-8.257 Y-164.42
N1615 X-8.435 Y-164.303
N1620 X-8.621 Y-164.199
N1625 X-8.815 Y-164.11
N1630 X-9.014 Y-164.036
N1635 X-9.219 Y-163.976
N1640 X-9.428 Y-163.932
N1645 X-9.639 Y-163.904
N1650 X-9.852 Y-163.892
N1655 X-10.065 Y-163.896
N1660 X-10.277 Y-163.916
N1665 X-10.487 Y-163.951
N1670 X-10.694 Y-164.003
N1675 X-10.897 Y-164.069
N1680 X-11.094 Y-164.151
N1685 X-11.284 Y-164.247
N1690 X-11.466 Y-164.357
N1695 X-11.64 Y-164.481
N1700 X-11.804 Y-164.617
N1705 X-11.957 Y-164.765
N1710 X-12.099 Y-164.924
N1715 X-12.229 Y-165.093
N1720 X-12.345 Y-165.272
N1725 X-12.46 Y-165.455
N1730 X-12.562 Y-165.646
N1735 X-12.65 Y-165.844
N1740 X-12.724 Y-166.047
N1745 X-12.782 Y-166.256
N1750 X-12.826 Y-166.468
N1755 X-12.854 Y-166.682
N1760 X-12.866 Y-166.898
N1765 X-12.863 Y-167.115
N1770 X-12.845 Y-167.331
N1775 X-12.81 Y-167.544
N1780 X-12.761 Y-167.755
N1785 X-12.696 Y-167.962
N1790 X-12.617 Y-168.163
N1795 X-12.523 Y-168.358
N1800 X-12.416 Y-168.546
N1805 X-12.295 Y-168.726
N1810 X-12.162 Y-168.896
N1815 X-12.017 Y-169.057
N1820 X-11.86 Y-169.207
N1825 X-11.694 Y-169.344
N1830 X-11.517 Y-169.47
N1835 X-11.332 Y-169.583
N1840 X-11.14 Y-169.682
N1845 X-10.941 Y-169.766
N1850 X-10.736 Y-169.837
N1855 X-10.527 Y-169.892
N1860 X-10.314 Y-169.932
N1865 X-10.099 Y-169.957
N1870 X-9.883 Y-169.966
N1875 X-9.666 Y-169.959
N1880 X-9.451 Y-169.937
N1885 X-9.238 Y-169.899
N1890 X-9.028 Y-169.847
N1895 X-8.822 Y-169.779
N1900 X-8.622 Y-169.696
N1905 X-8.429 Y-169.6
N1910 X-8.242 Y-169.489
N1915 X-8.065 Y-169.366
N1920 X-7.896 Y-169.23
N1925 X-7.738 Y-169.082
N1930 X-7.591 Y-168.923
N1935 X-7.456 Y-168.754
N1940 X-7.333 Y-168.576
N1945 X-7.223 Y-168.39
N1950 X-7.127 Y-168.196
N1955 X-7.046 Y-167.995
N1960 X-6.965 Y-167.791
N1965 X-6.898 Y-167.583
N1970 X-6.846 Y-167.37
N1975 X-6.809 Y-167.153
N1980 X-6.788 Y-166.935
N1985 X-6.782 Y-166.716
N1990 X-6.791 Y-166.497
N1995 X-6.815 Y-166.279
N2000 X-6.855 Y-166.064
N2005 X-6.909 Y-165.852
N2010 X-6.979 Y-165.644
N2015 X-7.062 Y-165.441
N2020 X-7.16 Y-165.245
N2025 X-7.271 Y-165.056
N2030 X-7.395 Y-164.875
N2035 X-7.532 Y-164.704
N2040 X-7.68 Y-164.542
N2045 X-7.839 Y-164.391
N2050 X-8.008 Y-164.252
N2055 X-8.187 Y-164.125
N2060 X-8.374 Y-164.011
N2065 X-8.569 Y-163.91
N2070 X-8.77 Y-163.823
N2075 X-8.977 Y-163.75
N2080 X-9.188 Y-163.692
N2085 X-9.403 Y-163.649
N2090 X-9.62 Y-163.621
N2095 X-9.839 Y-163.608
N2100 X-10.058 Y-163.611
N2105 X-10.277 Y-163.629
N2110 X-10.493 Y-163.662
N2115 X-10.707 Y-163.71
N2120 X-10.917 Y-163.774
N2125 X-11.122 Y-163.851
N2130 X-11.321 Y-163.943
N2135 X-11.513 Y-164.049
N2140 X-11.697 Y-164.167
N2145 X-11.873 Y-164.299
N2150 X-12.039 Y-164.442
N2155 X-12.194 Y-164.597
N2160 X-12.338 Y-164.762
N2165 X-12.471 Y-164.936
N2170 X-12.59 Y-165.12
N2175 X-12.711 Y-165.313
N2180 X-12.819 Y-165.513
N2185 X-12.912 Y-165.721
N2190 X-12.991 Y-165.935
N2195 X-13.054 Y-166.153
N2200 X-13.103 Y-166.375
N2205 X-13.136 Y-166.601
N2210 X-13.153 Y-166.828
N2215 X-13.155 Y-167.055
N2220 X-13.141 Y-167.282
N2225 X-13.111 Y-167.508
N2230 X-13.065 Y-167.731
N2235 X-13.005 Y-167.95
N2240 X-12.929 Y-168.165
N2245 X-12.839 Y-168.374
N2250 X-12.734 Y-168.576
N2255 X-12.616 Y-168.77
N2260 X-12.485 Y-168.956
N2265 X-12.341 Y-169.133
N2270 X-12.185 Y-169.298
N2275 X-12.018 Y-169.453
N2280 X-11.841 Y-169.596
N2285 X-11.654 Y-169.726
N2290 X-11.459 Y-169.843
N2295 X-11.256 Y-169.947
N2300 X-11.047 Y-170.036
N2305 X-10.832 Y-170.11
N2310 X-10.612 Y-170.169
N2315 X-10.389 Y-170.213
N2320 X-10.163 Y-170.241
N2325 X-9.936 Y-170.254
N2330 X-9.708 Y-170.251
N2335 X-9.481 Y-170.232
N2340 X-9.256 Y-170.198
N2345 X-9.034 Y-170.148
N2350 X-8.816 Y-170.083
N2355 X-8.603 Y-170.003
N2360 X-8.396 Y-169.908
N2365 X-8.196 Y-169.8
N2370 X-8.004 Y-169.677
N2375 X-7.821 Y-169.542
N2380 X-7.648 Y-169.395
N2385 X-7.485 Y-169.236
N2390 X-7.334 Y-169.066
N2395 X-7.195 Y-168.885
N2400 X-7.068 Y-168.696
N2405 X-6.955 Y-168.499
N2410 X-6.856 Y-168.294
N2415 X-6.759 Y-168.084
N2420 X-6.675 Y-167.869
N2425 X-6.607 Y-167.648
N2430 X-6.554 Y-167.424
N2435 X-6.515 Y-167.196
N2440 X-6.493 Y-166.966
N2445 X-6.485 Y-166.735
N2450 X-6.494 Y-166.504
N2455 X-6.517 Y-166.275
N2460 X-6.557 Y-166.047
N2465 X-6.611 Y-165.822
N2470 X-6.681 Y-165.602
N2475 X-6.765 Y-165.387
N2480 X-6.863 Y-165.178
N2485 X-6.975 Y-164.976
N2490 X-7.101 Y-164.782
N2495 X-7.239 Y-164.597
N2500 X-7.389 Y-164.422
N2505 X-7.551 Y-164.257
N2510 X-7.724 Y-164.104
N2515 X-7.907 Y-163.962
N2520 X-8.098 Y-163.834
N2525 X-8.298 Y-163.718
N2530 X-8.505 Y-163.616
N2535 X-8.719 Y-163.528
N2540 X-8.938 Y-163.455
N2545 X-9.161 Y-163.396
N2550 X-9.388 Y-163.353
N2555 X-9.618 Y-163.325
N2560 X-9.848 Y-163.313
N2565 X-10.079 Y-163.316
N2570 X-10.309 Y-163.335
N2575 X-10.538 Y-163.369
N2580 X-10.763 Y-163.419
N2585 X-10.985 Y-163.484
N2590 X-11.202 Y-163.563
N2595 X-11.413 Y-163.657
N2600 X-11.617 Y-163.764
N2605 X-11.814 Y-163.886
N2610 X-12.002 Y-164.02
N2615 X-12.18 Y-164.167
N2620 X-12.349 Y-164.325
N2625 X-12.506 Y-164.494
N2630 X-12.651 Y-164.673
N2635 X-12.784 Y-164.862
N2640 X-12.904 Y-165.06
N2645 G3 X-11.53 Y-170.144 I3.043 J-1.905
N2650 X-6.565 Y-168.387 I1.668 J3.179
N2655 G1 X-6.467 Y-168.168
N2660 X-6.382 Y-167.943
N2665 X-6.312 Y-167.713
N2670 X-6.257 Y-167.48
N2675 X-6.218 Y-167.243
N2680 X-6.193 Y-167.004
N2685 X-6.184 Y-166.764
N2690 X-6.19 Y-166.524
N2695 X-6.212 Y-166.285
N2700 X-6.249 Y-166.048
N2705 X-6.301 Y-165.814
N2710 X-6.368 Y-165.583
N2715 X-6.45 Y-165.357
N2720 X-6.546 Y-165.137
N2725 X-6.656 Y-164.924
N2730 X-6.78 Y-164.718
N2735 X-6.917 Y-164.521
N2740 X-7.065 Y-164.333
N2745 X-7.226 Y-164.154
N2750 X-7.398 Y-163.987
N2755 X-7.58 Y-163.83
N2760 X-7.772 Y-163.686
N2765 X-7.973 Y-163.555
N2770 X-8.182 Y-163.436
N2775 X-8.398 Y-163.331
N2780 X-8.62 Y-163.241
N2785 X-8.848 Y-163.165
N2790 X-9.08 Y-163.103
N2795 X-9.316 Y-163.057
N2800 X-9.554 Y-163.026
N2805 X-9.793 Y-163.01
N2810 X-10.033
N2815 X-10.273 Y-163.025
N2820 X-10.511 Y-163.055
N2825 X-10.747 Y-163.101
N2830 X-10.979 Y-163.161
N2835 X-11.207 Y-163.237
N2840 X-11.429 Y-163.327
N2845 X-11.646 Y-163.431
N2850 X-11.855 Y-163.549
N2855 X-12.056 Y-163.68
N2860 X-12.248 Y-163.823
N2865 X-12.431 Y-163.979
N2870 X-12.603 Y-164.146
N2875 X-12.765 Y-164.324
N2880 X-12.914 Y-164.512
N2885 X-13.051 Y-164.709
N2890 X-13.175 Y-164.915
N2895 G3 X-11.705 Y-170.4 I3.315 J-2.051
N2900 X-6.32 Y-168.596 I1.844 J3.434
N2905 X-13.452 Y-164.762 I-3.601 J1.852
N2910 X-11.899 Y-170.656 I3.592 J-2.205
N2915 X-6.083 Y-168.836 I2.039 J3.688
N2920 X-13.707 Y-164.557 I-3.839 J2.092
N2925 X-12.094 Y-170.92 I3.847 J-2.411
N2930 X-5.81 Y-169.021 I2.235 J3.952
N2935 X-13.91 Y-164.257 I-4.111 J2.278
N2940 X-12.396 Y-171.129 I4.049 J-2.711
N2945 X-5.595 Y-169.324 I2.536 J4.161
N2950 X-14.217 Y-164.109 I-4.327 J2.58
N2955 X-12.619 Y-171.393 I4.356 J-2.861
N2960 X-5.375 Y-169.623 I2.758 J4.422
N2965 X-14.43 Y-163.803 I-4.547 J2.88
N2970 X-12.927 Y-171.609 I4.568 J-3.168
N2975 X-5.157 Y-169.933 I3.066 J4.638
N2980 X-14.635 Y-163.479 I-4.764 J3.191
N2985 X-13.254 Y-171.818 I4.773 J-3.493
N2990 X-4.946 Y-170.26 I3.391 J4.846
N2995 X-14.832 Y-163.138 I-4.973 J3.519
N3000 X-13.597 Y-172.018 I4.968 J-3.835
N3005 X-4.744 Y-170.603 I3.733 J5.045
N3010 X-6.085 Y-161.545 I-5.176 J3.862
N3015 X-15.136 Y-162.933 I-3.835 J-5.196
N3020 X-13.799 Y-172.327 I5.274 J-4.041
N3025 X-4.433 Y-170.805 I3.937 J5.353
N3030 X-15.324 Y-162.565 I-5.486 J4.065
N3035 X-14.169 Y-172.518 I5.46 J-4.41
N3040 X-4.241 Y-171.176 I4.306 J5.543
N3045 X-15.499 Y-162.181 I-5.677 J4.437
N3050 X-14.556 Y-172.697 I5.634 J-4.795
N3055 X-4.06 Y-171.562 I4.691 J5.721
N3060 X-5.114 Y-160.864 I-5.859 J4.824
N3065 X-15.809 Y-161.954 I-4.804 J-5.875
N3070 X-14.781 Y-173.011 I5.945 J-5.024
N3075 X-3.744 Y-171.786 I4.917 J6.033
N3080 X-15.971 Y-161.544 I-6.173 J5.05
N3085 X-15.194 Y-173.175 I6.105 J-5.434
N3090 X-3.578 Y-172.198 I5.328 J6.197
N3095 X-16.118 Y-161.12 I-6.338 J5.462
N3100 X-15.621 Y-173.326 I6.25 J-5.858
N3105 X-3.425 Y-172.625 I5.753 J6.347
N3110 X-4.039 Y-160.233 I-6.491 J5.89
N3115 X-16.429 Y-160.871 I-5.877 J-6.502
N3120 X-15.967 Y-173.552 I6.56 J-6.11
N3125 X-3.287 Y-173.067 I6.098 J6.571
N3130 X-3.592 Y-160.099 I-6.627 J6.332
N3135 X-16.56 Y-160.422 I-6.322 J-6.636
N3140 X-16.32 Y-173.776 I6.691 J-6.559
N3145 X-2.972 Y-173.323 I6.451 J6.795
N3150 X-16.673 Y-159.96 I-6.94 J6.59
N3155 X-16.785 Y-173.892 I6.803 J-7.021
N3160 X-2.854 Y-173.788 I6.915 J6.911
N3165 X-2.864 Y-159.668 I-7.059 J7.055
N3170 X-16.983 Y-159.69 I-7.049 J-7.065
N3175 X-17.16 Y-174.098 I7.111 J-7.292
N3180 X-2.752 Y-174.266 I7.288 J7.115
N3185 X-2.381 Y-159.571 I-7.158 J7.533
N3190 X-17.076 Y-159.207 I-7.53 J-7.162
N3195 X-17.541 Y-174.302 I7.203 J-7.777
N3200 X-2.44 Y-174.541 I7.668 J7.319
N3205 X-17.15 Y-158.711 I-7.468 J7.81
N3210 X-18.04 Y-174.379 I7.275 J-8.273
N3215 X-2.361 Y-175.04 I8.166 J7.395
N3220 X-13.97 Y-156.296 I-7.519 J8.31
N3225 G1 X-16.59 Y-157.818
N3230 G3 X-19.323 Y-173.348 I6.346 J-9.123
N3235 X-17.182 Y-175.711 I6.912 J4.112
N3240 G1 X-14.346 Y-177.334
N3245 G3 X-0.894 Y-174.118 I4.717 J10.012
N3250 X1.434 Y-169.306 I-7.388 J6.543
N3255 G1 X1.4 Y-164.859
N3260 G3 X-4.521 Y-156.479 I-10.426 J-1.085
N3265 X-12.393 Y-155.388 I-5.34 J-9.584
N3270 G1 X-12.687 Y-155.565
N3275 X-13.967 Y-156.304
N3280 G3 X-14.127 Y-156.992 Z-6.3 I0.265 J-0.424 F#104
N3285 X-13.945 Y-157.165 I0.424 J0.265
N3290 G1 X-13.485 Y-157.42
N3295 X0.183 Y-165.016 F#105
N3300 X0.657 Y-165.279 F#103
N3305 G3 X0.883 Y-165.342 I0.243 J0.437
N3310 X1.4 Y-164.86 Z-6.4 I0.017 J0.5
N3315 X-0.784 Y-158.93 I-7.468 J0.616 F#100
N3320 X-11.009 Y-154.74 I-9.031 J-7.466
N3325 G1 X-11.408 Y-154.863
N3330 X-11.784 Y-155.043
N3335 X-12.687 Y-155.565
N3340 G3 X-12.847 Y-156.253 Z-6.3 I0.265 J-0.424 F#104
N3345 X-12.669 Y-156.424 I0.424 J0.265
N3350 G1 X-12.207 Y-156.685
N3355 X0.185 Y-163.701 F#105
N3360 X0.654 Y-163.966 F#103
N3365 G3 X0.883 Y-164.031 I0.246 J0.435
N3370 X1.4 Y-163.549 Z-6.4 I0.017 J0.5
N3375 X-0.352 Y-158.805 I-6.15 J0.424 F#100
N3380 X-10.386 Y-154.292 I-9.352 J-7.384
N3385 G1 X-10.715 Y-154.452
N3390 X-11.029 Y-154.607
N3395 X-11.784 Y-155.043
N3400 G3 X-11.943 Y-155.732 Z-6.3 I0.265 J-0.424 F#104
N3405 X-11.768 Y-155.901 I0.424 J0.265
N3410 G1 X-11.305 Y-156.166
N3415 X0.187 Y-162.762 F#105
N3420 X0.651 Y-163.029 F#103
N3425 G3 X0.883 Y-163.095 I0.249 J0.434
N3430 X1.4 Y-162.612 Z-6.4 I0.017 J0.5
N3435 X-0.144 Y-158.422 I-5.392 J0.392 F#100
N3440 X-9.3 Y-153.862 I-9.474 J-7.549
N3445 X-11.029 Y-154.607 I0.658 J-3.906
N3450 X-11.188 Y-155.296 Z-6.3 I0.265 J-0.424 F#104
N3455 X-11.013 Y-155.464 I0.424 J0.265
N3460 G1 X-10.55 Y-155.731
N3465 X0.187 Y-161.909 F#105
N3470 X0.651 Y-162.176 F#103
N3475 G3 X0.883 Y-162.242 I0.249 J0.433
N3480 X1.4 Y-161.76 Z-6.4 I0.017 J0.5
N3485 X-0.176 Y-157.777 I-4.993 J0.328 F#100
N3490 G1 X-0.465 Y-157.446
N3495 X-0.766 Y-157.125
N3500 X-1.078 Y-156.815
N3505 X-1.401 Y-156.518
N3510 X-1.735 Y-156.232
N3515 X-2.079 Y-155.958
N3520 X-2.433 Y-155.697
N3525 X-2.796 Y-155.449
N3530 X-3.167 Y-155.214
N3535 X-3.547 Y-154.993
N3540 X-3.935 Y-154.786
N3545 X-4.33 Y-154.593
N3550 X-4.732 Y-154.415
N3555 X-5.14 Y-154.251
N3560 X-5.553 Y-154.102
N3565 X-5.972 Y-153.968
N3570 X-6.395 Y-153.85
N3575 X-6.823 Y-153.747
N3580 X-7.253 Y-153.659
N3585 X-7.687 Y-153.588
N3590 X-8.123 Y-153.532
N3595 X-8.561 Y-153.492
N3600 G3 X-10.353 Y-154.217 I0.457 J-3.706
N3605 X-10.513 Y-154.906 Z-6.3 I0.265 J-0.424 F#104
N3610 X-10.337 Y-155.075 I0.424 J0.265
N3615 G1 X-9.875 Y-155.34
N3620 X0.187 Y-161.114 F#105
N3625 X0.651 Y-161.381 F#103
N3630 G3 X0.883 Y-161.447 I0.249 J0.434
N3635 X1.4 Y-160.965 Z-6.4 I0.017 J0.5
N3640 X-0.184 Y-157.181 I-4.688 J0.261 F#100
N3645 X-7.961 Y-153.142 I-9.027 J-7.875
N3650 X-9.735 Y-153.86 I0.518 J-3.831
N3655 X-9.894 Y-154.549 Z-6.3 I0.265 J-0.424 F#104
N3660 X-9.719 Y-154.718 I0.424 J0.265
N3665 G1 X-9.256 Y-154.984
N3670 X0.187 Y-160.411 F#105
N3675 X0.651 Y-160.678 F#103
N3680 G3 X0.883 Y-160.744 I0.249 J0.434
N3685 X1.4 Y-160.262 Z-6.4 I0.017 J0.5
N3690 X-0.022 Y-156.781 I-4.323 J0.265 F#100
N3695 X-7.333 Y-152.818 I-8.911 J-7.714
N3700 X-9.154 Y-153.525 I0.4 J-3.73
N3705 X-9.314 Y-154.214 Z-6.3 I0.265 J-0.424 F#104
N3710 X-9.138 Y-154.383 I0.424 J0.265
N3715 G1 X-8.676 Y-154.648
N3720 X0.187 Y-159.734 F#105
N3725 X0.651 Y-160.001 F#103
N3730 G3 X0.883 Y-160.067 I0.249 J0.434
N3735 X1.4 Y-159.585 Z-6.4 I0.017 J0.5
N3740 X-0.03 Y-156.211 I-4.147 J0.232 F#100
N3745 G1 X-0.307 Y-155.91
N3750 X-0.593 Y-155.619
N3755 X-0.89 Y-155.339
N3760 X-1.197 Y-155.069
N3765 X-1.513 Y-154.81
N3770 X-1.839 Y-154.563
N3775 X-2.172 Y-154.328
N3780 X-2.515 Y-154.105
N3785 X-2.864 Y-153.894
N3790 X-3.222 Y-153.696
N3795 X-3.586 Y-153.51
N3800 X-3.956 Y-153.338
N3805 X-4.332 Y-153.179
N3810 X-4.714 Y-153.034
N3815 X-5.101 Y-152.902
N3820 X-5.492 Y-152.785
N3825 X-5.887 Y-152.681
N3830 X-6.285 Y-152.591
N3835 X-6.687 Y-152.516
N3840 G3 X-8.603 Y-153.207 I0.206 J-3.576
N3845 X-8.763 Y-153.895 Z-6.3 I0.265 J-0.424 F#104
N3850 X-8.587 Y-154.064 I0.424 J0.265
N3855 G1 X-8.125 Y-154.33
N3860 X0.187 Y-159.1 F#105
N3865 X0.651 Y-159.367 F#103
N3870 G3 X0.883 Y-159.433 I0.249 J0.434
N3875 X1.4 Y-158.951 Z-6.4 I0.017 J0.5
N3880 X-0.04 Y-155.653 I-4.011 J0.213 F#100
N3885 X-6.152 Y-152.217 I-8.126 J-7.302
N3890 X-8.075 Y-152.902 I0.191 J-3.58
N3895 X-8.235 Y-153.59 Z-6.3 I0.265 J-0.424 F#104
N3900 X-8.059 Y-153.76 I0.424 J0.265
N3905 G1 X-7.597 Y-154.025
N3910 X0.187 Y-158.492 F#105
N3915 X0.651 Y-158.759 F#103
N3920 G3 X0.883 Y-158.825 I0.249 J0.434
N3925 X1.4 Y-158.343 Z-6.4 I0.017 J0.5
N3930 X-0.063 Y-155.092 I-3.908 J0.196 F#100
N3935 X-5.631 Y-151.931 I-7.602 J-6.906
N3940 X-7.566 Y-152.608 I0.158 J-3.554
N3945 X-7.725 Y-153.296 Z-6.3 I0.265 J-0.424 F#104
N3950 X-7.549 Y-153.465 I0.424 J0.265
N3955 G1 X-7.086 Y-153.73
N3960 X0.186 Y-157.893 F#105
N3965 X0.652 Y-158.159 F#103
N3970 G3 X0.883 Y-158.225 I0.248 J0.434
N3975 X1.4 Y-157.743 Z-6.4 I0.017 J0.5
N3980 X-0.062 Y-154.565 I-3.809 J0.173 F#100
N3985 X-5.115 Y-151.658 I-7.052 J-6.414
N3990 X-7.073 Y-152.323 I0.093 J-3.488
N3995 X-7.232 Y-153.012 Z-6.3 I0.265 J-0.424 F#104
N4000 X-7.057 Y-153.181 I0.424 J0.265
N4005 G1 X-6.594 Y-153.446
N4010 X0.186 Y-157.331 F#105
N4015 X0.652 Y-157.597 F#103
N4020 G3 X0.883 Y-157.663 I0.249 J0.434
N4025 X1.4 Y-157.181 Z-6.4 I0.017 J0.5
N4030 X-0.074 Y-154.034 I-3.737 J0.169 F#100
N4035 X-4.617 Y-151.397 I-6.432 J-5.849
N4040 X-6.597 Y-152.048 I0.027 J-3.415
N4045 X-6.756 Y-152.737 Z-6.3 I0.265 J-0.424 F#104
N4050 X-6.58 Y-152.906 I0.424 J0.265
N4055 G1 X-6.117 Y-153.17
N4060 X0.186 Y-156.769 F#105
N4065 X0.652 Y-157.036 F#103
N4070 G3 X0.883 Y-157.101 I0.248 J0.434
N4075 X1.4 Y-156.619 Z-6.4 I0.017 J0.5
N4080 X-0.053 Y-153.54 I-3.653 J0.159 F#100
N4085 X-4.12 Y-151.148 I-5.834 J-5.265
N4090 X-6.134 Y-151.785 I-0.042 J-3.368
N4095 G1 X-6.203 Y-151.837 Z-6.389 F#104
N4100 X-6.263 Y-151.9 Z-6.378
N4105 X-6.31 Y-151.972 Z-6.367
N4110 X-6.344 Y-152.052 Z-6.356
N4115 X-6.364 Y-152.136 Z-6.344
N4120 X-6.369 Y-152.223 Z-6.333
N4125 X-6.359 Y-152.31 Z-6.322
N4130 X-6.334 Y-152.393 Z-6.311
N4135 X-6.295 Y-152.471 Z-6.3
N4140 G3 X-6.119 Y-152.64 I0.424 J0.265
N4145 G1 X-5.657 Y-152.904
N4150 X0.186 Y-156.245 F#105
N4155 X0.652 Y-156.512 F#103
N4160 G3 X0.883 Y-156.577 I0.248 J0.434
N4165 X1.4 Y-156.095 Z-6.4 I0.017 J0.5
N4170 X-0.084 Y-153.005 I-3.609 J0.168 F#100
N4175 X-3.664 Y-150.906 I-5.117 J-4.623
N4180 X-5.688 Y-151.528 I-0.102 J-3.27
N4185 G1 X-5.757 Y-151.58 Z-6.389 F#104
N4190 X-5.817 Y-151.643 Z-6.378
N4195 X-5.864 Y-151.715 Z-6.367
N4200 X-5.899 Y-151.795 Z-6.356
N4205 X-5.919 Y-151.879 Z-6.344
N4210 X-5.924 Y-151.966 Z-6.333
N4215 X-5.913 Y-152.052 Z-6.322
N4220 X-5.889 Y-152.136 Z-6.311
N4225 X-5.849 Y-152.213 Z-6.3
N4230 G3 X-5.671 Y-152.384 I0.424 J0.265
N4235 G1 X-5.209 Y-152.644
N4240 X0.185 Y-155.686 F#105
N4245 X0.655 Y-155.951 F#103
N4250 G3 X0.883 Y-156.015 I0.246 J0.436
N4255 X1.4 Y-155.533 Z-6.4 I0.017 J0.5
N4260 X-0.059 Y-152.529 I-3.526 J0.144 F#100
N4265 X-3.63 Y-150.634 I-4.261 J-3.72
N4270 X-5.259 Y-151.276 I0.569 J-3.835
N4275 X-5.419 Y-151.965 Z-6.3 I0.265 J-0.424 F#104
N4280 X-5.239 Y-152.136 I0.424 J0.265
N4285 G1 X-4.778 Y-152.394
N4290 X0.184 Y-155.172 F#105
N4295 X0.656 Y-155.436 F#103
N4300 G3 X0.883 Y-155.5 I0.244 J0.436
N4305 X1.4 Y-155.018 Z-6.4 I0.017 J0.5
N4310 X-0.032 Y-152.064 I-3.438 J0.157 F#100
N4315 X-3.215 Y-150.417 I-3.674 J-3.203
N4320 X-4.844 Y-151.036 I0.418 J-3.55
N4325 X-5.003 Y-151.725 Z-6.3 I0.265 J-0.424 F#104
N4330 X-4.821 Y-151.898 I0.424 J0.265
N4335 G1 X-4.361 Y-152.152
N4340 X0.182 Y-154.659 F#105
N4345 X0.659 Y-154.922 F#103
N4350 G3 X0.883 Y-154.984 I0.242 J0.438
N4355 X1.4 Y-154.502 Z-6.4 I0.017 J0.5
N4360 X-0.139 Y-151.495 I-3.436 J0.139 F#100
N4365 X-4.467 Y-150.768 I-2.583 J-2.132
N4370 G1 X-4.533 Y-150.822 Z-6.39 F#104
N4375 X-4.589 Y-150.886 Z-6.38
N4380 X-4.634 Y-150.956 Z-6.37
N4385 X-4.667 Y-151.032 Z-6.36
N4390 X-4.688 Y-151.112 Z-6.35
N4395 X-4.696 Y-151.193 Z-6.34
N4400 X-4.691 Y-151.274 Z-6.33
N4405 X-4.673 Y-151.352 Z-6.32
N4410 X-4.644 Y-151.426 Z-6.31
N4415 X-4.604 Y-151.494 Z-6.3
N4420 G3 X-4.418 Y-151.669 I0.424 J0.265
N4425 G1 X-3.959 Y-151.917
N4430 X0.18 Y-154.158 F#105
N4435 X0.662 Y-154.419 F#103
N4440 G3 X0.883 Y-154.479 I0.238 J0.44
N4445 X1.4 Y-153.997 Z-6.4 I0.017 J0.5
N4450 X-0.245 Y-150.956 I-3.39 J0.132 F#100
N4455 X-4.067 Y-150.585 I-2.122 J-1.987
N4460 G1 X-4.136 Y-150.638 Z-6.389 F#104
N4465 X-4.196 Y-150.702 Z-6.378
N4470 X-4.243 Y-150.775 Z-6.367
N4475 X-4.277 Y-150.856 Z-6.356
N4480 X-4.296 Y-150.941 Z-6.344
N4485 X-4.301 Y-151.028 Z-6.333
N4490 X-4.29 Y-151.115 Z-6.322
N4495 X-4.264 Y-151.198 Z-6.311
N4500 X-4.225 Y-151.275 Z-6.3
N4505 G3 X-4.031 Y-151.454 I0.424 J0.265
N4510 G1 X-3.576 Y-151.691
N4515 X0.176 Y-153.642 F#105
N4520 X0.67 Y-153.899 F#103
N4525 G3 X0.883 Y-153.955 I0.231 J0.444
N4530 X1.4 Y-153.473 Z-6.4 I0.017 J0.5
N4535 X-0.673 Y-150.253 I-3.46 J0.05 F#100
N4540 X-3.688 Y-150.397 I-1.411 J-2.072
N4545 G1 X-3.756 Y-150.445 Z-6.389 F#104
N4550 X-3.816 Y-150.504 Z-6.378
N4555 X-3.864 Y-150.573 Z-6.367
N4560 X-3.901 Y-150.65 Z-6.356
N4565 X-3.923 Y-150.732 Z-6.344
N4570 X-3.93 Y-150.818 Z-6.333
N4575 X-3.923 Y-150.904 Z-6.322
N4580 X-3.9 Y-150.988 Z-6.311
N4585 X-3.863 Y-151.067 Z-6.3
N4590 G3 X-3.664 Y-151.249 I0.424 J0.265
N4595 G1 X-3.212 Y-151.476
N4600 X0.172 Y-153.18 F#105
N4605 X0.675 Y-153.433 F#103
N4610 G3 X0.883 Y-153.486 I0.225 J0.447
N4615 X1.4 Y-153.004 Z-6.4 I0.017 J0.5
N4620 X-2.656 Y-149.776 I-3.229 J0.105 F#100
N4625 G1 X-3.048 Y-149.999
N4630 G3 X-3.207 Y-150.688 Z-6.3 I0.265 J-0.424 F#104
N4635 X-3.027 Y-150.86 I0.424 J0.265
N4640 G1 X-2.566 Y-151.117
N4645 X0.183 Y-152.653 F#105
N4650 X0.656 Y-152.918 F#103
N4655 G3 X0.883 Y-152.981 I0.244 J0.437
N4660 X1.4 Y-152.499 Z-6.4 I0.017 J0.5
N4665 G1 X1.403 Y-152.292 F#100
N4670 X1.392 Y-152.086
N4675 X1.365 Y-151.881
N4680 X1.324 Y-151.678
N4685 X1.269 Y-151.479
N4690 X1.199 Y-151.284
N4695 X1.115 Y-151.096
N4700 X1.017 Y-150.913
N4705 X0.907 Y-150.738
N4710 X0.785 Y-150.572
N4715 X0.65 Y-150.415
N4720 X0.505 Y-150.268
N4725 X0.35 Y-150.132
N4730 X0.185 Y-150.007
N4735 X0.011 Y-149.895
N4740 X-0.17 Y-149.796
N4745 X-0.358 Y-149.71
N4750 X-0.552 Y-149.637
N4755 X-0.75 Y-149.579
N4760 X-0.952 Y-149.536
N4765 X-1.157 Y-149.507
N4770 X-1.363 Y-149.493
N4775 X-1.57 Y-149.494
N4780 X-1.776 Y-149.51
N4785 X-1.98 Y-149.541
N4790 X-2.182 Y-149.586
N4795 X-2.379 Y-149.646
N4800 X-2.572 Y-149.72
N4805 X-2.759 Y-149.808
N4810 X-2.831 Y-149.865 Z-6.389 F#104
N4815 X-2.891 Y-149.932 Z-6.378
N4820 X-2.938 Y-150.009 Z-6.367
N4825 X-2.971 Y-150.092 Z-6.356
N4830 X-2.989 Y-150.179 Z-6.344
N4835 X-2.992 Y-150.268 Z-6.333
N4840 X-2.979 Y-150.355 Z-6.322
N4845 X-2.951 Y-150.439 Z-6.311
N4850 X-2.909 Y-150.516 Z-6.3
N4855 G3 X-2.715 Y-150.695 I0.424 J0.265
N4860 G1 X-2.261 Y-150.931
N4865 X0.176 Y-152.197 F#105
N4870 X0.67 Y-152.454 F#103
N4875 G3 X0.883 Y-152.51 I0.231 J0.444
N4880 X1.4 Y-152.028 Z-6.4 I0.017 J0.5
N4885 X-2.44 Y-149.659 I-2.543 J0.174 F#100
N4890 G1 X-2.509 Y-149.71 Z-6.389 F#104
N4895 X-2.568 Y-149.772 Z-6.378
N4900 X-2.616 Y-149.843 Z-6.367
N4905 X-2.65 Y-149.922 Z-6.356
N4910 X-2.671 Y-150.006 Z-6.344
N4915 X-2.676 Y-150.092 Z-6.333
N4920 X-2.667 Y-150.178 Z-6.322
N4925 X-2.643 Y-150.262 Z-6.311
N4930 X-2.604 Y-150.34 Z-6.3
N4935 G3 X-2.395 Y-150.526 I0.424 J0.265
N4940 G1 X-1.948 Y-150.74
N4945 X0.167 Y-151.749 F#105
N4950 X0.685 Y-151.996 F#103
N4955 G3 X0.883 Y-152.044 I0.215 J0.451
N4960 X1.4 Y-151.562 Z-6.4 I0.017 J0.5
N4965 X-2.126 Y-149.508 I-2.267 J0.162 F#100
N4970 G1 X-2.193 Y-149.553 Z-6.389 F#104
N4975 X-2.252 Y-149.611 Z-6.378
N4980 X-2.3 Y-149.678 Z-6.367
N4985 X-2.337 Y-149.753 Z-6.356
N4990 X-2.36 Y-149.834 Z-6.344
N4995 X-2.368 Y-149.919 Z-6.333
N5000 X-2.362 Y-150.004 Z-6.322
N5005 X-2.34 Y-150.087 Z-6.311
N5010 X-2.304 Y-150.167 Z-6.3
N5015 G3 X-2.083 Y-150.359 I0.424 J0.265
N5020 G1 X-1.643 Y-150.555
N5025 X0.161 Y-151.357 F#105
N5030 X0.697 Y-151.596 F#103
N5035 G3 X0.883 Y-151.639 I0.203 J0.457
N5040 X1.4 Y-151.156 Z-6.4 I0.017 J0.5
N5045 X-1.454 Y-149.171 I-1.991 J0.182 F#100
N5050 G1 X-1.844 Y-149.304
N5055 G3 X-2.004 Y-149.993 Z-6.3 I0.265 J-0.424 F#104
N5060 X-1.768 Y-150.191 I0.424 J0.265
N5065 G1 X-1.336 Y-150.367
N5070 X0.153 Y-150.974 F#105
N5075 X0.712 Y-151.202 F#103
N5080 G3 X0.883 Y-151.238 I0.189 J0.463
N5085 X1.4 Y-150.756 Z-6.4 I0.017 J0.5
N5090 X-0.801 Y-148.911 I-1.725 J0.178 F#100
N5095 G1 X-1.19 Y-148.968
N5100 X-1.545 Y-149.132
N5105 G3 X-1.704 Y-149.82 Z-6.3 I0.265 J-0.424 F#104
N5110 X-1.454 Y-150.024 I0.424 J0.265
N5115 G1 X-1.032 Y-150.181
N5120 X0.146 Y-150.618 F#105
N5125 X0.726 Y-150.833 F#103
N5130 G3 X0.883 Y-150.864 I0.174 J0.469
N5135 X1.4 Y-150.382 Z-6.4 I0.017 J0.5
N5140 X-1.209 Y-148.992 I-1.627 J0.089 F#100
N5145 G1 X-1.276 Y-149.035 Z-6.389 F#104
N5150 X-1.335 Y-149.09 Z-6.378
N5155 X-1.384 Y-149.155 Z-6.367
N5160 X-1.422 Y-149.229 Z-6.356
N5165 X-1.446 Y-149.309 Z-6.344
N5170 X-1.456 Y-149.393 Z-6.333
N5175 X-1.451 Y-149.478 Z-6.322
N5180 X-1.431 Y-149.562 Z-6.311
N5185 X-1.397 Y-149.643 Z-6.3
N5190 G3 X-1.121 Y-149.855 I0.424 J0.265
N5195 G1 X-0.716 Y-149.981
N5200 X0.166 Y-150.257 F#105
N5205 X0.728 Y-150.432 F#103
N5210 G3 X0.917 Y-150.453 I0.149 J0.477
N5215 X1.375 Y-149.914 Z-6.4 I-0.041 J0.498
N5220 X1.222 Y-149.265 I-1.879 J-0.1 F#100
N5225 G1 X1.2 Y-149.238 F#103
N5230 X1.169 Y-149.22
N5235 X1.134 Y-149.215
N5240 X1.1 Y-149.223
N5245 X1.071 Y-149.243
N5250 X1.052 Y-149.271
N5255 X1.044 Y-149.305
N5260 X1.049 Y-149.34
N5265 X1.148 Y-149.628
N5270 G3 X1.329 Y-149.586 I0.088 J0.03
N5275 G1 X1.287 Y-149.45 F#100
N5280 X1.232 Y-149.319
N5285 X1.164 Y-149.194
N5290 X1.084 Y-149.077
N5295 X0.993 Y-148.968
N5300 X0.891 Y-148.869
N5305 X0.779 Y-148.781
N5310 X0.66 Y-148.704
N5315 X0.533 Y-148.64
N5320 X0.4 Y-148.589
N5325 X0.263 Y-148.551
N5330 X0.123 Y-148.528
N5335 X-0.019 Y-148.518
N5340 X-0.161 Y-148.523
N5345 X-0.302 Y-148.542
N5350 X-0.348 Y-148.554 F#104
N5355 X-0.39 Y-148.577
N5360 X-0.425 Y-148.61
N5365 X-0.45 Y-148.652
N5370 X-0.465 Y-148.698
N5375 X-0.467 Y-148.748
N5380 X-0.456 Y-148.796
N5385 X-0.434 Y-148.841
N5390 X-0.4 Y-148.879
N5395 X-0.358 Y-148.907
N5400 X-0.042 Y-149.054
N5405 X0.944 Y-149.51 F#103
N5410 G3 X1.212 Y-149.248 I0.084 J0.181
N5415 X-1.036 Y-148.89 I-1.259 J-0.668 F#100
N5420 G1 X-1.213 Y-148.94
N5425 X-3.365 Y-150.182
N5430 X-3.571 Y-150.438 Z-6.358 F#104
N5435 X-3.631 Y-150.891 Z-6.3
N5440 X-3.733 Y-151.663
N5445 X-3.944 Y-153.248 F#105
N5450 G2 X-5.179 Y-155.076 I-2.477 J0.342
N5455 G1 X-9.295 Y-157.383
N5460 X-9.856 Y-157.529
N5465 X-12.475 Y-157.809
N5470 X-15.076 Y-157.549
N5475 X-15.095 Y-157.547 F#103
N5480 G3 X-15.852 Y-157.564 I-0.323 J-2.479
N5485 X-16.436 Y-157.743 Z-6.378 I0.434 J-2.462
N5490 G1 X-16.591 Y-157.819 Z-6.4
N5495 G3 X-21.099 Y-163.192 I3.428 J-7.453 F#100
N5500 X-18.715 Y-174.831 I10.881 J-3.835
N5505 G1 X-18.417 Y-174.983
N5510 X-17.174 Y-175.701
N5515 G3 X-16.498 Y-175.494 Z-6.3 I0.235 J0.441 F#104
N5520 X-16.44 Y-175.237 I-0.441 J0.235
N5525 G1 X-16.463 Y-174.725
N5530 X-17.142 Y-159.55 F#105
N5535 X-17.167 Y-158.994 F#103
N5540 G3 X-17.225 Y-158.781 I-0.5 J-0.022
N5545 X-17.901 Y-158.575 Z-6.4 I-0.441 J-0.235
N5550 X-21.304 Y-162.554 I2.785 J-5.827 F#100
N5555 X-19.943 Y-173.973 I10.969 J-4.483
N5560 G1 X-19.645 Y-174.24
N5565 X-19.315 Y-174.465
N5570 X-18.417 Y-174.983
N5575 G3 X-17.741 Y-174.777 Z-6.3 I0.235 J0.441 F#104
N5580 X-17.683 Y-174.528 I-0.441 J0.235
N5585 G1 X-17.697 Y-174.007
N5590 X-18.086 Y-160.091 F#105
N5595 X-18.102 Y-159.542 F#103
N5600 G3 X-18.16 Y-159.321 I-0.5 J-0.014
N5605 X-18.836 Y-159.115 Z-6.4 I-0.441 J-0.235
N5610 X-21.743 Y-162.572 I2.434 J-4.997 F#100
N5615 X-20.646 Y-173.647 I11.108 J-4.492
N5620 G1 X-20.35 Y-173.843
N5625 X-20.068 Y-174.03
N5630 X-19.315 Y-174.465
N5635 G3 X-18.639 Y-174.258 Z-6.3 I0.235 J0.441 F#104
N5640 X-18.581 Y-174.014 I-0.441 J0.235
N5645 G1 X-18.591 Y-173.489
N5650 X-18.839 Y-160.523 F#105
N5655 X-18.85 Y-159.979 F#103
N5660 G3 X-18.908 Y-159.753 I-0.5 J-0.01
N5665 X-19.585 Y-159.547 Z-6.4 I-0.441 J-0.235
N5670 X-22.445 Y-163.219 I2.643 J-5.009 F#100
N5675 X-21.594 Y-172.902 I11.996 J-3.823
N5680 X-20.068 Y-174.03 I3.201 J2.732
N5685 X-19.392 Y-173.824 Z-6.3 I0.235 J0.441 F#104
N5690 X-19.333 Y-173.58 I-0.441 J0.235
N5695 G1 X-19.342 Y-173.054
N5700 X-19.551 Y-160.933 F#105
N5705 X-19.56 Y-160.39 F#103
N5710 G3 X-19.619 Y-160.163 I-0.5 J-0.009
N5715 X-20.295 Y-159.957 Z-6.4 I-0.441 J-0.235
N5720 X-22.941 Y-163.473 I2.52 J-4.65 F#100
N5725 X-22.267 Y-172.477 I12.127 J-3.62
N5730 X-20.74 Y-173.642 I3.156 J2.552
N5735 X-20.064 Y-173.436 Z-6.3 I0.235 J0.441 F#104
N5740 X-20.005 Y-173.194 I-0.441 J0.235
N5745 G1 X-20.012 Y-172.666
N5750 X-20.153 Y-161.279 F#105
N5755 X-20.159 Y-160.738 F#103
N5760 G3 X-20.218 Y-160.509 I-0.5 J-0.006
N5765 X-20.894 Y-160.303 Z-6.4 I-0.441 J-0.235
N5770 X-23.289 Y-163.305 I2.192 J-4.205 F#100
N5775 X-22.886 Y-172.09 I11.858 J-3.858
N5780 X-21.358 Y-173.285 I3.121 J2.415
N5785 X-20.682 Y-173.079 Z-6.3 I0.235 J0.441 F#104
N5790 X-20.623 Y-172.837 I-0.441 J0.235
N5795 G1 X-20.63 Y-172.309
N5800 X-20.77 Y-161.636 F#105
N5805 X-20.777 Y-161.095 F#103
N5810 G3 X-20.836 Y-160.866 I-0.5 J-0.007
N5815 X-21.512 Y-160.66 Z-6.4 I-0.441 J-0.235
N5820 X-23.866 Y-163.863 I2.242 J-4.115 F#100
N5825 X-23.462 Y-171.755 I11.87 J-3.348
N5830 X-21.938 Y-172.95 I3.197 J2.507
N5835 X-21.262 Y-172.744 Z-6.3 I0.235 J0.441 F#104
N5840 X-21.204 Y-172.503 I-0.441 J0.235
N5845 G1 X-21.21 Y-171.974
N5850 X-21.332 Y-161.96 F#105
N5855 X-21.338 Y-161.419 F#103
N5860 G3 X-21.397 Y-161.19 I-0.5 J-0.006
N5865 X-22.073 Y-160.984 Z-6.4 I-0.441 J-0.235
N5870 X-24.328 Y-164.096 I2.163 J-3.941 F#100
N5875 X-24.177 Y-170.999 I11.765 J-3.195
N5880 X-22.487 Y-172.624 I2.872 J1.295
N5885 G1 X-22.409 Y-172.659 Z-6.389 F#104
N5890 X-22.325 Y-172.679 Z-6.378
N5895 X-22.239 Y-172.684 Z-6.367
N5900 X-22.153 Y-172.675 Z-6.356
N5905 X-22.07 Y-172.651 Z-6.344
N5910 X-21.993 Y-172.612 Z-6.333
N5915 X-21.923 Y-172.561 Z-6.322
N5920 X-21.863 Y-172.498 Z-6.311
N5925 X-21.814 Y-172.425 Z-6.3
N5930 G3 X-21.756 Y-172.186 I-0.441 J0.235
N5935 G1 X-21.76 Y-171.655
N5940 X-21.839 Y-162.251 F#105
N5945 X-21.843 Y-161.712 F#103
N5950 G3 X-21.902 Y-161.481 I-0.5 J-0.004
N5955 X-22.578 Y-161.275 Z-6.4 I-0.441 J-0.235
N5960 X-24.799 Y-164.386 I2.106 J-3.852 F#100
N5965 X-24.579 Y-171.018 I11.135 J-2.949
N5970 X-23.019 Y-172.326 I3.09 J2.1
N5975 X-22.343 Y-172.12 Z-6.3 I0.235 J0.441 F#104
N5980 X-22.284 Y-171.881 I-0.441 J0.235
N5985 G1 X-22.289 Y-171.35
N5990 X-22.362 Y-162.553 F#105
N5995 X-22.366 Y-162.014 F#103
N6000 G3 X-22.425 Y-161.784 I-0.5 J-0.004
N6005 X-23.101 Y-161.577 Z-6.4 I-0.441 J-0.235
N6010 X-25.19 Y-164.413 I1.993 J-3.655 F#100
N6015 X-25.088 Y-170.706 I10.449 J-2.978
N6020 X-23.528 Y-172.032 I3.075 J2.036
N6025 X-22.852 Y-171.826 Z-6.3 I0.235 J0.441 F#104
N6030 X-22.794 Y-171.587 I-0.441 J0.235
N6035 G1 X-22.798 Y-171.056
N6040 X-22.858 Y-162.839 F#105
N6045 X-22.862 Y-162.301 F#103
N6050 G3 X-22.921 Y-162.07 I-0.5 J-0.004
N6055 X-23.597 Y-161.863 Z-6.4 I-0.441 J-0.235
N6060 X-25.641 Y-164.671 I1.955 J-3.572 F#100
N6065 X-25.583 Y-170.394 I9.772 J-2.762
N6070 X-24.021 Y-171.748 I3.047 J1.936
N6075 X-23.345 Y-171.542 Z-6.3 I0.235 J0.441 F#104
N6080 X-23.286 Y-171.303 I-0.441 J0.235
N6085 G1 X-23.289 Y-170.772
N6090 X-23.336 Y-163.115 F#105
N6095 X-23.34 Y-162.577 F#103
N6100 G3 X-23.398 Y-162.345 I-0.5 J-0.003
N6105 X-24.074 Y-162.139 Z-6.4 I-0.441 J-0.235
N6110 X-26.037 Y-164.753 I1.789 J-3.387 F#100
N6115 X-26.056 Y-170.102 I8.96 J-2.706
N6120 X-24.496 Y-171.474 I3.025 J1.868
N6125 X-23.82 Y-171.267 Z-6.3 I0.235 J0.441 F#104
N6130 X-23.761 Y-171.028 I-0.441 J0.235
N6135 G1 X-23.766 Y-170.497
N6140 X-23.83 Y-163.401 F#105
N6145 X-23.835 Y-162.862 F#103
N6150 G3 X-23.894 Y-162.631 I-0.5 J-0.005
N6155 X-24.57 Y-162.425 Z-6.4 I-0.441 J-0.235
N6160 X-26.484 Y-165.026 I1.791 J-3.323 F#100
N6165 X-26.514 Y-169.811 I8.156 J-2.443
N6170 X-24.956 Y-171.208 I2.985 J1.761
N6175 X-24.28 Y-171.002 Z-6.3 I0.235 J0.441 F#104
N6180 X-24.221 Y-170.761 I-0.441 J0.235
N6185 G1 X-24.227 Y-170.232
N6190 X-24.3 Y-163.673 F#105
N6195 X-24.306 Y-163.133 F#103
N6200 G3 X-24.365 Y-162.904 I-0.5 J-0.006
N6205 X-25.041 Y-162.697 Z-6.4 I-0.441 J-0.235
N6210 X-26.926 Y-165.297 I1.783 J-3.275 F#100
N6215 X-26.952 Y-169.535 I7.322 J-2.164
N6220 X-25.4 Y-170.951 I2.945 J1.668
N6225 X-24.724 Y-170.745 Z-6.3 I0.235 J0.441 F#104
N6230 X-24.666 Y-170.502 I-0.441 J0.235
N6235 G1 X-24.674 Y-169.975
N6240 X-24.768 Y-163.944 F#105
N6245 X-24.776 Y-163.402 F#103
N6250 G3 X-24.835 Y-163.175 I-0.5 J-0.008
N6255 X-25.511 Y-162.968 Z-6.4 I-0.441 J-0.235
N6260 X-27.345 Y-165.509 I1.746 J-3.193 F#100
N6265 X-27.405 Y-169.175 I6.625 J-1.942
N6270 X-25.828 Y-170.701 I2.912 J1.431
N6275 G1 X-25.748 Y-170.735 Z-6.389 F#104
N6280 X-25.664 Y-170.755 Z-6.378
N6285 X-25.578 Y-170.76 Z-6.367
N6290 X-25.491 Y-170.749 Z-6.356
N6295 X-25.408 Y-170.724 Z-6.344
N6300 X-25.331 Y-170.685 Z-6.333
N6305 X-25.261 Y-170.633 Z-6.322
N6310 X-25.201 Y-170.57 Z-6.311
N6315 X-25.153 Y-170.497 Z-6.3
N6320 G3 X-25.095 Y-170.253 I-0.441 J0.235
N6325 G1 X-25.104 Y-169.728
N6330 X-25.201 Y-164.195 F#105
N6335 X-25.211 Y-163.652 F#103
N6340 G3 X-25.269 Y-163.426 I-0.5 J-0.009
N6345 X-25.945 Y-163.219 Z-6.4 I-0.441 J-0.235
N6350 X-27.803 Y-165.902 I1.815 J-3.242 F#100
N6355 X-27.62 Y-169.331 I5.048 J-1.449
N6360 X-26.239 Y-170.467 I2.944 J2.17
N6365 X-25.563 Y-170.261 Z-6.3 I0.235 J0.441 F#104
N6370 X-25.504 Y-170.015 I-0.441 J0.235
N6375 G1 X-25.516 Y-169.491
N6380 X-25.629 Y-164.444 F#105
N6385 X-25.641 Y-163.898 F#103
N6390 G3 X-25.7 Y-163.674 I-0.5 J-0.011
N6395 X-26.376 Y-163.468 Z-6.4 I-0.441 J-0.235
N6400 X-28.201 Y-166.095 I1.735 J-3.152 F#100
N6405 X-27.734 Y-169.475 I3.935 J-1.178
N6410 G1 X-27.378 Y-169.766
N6415 X-27.01 Y-170.022
N6420 X-26.633 Y-170.24
N6425 G3 X-25.957 Y-170.034 Z-6.3 I0.235 J0.441 F#104
N6430 X-25.898 Y-169.783 I-0.441 J0.235
N6435 G1 X-25.915 Y-169.264
N6440 X-26.059 Y-164.695 F#105
N6445 X-26.076 Y-164.145 F#103
N6450 G3 X-26.135 Y-163.925 I-0.5 J-0.016
N6455 X-26.811 Y-163.719 Z-6.4 I-0.441 J-0.235
N6460 X-28.619 Y-166.457 I1.7 J-3.089 F#100
N6465 G1 X-28.668 Y-166.664
N6470 X-28.703 Y-166.873
N6475 X-28.724 Y-167.085
N6480 X-28.73 Y-167.298
N6485 X-28.721 Y-167.51
N6490 X-28.698 Y-167.721
N6495 X-28.66 Y-167.93
N6500 X-28.608 Y-168.137
N6505 X-28.541 Y-168.339
N6510 X-28.461 Y-168.536
N6515 X-28.368 Y-168.727
N6520 X-28.262 Y-168.911
N6525 X-28.143 Y-169.087
N6530 X-28.013 Y-169.255
N6535 X-27.871 Y-169.413
N6540 X-27.719 Y-169.562
N6545 X-27.557 Y-169.699
N6550 X-27.386 Y-169.825
N6555 X-27.206 Y-169.939
N6560 X-27.019 Y-170.041
N6565 X-26.935 Y-170.074 Z-6.389 F#104
N6570 X-26.847 Y-170.092 Z-6.378
N6575 X-26.757 Y-170.094 Z-6.367
N6580 X-26.669 Y-170.081 Z-6.356
N6585 X-26.584 Y-170.053 Z-6.344
N6590 X-26.507 Y-170.011 Z-6.333
N6595 X-26.438 Y-169.956 Z-6.322
N6600 X-26.38 Y-169.89 Z-6.311
N6605 X-26.334 Y-169.816 Z-6.3
N6610 G3 X-26.276 Y-169.557 I-0.441 J0.235
N6615 G1 X-26.3 Y-169.046
N6620 X-26.494 Y-164.951 F#105
N6625 X-26.521 Y-164.393 F#103
N6630 G3 X-26.579 Y-164.182 I-0.499 J-0.024
N6635 X-27.255 Y-163.975 Z-6.4 I-0.441 J-0.235
N6640 X-28.986 Y-166.667 I1.612 J-2.939 F#100
N6645 X-27.704 Y-169.634 I2.765 J-0.566
N6650 G1 X-27.621 Y-169.668 Z-6.389 F#104
N6655 X-27.535 Y-169.686 Z-6.378
N6660 X-27.446 Y-169.69 Z-6.367
N6665 X-27.359 Y-169.678 Z-6.356
N6670 X-27.275 Y-169.651 Z-6.344
N6675 X-27.197 Y-169.611 Z-6.333
N6680 X-27.128 Y-169.557 Z-6.322
N6685 X-27.069 Y-169.492 Z-6.311
N6690 X-27.022 Y-169.418 Z-6.3
N6695 G3 X-26.963 Y-169.185 I-0.441 J0.235
N6700 G1 X-26.962 Y-168.649
N6705 X-26.952 Y-165.2 F#105
N6710 X-26.95 Y-164.667 F#103
N6715 G3 X-27.009 Y-164.43 I-0.5 J0.001
N6720 X-27.685 Y-164.224 Z-6.4 I-0.441 J-0.235
N6725 G1 X-27.873 Y-164.332 F#100
N6730 X-28.054 Y-164.453
N6735 X-28.226 Y-164.586
N6740 X-28.387 Y-164.732
N6745 X-28.539 Y-164.888
N6750 X-28.678 Y-165.054
N6755 X-28.806 Y-165.23
N6760 X-28.921 Y-165.414
N6765 X-29.023 Y-165.607
N6770 X-29.111 Y-165.805
N6775 X-29.185 Y-166.01
N6780 X-29.245 Y-166.219
N6785 X-29.29 Y-166.431
N6790 X-29.319 Y-166.647
N6795 X-29.334 Y-166.864
N6800 X-29.333 Y-167.081
N6805 X-29.317 Y-167.298
N6810 X-29.285 Y-167.513
N6815 X-29.239 Y-167.725
N6820 X-29.178 Y-167.934
N6825 X-29.102 Y-168.138
N6830 X-29.013 Y-168.336
N6835 X-28.909 Y-168.527
N6840 X-28.793 Y-168.711
N6845 X-28.663 Y-168.885
N6850 X-28.522 Y-169.051
N6855 X-28.37 Y-169.206
N6860 X-28.207 Y-169.35
N6865 X-28.034 Y-169.482
N6870 X-27.954 Y-169.513 Z-6.39 F#104
N6875 X-27.871 Y-169.53 Z-6.38
N6880 X-27.787 Y-169.535 Z-6.37
N6885 X-27.704 Y-169.526 Z-6.36
N6890 X-27.624 Y-169.504 Z-6.35
N6895 X-27.549 Y-169.47 Z-6.34
N6900 X-27.481 Y-169.426 Z-6.33
N6905 X-27.421 Y-169.371 Z-6.32
N6910 X-27.371 Y-169.308 Z-6.31
N6915 X-27.332 Y-169.239 Z-6.3
N6920 G3 X-27.274 Y-168.992 I-0.441 J0.235
N6925 G1 X-27.287 Y-168.47
N6930 X-27.363 Y-165.445 F#105
N6935 X-27.376 Y-164.898 F#103
N6940 G3 X-27.435 Y-164.676 I-0.5 J-0.012
N6945 X-28.111 Y-164.469 Z-6.4 I-0.441 J-0.235
N6950 G1 X-28.293 Y-164.571 F#100
N6955 X-28.468 Y-164.686
N6960 X-28.633 Y-164.814
N6965 X-28.788 Y-164.954
N6970 X-28.932 Y-165.105
N6975 X-29.064 Y-165.267
N6980 X-29.184 Y-165.438
N6985 X-29.29 Y-165.618
N6990 X-29.382 Y-165.805
N6995 X-29.46 Y-165.999
N7000 X-29.524 Y-166.198
N7005 X-29.571 Y-166.401
N7010 X-29.604 Y-166.608
N7015 X-29.621 Y-166.816
N7020 X-29.622 Y-167.025
N7025 X-29.607 Y-167.233
N7030 X-29.576 Y-167.439
N7035 X-29.53 Y-167.643
N7040 X-29.469 Y-167.843
N7045 X-29.393 Y-168.037
N7050 X-29.302 Y-168.226
N7055 X-29.198 Y-168.406
N7060 X-29.08 Y-168.579
N7065 X-28.949 Y-168.742
N7070 X-28.807 Y-168.894
N7075 X-28.653 Y-169.036
N7080 X-28.489 Y-169.165
N7085 X-28.316 Y-169.282
N7090 X-28.234 Y-169.316 Z-6.389 F#104
N7095 X-28.147 Y-169.334 Z-6.378
N7100 X-28.058 Y-169.338 Z-6.367
N7105 X-27.97 Y-169.326 Z-6.356
N7110 X-27.886 Y-169.299 Z-6.344
N7115 X-27.808 Y-169.258 Z-6.333
N7120 X-27.739 Y-169.204 Z-6.322
N7125 X-27.68 Y-169.139 Z-6.311
N7130 X-27.634 Y-169.065 Z-6.3
N7135 G3 X-27.576 Y-168.805 I-0.441 J0.235
N7140 G1 X-27.601 Y-168.296
N7145 X-27.731 Y-165.666 F#105
N7150 X-27.759 Y-165.107 F#103
N7155 G3 X-27.817 Y-164.897 I-0.499 J-0.025
N7160 X-28.493 Y-164.69 Z-6.4 I-0.441 J-0.235
N7165 X-28.582 Y-169.088 I1.066 J-2.221 F#100
N7170 G1 X-28.506 Y-169.123 Z-6.389 F#104
N7175 X-28.425 Y-169.144 Z-6.378
N7180 X-28.341 Y-169.151 Z-6.367
N7185 X-28.257 Y-169.143 Z-6.356
N7190 X-28.175 Y-169.121 Z-6.344
N7195 X-28.097 Y-169.084 Z-6.333
N7200 X-28.027 Y-169.035 Z-6.322
N7205 X-27.966 Y-168.973 Z-6.311
N7210 X-27.917 Y-168.902 Z-6.3
N7215 G3 X-27.86 Y-168.619 I-0.441 J0.235
N7220 G1 X-27.907 Y-168.134
N7225 X-28.12 Y-165.903 F#105
N7230 X-28.175 Y-165.324 F#103
N7235 G3 X-28.232 Y-165.136 I-0.498 J-0.048
N7240 X-28.908 Y-164.93 Z-6.4 I-0.441 J-0.235
N7245 X-28.885 Y-168.889 I0.968 J-1.974 F#100
N7250 G1 X-28.813 Y-168.925 Z-6.389 F#104
N7255 X-28.735 Y-168.949 Z-6.378
N7260 X-28.654 Y-168.958 Z-6.367
N7265 X-28.571 Y-168.953 Z-6.356
N7270 X-28.49 Y-168.933 Z-6.344
N7275 X-28.413 Y-168.899 Z-6.333
N7280 X-28.341 Y-168.852 Z-6.322
N7285 X-28.279 Y-168.793 Z-6.311
N7290 X-28.228 Y-168.722 Z-6.3
N7295 G3 X-28.173 Y-168.428 I-0.441 J0.235
N7300 G1 X-28.229 Y-167.956
N7305 X-28.452 Y-166.102 F#105
N7310 X-28.523 Y-165.511 F#103
N7315 G3 X-28.578 Y-165.336 I-0.496 J-0.06
N7320 X-29.254 Y-165.13 Z-6.4 I-0.441 J-0.235
N7325 X-29.513 Y-168.479 I0.819 J-1.748 F#100
N7330 G1 X-29.204 Y-168.756
N7335 G3 X-28.527 Y-168.549 Z-6.3 I0.235 J0.441 F#104
N7340 X-28.475 Y-168.237 I-0.441 J0.235
N7345 G1 X-28.546 Y-167.785
N7350 X-28.779 Y-166.3 F#105
N7355 X-28.874 Y-165.695 F#103
N7360 G3 X-28.927 Y-165.537 I-0.494 J-0.078
N7365 X-29.603 Y-165.331 Z-6.4 I-0.441 J-0.235
N7370 X-29.81 Y-168.316 I0.759 J-1.552 F#100
N7375 G1 X-29.518 Y-168.574
N7380 G3 X-28.842 Y-168.368 Z-6.3 I0.235 J0.441 F#104
N7385 X-28.794 Y-168.03 I-0.441 J0.235
N7390 G1 X-28.883 Y-167.608
N7395 X-29.119 Y-166.484 F#105
N7400 X-29.242 Y-165.902 F#103
N7405 G3 X-29.312 Y-165.733 I-0.489 J-0.103
N7410 X-30.004 Y-165.586 Z-6.4 I-0.419 J-0.273
N7415 X-29.913 Y-168.286 I0.79 J-1.325 F#100
N7420 G1 X-29.844 Y-168.327 Z-6.389 F#104
N7425 X-29.767 Y-168.356 Z-6.378
N7430 X-29.686 Y-168.371 Z-6.367
N7435 X-29.603 Y-168.372 Z-6.356
N7440 X-29.52 Y-168.358 Z-6.344
N7445 X-29.44 Y-168.329 Z-6.333
N7450 X-29.366 Y-168.287 Z-6.322
N7455 X-29.299 Y-168.231 Z-6.311
N7460 X-29.243 Y-168.165 Z-6.3
N7465 G3 X-29.174 Y-167.811 I-0.424 J0.266
N7470 G1 X-29.247 Y-167.407
N7475 X-29.381 Y-166.659 F#105
N7480 X-29.484 Y-166.088 F#103
N7485 G3 X-29.557 Y-165.904 I-0.492 J-0.088
N7490 X-30.248 Y-165.757 Z-6.4 I-0.419 J-0.273
N7495 X-30.592 Y-166.025 I0.75 J-1.316 F#100
N7500 X-30.56 Y-166.37 I0.226 J-0.153 F#104
N7505 X-30.176 Y-165.991 I0.192 J0.19 F#103
N7510 X-30.53 Y-165.964 I-0.192 J-0.19
N7515 X-30.896 Y-166.646 I1.074 J-1.017 F#100
N7520 X-30.521 Y-167.245 Z-6.3 I0.487 J-0.111 F#104
N7525 X-29.946 Y-166.947 I0.112 J0.487
N7530 G1 X-29.917 Y-166.877
N7535 X-29.871 Y-166.764 F#105
N7540 X-29.827 Y-166.656 F#103
N7545 G3 X-29.994 Y-166.064 I-0.463 J0.189
N7550 X-30.693 Y-166.171 Z-6.4 I-0.296 J-0.403
N7555 X-30.922 Y-166.835 I1.132 J-0.762 F#100
N7560 X-30.419 Y-167.331 Z-6.3 I0.5 J0.003 F#104
N7565 X-29.925 Y-166.781 I-0.003 J0.5
N7570 G1 X-29.926 Y-166.764 F#103
N7575 G3 X-30.279 Y-166.336 I-0.497 J-0.05
N7580 X-30.902 Y-166.669 Z-6.4 I-0.145 J-0.479
N7585 X-30.84 Y-167.403 I1.54 J-0.239 F#100
N7590 X-30.202 Y-167.707 Z-6.3 I0.471 J0.167 F#104
N7595 X-29.874 Y-167.163 I-0.167 J0.471
N7600 G1 X-29.888 Y-167.073
N7605 X-29.914 Y-166.892 F#105
N7610 X-29.928 Y-166.795 F#103
N7615 G3 X-30.392 Y-166.368 I-0.495 J-0.073
N7620 X-30.922 Y-166.836 Z-6.4 I-0.031 J-0.499
N7625 X-30.801 Y-167.505 I1.271 J-0.116 F#100
N7630 G1 X-30.778 Y-167.543 F#104
N7635 G3 X-30.476 Y-167.623 I0.208 J0.173 F#103
N7640 X-30.663 Y-167.122 I-0.093 J0.251
N7645 X-30.827 Y-167.444 I0.093 J-0.251
N7650 X-29.788 Y-168.418 I1.708 J0.781 F#100
N7655 G1 X-27.364 Y-169.818
N7660 X-27.068 Y-169.873 Z-6.362 F#104
N7665 X-26.587 Y-169.812 Z-6.3
N7670 X-25.814 Y-169.714
N7675 X-22.578 Y-169.303 F#105
N7680 G2 X-21.081 Y-169.635 I0.234 J-2.489
N7685 G1 X-17.349 Y-171.79
N7690 G2 X-16.217 Y-173.252 I-1.271 J-2.153
N7695 G3 X-15.338 Y-176.156 I28.905 J7.17
N7700 G1 X-15.257 Y-176.333 F#103
N7705 X-15.163 Y-176.504
N7710 X-15.056 Y-176.667
N7715 X-14.936 Y-176.821
N7720 G3 X-14.346 Y-177.334 Z-6.4 I1.915 J1.607
N7725 X-7.437 Y-178.536 I4.72 J6.672 F#100
N7730 X1.413 Y-170.931 I-2.136 J11.437
N7735 G1 X1.4 Y-170.544
N7740 Y-169.3
N7745 G3 X0.883 Y-168.818 Z-6.3 I-0.5 J-0.017 F#104
N7750 X0.64 Y-168.891 I0.017 J-0.5
N7755 G1 X0.194 Y-169.163
N7760 X-12.565 Y-176.954 F#105
N7765 X-13.032 Y-177.239 F#103
N7770 G3 X-13.196 Y-177.401 I0.261 J-0.427
N7775 X-13.037 Y-178.09 Z-6.4 I0.424 J-0.265
N7780 X-7.886 Y-179.036 I3.641 J5.333 F#100
N7785 X1.278 Y-172.35 I-1.634 J11.864
N7790 G1 X1.366 Y-171.933
N7795 X1.4 Y-171.511
N7800 Y-170.544
N7805 G3 X0.883 Y-170.061 Z-6.3 I-0.5 J-0.017 F#104
N7810 X0.644 Y-170.132 I0.017 J-0.5
N7815 G1 X0.191 Y-170.402
N7820 X-11.661 Y-177.479 F#105
N7825 X-12.127 Y-177.757 F#103
N7830 G3 X-12.295 Y-177.921 I0.256 J-0.429
N7835 X-12.135 Y-178.61 Z-6.4 I0.424 J-0.265
N7840 X-7.644 Y-179.406 I3.134 J4.614 F#100
N7845 X1.195 Y-173.391 I-1.724 J12.036
N7850 X1.4 Y-171.511 I-3.805 J1.366
N7855 X0.883 Y-171.029 Z-6.3 I-0.5 J-0.017 F#104
N7860 X0.645 Y-171.099 I0.017 J-0.5
N7865 G1 X0.19 Y-171.369
N7870 X-10.878 Y-177.932 F#105
N7875 X-11.343 Y-178.208 F#103
N7880 G3 X-11.512 Y-178.373 I0.255 J-0.43
N7885 X-11.353 Y-179.062 Z-6.4 I0.424 J-0.265
N7890 X-6.792 Y-179.703 I2.996 J4.774 F#100
N7895 X1.184 Y-174.221 I-2.65 J12.399
N7900 X1.4 Y-172.344 I-3.985 J1.409
N7905 X0.883 Y-171.862 Z-6.3 I-0.5 J-0.017 F#104
N7910 X0.646 Y-171.931 I0.017 J-0.5
N7915 G1 X0.19 Y-172.2
N7920 X-10.202 Y-178.323 F#105
N7925 X-10.666 Y-178.597 F#103
N7930 G3 X-10.837 Y-178.763 I0.254 J-0.431
N7935 X-10.677 Y-179.452 Z-6.4 I0.424 J-0.265
N7940 X-6.55 Y-180.004 I2.637 J4.007 F#100
N7945 G1 X-6.13 Y-179.916
N7950 X-5.714 Y-179.813
N7955 X-5.302 Y-179.695
N7960 X-4.894 Y-179.563
N7965 X-4.492 Y-179.417
N7970 X-4.094 Y-179.256
N7975 X-3.703 Y-179.082
N7980 X-3.318 Y-178.894
N7985 X-2.939 Y-178.692
N7990 X-2.569 Y-178.477
N7995 X-2.206 Y-178.249
N8000 X-1.851 Y-178.009
N8005 X-1.505 Y-177.756
N8010 X-1.168 Y-177.491
N8015 X-0.841 Y-177.214
N8020 X-0.523 Y-176.926
N8025 X-0.216 Y-176.627
N8030 X0.08 Y-176.317
N8035 X0.365 Y-175.997
N8040 X0.638 Y-175.667
N8045 X0.9 Y-175.327
N8050 X1.15 Y-174.979
N8055 G3 X1.4 Y-173.1 I-3.582 J1.434
N8060 X0.883 Y-172.618 Z-6.3 I-0.5 J-0.017 F#104
N8065 X0.647 Y-172.687 I0.017 J-0.5
N8070 G1 X0.189 Y-172.956
N8075 X-9.567 Y-178.69 F#105
N8080 X-10.032 Y-178.963 F#103
N8085 G3 X-10.203 Y-179.129 I0.253 J-0.431
N8090 X-10.043 Y-179.818 Z-6.4 I0.424 J-0.265
N8095 X-6.26 Y-180.385 I2.536 J4.015 F#100
N8100 X1.131 Y-175.715 I-2.578 J12.265
N8105 X1.4 Y-173.8 I-3.718 J1.498
N8110 X0.883 Y-173.318 Z-6.3 I-0.5 J-0.017 F#104
N8115 X0.647 Y-173.386 I0.017 J-0.5
N8120 G1 X0.189 Y-173.655
N8125 X-8.966 Y-179.037 F#105
N8130 X-9.431 Y-179.31 F#103
N8135 G3 X-9.602 Y-179.476 I0.253 J-0.431
N8140 X-9.442 Y-180.165 Z-6.4 I0.424 J-0.265
N8145 X-5.504 Y-180.611 I2.447 J3.993 F#100
N8150 X0.857 Y-176.716 I-3.076 J12.166
N8155 X1.392 Y-174.46 I-2.614 J1.812
N8160 G1 X1.383 Y-174.374 Z-6.389 F#104
N8165 X1.358 Y-174.292 Z-6.378
N8170 X1.32 Y-174.214 Z-6.367
N8175 X1.269 Y-174.145 Z-6.356
N8180 X1.206 Y-174.085 Z-6.344
N8185 X1.134 Y-174.037 Z-6.333
N8190 X1.055 Y-174.002 Z-6.322
N8195 X0.97 Y-173.982 Z-6.311
N8200 X0.883 Y-173.976 Z-6.3
N8205 G3 X0.647 Y-174.045 I0.017 J-0.5
N8210 G1 X0.189 Y-174.313
N8215 X-8.414 Y-179.356 F#105
N8220 X-8.878 Y-179.629 F#103
N8225 G3 X-9.049 Y-179.795 I0.253 J-0.431
N8230 X-8.89 Y-180.484 Z-6.4 I0.424 J-0.265
N8235 X-5.059 Y-180.893 I2.347 J3.843 F#100
N8240 X0.829 Y-177.363 I-3.099 J11.845
N8245 X1.393 Y-175.088 I-2.583 J1.847
N8250 G1 X1.383 Y-175.003 Z-6.389 F#104
N8255 X1.359 Y-174.92 Z-6.378
N8260 X1.32 Y-174.843 Z-6.367
N8265 X1.269 Y-174.773 Z-6.356
N8270 X1.207 Y-174.714 Z-6.344
N8275 X1.134 Y-174.666 Z-6.333
N8280 X1.055 Y-174.631 Z-6.322
N8285 X0.97 Y-174.611 Z-6.311
N8290 X0.883 Y-174.605 Z-6.3
N8295 G3 X0.649 Y-174.673 I0.017 J-0.5
N8300 G1 X0.188 Y-174.941
N8305 X-7.9 Y-179.654 F#105
N8310 X-8.364 Y-179.924 F#103
N8315 G3 X-8.537 Y-180.091 I0.252 J-0.432
N8320 X-8.377 Y-180.78 Z-6.4 I0.424 J-0.265
N8325 X-4.781 Y-181.208 I2.259 J3.659 F#100
N8330 X1.01 Y-177.741 I-2.759 J11.178
N8335 X1.4 Y-175.691 I-3.195 J1.67
N8340 X0.883 Y-175.209 Z-6.3 I-0.5 J-0.017 F#104
N8345 X0.648 Y-175.277 I0.017 J-0.5
N8350 G1 X0.189 Y-175.546
N8355 X-7.36 Y-179.965 F#105
N8360 X-7.824 Y-180.237 F#103
N8365 G3 X-7.996 Y-180.403 I0.253 J-0.432
N8370 X-7.836 Y-181.092 Z-6.4 I0.424 J-0.265
N8375 X-4.341 Y-181.478 I2.164 J3.569 F#100
N8380 X0.787 Y-178.564 I-2.729 J10.771
N8385 G1 X0.914 Y-178.384
N8390 X1.028 Y-178.194
N8395 X1.128 Y-177.997
N8400 X1.214 Y-177.794
N8405 X1.286 Y-177.585
N8410 X1.342 Y-177.371
N8415 X1.383 Y-177.154
N8420 X1.409 Y-176.935
N8425 X1.419 Y-176.714
N8430 X1.414 Y-176.493
N8435 X1.393 Y-176.273
N8440 X1.383 Y-176.188 Z-6.389 F#104
N8445 X1.359 Y-176.105 Z-6.378
N8450 X1.321 Y-176.028 Z-6.367
N8455 X1.269 Y-175.958 Z-6.356
N8460 X1.207 Y-175.898 Z-6.344
N8465 X1.134 Y-175.85 Z-6.333
N8470 X1.055 Y-175.816 Z-6.322
N8475 X0.97 Y-175.795 Z-6.311
N8480 X0.883 Y-175.79 Z-6.3
N8485 G3 X0.648 Y-175.858 I0.017 J-0.5
N8490 G1 X0.188 Y-176.126
N8495 X-6.877 Y-180.244 F#105
N8500 X-7.341 Y-180.515 F#103
N8505 G3 X-7.513 Y-180.682 I0.252 J-0.432
N8510 X-7.354 Y-181.371 Z-6.4 I0.424 J-0.265
N8515 X-3.872 Y-181.737 I2.128 J3.505 F#100
N8520 X0.755 Y-179.143 I-2.589 J10.042
N8525 X1.392 Y-176.837 I-2.396 J1.903
N8530 G1 X1.383 Y-176.752 Z-6.389 F#104
N8535 X1.358 Y-176.669 Z-6.378
N8540 X1.32 Y-176.592 Z-6.367
N8545 X1.269 Y-176.522 Z-6.356
N8550 X1.206 Y-176.463 Z-6.344
N8555 X1.134 Y-176.415 Z-6.333
N8560 X1.055 Y-176.38 Z-6.322
N8565 X0.97 Y-176.359 Z-6.311
N8570 X0.883 Y-176.354 Z-6.3
N8575 G3 X0.648 Y-176.422 I0.017 J-0.5
N8580 G1 X0.188 Y-176.69
N8585 X-6.386 Y-180.527 F#105
N8590 X-6.85 Y-180.798 F#103
N8595 G3 X-7.022 Y-180.965 I0.252 J-0.432
N8600 X-6.863 Y-181.654 Z-6.4 I0.424 J-0.265
N8605 X-3.425 Y-181.995 I2.078 J3.446 F#100
N8610 X0.951 Y-179.391 I-1.927 J8.216
N8615 X1.393 Y-177.383 I-2.575 J1.62
N8620 G1 X1.383 Y-177.298 Z-6.389 F#104
N8625 X1.359 Y-177.215 Z-6.378
N8630 X1.321 Y-177.138 Z-6.367
N8635 X1.269 Y-177.068 Z-6.356
N8640 X1.207 Y-177.008 Z-6.344
N8645 X1.134 Y-176.96 Z-6.333
N8650 X1.055 Y-176.926 Z-6.322
N8655 X0.97 Y-176.905 Z-6.311
N8660 X0.883 Y-176.9 Z-6.3
N8665 G3 X0.648 Y-176.968 I0.017 J-0.5
N8670 G1 X0.189 Y-177.236
N8675 X-5.915 Y-180.799 F#105
N8680 X-6.379 Y-181.07 F#103
N8685 G3 X-6.551 Y-181.237 I0.252 J-0.432
N8690 X-6.392 Y-181.926 Z-6.4 I0.424 J-0.265
N8695 X-2.983 Y-182.25 I2.042 J3.391 F#100
N8700 X0.928 Y-179.935 I-1.791 J7.488
N8705 X1.393 Y-177.911 I-2.516 J1.643
N8710 G1 X1.383 Y-177.825 Z-6.389 F#104
N8715 X1.359 Y-177.743 Z-6.378
N8720 X1.32 Y-177.665 Z-6.367
N8725 X1.269 Y-177.596 Z-6.356
N8730 X1.207 Y-177.536 Z-6.344
N8735 X1.134 Y-177.488 Z-6.333
N8740 X1.055 Y-177.453 Z-6.322
N8745 X0.97 Y-177.433 Z-6.311
N8750 X0.883 Y-177.427 Z-6.3
N8755 G3 X0.648 Y-177.496 I0.017 J-0.5
N8760 G1 X0.189 Y-177.764
N8765 X-5.451 Y-181.067 F#105
N8770 X-5.915 Y-181.339 F#103
N8775 G3 X-6.087 Y-181.505 I0.253 J-0.431
N8780 X-5.928 Y-182.194 Z-6.4 I0.424 J-0.265
N8785 X-2.748 Y-182.553 I1.966 J3.149 F#100
N8790 G1 X-2.429 Y-182.472
N8795 X-2.113 Y-182.376
N8800 X-1.802 Y-182.267
N8805 X-1.496 Y-182.144
N8810 X-1.196 Y-182.008
N8815 X-0.902 Y-181.859
N8820 X-0.615 Y-181.697
N8825 X-0.335 Y-181.523
N8830 X-0.063 Y-181.337
N8835 X0.201 Y-181.139
N8840 X0.456 Y-180.93
N8845 X0.701 Y-180.71
N8850 X0.937 Y-180.479
N8855 G3 X1.4 Y-178.42 I-2.855 J1.724
N8860 X0.883 Y-177.937 Z-6.3 I-0.5 J-0.017 F#104
N8865 X0.646 Y-178.007 I0.017 J-0.5
N8870 G1 X0.19 Y-178.276
N8875 X-4.983 Y-181.336 F#105
N8880 X-5.447 Y-181.611 F#103
N8885 G3 X-5.617 Y-181.777 I0.255 J-0.43
N8890 X-5.458 Y-182.465 Z-6.4 I0.424 J-0.265
N8895 X-2.312 Y-182.8 I1.922 J3.109 F#100
N8900 X0.866 Y-181.036 I-1.595 J6.617
N8905 X1.397 Y-178.912 I-2.7 J1.803
N8910 G1 X1.387 Y-178.826 Z-6.389 F#104
N8915 X1.362 Y-178.743 Z-6.378
N8920 X1.323 Y-178.666 Z-6.367
N8925 X1.271 Y-178.596 Z-6.356
N8930 X1.207 Y-178.537 Z-6.344
N8935 X1.135 Y-178.489 Z-6.333
N8940 X1.055 Y-178.455 Z-6.322
N8945 X0.97 Y-178.435 Z-6.311
N8950 X0.883 Y-178.43 Z-6.3
N8955 G3 X0.643 Y-178.501 I0.017 J-0.5
N8960 G1 X0.192 Y-178.772
N8965 X-4.519 Y-181.602 F#105
N8970 X-4.985 Y-181.882 F#103
N8975 G3 X-5.151 Y-182.046 I0.257 J-0.429
N8980 X-4.992 Y-182.734 Z-6.4 I0.424 J-0.265
N8985 X-1.908 Y-183.048 I1.868 J3.041 F#100
N8990 X1.117 Y-181.138 I-1.163 J5.191
N8995 X1.4 Y-179.383 I-3.472 J1.461
N9000 X0.883 Y-178.901 Z-6.3 I-0.5 J-0.017 F#104
N9005 X0.639 Y-178.974 I0.017 J-0.5
N9010 G1 X0.194 Y-179.246
N9015 X-4.074 Y-181.856 F#105
N9020 X-4.541 Y-182.142 F#103
N9025 G3 X-4.704 Y-182.304 I0.261 J-0.427
N9030 X-4.545 Y-182.993 Z-6.4 I0.424 J-0.265
N9035 X-1.381 Y-183.25 I1.843 J3.084 F#100
N9040 X1.324 Y-181.061 I-0.891 J3.866
N9045 G1 X1.371 Y-180.659
N9050 X1.4 Y-180.266
N9055 Y-179.836
N9060 G3 X0.883 Y-179.354 Z-6.3 I-0.5 J-0.017 F#104
N9065 X0.637 Y-179.429 I0.017 J-0.5
N9070 G1 X0.196 Y-179.702
N9075 X-3.66 Y-182.094 F#105
N9080 X-4.128 Y-182.384 F#103
N9085 G3 X-4.288 Y-182.544 I0.264 J-0.425
N9090 X-4.129 Y-183.233 Z-6.4 I0.424 J-0.265
N9095 X-0.857 Y-183.429 I1.823 J3.01 F#100
N9100 X1.419 Y-180.265 I-0.783 J2.963
N9105 G1 X1.405 Y-180.176 Z-6.389 F#104
N9110 X1.377 Y-180.091 Z-6.378
N9115 X1.335 Y-180.012 Z-6.367
N9120 X1.279 Y-179.942 Z-6.356
N9125 X1.213 Y-179.883 Z-6.344
N9130 X1.138 Y-179.837 Z-6.333
N9135 X1.056 Y-179.804 Z-6.322
N9140 X0.97 Y-179.786 Z-6.311
N9145 X0.883 Y-179.784 Z-6.3
N9150 G3 X0.629 Y-179.863 I0.017 J-0.5
N9155 G1 X0.201 Y-180.14
N9160 X-3.219 Y-182.343 F#105
N9165 X-3.689 Y-182.646 F#103
N9170 G3 X-3.842 Y-182.802 I0.271 J-0.42
N9175 X-3.683 Y-183.49 Z-6.4 I0.424 J-0.265
N9180 X-0.507 Y-183.646 I1.731 J2.843 F#100
N9185 X1.41 Y-181.06 I-0.887 J2.661
N9190 G1 X1.398 Y-180.972 Z-6.389 F#104
N9195 X1.371 Y-180.888 Z-6.378
N9200 X1.33 Y-180.809 Z-6.367
N9205 X1.276 Y-180.74 Z-6.356
N9210 X1.211 Y-180.68 Z-6.344
N9215 X1.137 Y-180.633 Z-6.333
N9220 X1.056 Y-180.6 Z-6.322
N9225 X0.97 Y-180.581 Z-6.311
N9230 X0.883 Y-180.578 Z-6.3
N9235 G3 X0.653 Y-180.643 I0.017 J-0.5
N9240 G1 X0.186 Y-180.909
N9245 X-2.792 Y-182.606 F#105
N9250 X-3.254 Y-182.869 F#103
N9255 G3 X-3.431 Y-183.039 I0.248 J-0.434
N9260 X-3.272 Y-183.728 Z-6.4 I0.424 J-0.265
N9265 G1 X-3.085 Y-183.838 F#100
N9270 X-2.891 Y-183.935
N9275 X-2.69 Y-184.018
N9280 X-2.484 Y-184.087
N9285 X-2.274 Y-184.141
N9290 X-2.06 Y-184.18
N9295 X-1.844 Y-184.204
N9300 X-1.628 Y-184.213
N9305 X-1.411 Y-184.206
N9310 X-1.195 Y-184.184
N9315 X-0.981 Y-184.146
N9320 X-0.77 Y-184.094
N9325 X-0.563 Y-184.027
N9330 X-0.362 Y-183.945
N9335 X-0.167 Y-183.85
N9340 X0.02 Y-183.741
N9345 X0.2 Y-183.618
N9350 X0.37 Y-183.484
N9355 X0.531 Y-183.338
N9360 X0.681 Y-183.181
N9365 X0.819 Y-183.013
N9370 X0.945 Y-182.836
N9375 X1.058 Y-182.651
N9380 X1.158 Y-182.459
N9385 X1.244 Y-182.259
N9390 X1.316 Y-182.054
N9395 X1.373 Y-181.845
N9400 X1.416 Y-181.632
N9405 X1.443 Y-181.416
N9410 X1.43 Y-181.332 Z-6.39 F#104
N9415 X1.404 Y-181.252 Z-6.38
N9420 X1.365 Y-181.177 Z-6.37
N9425 X1.316 Y-181.109 Z-6.36
N9430 X1.258 Y-181.051 Z-6.35
N9435 X1.191 Y-181.003 Z-6.34
N9440 X1.119 Y-180.966 Z-6.33
N9445 X1.042 Y-180.942 Z-6.32
N9450 X0.963 Y-180.93 Z-6.31
N9455 X0.883 Z-6.3
N9460 G3 X0.638 Y-181.004 I0.017 J-0.5
N9465 G1 X0.195 Y-181.277
N9470 X-2.357 Y-182.847 F#105
N9475 X-2.825 Y-183.134 F#103
N9480 G3 X-2.987 Y-183.295 I0.262 J-0.426
N9485 X-2.828 Y-183.984 Z-6.4 I0.424 J-0.265
N9490 G1 X-2.649 Y-184.091 F#100
N9495 X-2.462 Y-184.184
N9500 X-2.269 Y-184.263
N9505 X-2.071 Y-184.327
N9510 X-1.868 Y-184.376
N9515 X-1.662 Y-184.409
N9520 X-1.454 Y-184.426
N9525 X-1.246 Y-184.428
N9530 X-1.038 Y-184.413
N9535 X-0.832 Y-184.383
N9540 X-0.628 Y-184.337
N9545 X-0.429 Y-184.276
N9550 X-0.235 Y-184.199
N9555 X-0.047 Y-184.108
N9560 X0.133 Y-184.004
N9565 X0.305 Y-183.885
N9570 X0.467 Y-183.754
N9575 X0.619 Y-183.611
N9580 X0.759 Y-183.457
N9585 X0.887 Y-183.293
N9590 X1.003 Y-183.119
N9595 X1.104 Y-182.937
N9600 X1.192 Y-182.748
N9605 X1.265 Y-182.552
N9610 X1.323 Y-182.352
N9615 X1.365 Y-182.148
N9620 X1.392 Y-181.941
N9625 X1.403 Y-181.733
N9630 X1.392 Y-181.646 Z-6.389 F#104
N9635 X1.366 Y-181.562 Z-6.378
N9640 X1.326 Y-181.484 Z-6.367
N9645 X1.273 Y-181.415 Z-6.356
N9650 X1.209 Y-181.355 Z-6.344
N9655 X1.136 Y-181.308 Z-6.333
N9660 X1.055 Y-181.274 Z-6.322
N9665 X0.97 Y-181.255 Z-6.311
N9670 X0.883 Y-181.251 Z-6.3
N9675 G3 X0.625 Y-181.333 I0.017 J-0.5
N9680 G1 X0.203 Y-181.611
N9685 X-1.986 Y-183.052 F#105
N9690 X-2.457 Y-183.362 F#103
N9695 G3 X-2.607 Y-183.515 I0.275 J-0.418
N9700 X-2.447 Y-184.203 Z-6.4 I0.424 J-0.265
N9705 X1.376 Y-182.092 I1.379 J2.021 F#100
N9710 G1 X1.368 Y-182.009 Z-6.389 F#104
N9715 X1.347 Y-181.928 Z-6.378
N9720 X1.311 Y-181.852 Z-6.367
N9725 X1.262 Y-181.783 Z-6.356
N9730 X1.202 Y-181.723 Z-6.344
N9735 X1.132 Y-181.674 Z-6.333
N9740 X1.053 Y-181.638 Z-6.322
N9745 X0.97 Y-181.616 Z-6.311
N9750 X0.883 Y-181.609 Z-6.3
N9755 G3 X0.612 Y-181.699 I0.017 J-0.5
N9760 G1 X0.212 Y-181.981
N9765 X-1.607 Y-183.262 F#105
N9770 X-2.081 Y-183.596 F#103
N9775 G3 X-2.217 Y-183.74 I0.288 J-0.409
N9780 X-2.058 Y-184.428 Z-6.4 I0.424 J-0.265
N9785 X1.357 Y-182.457 I1.237 J1.801 F#100
N9790 G1 X1.352 Y-182.377 Z-6.389 F#104
N9795 X1.333 Y-182.298 Z-6.378
N9800 X1.301 Y-182.222 Z-6.367
N9805 X1.255 Y-182.153 Z-6.356
N9810 X1.197 Y-182.093 Z-6.344
N9815 X1.129 Y-182.043 Z-6.333
N9820 X1.053 Y-182.005 Z-6.322
N9825 X0.97 Y-181.981 Z-6.311
N9830 X0.883 Y-181.971 Z-6.3
N9835 G3 X0.599 Y-182.072 I0.017 J-0.5
N9840 G1 X0.221 Y-182.357
N9845 X-1.244 Y-183.462 F#105
N9850 X-1.72 Y-183.821 F#103
N9855 G3 X-1.843 Y-183.956 I0.301 J-0.399
N9860 X-1.683 Y-184.645 Z-6.4 I0.424 J-0.265
N9865 X1.316 Y-183.2 I1.089 J1.575 F#100
N9870 G1 X1.4 Y-182.798
N9875 G3 X0.883 Y-182.316 Z-6.3 I-0.5 J-0.017 F#104
N9880 X0.586 Y-182.427 I0.017 J-0.5
N9885 G1 X0.231 Y-182.715
N9890 X-0.915 Y-183.643 F#105
N9895 X-1.391 Y-184.029 F#103
N9900 G3 X-1.501 Y-184.153 I0.315 J-0.388
N9905 X-1.342 Y-184.842 Z-6.4 I0.424 J-0.265
N9910 X1.322 Y-183.54 I0.954 J1.425 F#100
N9915 G1 X1.4 Y-183.156
N9920 G3 X0.883 Y-182.674 Z-6.3 I-0.5 J-0.017 F#104
N9925 X0.572 Y-182.797 I0.017 J-0.5
N9930 G1 X0.242 Y-183.085
N9935 X-0.619 Y-183.835 F#105
N9940 X-1.062 Y-184.221 F#103
N9945 G3 X-1.179 Y-184.371 I0.329 J-0.377
N9950 X-0.961 Y-185.043 Z-6.4 I0.446 J-0.227
N9955 X1.349 Y-183.563 I0.776 J1.332 F#100
N9960 G1 X1.347 Y-183.483 Z-6.389 F#104
N9965 X1.331 Y-183.403 Z-6.378
N9970 X1.3 Y-183.326 Z-6.367
N9975 X1.256 Y-183.256 Z-6.356
N9980 X1.2 Y-183.193 Z-6.344
N9985 X1.133 Y-183.141 Z-6.333
N9990 X1.057 Y-183.101 Z-6.322
N9995 X0.975 Y-183.075 Z-6.311
N10000 X0.888 Y-183.063 Z-6.3
N10005 G3 X0.56 Y-183.189 I0.004 J-0.5
N10010 G1 X0.246 Y-183.468
N10015 X-0.32 Y-183.971 F#105
N10020 X-0.763 Y-184.365 F#103
N10025 G3 X-0.877 Y-184.512 I0.332 J-0.374
N10030 X-0.658 Y-185.184 Z-6.4 I0.446 J-0.227
N10035 X0.105 Y-185.358 I0.642 J1.056 F#100
N10040 X0.653 Y-184.866 Z-6.3 I-0.076 J0.636 F#104
N10045 X0.669 Y-184.732 I-0.625 J0.144
N10050 X0.379 Y-184.187 I-0.637 J0.01
N10055 X-0.321 Y-184.191 I-0.347 J-0.535 F#105
N10060 X-0.587 Y-184.873 I0.353 J-0.531 F#103
N10065 X-0.032 Y-185.356 Z-6.4 I0.619 J0.151
N10070 X1.06 Y-184.849 I-0.004 J1.438 F#100
N10075 X1.002 Y-184.145 Z-6.3 I-0.382 J0.323 F#104
N10080 X0.422 Y-184.097 I-0.323 J-0.381
N10085 G1 X0.286 Y-184.178
N10090 X0.076 Y-184.303 F#105
N10095 X-0.129 Y-184.425 F#103
N10100 G3 X-0.372 Y-184.88 I0.256 J-0.429
N10105 X0.153 Y-185.354 Z-6.4 I0.499 J0.025
N10110 G1 X0.297 Y-185.327 F#100
N10115 X0.439 Y-185.286
N10120 X0.575 Y-185.23
N10125 X0.705 Y-185.16
N10130 X0.826 Y-185.077
N10135 X0.938 Y-184.981
N10140 X1.04 Y-184.875
N10145 X1.13 Y-184.758
N10150 X1.208 Y-184.633
N10155 X1.272 Y-184.5
N10160 X1.321 Y-184.362
N10165 X1.356 Y-184.219
N10170 X1.376 Y-184.073
N10175 X1.381 Y-183.925
N10180 X1.37 Y-183.778
N10185 X1.396 Y-183.402
N10190 X1.4 Y-183.215
N10195 Y-180.675
N10200 G3 X0.616 Y-180.282 I-0.5 J-0.017 F#104
N10205 G1 X0.569 Y-180.33 Z-6.395
N10210 X0.523 Y-180.378 Z-6.381
N10215 X0.479 Y-180.424 Z-6.359
N10220 X0.452 Y-180.493 Z-6.318
N10225 X0.428 Y-180.555 Z-6.266
N10230 X0.407 Y-180.608 Z-6.203
N10235 X0.404 Y-180.644 Z-6.149
N10240 X0.402 Y-180.672 Z-6.092
N10245 X0.4 Y-180.693 Z-6.031
N10250 Y-180.699 Z-6.003
N10255 X0.401 Y-180.707 Z-5.952
N10260 Y-180.71 Z-5.9
N10265 G0 Z2.
N10270 X-21.963 Y-197.508
N10275 Z1.15
N10280 G1 Z0.65 F#103
N10285 S3000
N10290 G3 X-22.787 Y-193.765 Z0.415 I-1.737 J1.58 F#107
N10295 X-26.016 Y-195.768 Z0.18 I-0.905 J-2.145
N10300 X-23.079 Y-198.127 Z-0.055 I2.303 J-0.14
N10305 X-21.842 Y-194.605 Z-0.29 I-0.628 J2.199
N10310 X-25.541 Y-194.608 Z-0.525 I-1.849 J-1.311
N10315 X-24.32 Y-198.065 Z-0.76 I1.834 J-1.296
N10320 X-21.492 Y-195.785 Z-0.995 I0.607 J2.141
N10325 X-24.553 Y-193.892 Z-1.23 I-2.201 J-0.137
N10330 X-25.314 Y-197.376 Z-1.465 I0.853 J-2.011
N10335 X-21.808 Y-196.94 Z-1.7 I1.598 J1.459
N10340 X-23.37 Y-193.808 Z-1.935 I-1.889 J1.013
N10345 X-25.781 Y-196.298 Z-2.17 I-0.324 J-2.098
N10350 X-22.662 Y-197.731 Z-2.405 I2.067 J0.388
N10355 X-22.35 Y-194.346 Z-2.64 I-1.042 J1.803
N10360 X-25.614 Y-195.169 Z-2.875 I-1.341 J-1.566
N10365 X-23.772 Y-197.946 Z-3.11 I1.904 J-0.736
N10370 X-21.785 Y-195.312 Z-3.345 I0.061 J2.02
N10375 X-24.897 Y-194.324 Z-3.58 I-1.906 J-0.607
N10380 X-24.796 Y-197.554 Z-3.815 I1.194 J-1.58
N10385 X-21.814 Y-196.398 Z-4.05 I1.082 J1.634
N10390 X-23.874 Y-193.995 Z-4.285 I-1.881 J0.472
N10395 X-25.44 Y-196.707 Z-4.52 I0.178 J-1.91
N10400 X-22.394 Y-197.276 Z-4.755 I1.724 J0.794
N10405 X-22.864 Y-194.247 Z-4.99 I-1.307 J1.348
N10410 X-25.535 Y-195.682 Z-5.225 I-0.828 J-1.663
N10415 X-23.319 Y-197.702 Z-5.46 I1.823 J-0.225
N10420 X-22.164 Y-194.971 Z-5.695 I-0.389 J1.774
N10425 X-25.09 Y-194.791 Z-5.93 I-1.527 J-0.946
N10430 X-24.296 Y-197.578 Z-6.165 I1.383 J-1.113
N10435 X-21.958 Y-195.923 Z-6.4 I0.583 J1.655
N10440 X-25.468 I-1.755 J0.
N10445 X-21.977 Y-196.176 I1.755 J0.
N10450 X-21.958 Y-195.923 I-1.737 J0.253
N10455 S3200
N10460 X-25.101 Y-194.573 I-1.761 J0.235 F#100
N10465 G1 X-25.219 Y-194.701
N10470 X-25.324 Y-194.839
N10475 X-25.417 Y-194.986
N10480 X-25.497 Y-195.141
N10485 X-25.562 Y-195.302
N10490 X-25.613 Y-195.468
N10495 X-25.65 Y-195.638
N10500 X-25.67 Y-195.81
N10505 X-25.676 Y-195.984
N10510 X-25.666 Y-196.158
N10515 X-25.641 Y-196.33
N10520 X-25.601 Y-196.499
N10525 X-25.546 Y-196.664
N10530 X-25.476 Y-196.823
N10535 X-25.393 Y-196.976
N10540 X-25.296 Y-197.12
N10545 X-25.187 Y-197.256
N10550 X-25.067 Y-197.381
N10555 X-24.936 Y-197.495
N10560 X-24.795 Y-197.597
N10565 X-24.646 Y-197.686
N10570 X-24.489 Y-197.762
N10575 X-24.327 Y-197.823
N10580 X-24.159 Y-197.87
N10585 X-23.988 Y-197.902
N10590 X-23.815 Y-197.918
N10595 X-23.641 Y-197.919
N10600 X-23.468 Y-197.905
N10605 X-23.297 Y-197.876
N10610 X-23.129 Y-197.831
N10615 X-22.965 Y-197.772
N10620 X-22.808 Y-197.698
N10625 X-22.658 Y-197.611
N10630 X-22.516 Y-197.511
N10635 X-22.383 Y-197.398
N10640 X-22.261 Y-197.275
N10645 X-22.15 Y-197.141
N10650 X-22.052 Y-196.997
N10655 X-21.966 Y-196.846
N10660 X-21.895 Y-196.688
N10665 X-21.838 Y-196.523
N10670 X-21.795 Y-196.355
N10675 X-21.768 Y-196.183
N10680 X-21.731 Y-196.008
N10685 X-21.711 Y-195.829
N10690 X-21.706 Y-195.65
N10695 X-21.717 Y-195.471
N10700 X-21.745 Y-195.294
N10705 X-21.788 Y-195.12
N10710 X-21.846 Y-194.95
N10715 X-21.919 Y-194.786
N10720 X-22.007 Y-194.63
N10725 X-22.108 Y-194.481
N10730 X-22.221 Y-194.343
N10735 X-22.347 Y-194.215
N10740 X-22.484 Y-194.099
N10745 X-22.63 Y-193.995
N10750 X-22.785 Y-193.905
N10755 X-22.948 Y-193.829
N10760 X-23.116 Y-193.768
N10765 X-23.29 Y-193.722
N10770 X-23.466 Y-193.692
N10775 X-23.645 Y-193.677
N10780 X-23.825 Y-193.679
N10785 X-24.003 Y-193.696
N10790 X-24.179 Y-193.729
N10795 X-24.352 Y-193.778
N10800 X-24.519 Y-193.842
N10805 X-24.681 Y-193.921
N10810 X-24.834 Y-194.014
N10815 X-24.979 Y-194.12
N10820 X-25.113 Y-194.238
N10825 X-25.237 Y-194.368
N10830 X-25.366 Y-194.503
N10835 X-25.484 Y-194.648
N10840 X-25.589 Y-194.803
N10845 X-25.681 Y-194.966
N10850 X-25.758 Y-195.136
N10855 X-25.821 Y-195.312
N10860 X-25.868 Y-195.493
N10865 X-25.9 Y-195.677
N10870 X-25.917 Y-195.863
N10875 Y-196.05
N10880 X-25.902 Y-196.236
N10885 X-25.87 Y-196.42
N10890 X-25.824 Y-196.601
N10895 X-25.762 Y-196.778
N10900 X-25.685 Y-196.948
N10905 X-25.595 Y-197.112
N10910 X-25.49 Y-197.267
N10915 X-25.373 Y-197.412
N10920 X-25.244 Y-197.548
N10925 X-25.104 Y-197.671
N10930 X-24.954 Y-197.783
N10935 X-24.796 Y-197.881
N10940 X-24.629 Y-197.966
N10945 X-24.456 Y-198.036
N10950 X-24.277 Y-198.091
N10955 X-24.095 Y-198.131
N10960 X-23.909 Y-198.155
N10965 X-23.723 Y-198.164
N10970 X-23.536 Y-198.156
N10975 X-23.35 Y-198.133
N10980 X-23.168 Y-198.094
N10985 X-22.989 Y-198.04
N10990 X-22.815 Y-197.971
N10995 X-22.648 Y-197.887
N11000 X-22.489 Y-197.79
N11005 X-22.338 Y-197.679
N11010 X-22.197 Y-197.556
N11015 X-22.068 Y-197.421
N11020 X-21.95 Y-197.276
N11025 X-21.845 Y-197.122
N11030 X-21.753 Y-196.959
N11035 X-21.676 Y-196.789
N11040 X-21.613 Y-196.613
N11045 X-21.565 Y-196.432
N11050 X-21.513 Y-196.25
N11055 X-21.476 Y-196.065
N11060 X-21.454 Y-195.877
N11065 X-21.449 Y-195.688
N11070 X-21.458 Y-195.499
N11075 X-21.484 Y-195.312
N11080 X-21.524 Y-195.127
N11085 X-21.58 Y-194.946
N11090 X-21.651 Y-194.771
N11095 X-21.736 Y-194.602
N11100 X-21.834 Y-194.441
N11105 X-21.946 Y-194.288
N11110 X-22.07 Y-194.145
N11115 X-22.205 Y-194.013
N11120 X-22.351 Y-193.892
N11125 X-22.506 Y-193.784
N11130 X-22.669 Y-193.689
N11135 X-22.84 Y-193.608
N11140 X-23.017 Y-193.542
N11145 X-23.199 Y-193.49
N11150 X-23.385 Y-193.454
N11155 X-23.573 Y-193.433
N11160 X-23.762 Y-193.427
N11165 X-23.95 Y-193.437
N11170 X-24.138 Y-193.463
N11175 X-24.322 Y-193.504
N11180 X-24.503 Y-193.561
N11185 X-24.678 Y-193.632
N11190 X-24.847 Y-193.717
N11195 X-25.008 Y-193.816
N11200 X-25.16 Y-193.928
N11205 X-25.303 Y-194.052
N11210 X-25.435 Y-194.188
N11215 X-25.555 Y-194.334
N11220 X-25.679 Y-194.486
N11225 X-25.79 Y-194.647
N11230 X-25.888 Y-194.817
N11235 X-25.973 Y-194.994
N11240 X-26.043 Y-195.177
N11245 X-26.098 Y-195.365
N11250 X-26.138 Y-195.557
N11255 X-26.162 Y-195.752
N11260 X-26.171 Y-195.948
N11265 X-26.165 Y-196.144
N11270 X-26.142 Y-196.338
N11275 X-26.104 Y-196.531
N11280 X-26.051 Y-196.72
N11285 X-25.984 Y-196.904
N11290 X-25.901 Y-197.082
N11295 X-25.805 Y-197.252
N11300 X-25.695 Y-197.415
N11305 X-25.573 Y-197.568
N11310 X-25.439 Y-197.712
N11315 X-25.294 Y-197.844
N11320 X-25.139 Y-197.964
N11325 X-24.975 Y-198.071
N11330 X-24.803 Y-198.165
N11335 X-24.624 Y-198.244
N11340 X-24.439 Y-198.31
N11345 X-24.249 Y-198.36
N11350 X-24.057 Y-198.395
N11355 X-23.861 Y-198.415
N11360 X-23.665 Y-198.419
N11365 X-23.47 Y-198.407
N11370 X-23.275 Y-198.38
N11375 X-23.084 Y-198.337
N11380 X-22.897 Y-198.279
N11385 X-22.715 Y-198.207
N11390 X-22.539 Y-198.12
N11395 X-22.37 Y-198.019
N11400 X-22.211 Y-197.906
N11405 X-22.06 Y-197.78
N11410 X-21.921 Y-197.642
N11415 X-21.793 Y-197.494
N11420 X-21.677 Y-197.336
N11425 X-21.574 Y-197.169
N11430 X-21.484 Y-196.994
N11435 X-21.409 Y-196.813
N11440 X-21.348 Y-196.627
N11445 X-21.285 Y-196.435
N11450 X-21.236 Y-196.239
N11455 X-21.204 Y-196.039
N11460 X-21.187 Y-195.838
N11465 X-21.186 Y-195.636
N11470 X-21.201 Y-195.434
N11475 X-21.232 Y-195.235
N11480 X-21.278 Y-195.038
N11485 X-21.34 Y-194.845
N11490 X-21.417 Y-194.659
N11495 X-21.508 Y-194.478
N11500 X-21.614 Y-194.306
N11505 X-21.732 Y-194.142
N11510 X-21.863 Y-193.988
N11515 X-22.006 Y-193.845
N11520 X-22.16 Y-193.714
N11525 X-22.323 Y-193.595
N11530 X-22.496 Y-193.49
N11535 X-22.676 Y-193.399
N11540 X-22.863 Y-193.322
N11545 X-23.055 Y-193.259
N11550 X-23.252 Y-193.213
N11555 X-23.452 Y-193.182
N11560 X-23.653 Y-193.167
N11565 X-23.855
N11570 X-24.057 Y-193.184
N11575 X-24.256 Y-193.217
N11580 X-24.452 Y-193.265
N11585 X-24.644 Y-193.328
N11590 X-24.83 Y-193.407
N11595 X-25.01 Y-193.5
N11600 X-25.181 Y-193.606
N11605 X-25.344 Y-193.726
N11610 X-25.497 Y-193.859
N11615 X-25.638 Y-194.003
N11620 X-25.768 Y-194.158
N11625 X-25.886 Y-194.322
N11630 X-26.003 Y-194.49
N11635 X-26.107 Y-194.667
N11640 X-26.198 Y-194.85
N11645 X-26.274 Y-195.04
N11650 X-26.336 Y-195.236
N11655 X-26.384 Y-195.435
N11660 X-26.416 Y-195.637
N11665 X-26.433 Y-195.841
N11670 X-26.434 Y-196.046
N11675 X-26.42 Y-196.251
N11680 X-26.391 Y-196.453
N11685 X-26.346 Y-196.653
N11690 X-26.287 Y-196.85
N11695 X-26.213 Y-197.041
N11700 X-26.125 Y-197.226
N11705 X-26.023 Y-197.403
N11710 X-25.909 Y-197.573
N11715 X-25.781 Y-197.734
N11720 X-25.642 Y-197.884
N11725 X-25.493 Y-198.024
N11730 X-25.333 Y-198.152
N11735 X-25.163 Y-198.268
N11740 X-24.986 Y-198.37
N11745 X-24.802 Y-198.459
N11750 X-24.611 Y-198.534
N11755 X-24.415 Y-198.594
N11760 X-24.215 Y-198.64
N11765 X-24.013 Y-198.67
N11770 X-23.808 Y-198.685
N11775 X-23.604 Y-198.684
N11780 X-23.399 Y-198.669
N11785 X-23.197 Y-198.637
N11790 X-22.997 Y-198.591
N11795 X-22.802 Y-198.53
N11800 X-22.611 Y-198.454
N11805 X-22.427 Y-198.365
N11810 X-22.25 Y-198.261
N11815 X-22.082 Y-198.145
N11820 X-21.922 Y-198.016
N11825 X-21.773 Y-197.876
N11830 X-21.635 Y-197.725
N11835 X-21.508 Y-197.564
N11840 X-21.394 Y-197.393
N11845 X-21.293 Y-197.215
N11850 X-21.206 Y-197.03
N11855 X-21.133 Y-196.838
N11860 X-21.057 Y-196.639
N11865 X-20.997 Y-196.435
N11870 X-20.952 Y-196.226
N11875 X-20.923 Y-196.015
N11880 X-20.91 Y-195.802
N11885 X-20.913 Y-195.589
N11890 X-20.932 Y-195.377
N11895 X-20.967 Y-195.166
N11900 X-21.017 Y-194.959
N11905 X-21.083 Y-194.757
N11910 X-21.163 Y-194.559
N11915 X-21.259 Y-194.369
N11920 X-21.368 Y-194.186
N11925 X-21.491 Y-194.011
N11930 X-21.626 Y-193.847
N11935 X-21.774 Y-193.693
N11940 X-21.932 Y-193.55
N11945 X-22.101 Y-193.42
N11950 X-22.279 Y-193.303
N11955 X-22.465 Y-193.199
N11960 X-22.659 Y-193.11
N11965 X-22.858 Y-193.036
N11970 X-23.063 Y-192.976
N11975 X-23.272 Y-192.932
N11980 X-23.483 Y-192.904
N11985 X-23.696 Y-192.892
N11990 X-23.909 Y-192.896
N11995 X-24.121 Y-192.916
N12000 X-24.331 Y-192.951
N12005 X-24.538 Y-193.003
N12010 X-24.741 Y-193.069
N12015 X-24.938 Y-193.151
N12020 X-25.128 Y-193.247
N12025 X-25.31 Y-193.357
N12030 X-25.484 Y-193.481
N12035 X-25.648 Y-193.617
N12040 X-25.801 Y-193.765
N12045 X-25.943 Y-193.924
N12050 X-26.073 Y-194.093
N12055 X-26.189 Y-194.272
N12060 X-26.304 Y-194.455
N12065 X-26.406 Y-194.646
N12070 X-26.494 Y-194.844
N12075 X-26.568 Y-195.047
N12080 X-26.626 Y-195.256
N12085 X-26.67 Y-195.468
N12090 X-26.698 Y-195.682
N12095 X-26.71 Y-195.898
N12100 X-26.707 Y-196.115
N12105 X-26.689 Y-196.331
N12110 X-26.654 Y-196.544
N12115 X-26.605 Y-196.755
N12120 X-26.54 Y-196.962
N12125 X-26.461 Y-197.163
N12130 X-26.367 Y-197.358
N12135 X-26.26 Y-197.546
N12140 X-26.139 Y-197.726
N12145 X-26.006 Y-197.896
N12150 X-25.861 Y-198.057
N12155 X-25.704 Y-198.207
N12160 X-25.538 Y-198.345
N12165 X-25.361 Y-198.47
N12170 X-25.176 Y-198.583
N12175 X-24.984 Y-198.682
N12180 X-24.785 Y-198.766
N12185 X-24.58 Y-198.837
N12190 X-24.371 Y-198.892
N12195 X-24.158 Y-198.932
N12200 X-23.943 Y-198.957
N12205 X-23.727 Y-198.966
N12210 X-23.51 Y-198.959
N12215 X-23.295 Y-198.937
N12220 X-23.082 Y-198.899
N12225 X-22.872 Y-198.847
N12230 X-22.666 Y-198.779
N12235 X-22.466 Y-198.696
N12240 X-22.273 Y-198.6
N12245 X-22.086 Y-198.489
N12250 X-21.909 Y-198.366
N12255 X-21.74 Y-198.23
N12260 X-21.582 Y-198.082
N12265 X-21.435 Y-197.923
N12270 X-21.3 Y-197.754
N12275 X-21.177 Y-197.576
N12280 X-21.067 Y-197.39
N12285 X-20.971 Y-197.196
N12290 X-20.89 Y-196.995
N12295 X-20.809 Y-196.791
N12300 X-20.742 Y-196.583
N12305 X-20.69 Y-196.37
N12310 X-20.653 Y-196.153
N12315 X-20.632 Y-195.935
N12320 X-20.626 Y-195.716
N12325 X-20.635 Y-195.497
N12330 X-20.659 Y-195.279
N12335 X-20.699 Y-195.064
N12340 X-20.753 Y-194.852
N12345 X-20.823 Y-194.644
N12350 X-20.906 Y-194.441
N12355 X-21.004 Y-194.245
N12360 X-21.115 Y-194.056
N12365 X-21.239 Y-193.875
N12370 X-21.376 Y-193.704
N12375 X-21.524 Y-193.542
N12380 X-21.683 Y-193.391
N12385 X-21.852 Y-193.252
N12390 X-22.031 Y-193.125
N12395 X-22.218 Y-193.011
N12400 X-22.413 Y-192.91
N12405 X-22.614 Y-192.823
N12410 X-22.821 Y-192.75
N12415 X-23.032 Y-192.692
N12420 X-23.247 Y-192.649
N12425 X-23.464 Y-192.621
N12430 X-23.683 Y-192.608
N12435 X-23.902 Y-192.611
N12440 X-24.121 Y-192.629
N12445 X-24.337 Y-192.662
N12450 X-24.551 Y-192.71
N12455 X-24.761 Y-192.774
N12460 X-24.966 Y-192.851
N12465 X-25.165 Y-192.943
N12470 X-25.357 Y-193.049
N12475 X-25.541 Y-193.167
N12480 X-25.717 Y-193.299
N12485 X-25.883 Y-193.442
N12490 X-26.038 Y-193.597
N12495 X-26.182 Y-193.762
N12500 X-26.315 Y-193.936
N12505 X-26.434 Y-194.12
N12510 G3 X-25.303 Y-198.843 I2.725 J-1.845
N12515 X-20.7 Y-197.294 I1.593 J2.879
N12520 G1 X-20.603 Y-197.084
N12525 X-20.519 Y-196.869
N12530 X-20.451 Y-196.648
N12535 X-20.398 Y-196.424
N12540 X-20.359 Y-196.196
N12545 X-20.337 Y-195.966
N12550 X-20.329 Y-195.735
N12555 X-20.338 Y-195.504
N12560 X-20.361 Y-195.275
N12565 X-20.401 Y-195.047
N12570 X-20.455 Y-194.823
N12575 X-20.525 Y-194.602
N12580 X-20.609 Y-194.387
N12585 X-20.707 Y-194.178
N12590 X-20.819 Y-193.976
N12595 X-20.945 Y-193.782
N12600 X-21.083 Y-193.597
N12605 X-21.233 Y-193.422
N12610 X-21.395 Y-193.257
N12615 X-21.568 Y-193.104
N12620 X-21.751 Y-192.962
N12625 X-21.942 Y-192.834
N12630 X-22.142 Y-192.718
N12635 X-22.349 Y-192.616
N12640 X-22.563 Y-192.528
N12645 X-22.782 Y-192.455
N12650 X-23.005 Y-192.396
N12655 X-23.232 Y-192.353
N12660 X-23.462 Y-192.326
N12665 X-23.692 Y-192.313
N12670 X-23.923 Y-192.316
N12675 X-24.153 Y-192.335
N12680 X-24.382 Y-192.369
N12685 X-24.607 Y-192.419
N12690 X-24.829 Y-192.484
N12695 X-25.046 Y-192.563
N12700 X-25.257 Y-192.657
N12705 X-25.461 Y-192.764
N12710 X-25.658 Y-192.886
N12715 X-25.846 Y-193.02
N12720 X-26.024 Y-193.167
N12725 X-26.193 Y-193.325
N12730 X-26.35 Y-193.494
N12735 X-26.495 Y-193.673
N12740 X-26.628 Y-193.862
N12745 X-26.748 Y-194.06
N12750 G3 X-25.374 Y-199.144 I3.043 J-1.905
N12755 X-20.409 Y-197.387 I1.668 J3.179
N12760 G1 X-20.311 Y-197.168
N12765 X-20.226 Y-196.943
N12770 X-20.156 Y-196.713
N12775 X-20.101 Y-196.48
N12780 X-20.062 Y-196.243
N12785 X-20.037 Y-196.004
N12790 X-20.028 Y-195.764
N12795 X-20.034 Y-195.524
N12800 X-20.056 Y-195.285
N12805 X-20.093 Y-195.048
N12810 X-20.145 Y-194.814
N12815 X-20.212 Y-194.583
N12820 X-20.294 Y-194.357
N12825 X-20.39 Y-194.137
N12830 X-20.5 Y-193.924
N12835 X-20.624 Y-193.718
N12840 X-20.761 Y-193.521
N12845 X-20.909 Y-193.333
N12850 X-21.07 Y-193.154
N12855 X-21.242 Y-192.987
N12860 X-21.424 Y-192.83
N12865 X-21.616 Y-192.686
N12870 X-21.817 Y-192.555
N12875 X-22.026 Y-192.436
N12880 X-22.242 Y-192.331
N12885 X-22.464 Y-192.241
N12890 X-22.692 Y-192.165
N12895 X-22.924 Y-192.103
N12900 X-23.16 Y-192.057
N12905 X-23.398 Y-192.026
N12910 X-23.637 Y-192.01
N12915 X-23.877
N12920 X-24.117 Y-192.025
N12925 X-24.355 Y-192.055
N12930 X-24.591 Y-192.101
N12935 X-24.823 Y-192.161
N12940 X-25.051 Y-192.237
N12945 X-25.273 Y-192.327
N12950 X-25.49 Y-192.431
N12955 X-25.699 Y-192.549
N12960 X-25.9 Y-192.68
N12965 X-26.092 Y-192.823
N12970 X-26.275 Y-192.979
N12975 X-26.447 Y-193.146
N12980 X-26.609 Y-193.324
N12985 X-26.758 Y-193.512
N12990 X-26.895 Y-193.709
N12995 X-27.019 Y-193.915
N13000 G3 X-25.549 Y-199.4 I3.315 J-2.051
N13005 X-20.164 Y-197.596 I1.844 J3.434
N13010 X-27.296 Y-193.762 I-3.601 J1.852
N13015 X-25.743 Y-199.656 I3.592 J-2.205
N13020 X-19.927 Y-197.836 I2.039 J3.688
N13025 X-27.551 Y-193.557 I-3.839 J2.092
N13030 X-25.938 Y-199.92 I3.847 J-2.411
N13035 X-19.654 Y-198.021 I2.235 J3.952
N13040 X-27.754 Y-193.257 I-4.111 J2.278
N13045 X-26.24 Y-200.129 I4.049 J-2.711
N13050 X-19.439 Y-198.324 I2.536 J4.161
N13055 X-28.061 Y-193.109 I-4.327 J2.58
N13060 X-26.463 Y-200.393 I4.356 J-2.861
N13065 X-19.219 Y-198.623 I2.758 J4.422
N13070 X-28.274 Y-192.803 I-4.547 J2.88
N13075 X-26.771 Y-200.609 I4.568 J-3.168
N13080 X-19.001 Y-198.933 I3.066 J4.638
N13085 X-28.479 Y-192.479 I-4.764 J3.191
N13090 X-27.098 Y-200.818 I4.773 J-3.493
N13095 X-18.79 Y-199.26 I3.391 J4.846
N13100 X-28.676 Y-192.138 I-4.973 J3.519
N13105 X-27.441 Y-201.018 I4.968 J-3.835
N13110 X-18.588 Y-199.603 I3.733 J5.045
N13115 X-19.929 Y-190.545 I-5.176 J3.862
N13120 X-28.98 Y-191.933 I-3.835 J-5.196
N13125 X-27.643 Y-201.327 I5.274 J-4.041
N13130 X-18.277 Y-199.805 I3.937 J5.353
N13135 X-29.168 Y-191.565 I-5.486 J4.065
N13140 X-28.013 Y-201.518 I5.46 J-4.41
N13145 X-18.085 Y-200.176 I4.306 J5.543
N13150 X-29.343 Y-191.181 I-5.677 J4.437
N13155 X-28.4 Y-201.697 I5.634 J-4.795
N13160 X-17.904 Y-200.562 I4.691 J5.721
N13165 X-18.958 Y-189.864 I-5.859 J4.824
N13170 X-29.653 Y-190.954 I-4.804 J-5.875
N13175 X-28.625 Y-202.011 I5.945 J-5.024
N13180 X-17.588 Y-200.786 I4.917 J6.033
N13185 X-29.815 Y-190.544 I-6.173 J5.05
N13190 X-29.038 Y-202.175 I6.105 J-5.434
N13195 X-17.422 Y-201.198 I5.328 J6.197
N13200 X-29.962 Y-190.12 I-6.338 J5.462
N13205 X-29.465 Y-202.326 I6.25 J-5.858
N13210 X-17.269 Y-201.625 I5.753 J6.347
N13215 X-17.883 Y-189.233 I-6.491 J5.89
N13220 X-30.273 Y-189.871 I-5.877 J-6.502
N13225 X-29.811 Y-202.552 I6.56 J-6.11
N13230 X-17.131 Y-202.067 I6.098 J6.571
N13235 X-17.436 Y-189.099 I-6.627 J6.332
N13240 X-30.404 Y-189.422 I-6.322 J-6.636
N13245 X-30.164 Y-202.776 I6.691 J-6.559
N13250 X-16.816 Y-202.323 I6.451 J6.795
N13255 X-30.517 Y-188.96 I-6.94 J6.59
N13260 X-30.629 Y-202.892 I6.803 J-7.021
N13265 X-16.698 Y-202.788 I6.915 J6.911
N13270 X-16.708 Y-188.668 I-7.059 J7.055
N13275 X-30.827 Y-188.69 I-7.049 J-7.065
N13280 X-31.004 Y-203.098 I7.111 J-7.292
N13285 X-16.596 Y-203.266 I7.288 J7.115
N13290 X-16.225 Y-188.571 I-7.158 J7.533
N13295 X-30.92 Y-188.207 I-7.53 J-7.162
N13300 X-31.385 Y-203.302 I7.203 J-7.777
N13305 X-16.284 Y-203.541 I7.668 J7.319
N13310 X-30.994 Y-187.711 I-7.468 J7.81
N13315 X-31.884 Y-203.379 I7.275 J-8.273
N13320 X-16.205 Y-204.04 I8.166 J7.395
N13325 X-17.053 Y-186.771 I-7.417 J8.291
N13330 X-20.505 Y-185.033 I-7.878 J-11.349
N13335 X-35. Y-194.03 I-3.328 J-10.814
N13340 X-34.885 Y-198.221 I26.857 J-1.36
N13345 X-19.821 Y-206.713 I11.146 J2.166
N13350 G1 X-16.81 Y-204.94
N13355 G3 X-12.394 Y-193.287 I-6.198 J9.011
N13360 X-15.291 Y-187.789 I-10.351 J-1.942
N13365 G1 X-15.565 Y-187.634
N13370 X-17.055 Y-186.774
N13375 X-17.318 Y-186.622 F#104
N13380 X-18.679 Y-185.837 F#103
N13385 G3 X-20.932 Y-184.609 I-6.27 J-8.822 F#100
N13390 X-33.367 Y-189.079 I-3.165 J-10.727
N13395 X-35.006 Y-192.581 I5.871 J-4.881
N13400 G1 X-34.969 Y-194.035
N13405 G3 X-34.452 Y-194.517 Z-6.3 I0.5 J0.017 F#104
N13410 X-34.204 Y-194.441 I-0.017 J0.5
N13415 G1 X-33.766 Y-194.167
N13420 X-20.769 Y-186.041 F#105
N13425 X-20.301 Y-185.748 F#103
N13430 G3 X-20.141 Y-185.589 I-0.265 J0.424
N13435 X-20.301 Y-184.9 Z-6.4 I-0.424 J0.265
N13440 X-25.906 Y-183.921 I-3.876 J-5.653 F#100
N13445 X-34.854 Y-190.747 I1.814 J-11.655
N13450 G1 X-34.938 Y-191.145
N13455 X-34.969 Y-191.548
N13460 Y-192.588
N13465 G3 X-34.452 Y-193.07 Z-6.3 I0.5 J0.017 F#104
N13470 X-34.211 Y-192.999 I-0.017 J0.5
N13475 G1 X-33.762 Y-192.728
N13480 X-21.741 Y-185.475 F#105
N13485 X-21.275 Y-185.194 F#103
N13490 G3 X-21.109 Y-185.03 I-0.258 J0.428
N13495 X-21.268 Y-184.342 Z-6.4 I-0.424 J0.265
N13500 X-26.126 Y-183.547 I-3.29 J-4.87 F#100
N13505 X-34.926 Y-189.978 I1.864 J-11.787
N13510 G1 X-34.947 Y-190.336
N13515 X-34.969 Y-190.678
N13520 Y-191.548
N13525 G3 X-34.452 Y-192.031 Z-6.3 I0.5 J0.017 F#104
N13530 X-34.214 Y-191.96 I-0.017 J0.5
N13535 G1 X-33.76 Y-191.69
N13540 X-22.547 Y-185.008 F#105
N13545 X-22.082 Y-184.73 F#103
N13550 G3 X-21.914 Y-184.565 I-0.256 J0.43
N13555 X-22.073 Y-183.877 Z-6.4 I-0.424 J0.265
N13560 X-26.732 Y-183.204 I-3.08 J-4.857 F#100
N13565 X-34.749 Y-188.782 I2.602 J-12.292
N13570 X-34.969 Y-190.678 I3.911 J-1.415
N13575 X-34.452 Y-191.16 Z-6.3 I0.5 J0.017 F#104
N13580 X-34.214 Y-191.09 I-0.017 J0.5
N13585 G1 X-33.76 Y-190.82
N13590 X-23.279 Y-184.585 F#105
N13595 X-22.814 Y-184.308 F#103
N13600 G3 X-22.645 Y-184.143 I-0.256 J0.43
N13605 X-22.805 Y-183.455 Z-6.4 I-0.424 J0.265
N13610 X-27.237 Y-182.907 I-2.817 J-4.583 F#100
N13615 X-34.722 Y-187.993 I2.894 J-12.31
N13620 X-34.969 Y-189.901 I3.773 J-1.459
N13625 X-34.452 Y-190.383 Z-6.3 I0.5 J0.017 F#104
N13630 X-34.215 Y-190.314 I-0.017 J0.5
N13635 G1 X-33.759 Y-190.045
N13640 X-23.904 Y-184.223 F#105
N13645 X-23.44 Y-183.949 F#103
N13650 G3 X-23.27 Y-183.783 I-0.254 J0.43
N13655 X-23.429 Y-183.094 Z-6.4 I-0.424 J0.265
N13660 X-27.223 Y-182.511 I-2.561 J-4.035 F#100
N13665 X-34.725 Y-187.305 I2.508 J-12.193
N13670 X-34.969 Y-189.187 I3.886 J-1.461
N13675 X-34.452 Y-189.669 Z-6.3 I0.5 J0.017 F#104
N13680 X-34.215 Y-189.6 I-0.017 J0.5
N13685 G1 X-33.759 Y-189.331
N13690 X-24.512 Y-183.872 F#105
N13695 X-24.047 Y-183.598 F#103
N13700 G3 X-23.877 Y-183.432 I-0.254 J0.431
N13705 X-24.037 Y-182.743 Z-6.4 I-0.424 J0.265
N13710 X-27.692 Y-182.222 I-2.416 J-3.859 F#100
N13715 X-34.684 Y-186.584 I2.623 J-11.987
N13720 X-34.969 Y-188.515 I3.65 J-1.526
N13725 X-34.452 Y-188.997 Z-6.3 I0.5 J0.017 F#104
N13730 X-34.216 Y-188.929 I-0.017 J0.5
N13735 G1 X-33.758 Y-188.66
N13740 X-25.059 Y-183.556 F#105
N13745 X-24.595 Y-183.283 F#103
N13750 G3 X-24.423 Y-183.117 I-0.253 J0.431
N13755 X-24.583 Y-182.428 Z-6.4 I-0.424 J0.265
N13760 X-28.476 Y-182.012 I-2.383 J-3.884 F#100
N13765 X-34.402 Y-185.606 I3.121 J-11.828
N13770 X-34.961 Y-187.878 I2.566 J-1.837
N13775 G1 X-34.952 Y-187.963 Z-6.389 F#104
N13780 X-34.928 Y-188.046 Z-6.378
N13785 X-34.889 Y-188.123 Z-6.367
N13790 X-34.838 Y-188.192 Z-6.356
N13795 X-34.776 Y-188.252 Z-6.344
N13800 X-34.703 Y-188.3 Z-6.333
N13805 X-34.624 Y-188.335 Z-6.322
N13810 X-34.539 Y-188.355 Z-6.311
N13815 X-34.452 Y-188.361 Z-6.3
N13820 G3 X-34.216 Y-188.292 I-0.017 J0.5
N13825 G1 X-33.758 Y-188.023
N13830 X-25.611 Y-183.237 F#105
N13835 X-25.147 Y-182.964 F#103
N13840 G3 X-24.976 Y-182.798 I-0.253 J0.431
N13845 X-25.135 Y-182.109 Z-6.4 I-0.424 J0.265
N13850 X-28.73 Y-181.691 I-2.252 J-3.689 F#100
N13855 X-34.62 Y-185.269 I2.765 J-11.187
N13860 X-34.969 Y-187.269 I3.382 J-1.621
N13865 X-34.452 Y-187.751 Z-6.3 I0.5 J0.017 F#104
N13870 X-34.216 Y-187.682 I-0.017 J0.5
N13875 G1 X-33.759 Y-187.413
N13880 X-26.143 Y-182.93 F#105
N13885 X-25.679 Y-182.657 F#103
N13890 G3 X-25.508 Y-182.49 I-0.254 J0.431
N13895 X-25.667 Y-181.802 Z-6.4 I-0.424 J0.265
N13900 X-29.401 Y-181.478 I-2.201 J-3.697 F#100
N13905 X-34.597 Y-184.661 I2.89 J-10.551
N13910 X-34.969 Y-186.68 I3.286 J-1.651
N13915 X-34.452 Y-187.163 Z-6.3 I0.5 J0.017 F#104
N13920 X-34.217 Y-187.095 I-0.017 J0.5
N13925 G1 X-33.758 Y-186.826
N13930 X-26.617 Y-182.656 F#105
N13935 X-26.153 Y-182.385 F#103
N13940 G3 X-25.981 Y-182.218 I-0.252 J0.432
N13945 X-26.14 Y-181.529 Z-6.4 I-0.424 J0.265
N13950 X-29.624 Y-181.157 I-2.136 J-3.505 F#100
N13955 X-34.577 Y-184.081 I2.504 J-9.9
N13960 X-34.969 Y-186.112 I3.204 J-1.671
N13965 X-34.452 Y-186.595 Z-6.3 I0.5 J0.017 F#104
N13970 X-34.217 Y-186.526 I-0.017 J0.5
N13975 G1 X-33.758 Y-186.258
N13980 X-27.111 Y-182.37 F#105
N13985 X-26.647 Y-182.099 F#103
N13990 G3 X-26.476 Y-181.932 I-0.252 J0.432
N13995 X-26.635 Y-181.243 Z-6.4 I-0.424 J0.265
N14000 X-30.084 Y-180.902 I-2.083 J-3.455 F#100
N14005 X-34.52 Y-183.55 I1.99 J-8.372
N14010 X-34.962 Y-185.562 I2.579 J-1.622
N14015 G1 X-34.952 Y-185.648 Z-6.389 F#104
N14020 X-34.928 Y-185.73 Z-6.378
N14025 X-34.89 Y-185.808 Z-6.367
N14030 X-34.838 Y-185.877 Z-6.356
N14035 X-34.776 Y-185.937 Z-6.344
N14040 X-34.704 Y-185.985 Z-6.333
N14045 X-34.624 Y-186.02 Z-6.322
N14050 X-34.539 Y-186.04 Z-6.311
N14055 X-34.452 Y-186.045 Z-6.3
N14060 G3 X-34.217 Y-185.977 I-0.017 J0.5
N14065 G1 X-33.758 Y-185.708
N14070 X-27.589 Y-182.094 F#105
N14075 X-27.125 Y-181.822 F#103
N14080 G3 X-26.954 Y-181.656 I-0.253 J0.431
N14085 X-27.113 Y-180.967 Z-6.4 I-0.424 J0.265
N14090 X-30.33 Y-180.597 I-1.999 J-3.214 F#100
N14095 X-34.501 Y-183.009 I1.668 J-7.697
N14100 X-34.962 Y-185.031 I2.526 J-1.64
N14105 G1 X-34.952 Y-185.117 Z-6.389 F#104
N14110 X-34.928 Y-185.199 Z-6.378
N14115 X-34.89 Y-185.277 Z-6.367
N14120 X-34.838 Y-185.346 Z-6.356
N14125 X-34.776 Y-185.406 Z-6.344
N14130 X-34.704 Y-185.454 Z-6.333
N14135 X-34.624 Y-185.488 Z-6.322
N14140 X-34.539 Y-185.509 Z-6.311
N14145 X-34.452 Y-185.514 Z-6.3
N14150 G3 X-34.216 Y-185.445 I-0.017 J0.5
N14155 G1 X-33.759 Y-185.176
N14160 X-28.067 Y-181.82 F#105
N14165 X-27.602 Y-181.546 F#103
N14170 G3 X-27.432 Y-181.38 I-0.254 J0.431
N14175 X-27.591 Y-180.691 Z-6.4 I-0.424 J0.265
N14180 X-30.765 Y-180.344 I-1.952 J-3.167 F#100
N14185 G1 X-31.09 Y-180.428
N14190 X-31.41 Y-180.526
N14195 X-31.725 Y-180.637
N14200 X-32.036 Y-180.762
N14205 X-32.341 Y-180.901
N14210 X-32.639 Y-181.052
N14215 X-32.93 Y-181.217
N14220 X-33.215 Y-181.394
N14225 X-33.491 Y-181.583
N14230 X-33.758 Y-181.784
N14235 X-34.017 Y-181.996
N14240 X-34.266 Y-182.22
N14245 X-34.505 Y-182.454
N14250 G3 X-34.969 Y-184.519 I2.864 J-1.728
N14255 X-34.452 Y-185.001 Z-6.3 I0.5 J0.017 F#104
N14260 X-34.214 Y-184.931 I-0.017 J0.5
N14265 G1 X-33.76 Y-184.661
N14270 X-28.524 Y-181.557 F#105
N14275 X-28.059 Y-181.281 F#103
N14280 G3 X-27.89 Y-181.115 I-0.255 J0.43
N14285 X-28.049 Y-180.427 Z-6.4 I-0.424 J0.265
N14290 X-31.177 Y-180.09 I-1.915 J-3.101 F#100
N14295 X-34.483 Y-181.95 I1.583 J-6.684
N14300 X-34.969 Y-184.023 I2.778 J-1.745
N14305 X-34.452 Y-184.505 Z-6.3 I0.5 J0.017 F#104
N14310 X-34.213 Y-184.435 I-0.017 J0.5
N14315 G1 X-33.761 Y-184.164
N14320 X-28.969 Y-181.3 F#105
N14325 X-28.504 Y-181.022 F#103
N14330 G3 X-28.336 Y-180.858 I-0.257 J0.429
N14335 X-28.495 Y-180.169 Z-6.4 I-0.424 J0.265
N14340 X-31.766 Y-179.894 I-1.917 J-3.205 F#100
N14345 X-34.67 Y-181.771 I1.287 J-5.175
N14350 X-34.969 Y-183.546 I3.338 J-1.475
N14355 X-34.452 Y-184.028 Z-6.3 I0.5 J0.017 F#104
N14360 X-34.21 Y-183.956 I-0.017 J0.5
N14365 G1 X-33.762 Y-183.684
N14370 X-29.411 Y-181.047 F#105
N14375 X-28.944 Y-180.765 F#103
N14380 G3 X-28.779 Y-180.602 I-0.259 J0.428
N14385 X-28.939 Y-179.913 Z-6.4 I-0.424 J0.265
N14390 X-32.147 Y-179.649 I-1.87 J-3.105 F#100
N14395 X-34.857 Y-181.753 I0.958 J-4.032
N14400 G1 X-34.931 Y-182.207
N14405 X-34.969 Y-182.655
N14410 Y-183.091
N14415 G3 X-34.452 Y-183.573 Z-6.3 I0.5 J0.017 F#104
N14420 X-34.206 Y-183.498 I-0.017 J0.5
N14425 G1 X-33.765 Y-183.225
N14430 X-29.853 Y-180.795 F#105
N14435 X-29.385 Y-180.505 F#103
N14440 G3 X-29.225 Y-180.345 I-0.264 J0.425
N14445 X-29.384 Y-179.656 Z-6.4 I-0.424 J0.265
N14450 X-32.371 Y-179.369 I-1.782 J-2.851 F#100
N14455 G1 X-32.584 Y-179.417
N14460 X-32.793 Y-179.48
N14465 X-32.997 Y-179.556
N14470 X-33.196 Y-179.646
N14475 X-33.389 Y-179.749
N14480 X-33.574 Y-179.865
N14485 X-33.75 Y-179.993
N14490 X-33.918 Y-180.133
N14495 X-34.076 Y-180.283
N14500 X-34.224 Y-180.444
N14505 X-34.361 Y-180.614
N14510 X-34.485 Y-180.793
N14515 X-34.598 Y-180.98
N14520 X-34.698 Y-181.174
N14525 X-34.784 Y-181.374
N14530 X-34.857 Y-181.58
N14535 X-34.916 Y-181.79
N14540 X-34.961 Y-182.004
N14545 X-34.991 Y-182.22
N14550 X-35.007 Y-182.437
N14555 X-35.008 Y-182.656
N14560 X-34.995 Y-182.739 Z-6.39 F#104
N14565 X-34.969 Y-182.819 Z-6.38
N14570 X-34.931 Y-182.893 Z-6.37
N14575 X-34.882 Y-182.959 Z-6.36
N14580 X-34.824 Y-183.017 Z-6.35
N14585 X-34.758 Y-183.064 Z-6.34
N14590 X-34.686 Y-183.101 Z-6.33
N14595 X-34.61 Y-183.125 Z-6.32
N14600 X-34.531 Y-183.137 Z-6.31
N14605 X-34.452 Z-6.3
N14610 G3 X-34.198 Y-183.057 I-0.017 J0.5
N14615 G1 X-33.77 Y-182.78
N14620 X-30.304 Y-180.54 F#105
N14625 X-29.834 Y-180.236 F#103
N14630 G3 X-29.681 Y-180.081 I-0.271 J0.42
N14635 X-29.84 Y-179.392 Z-6.4 I-0.424 J0.265
N14640 X-33.015 Y-179.246 I-1.725 J-2.89 F#100
N14645 X-34.981 Y-181.856 I0.88 J-2.708
N14650 G1 X-34.969 Y-181.945 Z-6.389 F#104
N14655 X-34.942 Y-182.03 Z-6.378
N14660 X-34.901 Y-182.108 Z-6.367
N14665 X-34.847 Y-182.178 Z-6.356
N14670 X-34.781 Y-182.237 Z-6.344
N14675 X-34.707 Y-182.284 Z-6.333
N14680 X-34.625 Y-182.317 Z-6.322
N14685 X-34.54 Y-182.336 Z-6.311
N14690 X-34.452 Y-182.339 Z-6.3
N14695 G3 X-34.222 Y-182.274 I-0.017 J0.5
N14700 G1 X-33.755 Y-182.007
N14705 X-30.727 Y-180.279 F#105
N14710 X-30.265 Y-180.015 F#103
N14715 G3 X-30.089 Y-179.846 I-0.248 J0.434
N14720 X-30.248 Y-179.157 Z-6.4 I-0.424 J0.265
N14725 G1 X-30.437 Y-179.047 F#100
N14730 X-30.634 Y-178.951
N14735 X-30.837 Y-178.869
N14740 X-31.045 Y-178.801
N14745 X-31.257 Y-178.748
N14750 X-31.473 Y-178.71
N14755 X-31.69 Y-178.687
N14760 X-31.909 Y-178.679
N14765 X-32.128 Y-178.687
N14770 X-32.345 Y-178.71
N14775 X-32.561 Y-178.748
N14780 X-32.773 Y-178.801
N14785 X-32.981 Y-178.869
N14790 X-33.184 Y-178.951
N14795 X-33.38 Y-179.047
N14800 X-33.57 Y-179.157
N14805 X-33.751 Y-179.28
N14810 X-33.923 Y-179.415
N14815 X-34.085 Y-179.562
N14820 X-34.237 Y-179.72
N14825 X-34.377 Y-179.888
N14830 X-34.505 Y-180.065
N14835 X-34.62 Y-180.251
N14840 X-34.722 Y-180.445
N14845 X-34.811 Y-180.645
N14850 X-34.885 Y-180.851
N14855 X-34.944 Y-181.062
N14860 X-34.988 Y-181.276
N14865 X-35.018 Y-181.493
N14870 X-35.004 Y-181.578 Z-6.39 F#104
N14875 X-34.978 Y-181.659 Z-6.38
N14880 X-34.939 Y-181.735 Z-6.37
N14885 X-34.889 Y-181.803 Z-6.36
N14890 X-34.829 Y-181.861 Z-6.35
N14895 X-34.762 Y-181.909 Z-6.34
N14900 X-34.689 Y-181.946 Z-6.33
N14905 X-34.611 Y-181.97 Z-6.32
N14910 X-34.532 Y-181.981 Z-6.31
N14915 X-34.452 Y-181.98 Z-6.3
N14920 G3 X-34.212 Y-181.909 I-0.017 J0.5
N14925 G1 X-33.761 Y-181.638
N14930 X-31.128 Y-180.055 F#105
N14935 X-30.662 Y-179.775 F#103
N14940 G3 X-30.496 Y-179.611 I-0.258 J0.429
N14945 X-30.655 Y-178.922 Z-6.4 I-0.424 J0.265
N14950 G1 X-30.835 Y-178.812 F#100
N14955 X-31.024 Y-178.717
N14960 X-31.219 Y-178.636
N14965 X-31.419 Y-178.569
N14970 X-31.624 Y-178.519
N14975 X-31.833 Y-178.483
N14980 X-32.043 Y-178.464
N14985 X-32.254 Y-178.461
N14990 X-32.465 Y-178.473
N14995 X-32.675 Y-178.502
N15000 X-32.881 Y-178.546
N15005 X-33.084 Y-178.606
N15010 X-33.281 Y-178.681
N15015 X-33.473 Y-178.77
N15020 X-33.657 Y-178.874
N15025 X-33.832 Y-178.992
N15030 X-33.998 Y-179.122
N15035 X-34.154 Y-179.265
N15040 X-34.299 Y-179.419
N15045 X-34.431 Y-179.583
N15050 X-34.551 Y-179.757
N15055 X-34.657 Y-179.94
N15060 X-34.75 Y-180.13
N15065 X-34.827 Y-180.326
N15070 X-34.89 Y-180.528
N15075 X-34.937 Y-180.734
N15080 X-34.968 Y-180.943
N15085 X-34.983 Y-181.154
N15090 X-34.971 Y-181.243 Z-6.389 F#104
N15095 X-34.943 Y-181.327 Z-6.378
N15100 X-34.902 Y-181.406 Z-6.367
N15105 X-34.847 Y-181.476 Z-6.356
N15110 X-34.782 Y-181.535 Z-6.344
N15115 X-34.707 Y-181.582 Z-6.333
N15120 X-34.625 Y-181.615 Z-6.322
N15125 X-34.54 Y-181.633 Z-6.311
N15130 X-34.452 Y-181.637 Z-6.3
N15135 G3 X-34.199 Y-181.557 I-0.017 J0.5
N15140 G1 X-33.77 Y-181.281
N15145 X-31.524 Y-179.835 F#105
N15150 X-31.054 Y-179.533 F#103
N15155 G3 X-30.9 Y-179.377 I-0.271 J0.42
N15160 X-31.06 Y-178.688 Z-6.4 I-0.424 J0.265
N15165 X-34.958 Y-180.78 I-1.404 J-2.061 F#100
N15170 G1 X-34.949 Y-180.864 Z-6.389 F#104
N15175 X-34.925 Y-180.946 Z-6.378
N15180 X-34.887 Y-181.023 Z-6.367
N15185 X-34.836 Y-181.093 Z-6.356
N15190 X-34.774 Y-181.152 Z-6.344
N15195 X-34.703 Y-181.2 Z-6.333
N15200 X-34.623 Y-181.235 Z-6.322
N15205 X-34.539 Y-181.256 Z-6.311
N15210 X-34.452 Y-181.262 Z-6.3
N15215 G3 X-34.186 Y-181.174 I-0.017 J0.5
N15220 G1 X-33.778 Y-180.893
N15225 X-31.921 Y-179.615 F#105
N15230 X-31.448 Y-179.289 F#103
N15235 G3 X-31.307 Y-179.142 I-0.284 J0.412
N15240 X-31.467 Y-178.453 Z-6.4 I-0.424 J0.265
N15245 X-34.93 Y-180.448 I-1.249 J-1.835 F#100
N15250 G1 X-34.924 Y-180.529 Z-6.389 F#104
N15255 X-34.905 Y-180.608 Z-6.378
N15260 X-34.872 Y-180.683 Z-6.367
N15265 X-34.825 Y-180.752 Z-6.356
N15270 X-34.767 Y-180.813 Z-6.344
N15275 X-34.699 Y-180.863 Z-6.333
N15280 X-34.622 Y-180.9 Z-6.322
N15285 X-34.539 Y-180.924 Z-6.311
N15290 X-34.452 Y-180.933 Z-6.3
N15295 G3 X-34.17 Y-180.833 I-0.017 J0.5
N15300 G1 X-33.79 Y-180.548
N15305 X-32.282 Y-179.418 F#105
N15310 X-31.806 Y-179.061 F#103
N15315 G3 X-31.682 Y-178.926 I-0.3 J0.4
N15320 X-31.841 Y-178.237 Z-6.4 I-0.424 J0.265
N15325 X-34.885 Y-179.694 I-1.103 J-1.604 F#100
N15330 G1 X-34.969 Y-180.104
N15335 G3 X-34.452 Y-180.587 Z-6.3 I0.5 J0.017 F#104
N15340 X-34.158 Y-180.478 I-0.017 J0.5
N15345 G1 X-33.798 Y-180.191
N15350 X-32.605 Y-179.24 F#105
N15355 X-32.128 Y-178.86 F#103
N15360 G3 X-32.015 Y-178.733 I-0.312 J0.391
N15365 X-32.175 Y-178.045 Z-6.4 I-0.424 J0.265
N15370 X-34.781 Y-178.999 I-0.972 J-1.383 F#100
N15375 G1 X-34.931 Y-179.369
N15380 X-34.969 Y-179.764
N15385 G3 X-34.452 Y-180.246 Z-6.3 I0.5 J0.017 F#104
N15390 X-34.145 Y-180.127 I-0.017 J0.5
N15395 G1 X-33.808 Y-179.839
N15400 X-32.91 Y-179.072 F#105
N15405 X-32.433 Y-178.665 F#103
N15410 G3 X-32.334 Y-178.549 I-0.325 J0.38
N15415 X-32.493 Y-177.861 Z-6.4 I-0.424 J0.265
N15420 X-34.919 Y-179.323 I-0.839 J-1.35 F#100
N15425 G1 X-34.918 Y-179.403 Z-6.389 F#104
N15430 X-34.903 Y-179.483 Z-6.378
N15435 X-34.874 Y-179.561 Z-6.367
N15440 X-34.832 Y-179.632 Z-6.356
N15445 X-34.777 Y-179.696 Z-6.344
N15450 X-34.711 Y-179.749 Z-6.333
N15455 X-34.636 Y-179.791 Z-6.322
N15460 X-34.555 Y-179.819 Z-6.311
N15465 X-34.468 Y-179.833 Z-6.3
N15470 G3 X-34.127 Y-179.705 I0.008 J0.5
N15475 G1 X-33.825 Y-179.433
N15480 X-33.214 Y-178.885 F#105
N15485 X-32.78 Y-178.495 F#103
N15490 G3 X-32.663 Y-178.339 I-0.334 J0.372
N15495 X-32.898 Y-177.672 Z-6.4 I-0.451 J0.216
N15500 G1 X-33.073 Y-177.596 F#100
N15505 X-33.207 Y-177.545
N15510 X-33.261 Y-177.527
N15515 G3 X-33.578 Y-177.715 I-0.052 J-0.273 F#104
N15520 X-33.051 Y-177.885 I0.263 J-0.085 F#103
N15525 X-33.207 Y-177.545 I-0.263 J0.085
N15530 X-34.86 Y-178.441 I-0.316 J-1.389 F#100
N15535 G1 X-34.871 Y-178.526 Z-6.389 F#104
N15540 X-34.868 Y-178.612 Z-6.378
N15545 X-34.85 Y-178.696 Z-6.367
N15550 X-34.817 Y-178.776 Z-6.356
N15555 X-34.771 Y-178.849 Z-6.344
N15560 X-34.713 Y-178.913 Z-6.333
N15565 X-34.645 Y-178.966 Z-6.322
N15570 X-34.568 Y-179.007 Z-6.311
N15575 X-34.485 Y-179.033 Z-6.3
N15580 G3 X-34.12 Y-178.973 I0.107 J0.488
N15585 G1 X-33.777 Y-178.766
N15590 X-33.501 Y-178.599 F#105
N15595 X-33.226 Y-178.433 F#103
N15600 G3 X-32.988 Y-178.061 I-0.258 J0.428
N15605 X-33.429 Y-177.508 Z-6.4 I-0.497 J0.056
N15610 X-34.931 Y-178.906 I-0.15 J-1.346 F#100
N15615 G1 X-34.968 Y-179.469
N15620 X-34.969 Y-179.656
N15625 Y-182.244
N15630 X-34.909 Y-182.465 Z-6.371 F#104
N15635 X-34.575 Y-182.91 Z-6.3
N15640 X-34.108 Y-183.534
N15645 X-32.119 Y-186.185 F#105
N15650 G2 X-31.671 Y-187.522 I-2.05 J-1.431
N15655 G1 Y-191.643
N15660 G2 X-32.242 Y-193.141 I-2.498 J0.094
N15665 G1 X-34.364 Y-195.632
N15670 X-34.405 Y-195.681
N15675 X-34.445 Y-195.73
N15680 G3 X-34.82 Y-196.41 I1.974 J-1.534 F#103
N15685 X-34.969 Y-197.177 Z-6.4 I2.349 J-0.855
N15690 X-32.336 Y-204.038 I8.279 J-0.758 F#100
N15695 X-21.341 Y-207.567 I8.549 J7.745
N15700 G1 X-21.036 Y-207.38
N15705 X-19.832 Y-206.685
N15710 G3 X-19.672 Y-205.996 Z-6.3 I-0.265 J0.424 F#104
N15715 X-19.864 Y-205.819 I-0.424 J-0.265
N15720 G1 X-20.32 Y-205.579
N15725 X-33.746 Y-198.509 F#105
N15730 X-34.237 Y-198.251 F#103
N15735 G3 X-34.452 Y-198.193 I-0.233 J-0.442
N15740 X-34.969 Y-198.676 Z-6.4 I-0.017 J-0.5
N15745 X-33.221 Y-203.652 I6.447 J-0.531 F#100
N15750 X-22.709 Y-208.197 I9.396 J7.304
N15755 G1 X-22.303 Y-208.073
N15760 X-21.92 Y-207.891
N15765 X-21.036 Y-207.38
N15770 G3 X-20.876 Y-206.691 Z-6.3 I-0.265 J0.424 F#104
N15775 X-21.062 Y-206.517 I-0.424 J-0.265
N15780 G1 X-21.521 Y-206.268
N15785 X-33.749 Y-199.638 F#105
N15790 X-34.231 Y-199.377 F#103
N15795 G3 X-34.452 Y-199.317 I-0.238 J-0.44
N15800 X-34.969 Y-199.799 Z-6.4 I-0.017 J-0.5
N15805 X-33.397 Y-204.074 I5.548 J-0.386 F#100
N15810 X-23.319 Y-208.638 I9.442 J7.439
N15815 G1 X-22.985 Y-208.479
N15820 X-22.667 Y-208.322
N15825 X-21.92 Y-207.891
N15830 G3 X-21.761 Y-207.202 Z-6.3 I-0.265 J0.424 F#104
N15835 X-21.944 Y-207.029 I-0.424 J-0.265
N15840 G1 X-22.404 Y-206.776
N15845 X-33.751 Y-200.532 F#105
N15850 X-34.228 Y-200.269 F#103
N15855 G3 X-34.452 Y-200.207 I-0.241 J-0.438
N15860 X-34.969 Y-200.689 Z-6.4 I-0.017 J-0.5
N15865 X-33.372 Y-204.718 I5.1 J-0.309 F#100
N15870 G1 X-33.091 Y-205.042
N15875 X-32.8 Y-205.355
N15880 X-32.498 Y-205.658
N15885 X-32.185 Y-205.95
N15890 X-31.862 Y-206.231
N15895 X-31.529 Y-206.501
N15900 X-31.188 Y-206.758
N15905 X-30.837 Y-207.003
N15910 X-30.477 Y-207.236
N15915 X-30.11 Y-207.456
N15920 X-29.736 Y-207.662
N15925 X-29.354 Y-207.856
N15930 X-28.965 Y-208.035
N15935 X-28.571 Y-208.201
N15940 X-28.171 Y-208.353
N15945 X-27.765 Y-208.491
N15950 X-27.356 Y-208.614
N15955 X-26.942 Y-208.723
N15960 X-26.524 Y-208.817
N15965 X-26.104 Y-208.896
N15970 X-25.681 Y-208.961
N15975 X-25.255 Y-209.01
N15980 X-24.829 Y-209.044
N15985 X-24.401 Y-209.064
N15990 G3 X-22.667 Y-208.322 I-0.616 J3.839
