%
(1001)
(6MM TWO FLUTE)
(T1  D=6. CR=0. - ZMIN=-6.5 - FLAT END MILL)
N10 G90 G94 G17 G91.1
N15 G21
N20 G53 G0 Z0.
(2D CONTOUR2 3)
N25 M9
N30 T1 M6
N35 S3200 M3
N40 G54
N45 M8
N55 G0 X-30.906 Y-154.963
N60 G43 Z4. H1
N65 #100=330. (CUTTING)
N70 #107=270. (RAMPING)
N75 G0 Z2.5
N80 S3000
N85 G1 X-3.35 Y-139.054 Z2.212 F#107
N90 G3 Y-136.802 Z2.188 I-0.65 J1.126
N95 G1 X-32.919 Y-119.73 Z1.879
N100 G3 X-34.869 Y-120.856 Z1.854 I-0.65 J-1.126
N105 G1 Y-155. Z1.546
N110 G3 X-32.919 Y-156.126 Z1.521 I1.3 J0.
N115 G1 X-3.35 Y-139.054 Z1.212
N120 G3 Y-136.802 Z1.188 I-0.65 J1.126
N125 G1 X-32.919 Y-119.73 Z0.879
N130 G3 X-34.869 Y-120.856 Z0.854 I-0.65 J-1.126
N135 G1 Y-155. Z0.546
N140 G3 X-32.919 Y-156.126 Z0.521 I1.3 J0.
N145 G1 X-3.35 Y-139.054 Z0.212
N150 G3 Y-136.802 Z0.188 I-0.65 J1.126
N155 G1 X-32.919 Y-119.73 Z-0.121
N160 G3 X-34.869 Y-120.856 Z-0.146 I-0.65 J-1.126
N165 G1 Y-155. Z-0.454
N170 G3 X-32.919 Y-156.126 Z-0.479 I1.3 J0.
N175 G1 X-3.35 Y-139.054 Z-0.788
N180 G3 Y-136.802 Z-0.812 I-0.65 J1.126
N185 G1 X-32.919 Y-119.73 Z-1.121
N190 G3 X-34.869 Y-120.856 Z-1.146 I-0.65 J-1.126
N195 G1 Y-155. Z-1.454
N200 G3 X-32.919 Y-156.126 Z-1.479 I1.3 J0.
N205 G1 X-3.35 Y-139.054 Z-1.788
N210 G3 Y-136.802 Z-1.812 I-0.65 J1.126
N215 G1 X-32.919 Y-119.73 Z-2.121
N220 G3 X-34.869 Y-120.856 Z-2.146 I-0.65 J-1.126
N225 G1 Y-155. Z-2.454
N230 G3 X-32.919 Y-156.126 Z-2.479 I1.3 J0.
N235 G1 X-3.35 Y-139.054 Z-2.788
N240 G3 Y-136.802 Z-2.812 I-0.65 J1.126
N245 G1 X-32.919 Y-119.73 Z-3.121
N250 G3 X-34.869 Y-120.856 Z-3.146 I-0.65 J-1.126
N255 G1 Y-155. Z-3.454
N260 G3 X-32.919 Y-156.126 Z-3.479 I1.3 J0.
N265 G1 X-3.35 Y-139.054 Z-3.788
N270 G3 Y-136.802 Z-3.812 I-0.65 J1.126
N275 G1 X-32.919 Y-119.73 Z-4.121
N280 G3 X-34.869 Y-120.856 Z-4.146 I-0.65 J-1.126
N285 G1 Y-155. Z-4.454
N290 G3 X-32.919 Y-156.126 Z-4.479 I1.3 J0.
N295 G1 X-3.35 Y-139.054 Z-4.788
N300 G3 Y-136.802 Z-4.812 I-0.65 J1.126
N305 G1 X-32.919 Y-119.73 Z-5.121
N310 G3 X-34.869 Y-120.856 Z-5.146 I-0.65 J-1.126
N315 G1 Y-155. Z-5.454
N320 G3 X-32.919 Y-156.126 Z-5.479 I1.3 J0.
N325 G1 X-3.35 Y-139.054 Z-5.788
N330 G3 Y-136.802 Z-5.812 I-0.65 J1.126
N335 G1 X-32.919 Y-119.73 Z-6.121
N340 G3 X-34.869 Y-120.856 Z-6.146 I-0.65 J-1.126
N345 G1 Y-137.928 Z-6.3
N350 S3200
N355 Y-155. F#100
N360 G3 X-32.919 Y-156.126 I1.3 J0.
N365 G1 X-3.35 Y-139.054
N370 G3 Y-136.802 I-0.65 J1.126
N375 G1 X-32.919 Y-119.73
N380 G3 X-34.869 Y-120.856 I-0.65 J-1.126
N385 G1 Y-137.928
N390 G0 Z2.5
N395 X1.3 Y-181.675
N400 S3000
N405 G1 Y-149.856 Z2.212 F#107
N410 G3 X-0.65 Y-148.73 Z2.188 I-1.3 J0.
N415 G1 X-30.219 Y-165.802 Z1.879
N420 G3 Y-168.054 Z1.854 I0.65 J-1.126
N425 G1 X-0.65 Y-185.126 Z1.546
N430 G3 X1.3 Y-184. Z1.521 I0.65 J1.126
N435 G1 Y-149.856 Z1.212
N440 G3 X-0.65 Y-148.73 Z1.188 I-1.3 J0.
N445 G1 X-30.219 Y-165.802 Z0.879
N450 G3 Y-168.054 Z0.854 I0.65 J-1.126
N455 G1 X-0.65 Y-185.126 Z0.546
N460 G3 X1.3 Y-184. Z0.521 I0.65 J1.126
N465 G1 Y-149.856 Z0.212
N470 G3 X-0.65 Y-148.73 Z0.188 I-1.3 J0.
N475 G1 X-30.219 Y-165.802 Z-0.121
N480 G3 Y-168.054 Z-0.146 I0.65 J-1.126
N485 G1 X-0.65 Y-185.126 Z-0.454
N490 G3 X1.3 Y-184. Z-0.479 I0.65 J1.126
N495 G1 Y-149.856 Z-0.788
N500 G3 X-0.65 Y-148.73 Z-0.812 I-1.3 J0.
N505 G1 X-30.219 Y-165.802 Z-1.121
N510 G3 Y-168.054 Z-1.146 I0.65 J-1.126
N515 G1 X-0.65 Y-185.126 Z-1.454
N520 G3 X1.3 Y-184. Z-1.479 I0.65 J1.126
N525 G1 Y-149.856 Z-1.788
N530 G3 X-0.65 Y-148.73 Z-1.812 I-1.3 J0.
N535 G1 X-30.219 Y-165.802 Z-2.121
N540 G3 Y-168.054 Z-2.146 I0.65 J-1.126
N545 G1 X-0.65 Y-185.126 Z-2.454
N550 G3 X1.3 Y-184. Z-2.479 I0.65 J1.126
N555 G1 Y-149.856 Z-2.788
N560 G3 X-0.65 Y-148.73 Z-2.812 I-1.3 J0.
N565 G1 X-30.219 Y-165.802 Z-3.121
N570 G3 Y-168.054 Z-3.146 I0.65 J-1.126
N575 G1 X-0.65 Y-185.126 Z-3.454
N580 G3 X1.3 Y-184. Z-3.479 I0.65 J1.126
N585 G1 Y-149.856 Z-3.788
N590 G3 X-0.65 Y-148.73 Z-3.812 I-1.3 J0.
N595 G1 X-30.219 Y-165.802 Z-4.121
N600 G3 Y-168.054 Z-4.146 I0.65 J-1.126
N605 G1 X-0.65 Y-185.126 Z-4.454
N610 G3 X1.3 Y-184. Z-4.479 I0.65 J1.126
N615 G1 Y-149.856 Z-4.788
N620 G3 X-0.65 Y-148.73 Z-4.812 I-1.3 J0.
N625 G1 X-30.219 Y-165.802 Z-5.121
N630 G3 Y-168.054 Z-5.146 I0.65 J-1.126
N635 G1 X-0.65 Y-185.126 Z-5.454
N640 G3 X1.3 Y-184. Z-5.479 I0.65 J1.126
N645 G1 Y-149.856 Z-5.788
N650 G3 X-0.65 Y-148.73 Z-5.812 I-1.3 J0.
N655 G1 X-30.219 Y-165.802 Z-6.121
N660 G3 Y-168.054 Z-6.146 I0.65 J-1.126
N665 G1 X-15.435 Y-176.59 Z-6.3
N670 S3200
N675 X-0.65 Y-185.126 F#100
N680 G3 X1.3 Y-184. I0.65 J1.126
N685 G1 Y-149.856
N690 G3 X-0.65 Y-148.73 I-1.3 J0.
N695 G1 X-30.219 Y-165.802
N700 G3 Y-168.054 I0.65 J-1.126
N705 G1 X-15.435 Y-176.59
N710 G0 Z2.5
N715 X-30.906 Y-212.963
N720 S3000
N725 G1 X-3.35 Y-197.054 Z2.212 F#107
N730 G3 Y-194.802 Z2.188 I-0.65 J1.126
N735 G1 X-32.919 Y-177.73 Z1.879
N740 G3 X-34.869 Y-178.856 Z1.854 I-0.65 J-1.126
N745 G1 Y-213. Z1.546
N750 G3 X-32.919 Y-214.126 Z1.521 I1.3 J0.
N755 G1 X-3.35 Y-197.054 Z1.212
N760 G3 Y-194.802 Z1.188 I-0.65 J1.126
N765 G1 X-32.919 Y-177.73 Z0.879
N770 G3 X-34.869 Y-178.856 Z0.854 I-0.65 J-1.126
N775 G1 Y-213. Z0.546
N780 G3 X-32.919 Y-214.126 Z0.521 I1.3 J0.
N785 G1 X-3.35 Y-197.054 Z0.212
N790 G3 Y-194.802 Z0.188 I-0.65 J1.126
N795 G1 X-32.919 Y-177.73 Z-0.121
N800 G3 X-34.869 Y-178.856 Z-0.146 I-0.65 J-1.126
N805 G1 Y-213. Z-0.454
N810 G3 X-32.919 Y-214.126 Z-0.479 I1.3 J0.
N815 G1 X-3.35 Y-197.054 Z-0.788
N820 G3 Y-194.802 Z-0.812 I-0.65 J1.126
N825 G1 X-32.919 Y-177.73 Z-1.121
N830 G3 X-34.869 Y-178.856 Z-1.146 I-0.65 J-1.126
N835 G1 Y-213. Z-1.454
N840 G3 X-32.919 Y-214.126 Z-1.479 I1.3 J0.
N845 G1 X-3.35 Y-197.054 Z-1.788
N850 G3 Y-194.802 Z-1.812 I-0.65 J1.126
N855 G1 X-32.919 Y-177.73 Z-2.121
N860 G3 X-34.869 Y-178.856 Z-2.146 I-0.65 J-1.126
N865 G1 Y-213. Z-2.454
N870 G3 X-32.919 Y-214.126 Z-2.479 I1.3 J0.
N875 G1 X-3.35 Y-197.054 Z-2.788
N880 G3 Y-194.802 Z-2.812 I-0.65 J1.126
N885 G1 X-32.919 Y-177.73 Z-3.121
N890 G3 X-34.869 Y-178.856 Z-3.146 I-0.65 J-1.126
N895 G1 Y-213. Z-3.454
N900 G3 X-32.919 Y-214.126 Z-3.479 I1.3 J0.
N905 G1 X-3.35 Y-197.054 Z-3.788
N910 G3 Y-194.802 Z-3.812 I-0.65 J1.126
N915 G1 X-32.919 Y-177.73 Z-4.121
N920 G3 X-34.869 Y-178.856 Z-4.146 I-0.65 J-1.126
N925 G1 Y-213. Z-4.454
N930 G3 X-32.919 Y-214.126 Z-4.479 I1.3 J0.
N935 G1 X-3.35 Y-197.054 Z-4.788
N940 G3 Y-194.802 Z-4.812 I-0.65 J1.126
N945 G1 X-32.919 Y-177.73 Z-5.121
N950 G3 X-34.869 Y-178.856 Z-5.146 I-0.65 J-1.126
N955 G1 Y-213. Z-5.454
N960 G3 X-32.919 Y-214.126 Z-5.479 I1.3 J0.
N965 G1 X-3.35 Y-197.054 Z-5.788
N970 G3 Y-194.802 Z-5.812 I-0.65 J1.126
N975 G1 X-32.919 Y-177.73 Z-6.121
N980 G3 X-34.869 Y-178.856 Z-6.146 I-0.65 J-1.126
N985 G1 Y-195.928 Z-6.3
N990 S3200
N995 Y-213. F#100
N1000 G3 X-32.919 Y-214.126 I1.3 J0.
N1005 G1 X-3.35 Y-197.054
N1010 G3 Y-194.802 I-0.65 J1.126
N1015 G1 X-32.919 Y-177.73
N1020 G3 X-34.869 Y-178.856 I-0.65 J-1.126
N1025 G1 Y-195.928
N1030 G0 Z2.5
N1035 X-30.905 Y-86.963
N1040 S3000
N1045 G1 X-3.35 Y-71.054 Z2.212 F#107
N1050 G3 Y-68.802 Z2.188 I-0.65 J1.126
N1055 G1 X-32.919 Y-51.731 Z1.879
N1060 G3 X-34.869 Y-52.856 Z1.854 I-0.65 J-1.126
N1065 G1 Y-87. Z1.546
N1070 G3 X-32.919 Y-88.126 Z1.521 I1.3 J0.
N1075 G1 X-3.35 Y-71.054 Z1.212
N1080 G3 Y-68.802 Z1.188 I-0.65 J1.126
N1085 G1 X-32.919 Y-51.731 Z0.879
N1090 G3 X-34.869 Y-52.856 Z0.854 I-0.65 J-1.126
N1095 G1 Y-87. Z0.546
N1100 G3 X-32.919 Y-88.126 Z0.521 I1.3 J0.
N1105 G1 X-3.35 Y-71.054 Z0.212
N1110 G3 Y-68.802 Z0.188 I-0.65 J1.126
N1115 G1 X-32.919 Y-51.731 Z-0.121
N1120 G3 X-34.869 Y-52.856 Z-0.146 I-0.65 J-1.126
N1125 G1 Y-87. Z-0.454
N1130 G3 X-32.919 Y-88.126 Z-0.479 I1.3 J0.
N1135 G1 X-3.35 Y-71.054 Z-0.788
N1140 G3 Y-68.802 Z-0.812 I-0.65 J1.126
N1145 G1 X-32.919 Y-51.731 Z-1.121
N1150 G3 X-34.869 Y-52.856 Z-1.146 I-0.65 J-1.126
N1155 G1 Y-87. Z-1.454
N1160 G3 X-32.919 Y-88.126 Z-1.479 I1.3 J0.
N1165 G1 X-3.35 Y-71.054 Z-1.788
N1170 G3 Y-68.802 Z-1.812 I-0.65 J1.126
N1175 G1 X-32.919 Y-51.731 Z-2.121
N1180 G3 X-34.869 Y-52.856 Z-2.146 I-0.65 J-1.126
N1185 G1 Y-87. Z-2.454
N1190 G3 X-32.919 Y-88.126 Z-2.479 I1.3 J0.
N1195 G1 X-3.35 Y-71.054 Z-2.788
N1200 G3 Y-68.802 Z-2.812 I-0.65 J1.126
N1205 G1 X-32.919 Y-51.731 Z-3.121
N1210 G3 X-34.869 Y-52.856 Z-3.146 I-0.65 J-1.126
N1215 G1 Y-87. Z-3.454
N1220 G3 X-32.919 Y-88.126 Z-3.479 I1.3 J0.
N1225 G1 X-3.35 Y-71.054 Z-3.788
N1230 G3 Y-68.802 Z-3.812 I-0.65 J1.126
N1235 G1 X-32.919 Y-51.731 Z-4.121
N1240 G3 X-34.869 Y-52.856 Z-4.146 I-0.65 J-1.126
N1245 G1 Y-87. Z-4.454
N1250 G3 X-32.919 Y-88.126 Z-4.479 I1.3 J0.
N1255 G1 X-3.35 Y-71.054 Z-4.788
N1260 G3 Y-68.802 Z-4.812 I-0.65 J1.126
N1265 G1 X-32.919 Y-51.731 Z-5.121
N1270 G3 X-34.869 Y-52.856 Z-5.146 I-0.65 J-1.126
N1275 G1 Y-87. Z-5.454
N1280 G3 X-32.919 Y-88.126 Z-5.479 I1.3 J0.
N1285 G1 X-3.35 Y-71.054 Z-5.788
N1290 G3 Y-68.802 Z-5.812 I-0.65 J1.126
N1295 G1 X-32.919 Y-51.731 Z-6.121
N1300 G3 X-34.869 Y-52.856 Z-6.146 I-0.65 J-1.126
N1305 G1 Y-69.928 Z-6.3
N1310 S3200
N1315 Y-87. F#100
N1320 G3 X-32.919 Y-88.126 I1.3 J0.
N1325 G1 X-3.35 Y-71.054
N1330 G3 Y-68.802 I-0.65 J1.126
N1335 G1 X-32.919 Y-51.731
N1340 G3 X-34.869 Y-52.856 I-0.65 J-1.126
N1345 G1 Y-69.928
N1350 G0 Z2.5
N1355 X-2.664 Y-23.893
N1360 S3000
N1365 G1 X-30.219 Y-39.802 Z2.212 F#107
N1370 G3 Y-42.054 Z2.188 I0.65 J-1.126
N1375 G1 X-0.65 Y-59.126 Z1.879
N1380 G3 X1.3 Y-58. Z1.854 I0.65 J1.126
N1385 G1 Y-23.856 Z1.546
N1390 G3 X-0.65 Y-22.731 Z1.521 I-1.3 J0.
N1395 G1 X-30.219 Y-39.802 Z1.212
N1400 G3 Y-42.054 Z1.188 I0.65 J-1.126
N1405 G1 X-0.65 Y-59.126 Z0.879
N1410 G3 X1.3 Y-58. Z0.854 I0.65 J1.126
N1415 G1 Y-23.856 Z0.546
N1420 G3 X-0.65 Y-22.731 Z0.521 I-1.3 J0.
N1425 G1 X-30.219 Y-39.802 Z0.212
N1430 G3 Y-42.054 Z0.188 I0.65 J-1.126
N1435 G1 X-0.65 Y-59.126 Z-0.121
N1440 G3 X1.3 Y-58. Z-0.146 I0.65 J1.126
N1445 G1 Y-23.856 Z-0.454
N1450 G3 X-0.65 Y-22.731 Z-0.479 I-1.3 J0.
N1455 G1 X-30.219 Y-39.802 Z-0.788
N1460 G3 Y-42.054 Z-0.812 I0.65 J-1.126
N1465 G1 X-0.65 Y-59.126 Z-1.121
N1470 G3 X1.3 Y-58. Z-1.146 I0.65 J1.126
N1475 G1 Y-23.856 Z-1.454
N1480 G3 X-0.65 Y-22.731 Z-1.479 I-1.3 J0.
N1485 G1 X-30.219 Y-39.802 Z-1.788
N1490 G3 Y-42.054 Z-1.812 I0.65 J-1.126
N1495 G1 X-0.65 Y-59.126 Z-2.121
N1500 G3 X1.3 Y-58. Z-2.146 I0.65 J1.126
N1505 G1 Y-23.856 Z-2.454
N1510 G3 X-0.65 Y-22.731 Z-2.479 I-1.3 J0.
N1515 G1 X-30.219 Y-39.802 Z-2.788
N1520 G3 Y-42.054 Z-2.812 I0.65 J-1.126
N1525 G1 X-0.65 Y-59.126 Z-3.121
N1530 G3 X1.3 Y-58. Z-3.146 I0.65 J1.126
N1535 G1 Y-23.856 Z-3.454
N1540 G3 X-0.65 Y-22.731 Z-3.479 I-1.3 J0.
N1545 G1 X-30.219 Y-39.802 Z-3.788
N1550 G3 Y-42.054 Z-3.812 I0.65 J-1.126
N1555 G1 X-0.65 Y-59.126 Z-4.121
N1560 G3 X1.3 Y-58. Z-4.146 I0.65 J1.126
N1565 G1 Y-23.856 Z-4.454
N1570 G3 X-0.65 Y-22.731 Z-4.479 I-1.3 J0.
N1575 G1 X-30.219 Y-39.802 Z-4.788
N1580 G3 Y-42.054 Z-4.812 I0.65 J-1.126
N1585 G1 X-0.65 Y-59.126 Z-5.121
N1590 G3 X1.3 Y-58. Z-5.146 I0.65 J1.126
N1595 G1 Y-23.856 Z-5.454
N1600 G3 X-0.65 Y-22.731 Z-5.479 I-1.3 J0.
N1605 G1 X-30.219 Y-39.802 Z-5.788
N1610 G3 Y-42.054 Z-5.812 I0.65 J-1.126
N1615 G1 X-0.65 Y-59.126 Z-6.121
N1620 G3 X1.3 Y-58. Z-6.146 I0.65 J1.126
N1625 G1 Y-40.928 Z-6.3
N1630 S3200
N1635 Y-23.856 F#100
N1640 G3 X-0.65 Y-22.731 I-1.3 J0.
N1645 G1 X-30.219 Y-39.802
N1650 G3 Y-42.054 I0.65 J-1.126
N1655 G1 X-0.65 Y-59.126
N1660 G3 X1.3 Y-58. I0.65 J1.126
N1665 G1 Y-40.928
N1670 G0 Z2.5
N1675 X-5.364 Y-9.64
N1680 S3000
N1685 G1 X-32.919 Y6.269 Z2.212 F#107
N1690 G3 X-34.869 Y5.144 Z2.188 I-0.65 J-1.126
N1695 G1 Y-29. Z1.879
N1700 G3 X-32.919 Y-30.126 Z1.854 I1.3 J0.
N1705 G1 X-3.35 Y-13.054 Z1.546
N1710 G3 Y-10.802 Z1.521 I-0.65 J1.126
N1715 G1 X-32.919 Y6.269 Z1.212
N1720 G3 X-34.869 Y5.144 Z1.188 I-0.65 J-1.126
N1725 G1 Y-29. Z0.879
N1730 G3 X-32.919 Y-30.126 Z0.854 I1.3 J0.
N1735 G1 X-3.35 Y-13.054 Z0.546
N1740 G3 Y-10.802 Z0.521 I-0.65 J1.126
N1745 G1 X-32.919 Y6.269 Z0.212
N1750 G3 X-34.869 Y5.144 Z0.188 I-0.65 J-1.126
N1755 G1 Y-29. Z-0.121
N1760 G3 X-32.919 Y-30.126 Z-0.146 I1.3 J0.
N1765 G1 X-3.35 Y-13.054 Z-0.454
N1770 G3 Y-10.802 Z-0.479 I-0.65 J1.126
N1775 G1 X-32.919 Y6.269 Z-0.788
N1780 G3 X-34.869 Y5.144 Z-0.812 I-0.65 J-1.126
N1785 G1 Y-29. Z-1.121
N1790 G3 X-32.919 Y-30.126 Z-1.146 I1.3 J0.
N1795 G1 X-3.35 Y-13.054 Z-1.454
N1800 G3 Y-10.802 Z-1.479 I-0.65 J1.126
N1805 G1 X-32.919 Y6.269 Z-1.788
N1810 G3 X-34.869 Y5.144 Z-1.812 I-0.65 J-1.126
N1815 G1 Y-29. Z-2.121
N1820 G3 X-32.919 Y-30.126 Z-2.146 I1.3 J0.
N1825 G1 X-3.35 Y-13.054 Z-2.454
N1830 G3 Y-10.802 Z-2.479 I-0.65 J1.126
N1835 G1 X-32.919 Y6.269 Z-2.788
N1840 G3 X-34.869 Y5.144 Z-2.812 I-0.65 J-1.126
N1845 G1 Y-29. Z-3.121
N1850 G3 X-32.919 Y-30.126 Z-3.146 I1.3 J0.
N1855 G1 X-3.35 Y-13.054 Z-3.454
N1860 G3 Y-10.802 Z-3.479 I-0.65 J1.126
N1865 G1 X-32.919 Y6.269 Z-3.788
N1870 G3 X-34.869 Y5.144 Z-3.812 I-0.65 J-1.126
N1875 G1 Y-29. Z-4.121
N1880 G3 X-32.919 Y-30.126 Z-4.146 I1.3 J0.
N1885 G1 X-3.35 Y-13.054 Z-4.454
N1890 G3 Y-10.802 Z-4.479 I-0.65 J1.126
N1895 G1 X-32.919 Y6.269 Z-4.788
N1900 G3 X-34.869 Y5.144 Z-4.812 I-0.65 J-1.126
N1905 G1 Y-29. Z-5.121
N1910 G3 X-32.919 Y-30.126 Z-5.146 I1.3 J0.
N1915 G1 X-3.35 Y-13.054 Z-5.454
N1920 G3 Y-10.802 Z-5.479 I-0.65 J1.126
N1925 G1 X-32.919 Y6.269 Z-5.788
N1930 G3 X-34.869 Y5.144 Z-5.812 I-0.65 J-1.126
N1935 G1 Y-29. Z-6.121
N1940 G3 X-32.919 Y-30.126 Z-6.146 I1.3 J0.
N1945 G1 X-18.135 Y-21.59 Z-6.3
N1950 S3200
N1955 X-3.35 Y-13.054 F#100
N1960 G3 Y-10.802 I-0.65 J1.126
N1965 G1 X-32.919 Y6.269
N1970 G3 X-34.869 Y5.144 I-0.65 J-1.126
N1975 G1 Y-29.
N1980 G3 X-32.919 Y-30.126 I1.3 J0.
N1985 G1 X-18.135 Y-21.59
N1990 G0 Z4.
(2D CONTOUR2 4)
N2000 M8
N2005 G0 X-17.104 Y-129.146
N2010 #100=330. (CUTTING)
N2015 #103=200. (ENTRY)
N2020 #104=200. (EXIT)
N2025 #108=100. (PLUNGE)
N2030 Z4.
N2035 Z2.
N2040 G1 Z1. F#103
N2045 Z-5.9 F#108
N2050 X-17.108 Y-129.141 Z-5.994
N2055 X-17.122 Y-129.124 Z-6.085
N2060 X-17.146 Y-129.096 Z-6.172
N2065 X-17.177 Y-129.059 Z-6.253
N2070 X-17.217 Y-129.012 Z-6.324
N2075 X-17.263 Y-128.957 Z-6.385
N2080 X-17.314 Y-128.895 Z-6.435
N2085 X-17.37 Y-128.829 Z-6.471
N2090 X-17.429 Y-128.759 Z-6.493
N2095 X-17.489 Y-128.687 Z-6.5
N2100 X-17.875 Y-128.227 F#103
N2105 G3 X-18.035 Y-128.093 I-0.46 J-0.386
N2110 G1 X-32.819 Y-119.557 F#100
N2115 G3 X-35.069 Y-120.856 I-0.75 J-1.299
N2120 G1 Y-155.
N2125 G3 X-32.819 Y-156.299 I1.5 J0.
N2130 G1 X-3.25 Y-139.227
N2135 G3 Y-136.629 I-0.75 J1.299
N2140 G1 X-18.901 Y-127.593
N2145 G3 X-19.096 Y-127.522 I-0.3 J-0.52 F#104
N2150 G1 X-19.687 Y-127.418
N2155 X-19.78 Y-127.401 Z-6.493
N2160 X-19.87 Y-127.385 Z-6.471
N2165 X-19.956 Y-127.37 Z-6.435
N2170 X-20.035 Y-127.356 Z-6.385
N2175 X-20.105 Y-127.344 Z-6.324
N2180 X-20.165 Y-127.333 Z-6.253
N2185 X-20.214 Y-127.325 Z-6.172
N2190 X-20.249 Y-127.319 Z-6.085
N2195 X-20.271 Y-127.315 Z-5.994
N2200 X-20.278 Y-127.313 Z-5.9
N2205 G0 Z2.
N2210 X1.053 Y-168.261
N2215 G1 Z1. F#103
N2220 Z-5.9 F#108
N2225 X1.056 Y-168.254 Z-5.994
N2230 X1.063 Y-168.233 Z-6.085
N2235 X1.076 Y-168.199 Z-6.172
N2240 X1.093 Y-168.153 Z-6.253
N2245 X1.113 Y-168.096 Z-6.324
N2250 X1.138 Y-168.028 Z-6.385
N2255 X1.165 Y-167.953 Z-6.435
N2260 X1.195 Y-167.871 Z-6.471
N2265 X1.227 Y-167.785 Z-6.493
N2270 X1.259 Y-167.697 Z-6.5
N2275 X1.464 Y-167.133 F#103
N2280 G3 X1.5 Y-166.928 I-0.564 J0.205
N2285 G1 Y-149.856 F#100
N2290 G3 X-0.75 Y-148.557 I-1.5 J0.
N2295 G1 X-30.319 Y-165.629
N2300 G3 Y-168.227 I0.75 J-1.299
N2305 G1 X-0.75 Y-185.299
N2310 G3 X1.5 Y-184. I0.75 J1.299
N2315 G1 Y-165.928
N2320 G3 X1.464 Y-165.723 I-0.6 J0. F#104
N2325 G1 X1.259 Y-165.159
N2330 X1.227 Y-165.071 Z-6.493
N2335 X1.195 Y-164.985 Z-6.471
N2340 X1.165 Y-164.903 Z-6.435
N2345 X1.138 Y-164.828 Z-6.385
N2350 X1.113 Y-164.76 Z-6.324
N2355 X1.093 Y-164.703 Z-6.253
N2360 X1.076 Y-164.657 Z-6.172
N2365 X1.063 Y-164.623 Z-6.085
N2370 X1.056 Y-164.602 Z-5.994
N2375 X1.053 Y-164.595 Z-5.9
N2380 G0 Z2.
N2385 X-17.104 Y-187.146
N2390 G1 Z1. F#103
N2395 Z-5.9 F#108
N2400 X-17.108 Y-187.141 Z-5.994
N2405 X-17.122 Y-187.124 Z-6.085
N2410 X-17.146 Y-187.096 Z-6.172
N2415 X-17.177 Y-187.059 Z-6.253
N2420 X-17.217 Y-187.012 Z-6.324
N2425 X-17.263 Y-186.957 Z-6.385
N2430 X-17.314 Y-186.895 Z-6.435
N2435 X-17.37 Y-186.829 Z-6.471
N2440 X-17.429 Y-186.759 Z-6.493
N2445 X-17.489 Y-186.687 Z-6.5
N2450 X-17.875 Y-186.227 F#103
N2455 G3 X-18.035 Y-186.093 I-0.46 J-0.386
N2460 G1 X-32.819 Y-177.557 F#100
N2465 G3 X-35.069 Y-178.856 I-0.75 J-1.299
N2470 G1 Y-213.
N2475 G3 X-32.819 Y-214.299 I1.5 J0.
N2480 G1 X-3.25 Y-197.227
N2485 G3 Y-194.629 I-0.75 J1.299
N2490 G1 X-18.901 Y-185.593
N2495 G3 X-19.096 Y-185.522 I-0.3 J-0.52 F#104
N2500 G1 X-19.687 Y-185.418
N2505 X-19.78 Y-185.401 Z-6.493
N2510 X-19.87 Y-185.385 Z-6.471
N2515 X-19.956 Y-185.37 Z-6.435
N2520 X-20.035 Y-185.356 Z-6.385
N2525 X-20.105 Y-185.344 Z-6.324
N2530 X-20.165 Y-185.333 Z-6.253
N2535 X-20.214 Y-185.325 Z-6.172
N2540 X-20.249 Y-185.319 Z-6.085
N2545 X-20.271 Y-185.315 Z-5.994
N2550 X-20.278 Y-185.313 Z-5.9
N2555 G0 Z2.
N2560 X-19.412 Y-80.043
N2565 G1 Z1. F#103
N2570 Z-5.9 F#108
N2575 X-19.405 Y-80.041 Z-5.994
N2580 X-19.383 Y-80.038 Z-6.085
N2585 X-19.348 Y-80.031 Z-6.172
N2590 X-19.299 Y-80.023 Z-6.253
N2595 X-19.239 Y-80.012 Z-6.324
N2600 X-19.169 Y-80. Z-6.385
N2605 X-19.09 Y-79.986 Z-6.435
N2610 X-19.004 Y-79.971 Z-6.471
N2615 X-18.914 Y-79.955 Z-6.493
N2620 X-18.821 Y-79.939 Z-6.5
N2625 X-18.23 Y-79.834 F#103
N2630 G3 X-18.035 Y-79.763 I-0.104 J0.591
N2635 G1 X-3.25 Y-71.227 F#100
N2640 G3 Y-68.629 I-0.75 J1.299
N2645 G1 X-32.819 Y-51.557
N2650 G3 X-35.069 Y-52.856 I-0.75 J-1.299
N2655 G1 Y-87.
N2660 G3 X-32.819 Y-88.299 I1.5 J0.
N2665 G1 X-17.169 Y-79.263
N2670 G3 X-17.009 Y-79.129 I-0.3 J0.52 F#104
N2675 G1 X-16.623 Y-78.67
N2680 X-16.563 Y-78.598 Z-6.493
N2685 X-16.504 Y-78.528 Z-6.471
N2690 X-16.448 Y-78.461 Z-6.435
N2695 X-16.397 Y-78.399 Z-6.385
N2700 X-16.351 Y-78.345 Z-6.324
N2705 X-16.311 Y-78.298 Z-6.253
N2710 X-16.28 Y-78.26 Z-6.172
N2715 X-16.256 Y-78.232 Z-6.085
N2720 X-16.242 Y-78.216 Z-5.994
N2725 X-16.238 Y-78.21 Z-5.9
N2730 G0 Z2.
N2735 X1.053 Y-42.261
N2740 G1 Z1. F#103
N2745 Z-5.9 F#108
N2750 X1.056 Y-42.254 Z-5.994
N2755 X1.063 Y-42.233 Z-6.085
N2760 X1.076 Y-42.2 Z-6.172
N2765 X1.093 Y-42.153 Z-6.253
N2770 X1.113 Y-42.096 Z-6.324
N2775 X1.138 Y-42.029 Z-6.385
N2780 X1.165 Y-41.953 Z-6.435
N2785 X1.195 Y-41.871 Z-6.471
N2790 X1.227 Y-41.785 Z-6.493
N2795 X1.259 Y-41.697 Z-6.5
N2800 X1.464 Y-41.133 F#103
N2805 G3 X1.5 Y-40.928 I-0.564 J0.205
N2810 G1 Y-23.856 F#100
N2815 G3 X-0.75 Y-22.557 I-1.5 J0.
N2820 G1 X-30.319 Y-39.629
N2825 G3 Y-42.227 I0.75 J-1.299
N2830 G1 X-0.75 Y-59.299
N2835 G3 X1.5 Y-58. I0.75 J1.299
N2840 G1 Y-39.928
N2845 G3 X1.464 Y-39.723 I-0.6 J0. F#104
N2850 G1 X1.259 Y-39.159
N2855 X1.227 Y-39.071 Z-6.493
N2860 X1.195 Y-38.985 Z-6.471
N2865 X1.165 Y-38.903 Z-6.435
N2870 X1.138 Y-38.828 Z-6.385
N2875 X1.113 Y-38.76 Z-6.324
N2880 X1.093 Y-38.703 Z-6.253
N2885 X1.076 Y-38.657 Z-6.172
N2890 X1.063 Y-38.623 Z-6.085
N2895 X1.056 Y-38.602 Z-5.994
N2900 X1.053 Y-38.595 Z-5.9
N2905 G0 Z2.
N2910 X-19.412 Y-22.043
N2915 G1 Z1. F#103
N2920 Z-5.9 F#108
N2925 X-19.405 Y-22.041 Z-5.994
N2930 X-19.383 Y-22.038 Z-6.085
N2935 X-19.348 Y-22.031 Z-6.172
N2940 X-19.299 Y-22.023 Z-6.253
N2945 X-19.239 Y-22.012 Z-6.324
N2950 X-19.169 Y-22. Z-6.385
N2955 X-19.09 Y-21.986 Z-6.435
N2960 X-19.004 Y-21.971 Z-6.471
N2965 X-18.914 Y-21.955 Z-6.493
N2970 X-18.821 Y-21.939 Z-6.5
N2975 X-18.23 Y-21.834 F#103
N2980 G3 X-18.035 Y-21.763 I-0.104 J0.591
N2985 G1 X-3.25 Y-13.227 F#100
N2990 G3 Y-10.629 I-0.75 J1.299
N2995 G1 X-32.819 Y6.443
N3000 G3 X-35.069 Y5.144 I-0.75 J-1.299
N3005 G1 Y-29.
N3010 G3 X-32.819 Y-30.299 I1.5 J0.
N3015 G1 X-17.169 Y-21.263
N3020 G3 X-17.009 Y-21.129 I-0.3 J0.52 F#104
N3025 G1 X-16.623 Y-20.67
N3030 X-16.563 Y-20.598 Z-6.493
N3035 X-16.504 Y-20.528 Z-6.471
N3040 X-16.448 Y-20.461 Z-6.435
N3045 X-16.397 Y-20.399 Z-6.385
N3050 X-16.351 Y-20.345 Z-6.324
N3055 X-16.311 Y-20.298 Z-6.253
N3060 X-16.28 Y-20.26 Z-6.172
N3065 X-16.256 Y-20.232 Z-6.085
N3070 X-16.242 Y-20.216 Z-5.994
N3075 X-16.238 Y-20.21 Z-5.9
N3080 G0 Z4.
N3090 M9
N3095 G53 Z0.
N3100 M30
%
