%
(1001)
(6MM TWO FLUTE)
(T1  D=6. CR=0. - ZMIN=-6. - FLAT END MILL)
N10 G90 G94 G17 G91.1
N15 G21
N20 G53 G0 Z0.
(2D CONTOUR2 3)
N25 M9
N30 T1 M6
N35 S3200 M3
N40 G54
N45 M8
N55 G0 X21.475 Y-103.216
N60 G43 Z4. H1
N65 #100=330. (CUTTING)
N70 #107=270. (RAMPING)
N75 G0 Z2.5
N80 S3000
N85 G1 X0.45 Y-91.077 Z2.275 F#107
N90 G3 X-0.9 Y-91.856 Z2.258 I-0.45 J-0.779
N95 G1 Y-126. Z1.942
N100 G3 X0.45 Y-126.779 Z1.925 I0.9 J0.
N105 G1 X30.019 Y-109.707 Z1.609
N110 G3 Y-108.149 Z1.591 I-0.45 J0.779
N115 G1 X0.45 Y-91.077 Z1.275
N120 G3 X-0.9 Y-91.856 Z1.258 I-0.45 J-0.779
N125 G1 Y-126. Z0.942
N130 G3 X0.45 Y-126.779 Z0.925 I0.9 J0.
N135 G1 X30.019 Y-109.707 Z0.609
N140 G3 Y-108.149 Z0.591 I-0.45 J0.779
N145 G1 X0.45 Y-91.077 Z0.275
N150 G3 X-0.9 Y-91.856 Z0.258 I-0.45 J-0.779
N155 G1 Y-126. Z-0.058
N160 G3 X0.45 Y-126.779 Z-0.075 I0.9 J0.
N165 G1 X30.019 Y-109.707 Z-0.391
N170 G3 Y-108.149 Z-0.409 I-0.45 J0.779
N175 G1 X0.45 Y-91.077 Z-0.725
N180 G3 X-0.9 Y-91.856 Z-0.742 I-0.45 J-0.779
N185 G1 Y-126. Z-1.058
N190 G3 X0.45 Y-126.779 Z-1.075 I0.9 J0.
N195 G1 X30.019 Y-109.707 Z-1.391
N200 G3 Y-108.149 Z-1.409 I-0.45 J0.779
N205 G1 X0.45 Y-91.077 Z-1.725
N210 G3 X-0.9 Y-91.856 Z-1.742 I-0.45 J-0.779
N215 G1 Y-126. Z-2.058
N220 G3 X0.45 Y-126.779 Z-2.075 I0.9 J0.
N225 G1 X30.019 Y-109.707 Z-2.391
N230 G3 Y-108.149 Z-2.409 I-0.45 J0.779
N235 G1 X0.45 Y-91.077 Z-2.725
N240 G3 X-0.9 Y-91.856 Z-2.742 I-0.45 J-0.779
N245 G1 Y-126. Z-3.058
N250 G3 X0.45 Y-126.779 Z-3.075 I0.9 J0.
N255 G1 X30.019 Y-109.707 Z-3.391
N260 G3 Y-108.149 Z-3.409 I-0.45 J0.779
N265 G1 X0.45 Y-91.077 Z-3.725
N270 G3 X-0.9 Y-91.856 Z-3.742 I-0.45 J-0.779
N275 G1 Y-126. Z-4.058
N280 G3 X0.45 Y-126.779 Z-4.075 I0.9 J0.
N285 G1 X30.019 Y-109.707 Z-4.391
N290 G3 Y-108.149 Z-4.409 I-0.45 J0.779
N295 G1 X0.45 Y-91.077 Z-4.725
N300 G3 X-0.9 Y-91.856 Z-4.742 I-0.45 J-0.779
N305 G1 Y-126. Z-5.058
N310 G3 X0.45 Y-126.779 Z-5.075 I0.9 J0.
N315 G1 X30.019 Y-109.707 Z-5.391
N320 G3 Y-108.149 Z-5.409 I-0.45 J0.779
N325 G1 X0.45 Y-91.077 Z-5.725
N330 G3 X-0.9 Y-91.856 Z-5.742 I-0.45 J-0.779
N335 G1 Y-108.928 Z-5.9
N340 S3200
N345 Y-126. F#100
N350 G3 X0.45 Y-126.779 I0.9 J0.
N355 G1 X30.019 Y-109.707
N360 G3 Y-108.149 I-0.45 J0.779
N365 G1 X0.45 Y-91.077
N370 G3 X-0.9 Y-91.856 I-0.45 J-0.779
N375 G1 Y-108.928
N380 G0 Z2.5
N385 X24.575 Y-125.01
N390 S3000
N395 G1 X3.55 Y-137.149 Z2.275 F#107
N400 G3 Y-138.707 Z2.258 I0.45 J-0.779
N405 G1 X33.119 Y-155.779 Z1.942
N410 G3 X34.469 Y-155. Z1.925 I0.45 J0.779
N415 G1 Y-120.856 Z1.609
N420 G3 X33.119 Y-120.077 Z1.591 I-0.9 J0.
N425 G1 X3.55 Y-137.149 Z1.275
N430 G3 Y-138.707 Z1.258 I0.45 J-0.779
N435 G1 X33.119 Y-155.779 Z0.942
N440 G3 X34.469 Y-155. Z0.925 I0.45 J0.779
N445 G1 Y-120.856 Z0.609
N450 G3 X33.119 Y-120.077 Z0.591 I-0.9 J0.
N455 G1 X3.55 Y-137.149 Z0.275
N460 G3 Y-138.707 Z0.258 I0.45 J-0.779
N465 G1 X33.119 Y-155.779 Z-0.058
N470 G3 X34.469 Y-155. Z-0.075 I0.45 J0.779
N475 G1 Y-120.856 Z-0.391
N480 G3 X33.119 Y-120.077 Z-0.409 I-0.9 J0.
N485 G1 X3.55 Y-137.149 Z-0.725
N490 G3 Y-138.707 Z-0.742 I0.45 J-0.779
N495 G1 X33.119 Y-155.779 Z-1.058
N500 G3 X34.469 Y-155. Z-1.075 I0.45 J0.779
N505 G1 Y-120.856 Z-1.391
N510 G3 X33.119 Y-120.077 Z-1.409 I-0.9 J0.
N515 G1 X3.55 Y-137.149 Z-1.725
N520 G3 Y-138.707 Z-1.742 I0.45 J-0.779
N525 G1 X33.119 Y-155.779 Z-2.058
N530 G3 X34.469 Y-155. Z-2.075 I0.45 J0.779
N535 G1 Y-120.856 Z-2.391
N540 G3 X33.119 Y-120.077 Z-2.409 I-0.9 J0.
N545 G1 X3.55 Y-137.149 Z-2.725
N550 G3 Y-138.707 Z-2.742 I0.45 J-0.779
N555 G1 X33.119 Y-155.779 Z-3.058
N560 G3 X34.469 Y-155. Z-3.075 I0.45 J0.779
N565 G1 Y-120.856 Z-3.391
N570 G3 X33.119 Y-120.077 Z-3.409 I-0.9 J0.
N575 G1 X3.55 Y-137.149 Z-3.725
N580 G3 Y-138.707 Z-3.742 I0.45 J-0.779
N585 G1 X33.119 Y-155.779 Z-4.058
N590 G3 X34.469 Y-155. Z-4.075 I0.45 J0.779
N595 G1 Y-120.856 Z-4.391
N600 G3 X33.119 Y-120.077 Z-4.409 I-0.9 J0.
N605 G1 X3.55 Y-137.149 Z-4.725
N610 G3 Y-138.707 Z-4.742 I0.45 J-0.779
N615 G1 X33.119 Y-155.779 Z-5.058
N620 G3 X34.469 Y-155. Z-5.075 I0.45 J0.779
N625 G1 Y-120.856 Z-5.391
N630 G3 X33.119 Y-120.077 Z-5.409 I-0.9 J0.
N635 G1 X3.55 Y-137.149 Z-5.725
N640 G3 Y-138.707 Z-5.742 I0.45 J-0.779
N645 G1 X18.335 Y-147.243 Z-5.9
N650 S3200
N655 X33.119 Y-155.779 F#100
N660 G3 X34.469 Y-155. I0.45 J0.779
N665 G1 Y-120.856
N670 G3 X33.119 Y-120.077 I-0.9 J0.
N675 G1 X3.55 Y-137.149
N680 G3 Y-138.707 I0.45 J-0.779
N685 G1 X18.335 Y-147.243
N690 G0 Z2.5
N695 X21.475 Y-161.215
N700 S3000
N705 G1 X0.45 Y-149.077 Z2.275 F#107
N710 G3 X-0.9 Y-149.856 Z2.258 I-0.45 J-0.779
N715 G1 Y-184. Z1.942
N720 G3 X0.45 Y-184.779 Z1.925 I0.9 J0.
N725 G1 X30.019 Y-167.707 Z1.609
N730 G3 Y-166.149 Z1.591 I-0.45 J0.779
N735 G1 X0.45 Y-149.077 Z1.275
N740 G3 X-0.9 Y-149.856 Z1.258 I-0.45 J-0.779
N745 G1 Y-184. Z0.942
N750 G3 X0.45 Y-184.779 Z0.925 I0.9 J0.
N755 G1 X30.019 Y-167.707 Z0.609
N760 G3 Y-166.149 Z0.591 I-0.45 J0.779
N765 G1 X0.45 Y-149.077 Z0.275
N770 G3 X-0.9 Y-149.856 Z0.258 I-0.45 J-0.779
N775 G1 Y-184. Z-0.058
N780 G3 X0.45 Y-184.779 Z-0.075 I0.9 J0.
N785 G1 X30.019 Y-167.707 Z-0.391
N790 G3 Y-166.149 Z-0.409 I-0.45 J0.779
N795 G1 X0.45 Y-149.077 Z-0.725
N800 G3 X-0.9 Y-149.856 Z-0.742 I-0.45 J-0.779
N805 G1 Y-184. Z-1.058
N810 G3 X0.45 Y-184.779 Z-1.075 I0.9 J0.
N815 G1 X30.019 Y-167.707 Z-1.391
N820 G3 Y-166.149 Z-1.409 I-0.45 J0.779
N825 G1 X0.45 Y-149.077 Z-1.725
N830 G3 X-0.9 Y-149.856 Z-1.742 I-0.45 J-0.779
N835 G1 Y-184. Z-2.058
N840 G3 X0.45 Y-184.779 Z-2.075 I0.9 J0.
N845 G1 X30.019 Y-167.707 Z-2.391
N850 G3 Y-166.149 Z-2.409 I-0.45 J0.779
N855 G1 X0.45 Y-149.077 Z-2.725
N860 G3 X-0.9 Y-149.856 Z-2.742 I-0.45 J-0.779
N865 G1 Y-184. Z-3.058
N870 G3 X0.45 Y-184.779 Z-3.075 I0.9 J0.
N875 G1 X30.019 Y-167.707 Z-3.391
N880 G3 Y-166.149 Z-3.409 I-0.45 J0.779
N885 G1 X0.45 Y-149.077 Z-3.725
N890 G3 X-0.9 Y-149.856 Z-3.742 I-0.45 J-0.779
N895 G1 Y-184. Z-4.058
N900 G3 X0.45 Y-184.779 Z-4.075 I0.9 J0.
N905 G1 X30.019 Y-167.707 Z-4.391
N910 G3 Y-166.149 Z-4.409 I-0.45 J0.779
N915 G1 X0.45 Y-149.077 Z-4.725
N920 G3 X-0.9 Y-149.856 Z-4.742 I-0.45 J-0.779
N925 G1 Y-184. Z-5.058
N930 G3 X0.45 Y-184.779 Z-5.075 I0.9 J0.
N935 G1 X30.019 Y-167.707 Z-5.391
N940 G3 Y-166.149 Z-5.409 I-0.45 J0.779
N945 G1 X0.45 Y-149.077 Z-5.725
N950 G3 X-0.9 Y-149.856 Z-5.742 I-0.45 J-0.779
N955 G1 Y-166.928 Z-5.9
N960 S3200
N965 Y-184. F#100
N970 G3 X0.45 Y-184.779 I0.9 J0.
N975 G1 X30.019 Y-167.707
N980 G3 Y-166.149 I-0.45 J0.779
N985 G1 X0.45 Y-149.077
N990 G3 X-0.9 Y-149.856 I-0.45 J-0.779
N995 G1 Y-166.928
N1000 G0 Z2.5
N1005 X12.094 Y-201.64
N1010 S3000
N1015 G1 X33.119 Y-213.779 Z2.275 F#107
N1020 G3 X34.469 Y-213. Z2.258 I0.45 J0.779
N1025 G1 Y-178.856 Z1.942
N1030 G3 X33.119 Y-178.077 Z1.925 I-0.9 J0.
N1035 G1 X3.55 Y-195.149 Z1.609
N1040 G3 Y-196.707 Z1.591 I0.45 J-0.779
N1045 G1 X33.119 Y-213.779 Z1.275
N1050 G3 X34.469 Y-213. Z1.258 I0.45 J0.779
N1055 G1 Y-178.856 Z0.942
N1060 G3 X33.119 Y-178.077 Z0.925 I-0.9 J0.
N1065 G1 X3.55 Y-195.149 Z0.609
N1070 G3 Y-196.707 Z0.591 I0.45 J-0.779
N1075 G1 X33.119 Y-213.779 Z0.275
N1080 G3 X34.469 Y-213. Z0.258 I0.45 J0.779
N1085 G1 Y-178.856 Z-0.058
N1090 G3 X33.119 Y-178.077 Z-0.075 I-0.9 J0.
N1095 G1 X3.55 Y-195.149 Z-0.391
N1100 G3 Y-196.707 Z-0.409 I0.45 J-0.779
N1105 G1 X33.119 Y-213.779 Z-0.725
N1110 G3 X34.469 Y-213. Z-0.742 I0.45 J0.779
N1115 G1 Y-178.856 Z-1.058
N1120 G3 X33.119 Y-178.077 Z-1.075 I-0.9 J0.
N1125 G1 X3.55 Y-195.149 Z-1.391
N1130 G3 Y-196.707 Z-1.409 I0.45 J-0.779
N1135 G1 X33.119 Y-213.779 Z-1.725
N1140 G3 X34.469 Y-213. Z-1.742 I0.45 J0.779
N1145 G1 Y-178.856 Z-2.058
N1150 G3 X33.119 Y-178.077 Z-2.075 I-0.9 J0.
N1155 G1 X3.55 Y-195.149 Z-2.391
N1160 G3 Y-196.707 Z-2.409 I0.45 J-0.779
N1165 G1 X33.119 Y-213.779 Z-2.725
N1170 G3 X34.469 Y-213. Z-2.742 I0.45 J0.779
N1175 G1 Y-178.856 Z-3.058
N1180 G3 X33.119 Y-178.077 Z-3.075 I-0.9 J0.
N1185 G1 X3.55 Y-195.149 Z-3.391
N1190 G3 Y-196.707 Z-3.409 I0.45 J-0.779
N1195 G1 X33.119 Y-213.779 Z-3.725
N1200 G3 X34.469 Y-213. Z-3.742 I0.45 J0.779
N1205 G1 Y-178.856 Z-4.058
N1210 G3 X33.119 Y-178.077 Z-4.075 I-0.9 J0.
N1215 G1 X3.55 Y-195.149 Z-4.391
N1220 G3 Y-196.707 Z-4.409 I0.45 J-0.779
N1225 G1 X33.119 Y-213.779 Z-4.725
N1230 G3 X34.469 Y-213. Z-4.742 I0.45 J0.779
N1235 G1 Y-178.856 Z-5.058
N1240 G3 X33.119 Y-178.077 Z-5.075 I-0.9 J0.
N1245 G1 X3.55 Y-195.149 Z-5.391
N1250 G3 Y-196.707 Z-5.409 I0.45 J-0.779
N1255 G1 X33.119 Y-213.779 Z-5.725
N1260 G3 X34.469 Y-213. Z-5.742 I0.45 J0.779
N1265 G1 Y-195.928 Z-5.9
N1270 S3200
N1275 Y-178.856 F#100
N1280 G3 X33.119 Y-178.077 I-0.9 J0.
N1285 G1 X3.55 Y-195.149
N1290 G3 Y-196.707 I0.45 J-0.779
N1295 G1 X33.119 Y-213.779
N1300 G3 X34.469 Y-213. I0.45 J0.779
N1305 G1 Y-195.928
N1310 G0 Z2.5
N1315 X21.475 Y-35.216
N1320 S3000
N1325 G1 X0.45 Y-23.077 Z2.275 F#107
N1330 G3 X-0.9 Y-23.856 Z2.258 I-0.45 J-0.779
N1335 G1 Y-58. Z1.942
N1340 G3 X0.45 Y-58.779 Z1.925 I0.9 J0.
N1345 G1 X30.019 Y-41.708 Z1.609
N1350 G3 Y-40.149 Z1.591 I-0.45 J0.779
N1355 G1 X0.45 Y-23.077 Z1.275
N1360 G3 X-0.9 Y-23.856 Z1.258 I-0.45 J-0.779
N1365 G1 Y-58. Z0.942
N1370 G3 X0.45 Y-58.779 Z0.925 I0.9 J0.
N1375 G1 X30.019 Y-41.708 Z0.609
N1380 G3 Y-40.149 Z0.591 I-0.45 J0.779
N1385 G1 X0.45 Y-23.077 Z0.275
N1390 G3 X-0.9 Y-23.856 Z0.258 I-0.45 J-0.779
N1395 G1 Y-58. Z-0.058
N1400 G3 X0.45 Y-58.779 Z-0.075 I0.9 J0.
N1405 G1 X30.019 Y-41.708 Z-0.391
N1410 G3 Y-40.149 Z-0.409 I-0.45 J0.779
N1415 G1 X0.45 Y-23.077 Z-0.725
N1420 G3 X-0.9 Y-23.856 Z-0.742 I-0.45 J-0.779
N1425 G1 Y-58. Z-1.058
N1430 G3 X0.45 Y-58.779 Z-1.075 I0.9 J0.
N1435 G1 X30.019 Y-41.708 Z-1.391
N1440 G3 Y-40.149 Z-1.409 I-0.45 J0.779
N1445 G1 X0.45 Y-23.077 Z-1.725
N1450 G3 X-0.9 Y-23.856 Z-1.742 I-0.45 J-0.779
N1455 G1 Y-58. Z-2.058
N1460 G3 X0.45 Y-58.779 Z-2.075 I0.9 J0.
N1465 G1 X30.019 Y-41.708 Z-2.391
N1470 G3 Y-40.149 Z-2.409 I-0.45 J0.779
N1475 G1 X0.45 Y-23.077 Z-2.725
N1480 G3 X-0.9 Y-23.856 Z-2.742 I-0.45 J-0.779
N1485 G1 Y-58. Z-3.058
N1490 G3 X0.45 Y-58.779 Z-3.075 I0.9 J0.
N1495 G1 X30.019 Y-41.708 Z-3.391
N1500 G3 Y-40.149 Z-3.409 I-0.45 J0.779
N1505 G1 X0.45 Y-23.077 Z-3.725
N1510 G3 X-0.9 Y-23.856 Z-3.742 I-0.45 J-0.779
N1515 G1 Y-58. Z-4.058
N1520 G3 X0.45 Y-58.779 Z-4.075 I0.9 J0.
N1525 G1 X30.019 Y-41.708 Z-4.391
N1530 G3 Y-40.149 Z-4.409 I-0.45 J0.779
N1535 G1 X0.45 Y-23.077 Z-4.725
N1540 G3 X-0.9 Y-23.856 Z-4.742 I-0.45 J-0.779
N1545 G1 Y-58. Z-5.058
N1550 G3 X0.45 Y-58.779 Z-5.075 I0.9 J0.
N1555 G1 X30.019 Y-41.708 Z-5.391
N1560 G3 Y-40.149 Z-5.409 I-0.45 J0.779
N1565 G1 X0.45 Y-23.077 Z-5.725
N1570 G3 X-0.9 Y-23.856 Z-5.742 I-0.45 J-0.779
N1575 G1 Y-40.928 Z-5.9
N1580 S3200
N1585 Y-58. F#100
N1590 G3 X0.45 Y-58.779 I0.9 J0.
N1595 G1 X30.019 Y-41.708
N1600 G3 Y-40.149 I-0.45 J0.779
N1605 G1 X0.45 Y-23.077
N1610 G3 X-0.9 Y-23.856 I-0.45 J-0.779
N1615 G1 Y-40.928
N1620 G0 Z2.5
N1625 X12.094 Y-17.641
N1630 S3000
N1635 G1 X33.119 Y-29.779 Z2.275 F#107
N1640 G3 X34.469 Y-29. Z2.258 I0.45 J0.779
N1645 G1 Y5.144 Z1.942
N1650 G3 X33.119 Y5.923 Z1.925 I-0.9 J0.
N1655 G1 X3.55 Y-11.149 Z1.609
N1660 G3 Y-12.708 Z1.591 I0.45 J-0.779
N1665 G1 X33.119 Y-29.779 Z1.275
N1670 G3 X34.469 Y-29. Z1.258 I0.45 J0.779
N1675 G1 Y5.144 Z0.942
N1680 G3 X33.119 Y5.923 Z0.925 I-0.9 J0.
N1685 G1 X3.55 Y-11.149 Z0.609
N1690 G3 Y-12.708 Z0.591 I0.45 J-0.779
N1695 G1 X33.119 Y-29.779 Z0.275
N1700 G3 X34.469 Y-29. Z0.258 I0.45 J0.779
N1705 G1 Y5.144 Z-0.058
N1710 G3 X33.119 Y5.923 Z-0.075 I-0.9 J0.
N1715 G1 X3.55 Y-11.149 Z-0.391
N1720 G3 Y-12.708 Z-0.409 I0.45 J-0.779
N1725 G1 X33.119 Y-29.779 Z-0.725
N1730 G3 X34.469 Y-29. Z-0.742 I0.45 J0.779
N1735 G1 Y5.144 Z-1.058
N1740 G3 X33.119 Y5.923 Z-1.075 I-0.9 J0.
N1745 G1 X3.55 Y-11.149 Z-1.391
N1750 G3 Y-12.708 Z-1.409 I0.45 J-0.779
N1755 G1 X33.119 Y-29.779 Z-1.725
N1760 G3 X34.469 Y-29. Z-1.742 I0.45 J0.779
N1765 G1 Y5.144 Z-2.058
N1770 G3 X33.119 Y5.923 Z-2.075 I-0.9 J0.
N1775 G1 X3.55 Y-11.149 Z-2.391
N1780 G3 Y-12.708 Z-2.409 I0.45 J-0.779
N1785 G1 X33.119 Y-29.779 Z-2.725
N1790 G3 X34.469 Y-29. Z-2.742 I0.45 J0.779
N1795 G1 Y5.144 Z-3.058
N1800 G3 X33.119 Y5.923 Z-3.075 I-0.9 J0.
N1805 G1 X3.55 Y-11.149 Z-3.391
N1810 G3 Y-12.708 Z-3.409 I0.45 J-0.779
N1815 G1 X33.119 Y-29.779 Z-3.725
N1820 G3 X34.469 Y-29. Z-3.742 I0.45 J0.779
N1825 G1 Y5.144 Z-4.058
N1830 G3 X33.119 Y5.923 Z-4.075 I-0.9 J0.
N1835 G1 X3.55 Y-11.149 Z-4.391
N1840 G3 Y-12.708 Z-4.409 I0.45 J-0.779
N1845 G1 X33.119 Y-29.779 Z-4.725
N1850 G3 X34.469 Y-29. Z-4.742 I0.45 J0.779
N1855 G1 Y5.144 Z-5.058
N1860 G3 X33.119 Y5.923 Z-5.075 I-0.9 J0.
N1865 G1 X3.55 Y-11.149 Z-5.391
N1870 G3 Y-12.708 Z-5.409 I0.45 J-0.779
N1875 G1 X33.119 Y-29.779 Z-5.725
N1880 G3 X34.469 Y-29. Z-5.742 I0.45 J0.779
N1885 G1 Y-11.928 Z-5.9
N1890 S3200
N1895 Y5.144 F#100
N1900 G3 X33.119 Y5.923 I-0.9 J0.
N1905 G1 X3.55 Y-11.149
N1910 G3 Y-12.708 I0.45 J-0.779
N1915 G1 X33.119 Y-29.779
N1920 G3 X34.469 Y-29. I0.45 J0.779
N1925 G1 Y-11.928
N1930 G0 Z4.
(2D CONTOUR2 4)
N1940 M8
N1945 G0 X15.875 Y-101.05
N1950 #100=330. (CUTTING)
N1955 #103=200. (ENTRY)
N1960 #104=200. (EXIT)
N1965 #108=100. (PLUNGE)
N1970 Z4.
N1975 Z2.
N1980 G1 Z1. F#103
N1985 Z-5.4 F#108
N1990 X15.873 Y-101.042 Z-5.494
N1995 X15.867 Y-101.021 Z-5.585
N2000 X15.858 Y-100.986 Z-5.672
N2005 X15.845 Y-100.939 Z-5.753
N2010 X15.829 Y-100.88 Z-5.824
N2015 X15.811 Y-100.811 Z-5.885
N2020 X15.79 Y-100.733 Z-5.935
N2025 X15.767 Y-100.649 Z-5.971
N2030 X15.744 Y-100.561 Z-5.993
N2035 X15.719 Y-100.47 Z-6.
N2040 X15.564 Y-99.891 F#103
N2045 G3 X15.285 Y-99.526 I-0.58 J-0.155
N2050 G1 X0.5 Y-90.99 F#100
N2055 G3 X-1. Y-91.856 I-0.5 J-0.866
N2060 G1 Y-126.
N2065 G3 X0.5 Y-126.866 I1. J0.
N2070 G1 X30.069 Y-109.794
N2075 G3 Y-108.062 I-0.5 J0.866
N2080 G1 X15.285 Y-99.526
N2085 G3 X14.829 Y-99.466 I-0.3 J-0.52 F#104
N2090 G1 X14.25 Y-99.622
N2095 X14.159 Y-99.646 Z-5.993
N2100 X14.071 Y-99.67 Z-5.971
N2105 X13.987 Y-99.692 Z-5.935
N2110 X13.909 Y-99.713 Z-5.885
N2115 X13.84 Y-99.731 Z-5.824
N2120 X13.781 Y-99.747 Z-5.753
N2125 X13.733 Y-99.76 Z-5.672
N2130 X13.698 Y-99.769 Z-5.585
N2135 X13.677 Y-99.775 Z-5.494
N2140 X13.67 Y-99.777 Z-5.4
N2145 G0 Z2.
N2150 X33.545 Y-139.201
N2155 G1 Z1. F#103
N2160 Z-5.4 F#108
N2165 X33.55 Y-139.196 Z-5.494
N2170 X33.566 Y-139.18 Z-5.585
N2175 X33.591 Y-139.155 Z-5.672
N2180 X33.626 Y-139.12 Z-5.753
N2185 X33.669 Y-139.077 Z-5.824
N2190 X33.72 Y-139.026 Z-5.885
N2195 X33.777 Y-138.969 Z-5.935
N2200 X33.838 Y-138.908 Z-5.971
N2205 X33.903 Y-138.843 Z-5.993
N2210 X33.969 Y-138.777 Z-6.
N2215 X34.393 Y-138.352 F#103
N2220 G3 X34.569 Y-137.928 I-0.424 J0.424
N2225 G1 Y-120.856 F#100
N2230 G3 X33.069 Y-119.99 I-1. J0.
N2235 G1 X3.5 Y-137.062
N2240 G3 Y-138.794 I0.5 J-0.866
N2245 G1 X33.069 Y-155.866
N2250 G3 X34.569 Y-155. I0.5 J0.866
N2255 G1 Y-137.928
N2260 G3 X34.393 Y-137.504 I-0.6 J0. F#104
N2265 G1 X33.969 Y-137.079
N2270 X33.903 Y-137.013 Z-5.993
N2275 X33.838 Y-136.948 Z-5.971
N2280 X33.777 Y-136.887 Z-5.935
N2285 X33.72 Y-136.83 Z-5.885
N2290 X33.669 Y-136.779 Z-5.824
N2295 X33.626 Y-136.736 Z-5.753
N2300 X33.591 Y-136.701 Z-5.672
N2305 X33.566 Y-136.676 Z-5.585
N2310 X33.55 Y-136.66 Z-5.494
N2315 X33.545 Y-136.655 Z-5.4
N2320 G0 Z2.
N2325 X15.875 Y-159.05
N2330 G1 Z1. F#103
N2335 Z-5.4 F#108
N2340 X15.873 Y-159.042 Z-5.494
N2345 X15.867 Y-159.021 Z-5.585
N2350 X15.858 Y-158.986 Z-5.672
N2355 X15.845 Y-158.939 Z-5.753
N2360 X15.829 Y-158.88 Z-5.824
N2365 X15.811 Y-158.811 Z-5.885
N2370 X15.79 Y-158.733 Z-5.935
N2375 X15.767 Y-158.649 Z-5.971
N2380 X15.744 Y-158.561 Z-5.993
N2385 X15.719 Y-158.47 Z-6.
N2390 X15.564 Y-157.89 F#103
N2395 G3 X15.285 Y-157.526 I-0.58 J-0.155
N2400 G1 X0.5 Y-148.99 F#100
N2405 G3 X-1. Y-149.856 I-0.5 J-0.866
N2410 G1 Y-184.
N2415 G3 X0.5 Y-184.866 I1. J0.
N2420 G1 X30.069 Y-167.794
N2425 G3 Y-166.062 I-0.5 J0.866
N2430 G1 X15.285 Y-157.526
N2435 G3 X14.829 Y-157.466 I-0.3 J-0.52 F#104
N2440 G1 X14.25 Y-157.621
N2445 X14.159 Y-157.646 Z-5.993
N2450 X14.071 Y-157.669 Z-5.971
N2455 X13.987 Y-157.692 Z-5.935
N2460 X13.909 Y-157.713 Z-5.885
N2465 X13.84 Y-157.731 Z-5.824
N2470 X13.781 Y-157.747 Z-5.753
N2475 X13.733 Y-157.76 Z-5.672
N2480 X13.699 Y-157.769 Z-5.585
N2485 X13.677 Y-157.775 Z-5.494
N2490 X13.67 Y-157.777 Z-5.4
N2495 G0 Z2.
N2500 X33.545 Y-197.201
N2505 G1 Z1. F#103
N2510 Z-5.4 F#108
N2515 X33.55 Y-197.196 Z-5.494
N2520 X33.566 Y-197.18 Z-5.585
N2525 X33.591 Y-197.155 Z-5.672
N2530 X33.626 Y-197.12 Z-5.753
N2535 X33.669 Y-197.077 Z-5.824
N2540 X33.72 Y-197.026 Z-5.885
N2545 X33.777 Y-196.969 Z-5.935
N2550 X33.838 Y-196.908 Z-5.971
N2555 X33.903 Y-196.843 Z-5.993
N2560 X33.969 Y-196.777 Z-6.
N2565 X34.393 Y-196.352 F#103
N2570 G3 X34.569 Y-195.928 I-0.424 J0.424
N2575 G1 Y-178.856 F#100
N2580 G3 X33.069 Y-177.99 I-1. J0.
N2585 G1 X3.5 Y-195.062
N2590 G3 Y-196.794 I0.5 J-0.866
N2595 G1 X33.069 Y-213.866
N2600 G3 X34.569 Y-213. I0.5 J0.866
N2605 G1 Y-195.928
N2610 G3 X34.393 Y-195.504 I-0.6 J0. F#104
N2615 G1 X33.969 Y-195.079
N2620 X33.903 Y-195.013 Z-5.993
N2625 X33.838 Y-194.948 Z-5.971
N2630 X33.777 Y-194.887 Z-5.935
N2635 X33.72 Y-194.83 Z-5.885
N2640 X33.669 Y-194.779 Z-5.824
N2645 X33.626 Y-194.736 Z-5.753
N2650 X33.591 Y-194.701 Z-5.672
N2655 X33.566 Y-194.676 Z-5.585
N2660 X33.55 Y-194.66 Z-5.494
N2665 X33.545 Y-194.655 Z-5.4
N2670 G0 Z2.
N2675 X13.67 Y-50.079
N2680 G1 Z1. F#103
N2685 Z-5.4 F#108
N2690 X13.677 Y-50.081 Z-5.494
N2695 X13.699 Y-50.087 Z-5.585
N2700 X13.733 Y-50.096 Z-5.672
N2705 X13.781 Y-50.109 Z-5.753
N2710 X13.84 Y-50.125 Z-5.824
N2715 X13.909 Y-50.143 Z-5.885
N2720 X13.987 Y-50.164 Z-5.935
N2725 X14.071 Y-50.187 Z-5.971
N2730 X14.159 Y-50.21 Z-5.993
N2735 X14.25 Y-50.235 Z-6.
N2740 X14.829 Y-50.39 F#103
N2745 G3 X15.285 Y-50.33 I0.155 J0.58
N2750 G1 X30.069 Y-41.794 F#100
N2755 G3 Y-40.062 I-0.5 J0.866
N2760 G1 X0.5 Y-22.99
N2765 G3 X-1. Y-23.856 I-0.5 J-0.866
N2770 G1 Y-58.
N2775 G3 X0.5 Y-58.866 I1. J0.
N2780 G1 X15.285 Y-50.33
N2785 G3 X15.564 Y-49.966 I-0.3 J0.52 F#104
N2790 G1 X15.719 Y-49.386
N2795 X15.744 Y-49.296 Z-5.993
N2800 X15.767 Y-49.207 Z-5.971
N2805 X15.79 Y-49.123 Z-5.935
N2810 X15.811 Y-49.046 Z-5.885
N2815 X15.829 Y-48.976 Z-5.824
N2820 X15.845 Y-48.917 Z-5.753
N2825 X15.858 Y-48.87 Z-5.672
N2830 X15.867 Y-48.835 Z-5.585
N2835 X15.873 Y-48.814 Z-5.494
N2840 X15.875 Y-48.807 Z-5.4
N2845 G0 Z2.
N2850 X33.545 Y-13.201
N2855 G1 Z1. F#103
N2860 Z-5.4 F#108
N2865 X33.55 Y-13.196 Z-5.494
N2870 X33.566 Y-13.18 Z-5.585
N2875 X33.591 Y-13.155 Z-5.672
N2880 X33.626 Y-13.12 Z-5.753
N2885 X33.669 Y-13.077 Z-5.824
N2890 X33.72 Y-13.026 Z-5.885
N2895 X33.777 Y-12.969 Z-5.935
N2900 X33.838 Y-12.908 Z-5.971
N2905 X33.903 Y-12.843 Z-5.993
N2910 X33.969 Y-12.777 Z-6.
N2915 X34.393 Y-12.352 F#103
N2920 G3 X34.569 Y-11.928 I-0.424 J0.424
N2925 G1 Y5.144 F#100
N2930 G3 X33.069 Y6.01 I-1. J0.
N2935 G1 X3.5 Y-11.062
N2940 G3 Y-12.794 I0.5 J-0.866
N2945 G1 X33.069 Y-29.866
N2950 G3 X34.569 Y-29. I0.5 J0.866
N2955 G1 Y-11.928
N2960 G3 X34.393 Y-11.504 I-0.6 J0. F#104
N2965 G1 X33.969 Y-11.08
N2970 X33.903 Y-11.013 Z-5.993
N2975 X33.838 Y-10.949 Z-5.971
N2980 X33.777 Y-10.887 Z-5.935
N2985 X33.72 Y-10.83 Z-5.885
N2990 X33.669 Y-10.78 Z-5.824
N2995 X33.626 Y-10.736 Z-5.753
N3000 X33.591 Y-10.702 Z-5.672
N3005 X33.566 Y-10.676 Z-5.585
N3010 X33.55 Y-10.661 Z-5.494
N3015 X33.545 Y-10.655 Z-5.4
N3020 G0 Z4.
N3030 M9
N3035 G53 Z0.
N3040 M30
%
