%
(1001)
(6MM TWO FLUTE)
(T1  D=6. CR=0. - ZMIN=-6.45 - FLAT END MILL)
N10 G90 G94 G17 G91.1
N15 G21
N20 G53 G0 Z0.
(2D CONTOUR2 6)
N25 M9
N30 T1 M6
N35 S3200 M3
N40 G54
N45 M8
N55 G0 X-11.27 Y-120.333
N60 G43 Z4. H1
N65 #100=330. (CUTTING)
N70 #103=200. (ENTRY)
N75 #104=200. (EXIT)
N80 #108=100. (PLUNGE)
N85 G0 Z2.
N90 G1 Z1. F#103
N95 Z-5.85 F#108
N100 X-11.268 Y-120.326 Z-5.944
N105 X-11.26 Y-120.305 Z-6.035
N110 X-11.248 Y-120.271 Z-6.122
N115 X-11.231 Y-120.225 Z-6.203
N120 X-11.21 Y-120.168 Z-6.274
N125 X-11.186 Y-120.1 Z-6.335
N130 X-11.158 Y-120.025 Z-6.385
N135 X-11.128 Y-119.943 Z-6.421
N140 X-11.097 Y-119.857 Z-6.443
N145 X-11.065 Y-119.769 Z-6.45
N150 X-10.86 Y-119.205 F#103
N155 G3 X-10.824 Y-119. I-0.564 J0.205
N160 G1 Y-101.928 F#100
N165 G3 X-12.999 Y-100.672 I-1.45 J0.
N170 G1 X-42.568 Y-117.744
N175 G3 Y-120.256 I0.725 J-1.256
N180 G1 X-12.999 Y-137.328
N185 G3 X-10.824 Y-136.072 I0.725 J1.256
N190 G1 Y-118.
N195 G3 X-10.86 Y-117.795 I-0.6 J0. F#104
N200 G1 X-11.065 Y-117.231
N205 X-11.097 Y-117.143 Z-6.443
N210 X-11.128 Y-117.057 Z-6.421
N215 X-11.158 Y-116.975 Z-6.385
N220 X-11.186 Y-116.9 Z-6.335
N225 X-11.21 Y-116.832 Z-6.274
N230 X-11.231 Y-116.775 Z-6.203
N235 X-11.248 Y-116.729 Z-6.122
N240 X-11.26 Y-116.695 Z-6.035
N245 X-11.268 Y-116.674 Z-5.944
N250 X-11.27 Y-116.667 Z-5.85
N255 G0 Z2.
N260 X-29.402 Y-139.262
N265 G1 Z1. F#103
N270 Z-5.85 F#108
N275 X-29.407 Y-139.256 Z-5.944
N280 X-29.421 Y-139.239 Z-6.035
N285 X-29.444 Y-139.212 Z-6.122
N290 X-29.476 Y-139.174 Z-6.203
N295 X-29.515 Y-139.127 Z-6.274
N300 X-29.561 Y-139.072 Z-6.335
N305 X-29.613 Y-139.011 Z-6.385
N310 X-29.669 Y-138.944 Z-6.421
N315 X-29.728 Y-138.874 Z-6.443
N320 X-29.788 Y-138.802 Z-6.45
N325 X-30.174 Y-138.342 F#103
N330 G3 X-30.333 Y-138.208 I-0.46 J-0.386
N335 G1 X-45.118 Y-129.672 F#100
N340 G3 X-47.293 Y-130.928 I-0.725 J-1.256
N345 G1 Y-165.072
N350 G3 X-45.118 Y-166.328 I1.45 J0.
N355 G1 X-15.549 Y-149.256
N360 G3 Y-146.744 I-0.725 J1.256
N365 G1 X-31.199 Y-137.708
N370 G3 X-31.395 Y-137.637 I-0.3 J-0.52 F#104
N375 G1 X-31.986 Y-137.533
N380 X-32.078 Y-137.517 Z-6.443
N385 X-32.169 Y-137.501 Z-6.421
N390 X-32.254 Y-137.486 Z-6.385
N395 X-32.333 Y-137.472 Z-6.335
N400 X-32.404 Y-137.459 Z-6.274
N405 X-32.464 Y-137.449 Z-6.203
N410 X-32.512 Y-137.44 Z-6.122
N415 X-32.548 Y-137.434 Z-6.035
N420 X-32.57 Y-137.43 Z-5.944
N425 X-32.577 Y-137.429 Z-5.85
N430 G0 Z2.
N435 X-11.27 Y-178.333
N440 G1 Z1. F#103
N445 Z-5.85 F#108
N450 X-11.268 Y-178.326 Z-5.944
N455 X-11.26 Y-178.305 Z-6.035
N460 X-11.248 Y-178.271 Z-6.122
N465 X-11.231 Y-178.225 Z-6.203
N470 X-11.21 Y-178.168 Z-6.274
N475 X-11.186 Y-178.1 Z-6.335
N480 X-11.158 Y-178.025 Z-6.385
N485 X-11.128 Y-177.943 Z-6.421
N490 X-11.097 Y-177.857 Z-6.443
N495 X-11.065 Y-177.769 Z-6.45
N500 X-10.86 Y-177.205 F#103
N505 G3 X-10.824 Y-177. I-0.564 J0.205
N510 G1 Y-159.928 F#100
N515 G3 X-12.999 Y-158.672 I-1.45 J0.
N520 G1 X-42.568 Y-175.744
N525 G3 Y-178.256 I0.725 J-1.256
N530 G1 X-12.999 Y-195.328
N535 G3 X-10.824 Y-194.072 I0.725 J1.256
N540 G1 Y-176.
N545 G3 X-10.86 Y-175.795 I-0.6 J0. F#104
N550 G1 X-11.065 Y-175.231
N555 X-11.097 Y-175.143 Z-6.443
N560 X-11.128 Y-175.057 Z-6.421
N565 X-11.158 Y-174.975 Z-6.385
N570 X-11.186 Y-174.9 Z-6.335
N575 X-11.21 Y-174.832 Z-6.274
N580 X-11.231 Y-174.775 Z-6.203
N585 X-11.248 Y-174.729 Z-6.122
N590 X-11.26 Y-174.695 Z-6.035
N595 X-11.268 Y-174.674 Z-5.944
N600 X-11.27 Y-174.667 Z-5.85
N605 G0 Z2.
N610 X-29.402 Y-197.262
N615 G1 Z1. F#103
N620 Z-5.85 F#108
N625 X-29.407 Y-197.256 Z-5.944
N630 X-29.421 Y-197.239 Z-6.035
N635 X-29.444 Y-197.212 Z-6.122
N640 X-29.476 Y-197.174 Z-6.203
N645 X-29.515 Y-197.127 Z-6.274
N650 X-29.561 Y-197.072 Z-6.335
N655 X-29.613 Y-197.011 Z-6.385
N660 X-29.669 Y-196.944 Z-6.421
N665 X-29.728 Y-196.874 Z-6.443
N670 X-29.788 Y-196.802 Z-6.45
N675 X-30.174 Y-196.342 F#103
N680 G3 X-30.333 Y-196.208 I-0.46 J-0.386
N685 G1 X-45.118 Y-187.672 F#100
N690 G3 X-47.293 Y-188.928 I-0.725 J-1.256
N695 G1 Y-223.072
N700 G3 X-45.118 Y-224.328 I1.45 J0.
N705 G1 X-15.549 Y-207.256
N710 G3 Y-204.744 I-0.725 J1.256
N715 G1 X-31.199 Y-195.708
N720 G3 X-31.395 Y-195.637 I-0.3 J-0.52 F#104
N725 G1 X-31.986 Y-195.533
N730 X-32.078 Y-195.517 Z-6.443
N735 X-32.169 Y-195.501 Z-6.421
N740 X-32.254 Y-195.486 Z-6.385
N745 X-32.333 Y-195.472 Z-6.335
N750 X-32.404 Y-195.459 Z-6.274
N755 X-32.464 Y-195.449 Z-6.203
N760 X-32.512 Y-195.44 Z-6.122
N765 X-32.548 Y-195.434 Z-6.035
N770 X-32.57 Y-195.43 Z-5.944
N775 X-32.577 Y-195.429 Z-5.85
N780 G0 Z2.
N785 X-11.27 Y-32.117
N790 G1 Z1. F#103
N795 Z-5.85 F#108
N800 X-11.268 Y-32.111 Z-5.944
N805 X-11.26 Y-32.09 Z-6.035
N810 X-11.248 Y-32.056 Z-6.122
N815 X-11.231 Y-32.01 Z-6.203
N820 X-11.21 Y-31.952 Z-6.274
N825 X-11.186 Y-31.885 Z-6.335
N830 X-11.158 Y-31.81 Z-6.385
N835 X-11.128 Y-31.728 Z-6.421
N840 X-11.097 Y-31.642 Z-6.443
N845 X-11.065 Y-31.554 Z-6.45
N850 X-10.86 Y-30.99 F#103
N855 G3 X-10.824 Y-30.785 I-0.564 J0.205
N860 G1 Y-14.1 F#100
N865 G3 X-12.374 Y-12.55 I-1.55 J0.
N870 G1 X-45.743
N875 G3 X-47.293 Y-14.1 I0. J-1.55
N880 G1 Y-70.9
N885 G3 X-45.743 Y-72.45 I1.55 J0.
N890 G1 X-12.374
N895 G3 X-10.824 Y-70.9 I0. J1.55
N900 G1 Y-29.785
N905 G3 X-10.86 Y-29.579 I-0.6 J0. F#104
N910 G1 X-11.065 Y-29.016
N915 X-11.097 Y-28.927 Z-6.443
N920 X-11.128 Y-28.841 Z-6.421
N925 X-11.158 Y-28.76 Z-6.385
N930 X-11.186 Y-28.684 Z-6.335
N935 X-11.21 Y-28.617 Z-6.274
N940 X-11.231 Y-28.559 Z-6.203
N945 X-11.248 Y-28.513 Z-6.122
N950 X-11.26 Y-28.479 Z-6.035
N955 X-11.268 Y-28.459 Z-5.944
N960 X-11.27 Y-28.452 Z-5.85
N965 G0 Z4.
N975 M9
N980 G53 Z0.
N985 M30
%
