%
(1001)
(6MM TWO FLUTE)
(T1  D=6. CR=0. - ZMIN=-6.3 - FLAT END MILL)
N10 G90 G94 G17 G91.1
N15 G21
N20 G53 G0 Z0.
(2D CONTOUR2 5)
N25 M9
N30 T1 M6
N35 S3200 M3
N40 G54
N45 M8
N55 G0 X-10.974 Y-119.
N60 G43 Z4. H1
N65 #100=330. (CUTTING)
N70 #106=82.5 (REDUCED)
N75 #107=270. (RAMPING)
N80 #108=100. (PLUNGE)
N85 G0 Z2.5
N90 S3000
N95 G1 Y-101.928 Z2.407 F#107
N100 G3 X-12.924 Y-100.802 Z2.393 I-1.3 J0.
N105 G1 X-42.493 Y-117.874 Z2.207
N110 G3 Y-120.126 Z2.193 I0.65 J-1.126
N115 G1 X-12.924 Y-137.198 Z2.007
N120 G3 X-10.974 Y-136.072 Z1.993 I0.65 J1.126
N125 G1 Y-101.928 Z1.807
N130 G3 X-12.924 Y-100.802 Z1.793 I-1.3 J0.
N135 G1 X-42.493 Y-117.874 Z1.607
N140 G3 Y-120.126 Z1.593 I0.65 J-1.126
N145 G1 X-12.924 Y-137.198 Z1.407
N150 G3 X-10.974 Y-136.072 Z1.393 I0.65 J1.126
N155 G1 Y-101.928 Z1.207
N160 G3 X-12.924 Y-100.802 Z1.193 I-1.3 J0.
N165 G1 X-42.493 Y-117.874 Z1.007
N170 G3 Y-120.126 Z0.993 I0.65 J-1.126
N175 G1 X-12.924 Y-137.198 Z0.807
N180 G3 X-10.974 Y-136.072 Z0.793 I0.65 J1.126
N185 G1 Y-101.928 Z0.607
N190 G3 X-12.924 Y-100.802 Z0.593 I-1.3 J0.
N195 G1 X-42.493 Y-117.874 Z0.407
N200 G3 Y-120.126 Z0.393 I0.65 J-1.126
N205 G1 X-12.924 Y-137.198 Z0.207
N210 G3 X-10.974 Y-136.072 Z0.193 I0.65 J1.126
N215 G1 Y-101.928 Z0.007
N220 G3 X-12.924 Y-100.802 Z-0.007 I-1.3 J0.
N225 G1 X-42.493 Y-117.874 Z-0.193
N230 G3 Y-120.126 Z-0.207 I0.65 J-1.126
N235 G1 X-12.924 Y-137.198 Z-0.393
N240 G3 X-10.974 Y-136.072 Z-0.407 I0.65 J1.126
N245 G1 Y-101.928 Z-0.593
N250 G3 X-12.924 Y-100.802 Z-0.607 I-1.3 J0.
N255 G1 X-42.493 Y-117.874 Z-0.793
N260 G3 Y-120.126 Z-0.807 I0.65 J-1.126
N265 G1 X-12.924 Y-137.198 Z-0.993
N270 G3 X-10.974 Y-136.072 Z-1.007 I0.65 J1.126
N275 G1 Y-101.928 Z-1.193
N280 G3 X-12.924 Y-100.802 Z-1.207 I-1.3 J0.
N285 G1 X-42.493 Y-117.874 Z-1.393
N290 G3 Y-120.126 Z-1.407 I0.65 J-1.126
N295 G1 X-12.924 Y-137.198 Z-1.593
N300 G3 X-10.974 Y-136.072 Z-1.607 I0.65 J1.126
N305 G1 Y-101.928 Z-1.793
N310 G3 X-12.924 Y-100.802 Z-1.807 I-1.3 J0.
N315 G1 X-42.493 Y-117.874 Z-1.993
N320 G3 Y-120.126 Z-2.007 I0.65 J-1.126
N325 G1 X-12.924 Y-137.198 Z-2.193
N330 G3 X-10.974 Y-136.072 Z-2.207 I0.65 J1.126
N335 G1 Y-101.928 Z-2.393
N340 G3 X-12.924 Y-100.802 Z-2.407 I-1.3 J0.
N345 G1 X-42.493 Y-117.874 Z-2.593
N350 G3 Y-120.126 Z-2.607 I0.65 J-1.126
N355 G1 X-12.924 Y-137.198 Z-2.793
N360 G3 X-10.974 Y-136.072 Z-2.807 I0.65 J1.126
N365 G1 Y-101.928 Z-2.993
N370 G3 X-12.924 Y-100.802 Z-3.007 I-1.3 J0.
N375 G1 X-42.493 Y-117.874 Z-3.193
N380 G3 Y-120.126 Z-3.207 I0.65 J-1.126
N385 G1 X-12.924 Y-137.198 Z-3.393
N390 G3 X-10.974 Y-136.072 Z-3.407 I0.65 J1.126
N395 G1 Y-101.928 Z-3.593
N400 G3 X-12.924 Y-100.802 Z-3.607 I-1.3 J0.
N405 G1 X-42.493 Y-117.874 Z-3.793
N410 G3 Y-120.126 Z-3.807 I0.65 J-1.126
N415 G1 X-12.924 Y-137.198 Z-3.993
N420 G3 X-10.974 Y-136.072 Z-4.007 I0.65 J1.126
N425 G1 Y-122.021 Z-4.084
N430 Y-122. Z-4.
N435 Y-116.
N440 S3200
N445 Y-115.971 Z-4.116 F#108
N450 S3000
N455 Y-101.928 Z-4.193 F#107
N460 G3 X-12.924 Y-100.802 Z-4.207 I-1.3 J0.
N465 G1 X-25.049 Y-107.803 Z-4.283
N470 X-25.11 Y-107.838 Z-4.
N475 X-30.306 Y-110.838
N480 S3200
N485 X-30.375 Y-110.878 Z-4.317 F#108
N490 S3000
N495 X-42.493 Y-117.874 Z-4.393 F#107
N500 G3 Y-120.126 Z-4.407 I0.65 J-1.126
N505 G1 X-30.411 Y-127.101 Z-4.483
N510 X-30.306 Y-127.162 Z-4.
N515 X-25.11 Y-130.162
N520 S3200
N525 X-24.998 Y-130.226 Z-4.517 F#108
N530 S3000
N535 X-12.924 Y-137.198 Z-4.593 F#107
N540 G3 X-10.974 Y-136.072 Z-4.607 I0.65 J1.126
N545 G1 Y-122.171 Z-4.683
N550 Y-122. Z-4.
N555 Y-116.
N560 S3200
N565 Y-115.821 Z-4.717 F#108
N570 S3000
N575 Y-101.928 Z-4.793 F#107
N580 G3 X-12.924 Y-100.802 Z-4.807 I-1.3 J0.
N585 G1 X-24.919 Y-107.728 Z-4.883
N590 X-25.11 Y-107.838 Z-4.
N595 X-30.306 Y-110.838
N600 S3200
N605 X-30.505 Y-110.953 Z-4.918 F#108
N610 S3000
N615 X-42.493 Y-117.874 Z-4.993 F#107
N620 G3 Y-120.126 Z-5.007 I0.65 J-1.126
N625 G1 X-30.541 Y-127.026 Z-5.082
N630 X-30.306 Y-127.162 Z-4.
N635 X-25.11 Y-130.162
N640 S3200
N645 X-24.868 Y-130.301 Z-5.118 F#108
N650 S3000
N655 X-12.924 Y-137.198 Z-5.193 F#107
N660 G3 X-10.974 Y-136.072 Z-5.207 I0.65 J1.126
N665 G1 Y-122.32 Z-5.282
N670 Y-122. Z-4.
N675 Y-116.
N680 S3200
N685 Y-115.67 Z-5.318 F#108
N690 S3000
N695 Y-101.928 Z-5.393 F#107
N700 G3 X-12.924 Y-100.802 Z-5.407 I-1.3 J0.
N705 G1 X-24.789 Y-107.653 Z-5.482
N710 X-25.11 Y-107.838 Z-4.
N715 X-30.306 Y-110.838
N720 S3200
N725 X-30.635 Y-111.028 Z-5.518 F#108
N730 S3000
N735 X-42.493 Y-117.874 Z-5.593 F#107
N740 G3 Y-120.126 Z-5.607 I0.65 J-1.126
N745 G1 X-30.67 Y-126.952 Z-5.681
N750 X-30.306 Y-127.162 Z-4.
N755 X-25.11 Y-130.162
N760 S3200
N765 X-24.738 Y-130.377 Z-5.719 F#108
N770 S3000
N775 X-12.924 Y-137.198 Z-5.793 F#107
N780 G3 X-10.974 Y-136.072 Z-5.807 I0.65 J1.126
N785 G1 Y-122.47 Z-5.881
N790 Y-122. Z-4.
N795 Y-116.
N800 S3200
N805 Y-115.52 Z-5.919 F#108
N810 S3000
N815 Y-101.928 Z-5.993 F#107
N820 G3 X-12.924 Y-100.802 Z-6.007 I-1.3 J0.
N825 G1 X-24.677 Y-107.588 Z-6.081
N830 Z-6.
N835 X-25.11 Y-107.838 Z-4.
N840 X-30.306 Y-110.838
N845 X-30.739 Y-111.088 Z-6.
N850 Z-6.119
N855 X-42.493 Y-117.874 Z-6.193
N860 G3 Y-120.126 Z-6.207 I0.65 J-1.126
N865 G1 X-30.739 Y-126.912 Z-6.281
N870 Z-6.
N875 X-30.306 Y-127.162 Z-4.
N880 X-27.708 Y-128.662
N885 S3200
N890 X-25.11 Y-130.162 F#100
N895 X-24.677 Y-130.412 Z-6. F#108
N900 Z-6.3
N905 X-12.924 Y-137.198 F#100
N910 G3 X-10.974 Y-136.072 I0.65 J1.126
N915 G1 Y-123.7
N920 Y-122.5 F#106
N925 Z-6. F#100
N930 Y-122. Z-4.
N935 Y-116.
N940 Y-115.5 Z-6. F#108
N945 Z-6.3
N950 Y-101.928 F#100
N955 G3 X-12.924 Y-100.802 I-1.3 J0.
N960 G1 X-23.638 Y-106.988
N965 X-24.677 Y-107.588 F#106
N970 Z-6. F#100
N975 X-25.11 Y-107.838 Z-4.
N980 X-30.306 Y-110.838
N985 X-30.55 Y-110.979 Z-5.127
N990 X-30.739 Y-111.088 Z-6. F#106
N995 Z-6.3
N1000 X-42.493 Y-117.874 F#100
N1005 G3 Y-120.126 I0.65 J-1.126
N1010 G1 X-31.779 Y-126.312
N1015 X-30.739 Y-126.912 F#106
N1020 Z-6. F#100
N1025 X-30.306 Y-127.162 Z-4.
N1030 X-27.708 Y-128.662
N1035 G0 Z2.5
N1040 X-47.143 Y-148.
N1045 S3000
N1050 G1 Y-165.072 Z2.407 F#107
N1055 G3 X-45.193 Y-166.198 Z2.393 I1.3 J0.
N1060 G1 X-15.624 Y-149.126 Z2.207
N1065 G3 Y-146.874 Z2.193 I-0.65 J1.126
N1070 G1 X-45.193 Y-129.802 Z2.007
N1075 G3 X-47.143 Y-130.928 Z1.993 I-0.65 J-1.126
N1080 G1 Y-165.072 Z1.807
N1085 G3 X-45.193 Y-166.198 Z1.793 I1.3 J0.
N1090 G1 X-15.624 Y-149.126 Z1.607
N1095 G3 Y-146.874 Z1.593 I-0.65 J1.126
N1100 G1 X-45.193 Y-129.802 Z1.407
N1105 G3 X-47.143 Y-130.928 Z1.393 I-0.65 J-1.126
N1110 G1 Y-165.072 Z1.207
N1115 G3 X-45.193 Y-166.198 Z1.193 I1.3 J0.
N1120 G1 X-15.624 Y-149.126 Z1.007
N1125 G3 Y-146.874 Z0.993 I-0.65 J1.126
N1130 G1 X-45.193 Y-129.802 Z0.807
N1135 G3 X-47.143 Y-130.928 Z0.793 I-0.65 J-1.126
N1140 G1 Y-165.072 Z0.607
N1145 G3 X-45.193 Y-166.198 Z0.593 I1.3 J0.
N1150 G1 X-15.624 Y-149.126 Z0.407
N1155 G3 Y-146.874 Z0.393 I-0.65 J1.126
N1160 G1 X-45.193 Y-129.802 Z0.207
N1165 G3 X-47.143 Y-130.928 Z0.193 I-0.65 J-1.126
N1170 G1 Y-165.072 Z0.007
N1175 G3 X-45.193 Y-166.198 Z-0.007 I1.3 J0.
N1180 G1 X-15.624 Y-149.126 Z-0.193
N1185 G3 Y-146.874 Z-0.207 I-0.65 J1.126
N1190 G1 X-45.193 Y-129.802 Z-0.393
N1195 G3 X-47.143 Y-130.928 Z-0.407 I-0.65 J-1.126
N1200 G1 Y-165.072 Z-0.593
N1205 G3 X-45.193 Y-166.198 Z-0.607 I1.3 J0.
N1210 G1 X-15.624 Y-149.126 Z-0.793
N1215 G3 Y-146.874 Z-0.807 I-0.65 J1.126
N1220 G1 X-45.193 Y-129.802 Z-0.993
N1225 G3 X-47.143 Y-130.928 Z-1.007 I-0.65 J-1.126
N1230 G1 Y-165.072 Z-1.193
N1235 G3 X-45.193 Y-166.198 Z-1.207 I1.3 J0.
N1240 G1 X-15.624 Y-149.126 Z-1.393
N1245 G3 Y-146.874 Z-1.407 I-0.65 J1.126
N1250 G1 X-45.193 Y-129.802 Z-1.593
N1255 G3 X-47.143 Y-130.928 Z-1.607 I-0.65 J-1.126
N1260 G1 Y-165.072 Z-1.793
N1265 G3 X-45.193 Y-166.198 Z-1.807 I1.3 J0.
N1270 G1 X-15.624 Y-149.126 Z-1.993
N1275 G3 Y-146.874 Z-2.007 I-0.65 J1.126
N1280 G1 X-45.193 Y-129.802 Z-2.193
N1285 G3 X-47.143 Y-130.928 Z-2.207 I-0.65 J-1.126
N1290 G1 Y-165.072 Z-2.393
N1295 G3 X-45.193 Y-166.198 Z-2.407 I1.3 J0.
N1300 G1 X-15.624 Y-149.126 Z-2.593
N1305 G3 Y-146.874 Z-2.607 I-0.65 J1.126
N1310 G1 X-45.193 Y-129.802 Z-2.793
N1315 G3 X-47.143 Y-130.928 Z-2.807 I-0.65 J-1.126
N1320 G1 Y-165.072 Z-2.993
N1325 G3 X-45.193 Y-166.198 Z-3.007 I1.3 J0.
N1330 G1 X-15.624 Y-149.126 Z-3.193
N1335 G3 Y-146.874 Z-3.207 I-0.65 J1.126
N1340 G1 X-45.193 Y-129.802 Z-3.393
N1345 G3 X-47.143 Y-130.928 Z-3.407 I-0.65 J-1.126
N1350 G1 Y-165.072 Z-3.593
N1355 G3 X-45.193 Y-166.198 Z-3.607 I1.3 J0.
N1360 G1 X-15.624 Y-149.126 Z-3.793
N1365 G3 Y-146.874 Z-3.807 I-0.65 J1.126
N1370 G1 X-45.193 Y-129.802 Z-3.993
N1375 G3 X-47.143 Y-130.928 Z-4.007 I-0.65 J-1.126
N1380 G1 Y-144.979 Z-4.084
N1385 Y-145. Z-4.
N1390 Y-151.
N1395 S3200
N1400 Y-151.029 Z-4.116 F#108
N1405 S3000
N1410 Y-165.072 Z-4.193 F#107
N1415 G3 X-45.193 Y-166.198 Z-4.207 I1.3 J0.
N1420 G1 X-33.068 Y-159.197 Z-4.283
N1425 X-33.006 Y-159.162 Z-4.
N1430 X-27.81 Y-156.162
N1435 S3200
N1440 X-27.742 Y-156.122 Z-4.317 F#108
N1445 S3000
N1450 X-15.624 Y-149.126 Z-4.393 F#107
N1455 G3 Y-146.874 Z-4.407 I-0.65 J1.126
N1460 G1 X-27.706 Y-139.899 Z-4.483
N1465 X-27.81 Y-139.838 Z-4.
N1470 X-33.006 Y-136.838
N1475 S3200
N1480 X-33.118 Y-136.774 Z-4.517 F#108
N1485 S3000
N1490 X-45.193 Y-129.802 Z-4.593 F#107
N1495 G3 X-47.143 Y-130.928 Z-4.607 I-0.65 J-1.126
N1500 G1 Y-144.829 Z-4.683
N1505 Y-145. Z-4.
N1510 Y-151.
N1515 S3200
N1520 Y-151.179 Z-4.717 F#108
N1525 S3000
N1530 Y-165.072 Z-4.793 F#107
N1535 G3 X-45.193 Y-166.198 Z-4.807 I1.3 J0.
N1540 G1 X-33.197 Y-159.272 Z-4.883
N1545 X-33.006 Y-159.162 Z-4.
N1550 X-27.81 Y-156.162
N1555 S3200
N1560 X-27.612 Y-156.047 Z-4.918 F#108
N1565 S3000
N1570 X-15.624 Y-149.126 Z-4.993 F#107
N1575 G3 Y-146.874 Z-5.007 I-0.65 J1.126
N1580 G1 X-27.576 Y-139.974 Z-5.082
N1585 X-27.81 Y-139.838 Z-4.
N1590 X-33.006 Y-136.838
N1595 S3200
N1600 X-33.248 Y-136.699 Z-5.118 F#108
N1605 S3000
N1610 X-45.193 Y-129.802 Z-5.193 F#107
N1615 G3 X-47.143 Y-130.928 Z-5.207 I-0.65 J-1.126
N1620 G1 Y-144.68 Z-5.282
N1625 Y-145. Z-4.
N1630 Y-151.
N1635 S3200
N1640 Y-151.33 Z-5.318 F#108
N1645 S3000
N1650 Y-165.072 Z-5.393 F#107
N1655 G3 X-45.193 Y-166.198 Z-5.407 I1.3 J0.
N1660 G1 X-33.327 Y-159.347 Z-5.482
N1665 X-33.006 Y-159.162 Z-4.
N1670 X-27.81 Y-156.162
N1675 S3200
N1680 X-27.482 Y-155.972 Z-5.518 F#108
N1685 S3000
N1690 X-15.624 Y-149.126 Z-5.593 F#107
N1695 G3 Y-146.874 Z-5.607 I-0.65 J1.126
N1700 G1 X-27.446 Y-140.048 Z-5.681
N1705 X-27.81 Y-139.838 Z-4.
N1710 X-33.006 Y-136.838
N1715 S3200
N1720 X-33.378 Y-136.623 Z-5.719 F#108
N1725 S3000
N1730 X-45.193 Y-129.802 Z-5.793 F#107
N1735 G3 X-47.143 Y-130.928 Z-5.807 I-0.65 J-1.126
N1740 G1 Y-144.53 Z-5.881
N1745 Y-145. Z-4.
N1750 Y-151.
N1755 S3200
N1760 Y-151.48 Z-5.919 F#108
N1765 S3000
N1770 Y-165.072 Z-5.993 F#107
N1775 G3 X-45.193 Y-166.198 Z-6.007 I1.3 J0.
N1780 G1 X-33.439 Y-159.412 Z-6.081
N1785 Z-6.
N1790 X-33.006 Y-159.162 Z-4.
N1795 X-27.81 Y-156.162
N1800 S3200
N1805 X-27.377 Y-155.912 Z-6. F#108
N1810 Z-6.119
N1815 S3000
N1820 X-15.624 Y-149.126 Z-6.193 F#107
N1825 G3 Y-146.874 Z-6.207 I-0.65 J1.126
N1830 G1 X-27.377 Y-140.088 Z-6.281
N1835 Z-6.
N1840 X-27.81 Y-139.838 Z-4.
N1845 X-30.408 Y-138.338
N1850 S3200
N1855 X-33.006 Y-136.838 F#100
N1860 X-33.25 Y-136.697 Z-5.127
N1865 X-33.439 Y-136.588 Z-6. F#106
N1870 Z-6.3
N1875 X-45.193 Y-129.802 F#100
N1880 G3 X-47.143 Y-130.928 I-0.65 J-1.126
N1885 G1 Y-143.3
N1890 Y-144.5 F#106
N1895 Z-6. F#100
N1900 Y-145. Z-4.
N1905 Y-151.
N1910 Y-151.5 Z-6. F#108
N1915 Z-6.3
N1920 Y-165.072 F#100
N1925 G3 X-45.193 Y-166.198 I1.3 J0.
N1930 G1 X-34.479 Y-160.012
N1935 X-33.439 Y-159.412 F#106
N1940 Z-6. F#100
N1945 X-33.006 Y-159.162 Z-4.
N1950 X-27.81 Y-156.162
N1955 X-27.377 Y-155.912 Z-6. F#108
N1960 Z-6.3
N1965 X-15.624 Y-149.126 F#100
N1970 G3 Y-146.874 I-0.65 J1.126
N1975 G1 X-26.338 Y-140.688
N1980 X-27.377 Y-140.088 F#106
N1985 Z-6. F#100
N1990 X-27.81 Y-139.838 Z-4.
N1995 X-30.408 Y-138.338
N2000 G0 Z2.5
N2005 X-10.974 Y-177.
N2010 S3000
N2015 G1 Y-159.928 Z2.407 F#107
N2020 G3 X-12.924 Y-158.802 Z2.393 I-1.3 J0.
N2025 G1 X-42.493 Y-175.874 Z2.207
N2030 G3 Y-178.126 Z2.193 I0.65 J-1.126
N2035 G1 X-12.924 Y-195.198 Z2.007
N2040 G3 X-10.974 Y-194.072 Z1.993 I0.65 J1.126
N2045 G1 Y-159.928 Z1.807
N2050 G3 X-12.924 Y-158.802 Z1.793 I-1.3 J0.
N2055 G1 X-42.493 Y-175.874 Z1.607
N2060 G3 Y-178.126 Z1.593 I0.65 J-1.126
N2065 G1 X-12.924 Y-195.198 Z1.407
N2070 G3 X-10.974 Y-194.072 Z1.393 I0.65 J1.126
N2075 G1 Y-159.928 Z1.207
N2080 G3 X-12.924 Y-158.802 Z1.193 I-1.3 J0.
N2085 G1 X-42.493 Y-175.874 Z1.007
N2090 G3 Y-178.126 Z0.993 I0.65 J-1.126
N2095 G1 X-12.924 Y-195.198 Z0.807
N2100 G3 X-10.974 Y-194.072 Z0.793 I0.65 J1.126
N2105 G1 Y-159.928 Z0.607
N2110 G3 X-12.924 Y-158.802 Z0.593 I-1.3 J0.
N2115 G1 X-42.493 Y-175.874 Z0.407
N2120 G3 Y-178.126 Z0.393 I0.65 J-1.126
N2125 G1 X-12.924 Y-195.198 Z0.207
N2130 G3 X-10.974 Y-194.072 Z0.193 I0.65 J1.126
N2135 G1 Y-159.928 Z0.007
N2140 G3 X-12.924 Y-158.802 Z-0.007 I-1.3 J0.
N2145 G1 X-42.493 Y-175.874 Z-0.193
N2150 G3 Y-178.126 Z-0.207 I0.65 J-1.126
N2155 G1 X-12.924 Y-195.198 Z-0.393
N2160 G3 X-10.974 Y-194.072 Z-0.407 I0.65 J1.126
N2165 G1 Y-159.928 Z-0.593
N2170 G3 X-12.924 Y-158.802 Z-0.607 I-1.3 J0.
N2175 G1 X-42.493 Y-175.874 Z-0.793
N2180 G3 Y-178.126 Z-0.807 I0.65 J-1.126
N2185 G1 X-12.924 Y-195.198 Z-0.993
N2190 G3 X-10.974 Y-194.072 Z-1.007 I0.65 J1.126
N2195 G1 Y-159.928 Z-1.193
N2200 G3 X-12.924 Y-158.802 Z-1.207 I-1.3 J0.
N2205 G1 X-42.493 Y-175.874 Z-1.393
N2210 G3 Y-178.126 Z-1.407 I0.65 J-1.126
N2215 G1 X-12.924 Y-195.198 Z-1.593
N2220 G3 X-10.974 Y-194.072 Z-1.607 I0.65 J1.126
N2225 G1 Y-159.928 Z-1.793
N2230 G3 X-12.924 Y-158.802 Z-1.807 I-1.3 J0.
N2235 G1 X-42.493 Y-175.874 Z-1.993
N2240 G3 Y-178.126 Z-2.007 I0.65 J-1.126
N2245 G1 X-12.924 Y-195.198 Z-2.193
N2250 G3 X-10.974 Y-194.072 Z-2.207 I0.65 J1.126
N2255 G1 Y-159.928 Z-2.393
N2260 G3 X-12.924 Y-158.802 Z-2.407 I-1.3 J0.
N2265 G1 X-42.493 Y-175.874 Z-2.593
N2270 G3 Y-178.126 Z-2.607 I0.65 J-1.126
N2275 G1 X-12.924 Y-195.198 Z-2.793
N2280 G3 X-10.974 Y-194.072 Z-2.807 I0.65 J1.126
N2285 G1 Y-159.928 Z-2.993
N2290 G3 X-12.924 Y-158.802 Z-3.007 I-1.3 J0.
N2295 G1 X-42.493 Y-175.874 Z-3.193
N2300 G3 Y-178.126 Z-3.207 I0.65 J-1.126
N2305 G1 X-12.924 Y-195.198 Z-3.393
N2310 G3 X-10.974 Y-194.072 Z-3.407 I0.65 J1.126
N2315 G1 Y-159.928 Z-3.593
N2320 G3 X-12.924 Y-158.802 Z-3.607 I-1.3 J0.
N2325 G1 X-42.493 Y-175.874 Z-3.793
N2330 G3 Y-178.126 Z-3.807 I0.65 J-1.126
N2335 G1 X-12.924 Y-195.198 Z-3.993
N2340 G3 X-10.974 Y-194.072 Z-4.007 I0.65 J1.126
N2345 G1 Y-180.021 Z-4.084
N2350 Y-180. Z-4.
N2355 Y-174.
N2360 S3200
N2365 Y-173.971 Z-4.116 F#108
N2370 S3000
N2375 Y-159.928 Z-4.193 F#107
N2380 G3 X-12.924 Y-158.802 Z-4.207 I-1.3 J0.
N2385 G1 X-25.049 Y-165.803 Z-4.283
N2390 X-25.11 Y-165.838 Z-4.
N2395 X-30.306 Y-168.838
N2400 S3200
N2405 X-30.375 Y-168.878 Z-4.317 F#108
N2410 S3000
N2415 X-42.493 Y-175.874 Z-4.393 F#107
N2420 G3 Y-178.126 Z-4.407 I0.65 J-1.126
N2425 G1 X-30.411 Y-185.101 Z-4.483
N2430 X-30.306 Y-185.162 Z-4.
N2435 X-25.11 Y-188.162
N2440 S3200
N2445 X-24.998 Y-188.226 Z-4.517 F#108
N2450 S3000
N2455 X-12.924 Y-195.198 Z-4.593 F#107
N2460 G3 X-10.974 Y-194.072 Z-4.607 I0.65 J1.126
N2465 G1 Y-180.171 Z-4.683
N2470 Y-180. Z-4.
N2475 Y-174.
N2480 S3200
N2485 Y-173.821 Z-4.717 F#108
N2490 S3000
N2495 Y-159.928 Z-4.793 F#107
N2500 G3 X-12.924 Y-158.802 Z-4.807 I-1.3 J0.
N2505 G1 X-24.919 Y-165.728 Z-4.883
N2510 X-25.11 Y-165.838 Z-4.
N2515 X-30.306 Y-168.838
N2520 S3200
N2525 X-30.505 Y-168.953 Z-4.918 F#108
N2530 S3000
N2535 X-42.493 Y-175.874 Z-4.993 F#107
N2540 G3 Y-178.126 Z-5.007 I0.65 J-1.126
N2545 G1 X-30.541 Y-185.026 Z-5.082
N2550 X-30.306 Y-185.162 Z-4.
N2555 X-25.11 Y-188.162
N2560 S3200
N2565 X-24.868 Y-188.301 Z-5.118 F#108
N2570 S3000
N2575 X-12.924 Y-195.198 Z-5.193 F#107
N2580 G3 X-10.974 Y-194.072 Z-5.207 I0.65 J1.126
N2585 G1 Y-180.32 Z-5.282
N2590 Y-180. Z-4.
N2595 Y-174.
N2600 S3200
N2605 Y-173.67 Z-5.318 F#108
N2610 S3000
N2615 Y-159.928 Z-5.393 F#107
N2620 G3 X-12.924 Y-158.802 Z-5.407 I-1.3 J0.
N2625 G1 X-24.789 Y-165.653 Z-5.482
N2630 X-25.11 Y-165.838 Z-4.
N2635 X-30.306 Y-168.838
N2640 S3200
N2645 X-30.635 Y-169.028 Z-5.518 F#108
N2650 S3000
N2655 X-42.493 Y-175.874 Z-5.593 F#107
N2660 G3 Y-178.126 Z-5.607 I0.65 J-1.126
N2665 G1 X-30.67 Y-184.952 Z-5.681
N2670 X-30.306 Y-185.162 Z-4.
N2675 X-25.11 Y-188.162
N2680 S3200
N2685 X-24.738 Y-188.377 Z-5.719 F#108
N2690 S3000
N2695 X-12.924 Y-195.198 Z-5.793 F#107
N2700 G3 X-10.974 Y-194.072 Z-5.807 I0.65 J1.126
N2705 G1 Y-180.47 Z-5.881
N2710 Y-180. Z-4.
N2715 Y-174.
N2720 S3200
N2725 Y-173.52 Z-5.919 F#108
N2730 S3000
N2735 Y-159.928 Z-5.993 F#107
N2740 G3 X-12.924 Y-158.802 Z-6.007 I-1.3 J0.
N2745 G1 X-24.677 Y-165.588 Z-6.081
N2750 Z-6.
N2755 X-25.11 Y-165.838 Z-4.
N2760 X-30.306 Y-168.838
N2765 X-30.739 Y-169.088 Z-6.
N2770 Z-6.119
N2775 X-42.493 Y-175.874 Z-6.193
N2780 G3 Y-178.126 Z-6.207 I0.65 J-1.126
N2785 G1 X-30.739 Y-184.912 Z-6.281
N2790 Z-6.
N2795 X-30.306 Y-185.162 Z-4.
N2800 X-27.708 Y-186.662
N2805 S3200
N2810 X-25.11 Y-188.162 F#100
N2815 X-24.866 Y-188.303 Z-5.127
N2820 X-24.677 Y-188.412 Z-6. F#106
N2825 Z-6.3
N2830 X-12.924 Y-195.198 F#100
N2835 G3 X-10.974 Y-194.072 I0.65 J1.126
N2840 G1 Y-181.7
N2845 Y-180.5 F#106
N2850 Z-6. F#100
N2855 Y-180. Z-4.
N2860 Y-174.
N2865 Y-173.5 Z-6. F#108
N2870 Z-6.3
N2875 Y-159.928 F#100
N2880 G3 X-12.924 Y-158.802 I-1.3 J0.
N2885 G1 X-23.638 Y-164.988
N2890 X-24.677 Y-165.588 F#106
N2895 Z-6. F#100
N2900 X-25.11 Y-165.838 Z-4.
N2905 X-30.306 Y-168.838
N2910 X-30.55 Y-168.979 Z-5.127
N2915 X-30.739 Y-169.088 Z-6. F#106
N2920 Z-6.3
N2925 X-42.493 Y-175.874 F#100
N2930 G3 Y-178.126 I0.65 J-1.126
N2935 G1 X-31.779 Y-184.312
N2940 X-30.739 Y-184.912 F#106
N2945 Z-6. F#100
N2950 X-30.306 Y-185.162 Z-4.
N2955 X-27.708 Y-186.662
N2960 G0 Z2.5
N2965 X-30.408 Y-215.662
N2970 S3000
N2975 G1 X-15.624 Y-207.126 Z2.407 F#107
N2980 G3 Y-204.874 Z2.393 I-0.65 J1.126
N2985 G1 X-45.193 Y-187.802 Z2.207
N2990 G3 X-47.143 Y-188.928 Z2.193 I-0.65 J-1.126
N2995 G1 Y-223.072 Z2.007
N3000 G3 X-45.193 Y-224.198 Z1.993 I1.3 J0.
N3005 G1 X-15.624 Y-207.126 Z1.807
N3010 G3 Y-204.874 Z1.793 I-0.65 J1.126
N3015 G1 X-45.193 Y-187.802 Z1.607
N3020 G3 X-47.143 Y-188.928 Z1.593 I-0.65 J-1.126
N3025 G1 Y-223.072 Z1.407
N3030 G3 X-45.193 Y-224.198 Z1.393 I1.3 J0.
N3035 G1 X-15.624 Y-207.126 Z1.207
N3040 G3 Y-204.874 Z1.193 I-0.65 J1.126
N3045 G1 X-45.193 Y-187.802 Z1.007
N3050 G3 X-47.143 Y-188.928 Z0.993 I-0.65 J-1.126
N3055 G1 Y-223.072 Z0.807
N3060 G3 X-45.193 Y-224.198 Z0.793 I1.3 J0.
N3065 G1 X-15.624 Y-207.126 Z0.607
N3070 G3 Y-204.874 Z0.593 I-0.65 J1.126
N3075 G1 X-45.193 Y-187.802 Z0.407
N3080 G3 X-47.143 Y-188.928 Z0.393 I-0.65 J-1.126
N3085 G1 Y-223.072 Z0.207
N3090 G3 X-45.193 Y-224.198 Z0.193 I1.3 J0.
N3095 G1 X-15.624 Y-207.126 Z0.007
N3100 G3 Y-204.874 Z-0.007 I-0.65 J1.126
N3105 G1 X-45.193 Y-187.802 Z-0.193
N3110 G3 X-47.143 Y-188.928 Z-0.207 I-0.65 J-1.126
N3115 G1 Y-223.072 Z-0.393
N3120 G3 X-45.193 Y-224.198 Z-0.407 I1.3 J0.
N3125 G1 X-15.624 Y-207.126 Z-0.593
N3130 G3 Y-204.874 Z-0.607 I-0.65 J1.126
N3135 G1 X-45.193 Y-187.802 Z-0.793
N3140 G3 X-47.143 Y-188.928 Z-0.807 I-0.65 J-1.126
N3145 G1 Y-223.072 Z-0.993
N3150 G3 X-45.193 Y-224.198 Z-1.007 I1.3 J0.
N3155 G1 X-15.624 Y-207.126 Z-1.193
N3160 G3 Y-204.874 Z-1.207 I-0.65 J1.126
N3165 G1 X-45.193 Y-187.802 Z-1.393
N3170 G3 X-47.143 Y-188.928 Z-1.407 I-0.65 J-1.126
N3175 G1 Y-223.072 Z-1.593
N3180 G3 X-45.193 Y-224.198 Z-1.607 I1.3 J0.
N3185 G1 X-15.624 Y-207.126 Z-1.793
N3190 G3 Y-204.874 Z-1.807 I-0.65 J1.126
N3195 G1 X-45.193 Y-187.802 Z-1.993
N3200 G3 X-47.143 Y-188.928 Z-2.007 I-0.65 J-1.126
N3205 G1 Y-223.072 Z-2.193
N3210 G3 X-45.193 Y-224.198 Z-2.207 I1.3 J0.
N3215 G1 X-15.624 Y-207.126 Z-2.393
N3220 G3 Y-204.874 Z-2.407 I-0.65 J1.126
N3225 G1 X-45.193 Y-187.802 Z-2.593
N3230 G3 X-47.143 Y-188.928 Z-2.607 I-0.65 J-1.126
N3235 G1 Y-223.072 Z-2.793
N3240 G3 X-45.193 Y-224.198 Z-2.807 I1.3 J0.
N3245 G1 X-15.624 Y-207.126 Z-2.993
N3250 G3 Y-204.874 Z-3.007 I-0.65 J1.126
N3255 G1 X-45.193 Y-187.802 Z-3.193
N3260 G3 X-47.143 Y-188.928 Z-3.207 I-0.65 J-1.126
N3265 G1 Y-223.072 Z-3.393
N3270 G3 X-45.193 Y-224.198 Z-3.407 I1.3 J0.
N3275 G1 X-15.624 Y-207.126 Z-3.593
N3280 G3 Y-204.874 Z-3.607 I-0.65 J1.126
N3285 G1 X-45.193 Y-187.802 Z-3.793
N3290 G3 X-47.143 Y-188.928 Z-3.807 I-0.65 J-1.126
N3295 G1 Y-223.072 Z-3.993
N3300 G3 X-45.193 Y-224.198 Z-4.007 I1.3 J0.
N3305 G1 X-33.024 Y-217.172 Z-4.084
N3310 X-33.006 Y-217.162 Z-4.
N3315 X-27.81 Y-214.162
N3320 S3200
N3325 X-27.785 Y-214.147 Z-4.116 F#108
N3330 S3000
N3335 X-15.624 Y-207.126 Z-4.193 F#107
N3340 G3 Y-204.874 Z-4.207 I-0.65 J1.126
N3345 G1 X-27.749 Y-197.874 Z-4.283
N3350 X-27.81 Y-197.838 Z-4.
N3355 X-33.006 Y-194.838
N3360 S3200
N3365 X-33.075 Y-194.799 Z-4.317 F#108
N3370 S3000
N3375 X-45.193 Y-187.802 Z-4.393 F#107
N3380 G3 X-47.143 Y-188.928 Z-4.407 I-0.65 J-1.126
N3385 G1 Y-202.879 Z-4.483
N3390 Y-203. Z-4.
N3395 Y-209.
N3400 S3200
N3405 Y-209.129 Z-4.517 F#108
N3410 S3000
N3415 Y-223.072 Z-4.593 F#107
N3420 G3 X-45.193 Y-224.198 Z-4.607 I1.3 J0.
N3425 G1 X-33.154 Y-217.247 Z-4.683
N3430 X-33.006 Y-217.162 Z-4.
N3435 X-27.81 Y-214.162
N3440 S3200
N3445 X-27.655 Y-214.072 Z-4.717 F#108
N3450 S3000
N3455 X-15.624 Y-207.126 Z-4.793 F#107
N3460 G3 Y-204.874 Z-4.807 I-0.65 J1.126
N3465 G1 X-27.619 Y-197.949 Z-4.883
N3470 X-27.81 Y-197.838 Z-4.
N3475 X-33.006 Y-194.838
N3480 S3200
N3485 X-33.205 Y-194.724 Z-4.918 F#108
N3490 S3000
N3495 X-45.193 Y-187.802 Z-4.993 F#107
N3500 G3 X-47.143 Y-188.928 Z-5.007 I-0.65 J-1.126
N3505 G1 Y-202.729 Z-5.082
N3510 Y-203. Z-4.
N3515 Y-209.
N3520 S3200
N3525 Y-209.279 Z-5.118 F#108
N3530 S3000
N3535 Y-223.072 Z-5.193 F#107
N3540 G3 X-45.193 Y-224.198 Z-5.207 I1.3 J0.
N3545 G1 X-33.284 Y-217.322 Z-5.282
N3550 X-33.006 Y-217.162 Z-4.
N3555 X-27.81 Y-214.162
N3560 S3200
N3565 X-27.525 Y-213.997 Z-5.318 F#108
N3570 S3000
N3575 X-15.624 Y-207.126 Z-5.393 F#107
N3580 G3 Y-204.874 Z-5.407 I-0.65 J1.126
N3585 G1 X-27.489 Y-198.023 Z-5.482
N3590 X-27.81 Y-197.838 Z-4.
N3595 X-33.006 Y-194.838
N3600 S3200
N3605 X-33.335 Y-194.648 Z-5.518 F#108
N3610 S3000
N3615 X-45.193 Y-187.802 Z-5.593 F#107
N3620 G3 X-47.143 Y-188.928 Z-5.607 I-0.65 J-1.126
N3625 G1 Y-202.58 Z-5.681
N3630 Y-203. Z-4.
N3635 Y-209.
N3640 S3200
N3645 Y-209.43 Z-5.719 F#108
N3650 S3000
N3655 Y-223.072 Z-5.793 F#107
N3660 G3 X-45.193 Y-224.198 Z-5.807 I1.3 J0.
N3665 G1 X-33.414 Y-217.397 Z-5.881
N3670 X-33.006 Y-217.162 Z-4.
N3675 X-27.81 Y-214.162
N3680 S3200
N3685 X-27.395 Y-213.922 Z-5.919 F#108
N3690 S3000
N3695 X-15.624 Y-207.126 Z-5.993 F#107
N3700 G3 Y-204.874 Z-6.007 I-0.65 J1.126
N3705 G1 X-27.377 Y-198.088 Z-6.081
N3710 Z-6.
N3715 X-27.81 Y-197.838 Z-4.
N3720 X-33.006 Y-194.838
N3725 S3200
N3730 X-33.439 Y-194.588 Z-6. F#108
N3735 Z-6.119
N3740 S3000
N3745 X-45.193 Y-187.802 Z-6.193 F#107
N3750 G3 X-47.143 Y-188.928 Z-6.207 I-0.65 J-1.126
N3755 G1 Y-202.5 Z-6.281
N3760 Z-6.
N3765 Y-203. Z-4.
N3770 Y-206.
N3775 S3200
N3780 Y-209. F#100
N3785 Y-209.5 Z-6. F#108
N3790 Z-6.3
N3795 Y-223.072 F#100
N3800 G3 X-45.193 Y-224.198 I1.3 J0.
N3805 G1 X-34.479 Y-218.012
N3810 X-33.439 Y-217.412 F#106
N3815 Z-6. F#100
N3820 X-33.006 Y-217.162 Z-4.
N3825 X-27.81 Y-214.162
N3830 X-27.377 Y-213.912 Z-6. F#108
N3835 Z-6.3
N3840 X-15.624 Y-207.126 F#100
N3845 G3 Y-204.874 I-0.65 J1.126
N3850 G1 X-26.338 Y-198.688
N3855 X-27.377 Y-198.088 F#106
N3860 Z-6. F#100
N3865 X-27.81 Y-197.838 Z-4.
N3870 X-33.006 Y-194.838
N3875 X-33.439 Y-194.588 Z-6. F#108
N3880 Z-6.3
N3885 X-45.193 Y-187.802 F#100
N3890 G3 X-47.143 Y-188.928 I-0.65 J-1.126
N3895 G1 Y-201.3
N3900 Y-202.5 F#106
N3905 Z-6. F#100
N3910 Y-203. Z-4.
N3915 Y-206.
N3920 G0 Z2.5
N3925 X-25.012 Y-72.3
N3930 S3000
N3935 G1 X-12.374 Z2.46 F#107
N3940 G3 X-10.974 Y-70.9 Z2.453 I0. J1.4
N3945 G1 Y-14.1 Z2.273
N3950 G3 X-12.374 Y-12.7 Z2.266 I-1.4 J0.
N3955 G1 X-45.743 Z2.16
N3960 G3 X-47.143 Y-14.1 Z2.153 I0. J-1.4
N3965 G1 Y-70.9 Z1.973
N3970 G3 X-45.743 Y-72.3 Z1.966 I1.4 J0.
N3975 G1 X-12.374 Z1.86
N3980 G3 X-10.974 Y-70.9 Z1.853 I0. J1.4
N3985 G1 Y-14.1 Z1.673
N3990 G3 X-12.374 Y-12.7 Z1.666 I-1.4 J0.
N3995 G1 X-45.743 Z1.56
N4000 G3 X-47.143 Y-14.1 Z1.553 I0. J-1.4
N4005 G1 Y-70.9 Z1.373
N4010 G3 X-45.743 Y-72.3 Z1.366 I1.4 J0.
N4015 G1 X-12.374 Z1.26
N4020 G3 X-10.974 Y-70.9 Z1.253 I0. J1.4
N4025 G1 Y-14.1 Z1.073
N4030 G3 X-12.374 Y-12.7 Z1.066 I-1.4 J0.
N4035 G1 X-45.743 Z0.96
N4040 G3 X-47.143 Y-14.1 Z0.953 I0. J-1.4
N4045 G1 Y-70.9 Z0.773
N4050 G3 X-45.743 Y-72.3 Z0.766 I1.4 J0.
N4055 G1 X-12.374 Z0.66
N4060 G3 X-10.974 Y-70.9 Z0.653 I0. J1.4
N4065 G1 Y-14.1 Z0.473
N4070 G3 X-12.374 Y-12.7 Z0.466 I-1.4 J0.
N4075 G1 X-45.743 Z0.36
N4080 G3 X-47.143 Y-14.1 Z0.353 I0. J-1.4
N4085 G1 Y-70.9 Z0.173
N4090 G3 X-45.743 Y-72.3 Z0.166 I1.4 J0.
N4095 G1 X-12.374 Z0.06
N4100 G3 X-10.974 Y-70.9 Z0.053 I0. J1.4
N4105 G1 Y-14.1 Z-0.127
N4110 G3 X-12.374 Y-12.7 Z-0.134 I-1.4 J0.
N4115 G1 X-45.743 Z-0.24
N4120 G3 X-47.143 Y-14.1 Z-0.247 I0. J-1.4
N4125 G1 Y-70.9 Z-0.427
N4130 G3 X-45.743 Y-72.3 Z-0.434 I1.4 J0.
N4135 G1 X-12.374 Z-0.54
N4140 G3 X-10.974 Y-70.9 Z-0.547 I0. J1.4
N4145 G1 Y-14.1 Z-0.727
N4150 G3 X-12.374 Y-12.7 Z-0.734 I-1.4 J0.
N4155 G1 X-45.743 Z-0.84
N4160 G3 X-47.143 Y-14.1 Z-0.847 I0. J-1.4
N4165 G1 Y-70.9 Z-1.027
N4170 G3 X-45.743 Y-72.3 Z-1.034 I1.4 J0.
N4175 G1 X-12.374 Z-1.14
N4180 G3 X-10.974 Y-70.9 Z-1.147 I0. J1.4
N4185 G1 Y-14.1 Z-1.327
N4190 G3 X-12.374 Y-12.7 Z-1.334 I-1.4 J0.
N4195 G1 X-45.743 Z-1.44
N4200 G3 X-47.143 Y-14.1 Z-1.447 I0. J-1.4
N4205 G1 Y-70.9 Z-1.627
N4210 G3 X-45.743 Y-72.3 Z-1.634 I1.4 J0.
N4215 G1 X-12.374 Z-1.74
N4220 G3 X-10.974 Y-70.9 Z-1.747 I0. J1.4
N4225 G1 Y-14.1 Z-1.927
N4230 G3 X-12.374 Y-12.7 Z-1.934 I-1.4 J0.
N4235 G1 X-45.743 Z-2.04
N4240 G3 X-47.143 Y-14.1 Z-2.047 I0. J-1.4
N4245 G1 Y-70.9 Z-2.227
N4250 G3 X-45.743 Y-72.3 Z-2.234 I1.4 J0.
N4255 G1 X-12.374 Z-2.34
N4260 G3 X-10.974 Y-70.9 Z-2.347 I0. J1.4
N4265 G1 Y-14.1 Z-2.527
N4270 G3 X-12.374 Y-12.7 Z-2.534 I-1.4 J0.
N4275 G1 X-45.743 Z-2.64
N4280 G3 X-47.143 Y-14.1 Z-2.647 I0. J-1.4
N4285 G1 Y-70.9 Z-2.827
N4290 G3 X-45.743 Y-72.3 Z-2.834 I1.4 J0.
N4295 G1 X-12.374 Z-2.94
N4300 G3 X-10.974 Y-70.9 Z-2.947 I0. J1.4
N4305 G1 Y-14.1 Z-3.127
N4310 G3 X-12.374 Y-12.7 Z-3.134 I-1.4 J0.
N4315 G1 X-45.743 Z-3.24
N4320 G3 X-47.143 Y-14.1 Z-3.247 I0. J-1.4
N4325 G1 Y-70.9 Z-3.427
N4330 G3 X-45.743 Y-72.3 Z-3.434 I1.4 J0.
N4335 G1 X-12.374 Z-3.54
N4340 G3 X-10.974 Y-70.9 Z-3.547 I0. J1.4
N4345 G1 Y-14.1 Z-3.727
N4350 G3 X-12.374 Y-12.7 Z-3.734 I-1.4 J0.
N4355 G1 X-45.743 Z-3.84
N4360 G3 X-47.143 Y-14.1 Z-3.847 I0. J-1.4
N4365 G1 Y-70.9 Z-4.027
N4370 G3 X-45.743 Y-72.3 Z-4.034 I1.4 J0.
N4375 G1 X-12.374 Z-4.14
N4380 G3 X-10.974 Y-70.9 Z-4.147 I0. J1.4
N4385 G1 Y-45.557 Z-4.227
N4390 Y-45.5 Z-4.
N4395 Y-39.5
N4400 S3200
N4405 Y-39.438 Z-4.247 F#108
N4410 S3000
N4415 Y-14.1 Z-4.327 F#107
N4420 G3 X-12.374 Y-12.7 Z-4.334 I-1.4 J0.
N4425 G1 X-45.743 Z-4.44
N4430 G3 X-47.143 Y-14.1 Z-4.447 I0. J-1.4
N4435 G1 Y-39.368 Z-4.527
N4440 Y-39.5 Z-4.
N4445 Y-45.5
N4450 S3200
N4455 Y-45.637 Z-4.547 F#108
N4460 S3000
N4465 Y-70.9 Z-4.627 F#107
N4470 G3 X-45.743 Y-72.3 Z-4.634 I1.4 J0.
N4475 G1 X-12.374 Z-4.74
N4480 G3 X-10.974 Y-70.9 Z-4.747 I0. J1.4
N4485 G1 Y-45.707 Z-4.827
N4490 Y-45.5 Z-4.
N4495 Y-39.5
N4500 S3200
N4505 Y-39.288 Z-4.847 F#108
N4510 S3000
N4515 Y-14.1 Z-4.927 F#107
N4520 G3 X-12.374 Y-12.7 Z-4.934 I-1.4 J0.
N4525 G1 X-45.743 Z-5.04
N4530 G3 X-47.143 Y-14.1 Z-5.047 I0. J-1.4
N4535 G1 Y-39.218 Z-5.127
N4540 Y-39.5 Z-4.
N4545 Y-45.5
N4550 S3200
N4555 Y-45.787 Z-5.148 F#108
N4560 S3000
N4565 Y-70.9 Z-5.227 F#107
N4570 G3 X-45.743 Y-72.3 Z-5.234 I1.4 J0.
N4575 G1 X-12.374 Z-5.34
N4580 G3 X-10.974 Y-70.9 Z-5.347 I0. J1.4
N4585 G1 Y-45.857 Z-5.427
N4590 Y-45.5 Z-4.
N4595 Y-39.5
N4600 S3200
N4605 Y-39.138 Z-5.448 F#108
N4610 S3000
N4615 Y-14.1 Z-5.527 F#107
N4620 G3 X-12.374 Y-12.7 Z-5.534 I-1.4 J0.
N4625 G1 X-45.743 Z-5.64
N4630 G3 X-47.143 Y-14.1 Z-5.647 I0. J-1.4
N4635 G1 Y-39.068 Z-5.726
N4640 Y-39.5 Z-4.
N4645 Y-45.5
N4650 S3200
N4655 Y-45.937 Z-5.748 F#108
N4660 S3000
N4665 Y-70.9 Z-5.827 F#107
N4670 G3 X-45.743 Y-72.3 Z-5.834 I1.4 J0.
N4675 G1 X-12.374 Z-5.94
N4680 G3 X-10.974 Y-70.9 Z-5.947 I0. J1.4
N4685 G1 Y-46. Z-6.026
N4690 Z-6.
N4695 Y-45.5 Z-4.
N4700 Y-39.5
N4705 S3200
N4710 Y-39. Z-6. F#108
N4715 Z-6.048
N4720 S3000
N4725 Y-14.1 Z-6.127 F#107
N4730 G3 X-12.374 Y-12.7 Z-6.134 I-1.4 J0.
N4735 G1 X-45.743 Z-6.24
N4740 G3 X-47.143 Y-14.1 Z-6.247 I0. J-1.4
N4745 G1 Y-30.785 Z-6.3
N4750 S3200
N4755 Y-37.8 F#100
N4760 Y-39. F#106
N4765 Z-6. F#100
N4770 Y-39.5 Z-4.
N4775 Y-45.5
N4780 Y-46. Z-6. F#108
N4785 Z-6.3
N4790 Y-70.9 F#100
N4795 G3 X-45.743 Y-72.3 I1.4 J0.
N4800 G1 X-12.374
N4805 G3 X-10.974 Y-70.9 I0. J1.4
N4810 G1 Y-47.2
N4815 Y-46. F#106
N4820 Z-6. F#100
N4825 Y-45.5 Z-4.
N4830 Y-39.5
N4835 Y-39. Z-6. F#108
N4840 Z-6.3
N4845 Y-14.1 F#100
N4850 G3 X-12.374 Y-12.7 I-1.4 J0.
N4855 G1 X-45.743
N4860 G3 X-47.143 Y-14.1 I0. J-1.4
N4865 G1 Y-30.785
N4870 G0 Z4.
N4880 M9
N4885 G53 Z0.
N4890 M30
%
