%
(1001)
(6MM TWO FLUTE)
(T3  D=3. CR=0. TAPER=118DEG - ZMIN=-2.901 - DRILL)
N10 G90 G94 G17 G91.1
N15 G21
N20 G53 G0 Z0.
(DRILL1)
N25 M9
N30 T3 M6
N35 S2500 M3
N40 G54
N45 M9
N55 G0 X-46. Y-36.34
N60 G43 Z15. H3
N70 G0 Z5.
N75 G98 G81 X-46. Y-36.34 Z-2.901 R5. F125.
N80 Y-30.34
N85 Y-24.34
N90 Y-18.34
N95 Y-12.34
N100 Y-6.34
N105 X-36.
N110 Y-12.34
N115 Y-18.34
N120 Y-24.34
N125 Y-30.34
N130 Y-36.34
N135 X-14.
N140 Y-30.34
N145 Y-24.34
N150 Y-18.34
N155 Y-12.34
N160 Y-6.34
N165 X-4.
N170 Y-12.34
N175 Y-18.34
N180 Y-24.34
N185 Y-30.34
N190 Y-36.34
N195 Y-76.
N200 X-14.
N205 X-36.
N210 X-46.
N215 G80
N220 G0 Z15.
N230 M9
N235 G53 Z0.
N240 M30
%
