%
(1001)
(6MM TWO FLUTE)
(T1  D=6. CR=0. - ZMIN=-2. - FLAT END MILL)
N10 G90 G94 G17 G91.1
N15 G21
N20 G53 G0 Z0.
(2D CONTOUR1)
N25 M9
N30 T1 M6
N35 S3200 M3
N40 G54
N45 M8
N55 G0 X-15.251 Y-55.6
N60 G43 Z4. H1
N65 #100=330. (CUTTING)
N70 #103=200. (ENTRY)
N75 #106=82.5 (REDUCED)
N80 #107=270. (RAMPING)
N85 #108=100. (PLUNGE)
N90 G0 Z3.1
N95 G18 G2 X-14.651 Z2.5 I0.6 K0. F#108
N100 G1 X-14.051 F#103
N105 G17 G3 X-13.451 Y-55. I0. J0.6
N110 S3000
N115 G1 Y-48.332 Z2.417 F#107
N120 X-25. Y-41.664 Z2.25
N125 X-36.549 Y-48.332 Z2.083
N130 Y-61.668 Z1.917
N135 X-25. Y-68.336 Z1.75
N140 X-13.451 Y-61.668 Z1.583
N145 Y-48.332 Z1.417
N150 X-25. Y-41.664 Z1.25
N155 X-36.549 Y-48.332 Z1.083
N160 Y-61.668 Z0.917
N165 X-25. Y-68.336 Z0.75
N170 X-13.451 Y-61.668 Z0.583
N175 Y-48.332 Z0.417
N180 X-25. Y-41.664 Z0.25
N185 X-36.549 Y-48.332 Z0.083
N190 Y-61.668 Z-0.083
N195 X-25. Y-68.336 Z-0.25
N200 X-13.451 Y-61.668 Z-0.417
N205 Y-48.332 Z-0.583
N210 X-25. Y-41.664 Z-0.75
N215 X-36.549 Y-48.332 Z-0.917
N220 Y-61.668 Z-1.083
N225 X-25. Y-68.336 Z-1.25
N230 X-13.451 Y-61.668 Z-1.417
N235 Y-48.332 Z-1.583
N240 X-25. Y-41.664 Z-1.75
N245 X-36.549 Y-48.332 Z-1.917
N250 Y-55. Z-2.
N255 S3200
N260 Y-60.468 F#100
N265 Y-61.668 F#106
N270 X-26.039 Y-67.736 F#100
N275 X-25. Y-68.336 F#106
N280 X-14.49 Y-62.268 F#100
N285 X-13.451 Y-61.668 F#106
N290 Y-49.532 F#100
N295 Y-48.332 F#106
N300 X-23.961 Y-42.264 F#100
N305 X-25. Y-41.664 F#106
N310 X-35.51 Y-47.732 F#100
N315 X-36.549 Y-48.332 F#106
N320 Y-55. F#100
N325 G0 Z3.1
N330 X4.8 Y-40.864
N335 G18 G3 X4.2 Z2.5 I-0.6 K0. F#108
N340 G1 X3.6 F#103
N345 G17 G3 X3. Y-41.464 I0. J-0.6
N350 S3000
N355 G1 Y-80. Z2.36 F#107
N360 G2 X0. Y-83. Z2.343 I-3. J0.
N365 G1 X-50. Z2.162
N370 G2 X-53. Y-80. Z2.145 I0. J3.
N375 G1 Y-2.5 Z1.864
N380 G2 X-52.121 Y-0.379 Z1.856 I3. J0.
N385 G1 X-49.621 Y2.121 Z1.843
N390 G2 X-47.5 Y3. Z1.834 I2.121 J-2.121
N395 G1 X-2.5 Z1.671
N400 G2 X-0.379 Y2.121 Z1.663 I0. J-3.
N405 G1 X2.121 Y-0.379 Z1.65
N410 G2 X3. Y-2.5 Z1.641 I-2.121 J-2.121
N415 G1 Y-80. Z1.36
N420 G2 X0. Y-83. Z1.343 I-3. J0.
N425 G1 X-50. Z1.162
N430 G2 X-53. Y-80. Z1.145 I0. J3.
N435 G1 Y-2.5 Z0.864
N440 G2 X-52.121 Y-0.379 Z0.856 I3. J0.
N445 G1 X-49.621 Y2.121 Z0.843
N450 G2 X-47.5 Y3. Z0.834 I2.121 J-2.121
N455 G1 X-2.5 Z0.671
N460 G2 X-0.379 Y2.121 Z0.663 I0. J-3.
N465 G1 X2.121 Y-0.379 Z0.65
N470 G2 X3. Y-2.5 Z0.641 I-2.121 J-2.121
N475 G1 Y-80. Z0.36
N480 G2 X0. Y-83. Z0.343 I-3. J0.
N485 G1 X-50. Z0.162
N490 G2 X-53. Y-80. Z0.145 I0. J3.
N495 G1 Y-2.5 Z-0.136
N500 G2 X-52.121 Y-0.379 Z-0.144 I3. J0.
N505 G1 X-49.621 Y2.121 Z-0.157
N510 G2 X-47.5 Y3. Z-0.166 I2.121 J-2.121
N515 G1 X-2.5 Z-0.329
N520 G2 X-0.379 Y2.121 Z-0.337 I0. J-3.
N525 G1 X2.121 Y-0.379 Z-0.35
N530 G2 X3. Y-2.5 Z-0.359 I-2.121 J-2.121
N535 G1 Y-80. Z-0.64
N540 G2 X0. Y-83. Z-0.657 I-3. J0.
N545 G1 X-50. Z-0.838
N550 G2 X-53. Y-80. Z-0.855 I0. J3.
N555 G1 Y-2.5 Z-1.136
N560 G2 X-52.121 Y-0.379 Z-1.144 I3. J0.
N565 G1 X-49.621 Y2.121 Z-1.157
N570 G2 X-47.5 Y3. Z-1.166 I2.121 J-2.121
N575 G1 X-2.5 Z-1.329
N580 G2 X-0.379 Y2.121 Z-1.337 I0. J-3.
N585 G1 X2.121 Y-0.379 Z-1.35
N590 G2 X3. Y-2.5 Z-1.359 I-2.121 J-2.121
N595 G1 Y-80. Z-1.64
N600 G2 X0. Y-83. Z-1.657 I-3. J0.
N605 G1 X-50. Z-1.838
N610 G2 X-53. Y-80. Z-1.855 I0. J3.
N615 G1 Y-40. Z-2.
N620 S3200
N625 Y-2.5 F#100
N630 G2 X-52.121 Y-0.379 I3. J0.
N635 G1 X-49.621 Y2.121
N640 G2 X-47.5 Y3. I2.121 J-2.121
N645 G1 X-2.5
N650 G2 X-0.379 Y2.121 I0. J-3.
N655 G1 X2.121 Y-0.379
N660 G2 X3. Y-2.5 I-2.121 J-2.121
N665 G1 Y-80.
N670 G2 X0. Y-83. I-3. J0.
N675 G1 X-50.
N680 G2 X-53. Y-80. I0. J3.
N685 G1 Y-40.
N690 G0 Z4.
N700 M9
N705 G53 Z0.
N710 M30
%
