%
(1001)
(T1  D=6. CR=0. - ZMIN=-24. - FLAT END MILL)
(T125  D=2.5 CR=0. TAPER=118DEG - ZMIN=-10. - DRILL)
N10 G90 G94 G17 G91.1
N15 G21
N20 G53 G0 Z0.
(FACE3)
N25 M9
N30 T1 M6
N35 T125
N40 S3200 M3
N45 G54
N50 M8
N60 G0 X2.618 Y10.3
N65 G43 Z6.2 H1
N70 #100=330. (CUTTING)
N75 #102=330. (FINISH)
N80 #103=200. (ENTRY)
N85 #104=200. (EXIT)
N90 G0 Z3.2
N95 G1 Z2. F#103
N100 G19 G2 Y8.3 Z0. J-2. K0.
N105 G1 Y8. F#100
N110 Y-34. F#102
N115 G17 G2 X-0.728 I-1.673 J0. F#100
N120 G1 Y8. F#102
N125 G3 X-4.075 I-1.673 J0. F#100
N130 G1 Y-34. F#102
N135 G2 X-7.422 I-1.673 J0. F#100
N140 G1 Y8. F#102
N145 G3 X-10.768 I-1.673 J0. F#100
N150 G1 Y-34. F#102
N155 G2 X-14.115 I-1.673 J0. F#100
N160 G1 Y8. F#102
N165 G19 G3 Y10. Z2. J0. K2. F#104
N170 G0 Z6.2
N175 G17
(2D ADAPTIVE2)
N180 M8
N185 G0 X3.871 Y-4.058
N190 #100=330. (CUTTING)
N195 #103=200. (ENTRY)
N200 #104=200. (EXIT)
N205 #105=3000. (DIRECT)
N210 #106=82.5 (REDUCED)
N215 Z6.2
N220 Z-8.79
N225 G1 Z-9.29 F#103
N230 X3.867 Y-4.064 Z-9.377
N235 X3.853 Y-4.082 Z-9.461
N240 X3.831 Y-4.111 Z-9.54
N245 X3.801 Y-4.151 Z-9.611
N250 X3.764 Y-4.201 Z-9.673
N255 X3.721 Y-4.258 Z-9.723
N260 X3.674 Y-4.321 Z-9.76
N265 X3.623 Y-4.388 Z-9.782
N270 X3.571 Y-4.458 Z-9.79
N275 G3 X2.97 Y-5.909 I2.532 J-1.899
N280 X2.517 Y-12.616 I22.934 J-4.918 F#100
N285 G1 X2.472 Y-13.247
N290 X2.471 Y-14.503
N295 X2.47 Y-17.642
N300 Y-26.433
N305 G2 X-0.563 Y-29.929 I-3.633 J0.088
N310 X-4.911 Y-30.423 I-3.629 J12.555
N315 X-13.074 Y-30.445 I-4.578 J186.854
N320 X-16.093 Y-26.818 I1.105 J3.99
N325 X-16.435 Y-21.191 I23.097 J4.228
N330 X-16.47 Y-15.538 I111.139 J3.51
N335 G1 Y0.787
N340 G2 X-13.097 Y4.025 I3.834 J-0.618
N345 X-8.734 Y4.431 I3.58 J-14.832
N350 X-1.198 Y4.464 I4.823 J-238.464
N355 X0.805 Y3.512 I-0.498 J-3.63
N360 X1.533 Y2.565 I-2.501 J-2.677 F#106
N365 G1 X1.773 Y2.419 F#100
N370 X1.804 Y2.394
N375 X1.809 Y2.391 F#104
N380 G2 X3.196 Y1.681 I-1.59 J-4.812
N385 X4.928 Y-0.546 I-2.977 J-4.102 F#105
N390 X4.96 Y-0.677 I-0.465 J-0.185
N395 G1 X5.223 Y-3.116
N400 G2 X5.219 Y-3.252 I-0.497 J-0.054
N405 X3.997 Y-5.8 I-4.999 J0.831
N410 X2.797 Y-6.785 I-3.777 J3.379 F#103
N415 G1 X2.789 Y-6.794
N420 G3 X2.052 Y-10.964 I7.823 J-3.532 F#100
N425 X1.97 Y-18.501 I143.07 J-5.327
N430 G1 Y-24.78
N435 G2 X-1.534 Y-29.343 I-4.364 J-0.276
N440 X-5.873 Y-29.908 I-3.831 J12.472
N445 X-12.146 Y-29.905 I-3.097 J71.883
N450 X-15.542 Y-25.753 I1.57 J4.748
N455 X-15.933 Y-20.13 I22.809 J4.412
N460 X-15.969 Y-15.733 I110.283 J3.118
N465 G1 X-15.97 Y-8.826
N470 G3 X-16. Y-5.367 I-39.408 J1.388
N475 G1 Y-0.231
N480 G2 X-13.916 Y2.883 I3.098 J0.181
N485 X-8.416 Y3.886 I4.737 J-10.391
N490 G1 X-7.37 Y3.929
N495 X-6.324 Y3.957
N500 X-5.277 Y3.972
N505 X-4.23 Y3.973
N510 X-3.183 Y3.961
N515 X-2.137 Y3.935
N520 G2 X-0.111 Y3.112 I-1.571 J-6.77
N525 G1 X0.187 Y3.022
N530 X0.489 Y2.954
N535 G3 X0.945 Y3.764 I0.068 J0.495 F#104
N540 G1 X0.733 Y4.075
N545 X-0.805 Y6.332 F#105
N550 G3 X-2.792 Y7.424 I-2.067 J-1.406
N555 G1 X-15.63 Y7.52
N560 G3 X-16.04 Y2.549 I-0.028 J-2.5
N565 X-15.262 Y2.552 I0.382 J2.471 F#103
N570 G2 X-14.484 Y2.605 I0.683 J-4.258
N575 G1 X-14.475 Y2.607
N580 G2 X-12.686 Y3.026 I1.703 J-3.238 F#100
N585 X-2.663 Y3.373 I6.841 J-52.638
N590 G3 X0.484 Y2.999 I2.408 J6.823
N595 G1 X0.561 Y2.994 F#104
N600 X0.638 Y3.003
N605 X0.713 Y3.024
N610 X0.784 Y3.058
N615 X0.849 Y3.104
N620 X0.905 Y3.161
N625 X0.952 Y3.226
N630 X0.987 Y3.299
N635 X1.009 Y3.377
N640 X1.018 Y3.459
N645 X1.013 Y3.541
N650 X0.994 Y3.622
N655 X0.962 Y3.699
N660 X0.917 Y3.77
N665 X0.628 Y4.045
N670 X-1.508 Y6.08 F#105
N675 G3 X-2.935 Y6.738 I-1.708 J-1.825
N680 G1 X-12.92 Y7.976
N685 G3 X-14.653 Y3.461 I-0.275 J-2.485
N690 X-13.205 Y2.991 I1.459 J2.03 F#103
N695 G1 X-13.181
N700 X-13.062 Y2.996 F#100
N705 X-12.777 Y2.999
N710 X-12.634 Y3.
N715 X-1.015
N720 X-0.652 Y3.175 F#104
N725 X0.096 Y4.072
N730 X0.489 Y4.543 F#105
N735 G2 X3.858 Y4.905 I1.868 J-1.529
N740 G1 X4.965 Y3.764
N745 X5.728 Y2.48
N750 X6.11 Y1.196
N755 X6.226 Y-0.088
N760 Y-2.799
N765 G2 X5.44 Y-4.511 I-2.413 J0.071
N770 G1 X3.708 Y-6.139
N775 X2.707 Y-7.079 F#103
N780 X2.6 Y-7.246
N785 G3 X1.615 Y-11.089 I5.36 J-3.423 F#100
N790 X1.491 Y-19.252 I93.143 J-5.493
N795 G1 X1.47 Y-23.648
N800 G2 X-2.272 Y-28.772 I-4.855 J-0.383
N805 X-7.857 Y-29.412 I-4.657 J15.953
N810 X-12.198 Y-29.044 I-1.348 J9.909
N815 X-15.184 Y-23.803 I3.35 J5.379
N820 X-15.439 Y-16.906 I42.498 J5.024
N825 G1 X-15.471 Y-12.329
N830 X-15.493 Y-7.751
N835 G2 X-15.998 Y-5.798 I15.166 J4.965
N840 G1 X-15.996 Y-5.779 F#104
N845 G2 X-16.701 Y-5.46 I1.417 J4.073
N850 G1 X-17.225 Y-4.889
N855 X-17.572 Y-4.511 F#105
N860 X-18.911 Y-2.356
N865 G2 X-19.299 Y-1.087 I2.111 J1.34
N870 G1 X-19.239 Y0.91
N875 X-18.797 Y2.48
N880 X-18.055 Y3.77
N885 X-16.771 Y5.052
N890 X-15.345 Y5.852
N895 X-14.061 Y6.216
N900 X-13.348 Y6.296
N905 X-1.651 Y6.299
N910 X1.215 Y6.187
N915 X2.534 Y5.761
N920 X3.627 Y5.141
N925 X4.805 Y4.049
N930 X5.713 Y2.622
N935 X6.153 Y1.196
N940 X6.269 Y-0.516
N945 Y-3.227
N950 G2 X5.364 Y-5.082 I-2.499 J0.071
N955 G1 X3.513 Y-6.669
N960 X2.37 Y-7.65 F#103
N965 X2.33 Y-7.701
N970 G3 X1.203 Y-10.965 I4.01 J-3.211 F#100
N975 X1.002 Y-18.431 I56.012 J-5.248
N980 G2 X0.91 Y-24.08 I-105.075 J-1.131
N985 X-1.093 Y-27.349 I-5.32 J1.013
N990 X-4.642 Y-28.968 I-3.092 J2.077
N995 X-9.652 Y-28.957 I-2.386 J53.053
N1000 X-14.349 Y-24.569 I0.532 J5.277
N1005 X-14.914 Y-18.968 I18.07 J4.652
N1010 X-15.011 Y-8.596 I977.263 J14.323
N1015 G1 X-15.093 Y-8.25
N1020 X-15.221 Y-7.918
N1025 X-15.392 Y-7.606
N1030 X-15.773 Y-7.39 F#104
N1035 X-16.127 Y-7.507
N1040 X-16.444 Y-8.199
N1045 X-18.029 Y-11.645 F#105
N1050 G3 X-18.268 Y-12.786 I2.26 J-1.07
N1055 G1 X-18.202 Y-21.061
N1060 X-17.888 Y-24.109
N1065 X-17.179 Y-26.625
N1070 X-16.486 Y-28.065
N1075 X-12.272 Y-32.902
N1080 G3 X-8.085 Y-30.293 I1.879 J1.649
N1085 X-8.489 Y-29.634 I-2.308 J-0.961 F#103
N1090 G2 X-8.935 Y-28.999 I3.221 J2.741
N1095 G1 X-8.949 Y-28.989
N1100 G2 X-12.718 Y-26.496 I0.483 J4.825 F#100
N1105 X-14.282 Y-21.152 I8.101 J5.273
N1110 X-14.462 Y-9.533 I150.103 J8.129
N1115 G3 X-15.404 Y-7.616 I-3.672 J-0.615
N1120 G1 X-15.454 Y-7.553 F#104
N1125 X-15.515 Y-7.498
N1130 X-15.584 Y-7.454
N1135 X-15.659 Y-7.423
N1140 X-15.739 Y-7.404
N1145 X-15.821 Y-7.399
N1150 X-15.903 Y-7.407
N1155 X-15.982 Y-7.429
N1160 X-16.057 Y-7.465
N1165 X-16.125 Y-7.512
N1170 X-16.185 Y-7.57
N1175 X-16.234 Y-7.638
N1180 X-16.271 Y-7.712
N1185 X-16.295 Y-7.793
N1190 X-16.394 Y-8.179
N1195 X-17.759 Y-13.499 F#105
N1200 X-17.709 Y-18.635
N1205 X-15.781 Y-30.049
N1210 G3 X-10.924 Y-30.334 I2.462 J0.433
N1215 G1 X-10.886 Y-30.192
N1220 G3 X-10.838 Y-29.307 I-2.433 J0.576
N1225 X-11.492 Y-27.909 I-2.481 J-0.309 F#103
N1230 G1 X-11.493 Y-27.908
N1235 G2 X-13.271 Y-23.908 I6. J5.062 F#100
N1240 X-13.911 Y-17.052 I24.308 J5.726
N1245 G3 X-14.013 Y-9.956 I-544.9 J-4.279
N1250 X-15.07 Y-8.094 I-3.074 J-0.512
N1255 G1 X-15.131 Y-8.032 F#104
N1260 X-15.202 Y-7.983
N1265 X-15.281 Y-7.947
N1270 X-15.366 Y-7.925
N1275 X-15.453 Y-7.919
N1280 X-15.541 Y-7.928
N1285 X-15.625 Y-7.953
N1290 X-15.704 Y-7.993
N1295 X-15.775 Y-8.046
N1300 X-15.835 Y-8.111
N1305 X-15.883 Y-8.186
N1310 X-15.917 Y-8.269
N1315 X-15.927 Y-8.34 Z-9.785
N1320 X-15.937 Y-8.409 Z-9.769
N1325 X-15.923 Y-8.48 Z-9.742
N1330 X-15.91 Y-8.545 Z-9.703
N1335 X-15.898 Y-8.603 Z-9.655
N1340 X-15.871 Y-8.647 Z-9.599
N1345 X-15.849 Y-8.683 Z-9.536
N1350 X-15.832 Y-8.711 Z-9.466
N1355 X-15.821 Y-8.729 Z-9.393
N1360 X-15.816 Y-8.735 Z-9.342
N1365 X-15.814 Y-8.737 Z-9.29
N1370 G0 Z3.2
N1375 X3.733 Y-7.049
N1380 Z-8.79
N1385 G1 Z-9.29 F#103
N1390 X3.726 Y-7.051 Z-9.377
N1395 X3.705 Y-7.06 Z-9.461
N1400 X3.671 Y-7.073 Z-9.54
N1405 X3.624 Y-7.092 Z-9.611
N1410 X3.567 Y-7.114 Z-9.673
N1415 X3.501 Y-7.141 Z-9.723
N1420 X3.427 Y-7.17 Z-9.76
N1425 X3.349 Y-7.201 Z-9.782
N1430 X3.268 Y-7.233 Z-9.79
N1435 G3 X1.998 Y-8.157 I1.168 J-2.942
N1440 X0.842 Y-10.79 I2.761 J-2.782 F#100
N1445 X0.51 Y-17.801 I34.922 J-5.164
N1450 G2 X0.393 Y-23.449 I-121.129 J-0.3
N1455 G3 X-0.454 Y-26.194 I19.296 J-7.453
N1460 G2 X-1.069 Y-27.381 I-3.039 J0.823
N1465 G1 Y-27.393 F#104
N1470 G2 X-1.325 Y-28.42 I-4.199 J0.5
N1475 G1 X-1.361 Y-28.499 Z-9.782
N1480 X-1.396 Y-28.575 Z-9.76
N1485 X-1.429 Y-28.647 Z-9.723
N1490 X-1.458 Y-28.712 Z-9.673
N1495 X-1.484 Y-28.768 Z-9.611
N1500 X-1.505 Y-28.814 Z-9.54
N1505 X-1.52 Y-28.847 Z-9.461
N1510 X-1.529 Y-28.868 Z-9.377
N1515 X-1.532 Y-28.875 Z-9.29
N1520 G0 Z3.2
N1525 X3.677 Y-7.651
N1530 Z-8.79
N1535 G1 Z-9.29 F#103
N1540 X3.669 Y-7.653 Z-9.377
N1545 X3.647 Y-7.657 Z-9.461
N1550 X3.611 Y-7.664 Z-9.54
N1555 X3.562 Y-7.673 Z-9.611
N1560 X3.501 Y-7.684 Z-9.673
N1565 X3.431 Y-7.697 Z-9.723
N1570 X3.353 Y-7.712 Z-9.76
N1575 X3.27 Y-7.727 Z-9.782
N1580 X3.185 Y-7.743 Z-9.79
N1585 G3 X1.761 Y-8.406 I0.583 J-3.111
N1590 X0.442 Y-10.98 I2.183 J-2.744 F#100
N1595 X0.021 Y-16.489 I21.253 J-4.393
N1600 G2 X-0.149 Y-22.955 I-116.176 J-0.182
N1605 G3 X-0.232 Y-25.193 I5.889 J-1.339
N1610 G1 X-0.27 Y-25.341
N1615 X-0.295 Y-25.483
N1620 G3 X0.547 Y-25.912 I0.495 J-0.069 F#104
N1625 G1 X0.76 Y-25.655
N1630 X2.675 Y-23.343 F#105
N1635 G3 X3.235 Y-22.202 I-1.89 J1.636
N1640 G1 X5.291 Y-11.217
N1645 G3 X2.96 Y-8.245 I-2.454 J0.475
N1650 X1.487 Y-8.637 I-0.124 J-2.497 F#103
N1655 G1 X1.469 Y-8.649
N1660 G3 X0.036 Y-11.148 I1.912 J-2.756 F#100
N1665 X-0.465 Y-16.392 I17.779 J-4.345
N1670 X-0.21 Y-20.624 I13.471 J-1.312
N1675 G1 X-0.25 Y-23.506
N1680 G3 X0.73 Y-23.629 I0.5 J0.017 F#104
N1685 G1 X0.783 Y-23.478
N1690 X4.9 Y-11.787 F#105
N1695 G3 X2.67 Y-8.449 I-2.354 J0.842
N1700 X1.179 Y-8.853 I-0.124 J-2.497 F#103
N1705 X-0.303 Y-11.043 I1.563 J-2.654 F#100
N1710 X-0.921 Y-18.118 I19.372 J-5.256
N1715 G2 X-0.424 Y-19.347 I-57.826 J-24.129
N1720 G1 X-0.393 Y-19.424 F#104
N1725 X-0.349 Y-19.495
N1730 X-0.294 Y-19.558
N1735 X-0.23 Y-19.611
N1740 X-0.157 Y-19.652
N1745 X-0.078 Y-19.681
N1750 X0.004 Y-19.696
N1755 X0.088
N1760 X0.171 Y-19.683
N1765 X0.25 Y-19.656
N1770 X0.324 Y-19.616
N1775 X0.39 Y-19.564
N1780 X0.446 Y-19.502
N1785 X0.492 Y-19.431
N1790 X0.524 Y-19.353
N1795 X0.544 Y-19.271
N1800 X0.574 Y-19.053
N1805 X2.102 Y-8.249 F#105
N1810 G2 X2.498 Y-8.305 I0.198 J-0.028
N1815 X2.352 Y-8.47 I-0.198 J0.028
N1820 G3 X0.887 Y-9.039 I1.892 J-7.042 F#103
N1825 X-0.694 Y-11.183 I1.263 J-2.587 F#100
N1830 X-1.355 Y-17.581 I14.12 J-4.693
N1835 G1 X-1.157 Y-17.94
N1840 X-0.949 Y-18.277
N1845 G3 X-0.065 Y-18.068 I0.394 J0.308 F#104
N1850 G1 X0.021 Y-17.645
N1855 X1.85 Y-8.573 F#105
N1860 G2 X2.634 Y-8.731 I0.392 J-0.079
N1865 X2.175 Y-9.046 I-0.392 J0.079
N1870 G1 X2.159 Y-9.043
N1875 G3 X0.61 Y-9.178 I-0.509 J-3.124 F#103
N1880 X-0.961 Y-10.952 I0.878 J-2.359 F#100
N1885 X-1.849 Y-16.644 I11.329 J-4.683
N1890 X-0.942 Y-18.27 I3.753 J1.028
N1895 G1 X-0.886 Y-18.331 F#104
N1900 X-0.822 Y-18.382
N1905 X-0.749 Y-18.421
N1910 X-0.671 Y-18.448
N1915 X-0.59 Y-18.461
N1920 X-0.507
N1925 X-0.425 Y-18.447
N1930 X-0.347 Y-18.419
N1935 X-0.274 Y-18.378
N1940 X-0.209 Y-18.326
N1945 X-0.154 Y-18.264
N1950 X-0.109 Y-18.193
N1955 X-0.078 Y-18.116
N1960 X-0.059 Y-18.034
N1965 X-0.007 Y-17.641
N1970 X0.948 Y-10.378 F#105
N1975 X1.023 Y-9.801 F#103
N1980 G3 X0.391 Y-9.255 I-0.496 J0.065
N1985 X-1.378 Y-11.125 I0.753 J-2.484 F#100
N1990 X-2.257 Y-16.317 I9.23 J-4.233
N1995 X-1.481 Y-17.622 I2.985 J0.891
N2000 G1 X-1.41 Y-17.675 F#104
N2005 X-1.331 Y-17.714
N2010 X-1.246 Y-17.739
N2015 X-1.158 Y-17.748
N2020 X-1.07 Y-17.742
N2025 X-0.985 Y-17.721
N2030 X-0.904 Y-17.684
N2035 X-0.831 Y-17.635
N2040 X-0.768 Y-17.573
N2045 X-0.717 Y-17.501
N2050 X-0.679 Y-17.422
N2055 X-0.656 Y-17.337
N2060 X-0.563 Y-16.832
N2065 X0.605 Y-10.481 F#105
N2070 X0.708 Y-9.924 F#103
N2075 G3 X0.09 Y-9.35 I-0.492 J0.09
N2080 X-1.71 Y-11.076 I0.602 J-2.428 F#100
N2085 X-2.64 Y-16.053 I7.584 J-3.993
N2090 X-1.686 Y-17.445 I2.982 J1.022
N2095 G1 X-1.613 Y-17.489 F#104
N2100 X-1.535 Y-17.52
N2105 X-1.452 Y-17.537
N2110 X-1.367 Y-17.541
N2115 X-1.283 Y-17.53
N2120 X-1.203 Y-17.505
N2125 X-1.127 Y-17.467
N2130 X-1.059 Y-17.417
N2135 X-1.001 Y-17.356
N2140 X-0.953 Y-17.286
N2145 X-0.918 Y-17.21
N2150 X-0.896 Y-17.128
N2155 X-0.797 Y-16.578
N2160 X0.29 Y-10.585 F#105
N2165 X0.396 Y-9.999 F#103
N2170 G3 X-0.196 Y-9.42 I-0.492 J0.089
N2175 X-2.054 Y-11.055 I0.47 J-2.408 F#100
N2180 X-3.001 Y-15.864 I6.367 J-3.752
N2185 X-1.904 Y-17.286 I2.98 J1.165
N2190 G1 X-1.824 Y-17.326 F#104
N2195 X-1.739 Y-17.351
N2200 X-1.65 Y-17.361
N2205 X-1.562 Y-17.355
N2210 X-1.475 Y-17.334
N2215 X-1.394 Y-17.297
N2220 X-1.321 Y-17.247
N2225 X-1.258 Y-17.185
N2230 X-1.206 Y-17.113
N2235 X-1.168 Y-17.033
N2240 X-1.145 Y-16.948
N2245 X-1.039 Y-16.361
N2250 X-0.011 Y-10.7 F#105
N2255 X0.106 Y-10.056 F#103
N2260 G3 X-0.427 Y-9.468 I-0.492 J0.089
N2265 X-2.324 Y-10.903 I0.239 J-2.287 F#100
N2270 X-3.404 Y-15.393 I5.59 J-3.72
N2275 X-1.9 Y-17.279 I2.92 J0.786
N2280 G1 X-1.827 Y-17.317 F#104
N2285 X-1.748 Y-17.342
N2290 X-1.667 Y-17.354
N2295 X-1.585 Y-17.353
N2300 X-1.504 Y-17.337
N2305 X-1.426 Y-17.309
N2310 X-1.354 Y-17.268
N2315 X-1.29 Y-17.216
N2320 X-1.236 Y-17.154
N2325 X-1.192 Y-17.084
N2330 X-1.16 Y-17.007
N2335 X-1.142 Y-16.926
N2340 X-1.064 Y-16.357
N2345 X-0.292 Y-10.741 F#105
N2350 X-0.2 Y-10.071 F#103
N2355 G3 X-0.737 Y-9.505 I-0.495 J0.068
N2360 X-2.633 Y-10.829 I0.132 J-2.208 F#100
N2365 X-3.716 Y-15.412 I4.838 J-3.564
N2370 X-2.429 Y-16.952 I2.82 J1.048
N2375 G1 X-2.35 Y-16.983 F#104
N2380 X-2.267 Y-17.001
N2385 X-2.183 Y-17.005
N2390 X-2.099 Y-16.995
N2395 X-2.018 Y-16.97
N2400 X-1.942 Y-16.933
N2405 X-1.874 Y-16.883
N2410 X-1.815 Y-16.822
N2415 X-1.767 Y-16.753
N2420 X-1.731 Y-16.676
N2425 X-1.709 Y-16.595
N2430 X-1.59 Y-15.962
N2435 X-0.617 Y-10.818 F#105
N2440 X-0.482 Y-10.103 F#103
N2445 G3 X-0.938 Y-9.511 I-0.491 J0.093
N2450 X-2.92 Y-10.721 I-0.049 J-2.149 F#100
N2455 X-4.046 Y-15.3 I4.341 J-3.495
N2460 X-2.62 Y-16.856 I2.772 J1.108
N2465 G1 X-2.542 Y-16.882 F#104
N2470 X-2.461 Y-16.894
N2475 X-2.379
N2480 X-2.298 Y-16.88
N2485 X-2.221 Y-16.853
N2490 X-2.149 Y-16.814
N2495 X-2.085 Y-16.764
N2500 X-2.029 Y-16.704
N2505 X-1.984 Y-16.636
N2510 X-1.951 Y-16.562
N2515 X-1.93 Y-16.483
N2520 X-1.807 Y-15.819
N2525 X-0.877 Y-10.808 F#105
N2530 X-0.744 Y-10.091 F#103
N2535 G3 X-1.2 Y-9.501 I-0.492 J0.091
N2540 X-3.227 Y-10.64 I-0.142 J-2.121 F#100
N2545 X-4.333 Y-15.324 I3.929 J-3.4
N2550 X-2.786 Y-16.784 I2.333 J0.921
N2555 G1 X-2.701 Y-16.806 F#104
N2560 X-2.614 Y-16.812
N2565 X-2.528 Y-16.804
N2570 X-2.444 Y-16.781
N2575 X-2.365 Y-16.743
N2580 X-2.294 Y-16.693
N2585 X-2.233 Y-16.631
N2590 X-2.184 Y-16.56
N2595 X-2.148 Y-16.481
N2600 X-2.125 Y-16.397
N2605 X-2.002 Y-15.705
N2610 X-1.137 Y-10.832 F#105
N2615 X-1.001 Y-10.062 F#103
N2620 G3 X-1.409 Y-9.482 I-0.492 J0.087
N2625 X-3.511 Y-10.526 I-0.279 J-2.076 F#100
N2630 X-4.706 Y-15.109 I3.755 J-3.426
N2635 X-2.989 Y-16.722 I2.594 J1.04
N2640 G1 X-2.907 Y-16.737 F#104
N2645 X-2.823 Y-16.738
N2650 X-2.741 Y-16.725
N2655 X-2.661 Y-16.698
N2660 X-2.588 Y-16.659
N2665 X-2.522 Y-16.608
N2670 X-2.465 Y-16.547
N2675 X-2.419 Y-16.477
N2680 X-2.386 Y-16.401
N2685 X-2.365 Y-16.321
N2690 X-2.239 Y-15.592
N2695 X-1.414 Y-10.807 F#105
N2700 X-1.279 Y-10.021 F#103
N2705 G3 X-1.675 Y-9.445 I-0.493 J0.085
N2710 X-3.82 Y-10.443 I-0.347 J-2.06 F#100
N2715 X-4.954 Y-15.259 I3.511 J-3.368
N2720 X-2.986 Y-16.708 I2.361 J1.144
N2725 G1 X-2.904 Y-16.724 F#104
N2730 X-2.821 Y-16.726
N2735 X-2.738 Y-16.714
N2740 X-2.658 Y-16.687
N2745 X-2.584 Y-16.648
N2750 X-2.517 Y-16.596
N2755 X-2.46 Y-16.533
N2760 X-2.414 Y-16.462
N2765 X-2.381 Y-16.384
N2770 X-2.362 Y-16.301
N2775 X-2.268 Y-15.588
N2780 X-1.636 Y-10.795 F#105
N2785 X-1.524 Y-9.952 F#103
N2790 G3 X-1.891 Y-9.404 I-0.496 J0.065
N2795 X-4.097 Y-10.319 I-0.455 J-2.019 F#100
N2800 X-5.302 Y-15.149 I3.417 J-3.417
N2805 X-3.22 Y-16.648 I2.464 J1.227
N2810 G1 X-3.131 Y-16.655 F#104
N2815 X-3.042 Y-16.646
N2820 X-2.957 Y-16.621
N2825 X-2.877 Y-16.582
N2830 X-2.805 Y-16.529
N2835 X-2.744 Y-16.464
N2840 X-2.695 Y-16.389
N2845 X-2.66 Y-16.307
N2850 X-2.641 Y-16.22
N2855 X-2.539 Y-15.459
N2860 X-1.906 Y-10.735 F#105
N2865 X-1.793 Y-9.891 F#103
N2870 G3 X-2.157 Y-9.342 I-0.496 J0.066
N2875 X-4.258 Y-10.077 I-0.528 J-1.863 F#100
N2880 X-5.654 Y-14.997 I3.209 J-3.568
N2885 X-3.444 Y-16.594 I2.411 J1.008
N2890 G1 X-3.357 Y-16.602 F#104
N2895 X-3.269 Y-16.593
N2900 X-3.185 Y-16.57
N2905 X-3.105 Y-16.531
N2910 X-3.034 Y-16.48
N2915 X-2.973 Y-16.416
N2920 X-2.924 Y-16.342
N2925 X-2.888 Y-16.26
N2930 X-2.868 Y-16.174
N2935 X-2.767 Y-15.411
N2940 X-2.15 Y-10.732 F#105
N2945 X-2.028 Y-9.809 F#103
N2950 G3 X-2.319 Y-9.287 I-0.496 J0.065
N2955 X-4.479 Y-9.904 I-0.662 J-1.773 F#100
N2960 X-5.855 Y-15.292 I3.055 J-3.65
N2965 X-3.648 Y-16.559 I2.365 J1.563
N2970 G1 X-3.563 Y-16.561 F#104
N2975 X-3.479 Y-16.548
N2980 X-3.398 Y-16.521
N2985 X-3.323 Y-16.48
N2990 X-3.256 Y-16.428
N2995 X-3.199 Y-16.364
N3000 X-3.154 Y-16.292
N3005 X-3.121 Y-16.214
N3010 X-3.102 Y-16.13
N3015 X-2.995 Y-15.335
N3020 X-2.364 Y-10.645 F#105
N3025 X-2.24 Y-9.724 F#103
N3030 G3 X-2.53 Y-9.201 I-0.496 J0.067
N3035 X-4.678 Y-9.711 I-0.728 J-1.713 F#100
N3040 X-6.306 Y-14.92 I2.967 J-3.786
N3045 X-4.096 Y-16.512 I2.399 J1.001
N3050 G1 X-4.007 Y-16.506 F#104
N3055 X-3.92 Y-16.484
N3060 X-3.838 Y-16.448
N3065 X-3.765 Y-16.397
N3070 X-3.701 Y-16.334
N3075 X-3.65 Y-16.261
N3080 X-3.612 Y-16.181
N3085 X-3.59 Y-16.094
N3090 X-3.444 Y-15.249
N3095 X-2.637 Y-10.578 F#105
N3100 X-2.474 Y-9.637 F#103
N3105 G3 X-2.723 Y-9.115 I-0.493 J0.085
N3110 X-4.868 Y-9.515 I-0.807 J-1.623 F#100
N3115 X-6.553 Y-15.097 I2.823 J-3.898
N3120 X-4.285 Y-16.505 I2.32 J1.206
N3125 G1 X-4.2 Y-16.495 F#104
N3130 X-4.117 Y-16.47
N3135 X-4.04 Y-16.431
N3140 X-3.971 Y-16.38
N3145 X-3.912 Y-16.318
N3150 X-3.864 Y-16.247
N3155 X-3.829 Y-16.169
N3160 X-3.808 Y-16.087
N3165 X-3.657 Y-15.213
N3170 X-2.84 Y-10.486 F#105
N3175 X-2.674 Y-9.527 F#103
N3180 G3 X-2.907 Y-9.015 I-0.493 J0.085
N3185 X-5.07 Y-9.327 I-0.875 J-1.585 F#100
N3190 X-6.892 Y-15.05 I2.746 J-4.026
N3195 X-4.285 Y-16.497 I2.373 J1.203
N3200 G1 X-4.199 Y-16.488 F#104
N3205 X-4.115 Y-16.463
N3210 X-4.038 Y-16.424
N3215 X-3.968 Y-16.372
N3220 X-3.908 Y-16.308
N3225 X-3.86 Y-16.235
N3230 X-3.825 Y-16.155
N3235 X-3.805 Y-16.07
N3240 X-3.686 Y-15.208
N3245 X-3.021 Y-10.39 F#105
N3250 X-2.883 Y-9.389 F#103
N3255 G3 X-3.101 Y-8.904 I-0.495 J0.068
N3260 X-5.27 Y-9.138 I-0.931 J-1.537 F#100
N3265 X-7.187 Y-15.114 I2.664 J-4.15
N3270 X-4.574 Y-16.496 I2.35 J1.281
N3275 G1 X-4.488 Y-16.486 F#104
N3280 X-4.405 Y-16.462
N3285 X-4.328 Y-16.423
N3290 X-4.258 Y-16.372
N3295 X-4.198 Y-16.309
N3300 X-4.15 Y-16.237
N3305 X-4.115 Y-16.158
N3310 X-4.095 Y-16.073
N3315 X-3.967 Y-15.208
N3320 X-3.24 Y-10.274 F#105
N3325 X-3.09 Y-9.261 F#103
N3330 G3 X-3.293 Y-8.782 I-0.495 J0.073
N3335 X-5.482 Y-8.953 I-0.982 J-1.52 F#100
N3340 X-7.512 Y-15.111 I2.61 J-4.275
N3345 X-4.895 Y-16.495 I2.347 J1.273
N3350 G1 X-4.81 Y-16.485 F#104
N3355 X-4.729 Y-16.461
N3360 X-4.652 Y-16.424
N3365 X-4.583 Y-16.373
N3370 X-4.523 Y-16.312
N3375 X-4.475 Y-16.241
N3380 X-4.44 Y-16.163
N3385 X-4.418 Y-16.08
N3390 X-4.278 Y-15.208
N3395 X-3.464 Y-10.143 F#105
N3400 X-3.301 Y-9.127 F#103
N3405 G3 X-3.493 Y-8.649 I-0.494 J0.079
N3410 X-5.753 Y-8.802 I-1.031 J-1.538 F#100
N3415 X-8.102 Y-14.292 I2.633 J-4.374
N3420 X-5.218 Y-16.493 I2.61 J0.43
N3425 G1 X-5.134 Y-16.484 F#104
N3430 X-5.053 Y-16.461
N3435 X-4.978 Y-16.424
N3440 X-4.909 Y-16.375
N3445 X-4.849 Y-16.315
N3450 X-4.801 Y-16.246
N3455 X-4.765 Y-16.169
N3460 X-4.742 Y-16.088
N3465 X-4.587 Y-15.211
N3470 X-3.666 Y-10.014 F#105
N3475 X-3.486 Y-9.002 F#103
N3480 G3 X-3.672 Y-8.52 I-0.492 J0.087
N3485 X-5.991 Y-8.624 I-1.093 J-1.539 F#100
N3490 X-8.059 Y-10.965 I1.949 J-3.806
N3495 G2 X-13.035 Y-10.39 I-2.357 J1.422
N3500 G3 X-14.779 Y-8.405 I-4.428 J-2.131
N3505 G1 X-14.849 Y-8.357 F#104
N3510 X-14.927 Y-8.322
N3515 X-15.01 Y-8.301
N3520 X-15.095 Y-8.295
N3525 X-15.18 Y-8.303
N3530 X-15.263 Y-8.326
N3535 X-15.34 Y-8.363
N3540 X-15.41 Y-8.413
N3545 X-15.47 Y-8.474
N3550 X-15.519 Y-8.545
N3555 X-15.555 Y-8.623
N3560 X-15.577 Y-8.706
N3565 X-15.584 Y-8.792
N3570 X-15.576 Y-8.878
N3575 X-15.554 Y-8.962
N3580 X-15.517 Y-9.04
N3585 X-15.468 Y-9.111
N3590 X-15.407 Y-9.172
N3595 X-15.398 Y-9.179
N3600 X-15.33 Y-9.233 Z-9.782
N3605 X-15.265 Y-9.286 Z-9.76
N3610 X-15.203 Y-9.335 Z-9.723
N3615 X-15.147 Y-9.38 Z-9.673
N3620 X-15.099 Y-9.418 Z-9.611
N3625 X-15.06 Y-9.449 Z-9.54
N3630 X-15.031 Y-9.472 Z-9.461
N3635 X-15.014 Y-9.486 Z-9.377
N3640 X-15.008 Y-9.491 Z-9.29
N3645 G0 Z3.2
N3650 X-2.727 Y-10.063
N3655 Z-8.79
N3660 G1 Z-9.29 F#103
N3665 X-2.73 Y-10.056 Z-9.377
N3670 X-2.739 Y-10.036 Z-9.461
N3675 X-2.754 Y-10.002 Z-9.54
N3680 X-2.774 Y-9.956 Z-9.611
N3685 X-2.798 Y-9.899 Z-9.673
N3690 X-2.827 Y-9.834 Z-9.723
N3695 X-2.858 Y-9.761 Z-9.76
N3700 X-2.892 Y-9.684 Z-9.782
N3705 X-2.926 Y-9.605 Z-9.79
N3710 G3 X-3.889 Y-8.363 I-2.904 J-1.258
N3715 X-6.201 Y-8.423 I-1.116 J-1.561 F#100
N3720 X-8.013 Y-9.938 I2.245 J-4.527
N3725 G2 X-12.143 Y-9.584 I-1.783 J3.471
N3730 G1 X-12.413 Y-9.517
N3735 X-12.671 Y-9.45
N3740 G3 X-12.849 Y-10.434 I-0.084 J-0.493 F#104
N3745 G1 X-12.838 Y-10.436
N3750 X-12.753 Y-10.45 Z-9.782
N3755 X-12.67 Y-10.464 Z-9.76
N3760 X-12.592 Y-10.478 Z-9.723
N3765 X-12.522 Y-10.49 Z-9.673
N3770 X-12.461 Y-10.5 Z-9.611
N3775 X-12.412 Y-10.508 Z-9.54
N3780 X-12.375 Y-10.515 Z-9.461
N3785 X-12.353 Y-10.518 Z-9.377
N3790 X-12.345 Y-10.52 Z-9.29
N3795 G0 Z3.2
N3800 X-2.885 Y-9.799
N3805 Z-8.79
N3810 G1 Z-9.29 F#103
N3815 X-2.888 Y-9.792 Z-9.377
N3820 X-2.899 Y-9.772 Z-9.461
N3825 X-2.915 Y-9.74 Z-9.54
N3830 X-2.938 Y-9.695 Z-9.611
N3835 X-2.966 Y-9.64 Z-9.673
N3840 X-2.999 Y-9.577 Z-9.723
N3845 X-3.035 Y-9.506 Z-9.76
N3850 X-3.073 Y-9.431 Z-9.782
N3855 X-3.113 Y-9.354 Z-9.79
N3860 G3 X-4.154 Y-8.178 I-2.816 J-1.444
N3865 X-6.755 Y-8.42 I-1.136 J-1.884 F#100
N3870 G2 X-9.58 Y-9.394 I-3.029 J4.203
N3875 X-10.773 Y-9.302 I-0.204 J5.176 F#106
N3880 G1 X-11.04 Y-9.388 F#100
N3885 G3 X-10.804 Y-10.36 I0.121 J-0.485 F#104
N3890 G1 X-10.798 Y-10.359
N3895 X-4.998 Y-8.988 F#105
N3900 X-4.654 Y-8.907 F#103
N3905 G3 X-4.541 Y-7.975 I-0.115 J0.487
N3910 X-6.471 Y-7.938 I-1. J-1.787 F#100
N3915 G1 X-6.863 Y-8.086
N3920 X-7.259 Y-8.223
N3925 X-7.66 Y-8.347
N3930 X-8.063 Y-8.46
N3935 X-8.47 Y-8.56
N3940 X-8.88 Y-8.649
N3945 X-9.292 Y-8.725
N3950 X-9.706 Y-8.788
N3955 X-10.018 Y-8.973
N3960 G3 X-9.638 Y-9.885 I0.26 J-0.427 F#104
N3965 G1 X-9.49 Y-9.849
N3970 X-5.361 Y-8.823 F#105
N3975 X-5.041 Y-8.744 F#103
N3980 G3 X-4.959 Y-7.801 I-0.12 J0.485
N3985 X-6.996 Y-7.772 I-1.056 J-2.581 F#100
N3990 X-9.22 Y-8.421 I0.336 J-5.292
N3995 G1 X-9.284 Y-8.48 F#104
N4000 X-9.336 Y-8.549
N4005 X-9.376 Y-8.626
N4010 X-9.403 Y-8.708
N4015 X-9.415 Y-8.794
N4020 X-9.413 Y-8.88
N4025 X-9.397 Y-8.964
N4030 X-9.366 Y-9.045
N4035 X-9.323 Y-9.118
N4040 X-9.268 Y-9.184
N4045 X-9.203 Y-9.239
N4050 X-9.13 Y-9.282
N4055 X-9.05 Y-9.312
N4060 X-8.967 Y-9.329
N4065 X-8.883 Y-9.331
N4070 X-8.799 Y-9.319
N4075 X-8.581 Y-9.272
N4080 X-5.75 Y-8.66 F#105
N4085 X-5.505 Y-8.607 F#103
N4090 G3 X-5.468 Y-7.639 I-0.106 J0.489
N4095 X-9.755 Y-8.856 I-1.015 J-4.585 F#100
N4100 G2 X-13.393 Y-9.262 I-2.24 J3.564
N4105 G1 X-13.776 Y-9.295 F#104
N4110 X-14.558 Y-10.183
N4115 X-16.35 Y-12.215 F#105
N4120 G3 X-16.914 Y-13.19 I1.826 J-1.708
N4125 G1 X-17.227 Y-14.498
N4130 X-17.408 Y-26.768
N4135 G3 X-12.561 Y-27.841 I2.488 J-0.246
N4140 X-12.525 Y-26.296 I-2.359 J0.827 F#103
N4145 G2 X-13.426 Y-16.631 I52.124 J9.732 F#100
N4150 X-9.022 Y-15.006 I2.678 J-0.476
N4155 G3 X-6.623 Y-16.498 I3.971 J3.71
N4160 G1 X-6.227 Y-16.5
N4165 X-5.52
N4170 X-5.183 Y-16.353 F#104
N4175 X-5.038 Y-16.
N4180 X-5.088 Y-15.782
N4185 X-5.386 Y-15.264
N4190 X-6.643 Y-13.072 F#105
N4195 G3 X-7.927 Y-11.952 I-2.187 J-1.211
N4200 G1 X-8.926 Y-11.61
N4205 X-10.352 Y-11.415
N4210 X-12.634 Y-11.827
N4215 X-14.061 Y-12.599
N4220 X-15.089 Y-13.499
N4225 X-16.001 Y-14.783
N4230 X-16.454 Y-15.925
N4235 X-17.719 Y-24.913
N4240 G3 X-13.207 Y-26.67 I2.482 J-0.298
N4245 X-12.74 Y-25.341 I-2.03 J1.459 F#103
N4250 G1 X-12.737 Y-25.198
N4255 G3 X-12.837 Y-19.037 I-396.12 J-3.387 F#100
N4260 G2 X-10.732 Y-16.711 I2.888 J-0.498
N4265 X-9.543 Y-16.633 I0.782 J-2.824 F#106
N4270 G1 X-9.423 Y-16.576 F#100
N4275 G3 X-9.038 Y-16.089 I-0.115 J0.487 F#104
N4280 G1 X-9.211 Y-15.711
N4285 X-9.681 Y-15.588
N4290 X-12.349 Y-14.893 F#105
N4295 G3 X-13.918 Y-15.411 I-0.339 J-1.609
N4300 G1 X-14.774 Y-16.419
N4305 X-15.372 Y-17.637
N4310 X-16.021 Y-22.202
N4315 G3 X-13.492 Y-23.805 I1.628 J-0.228
N4320 X-12.761 Y-22.63 I-0.901 J1.375 F#103
N4325 G1 X-12.75 Y-22.487
N4330 G2 X-12.579 Y-19.347 I10.471 J1.005 F#100
N4335 X-8.356 Y-16.513 I3.874 J-1.209
N4340 G1 X-6.227 Y-16.5
N4345 G3 X-5.834 Y-15.716 I-0.017 J0.5 F#104
N4350 G1 X-5.882 Y-15.669 Z-9.785
N4355 X-5.93 Y-15.623 Z-9.771
N4360 X-5.976 Y-15.579 Z-9.749
N4365 X-6.045 Y-15.552 Z-9.708
N4370 X-6.108 Y-15.528 Z-9.656
N4375 X-6.16 Y-15.507 Z-9.593
N4380 X-6.196 Y-15.504 Z-9.539
N4385 X-6.224 Y-15.502 Z-9.482
N4390 X-6.245 Y-15.5 Z-9.421
N4395 X-6.251 Z-9.393
N4400 X-6.259 Y-15.501 Z-9.342
N4405 X-6.262 Z-9.29
N4410 G0 Z3.2
N4415 X3.871 Y-4.058
N4420 Z-16.
N4425 G1 Z-16.5 F#103
N4430 X3.867 Y-4.064 Z-16.587
N4435 X3.853 Y-4.082 Z-16.671
N4440 X3.831 Y-4.111 Z-16.75
N4445 X3.801 Y-4.151 Z-16.821
N4450 X3.764 Y-4.201 Z-16.883
N4455 X3.721 Y-4.258 Z-16.933
N4460 X3.674 Y-4.321 Z-16.97
N4465 X3.623 Y-4.388 Z-16.992
N4470 X3.571 Y-4.458 Z-17.
N4475 G3 X2.97 Y-5.909 I2.532 J-1.899
N4480 X2.517 Y-12.616 I22.934 J-4.918 F#100
N4485 G1 X2.472 Y-13.247
N4490 X2.471 Y-14.503
N4495 X2.47 Y-17.642
N4500 Y-26.433
N4505 G2 X-0.563 Y-29.929 I-3.633 J0.088
N4510 X-4.911 Y-30.423 I-3.629 J12.555
N4515 X-13.074 Y-30.445 I-4.578 J186.854
N4520 X-16.093 Y-26.818 I1.105 J3.99
N4525 X-16.435 Y-21.191 I23.097 J4.228
N4530 X-16.47 Y-15.538 I111.139 J3.51
N4535 G1 Y0.787
N4540 G2 X-13.097 Y4.025 I3.834 J-0.618
N4545 X-8.734 Y4.431 I3.58 J-14.832
N4550 X-1.198 Y4.464 I4.823 J-238.464
N4555 X0.805 Y3.512 I-0.498 J-3.63
N4560 X1.533 Y2.565 I-2.501 J-2.677 F#106
N4565 G1 X1.773 Y2.419 F#100
N4570 X1.804 Y2.394
N4575 X1.809 Y2.391 F#104
N4580 G2 X3.196 Y1.681 I-1.59 J-4.812
N4585 X4.928 Y-0.546 I-2.977 J-4.102 F#105
N4590 X4.96 Y-0.677 I-0.465 J-0.185
N4595 G1 X5.223 Y-3.116
N4600 G2 X5.219 Y-3.252 I-0.497 J-0.054
N4605 X3.997 Y-5.8 I-4.999 J0.831
N4610 X2.797 Y-6.785 I-3.777 J3.379 F#103
N4615 G1 X2.789 Y-6.794
N4620 G3 X2.052 Y-10.964 I7.823 J-3.532 F#100
N4625 X1.97 Y-18.501 I143.07 J-5.327
N4630 G1 Y-24.78
N4635 G2 X-1.534 Y-29.343 I-4.364 J-0.276
N4640 X-5.873 Y-29.908 I-3.831 J12.472
N4645 X-12.146 Y-29.905 I-3.097 J71.883
N4650 X-15.542 Y-25.753 I1.57 J4.748
N4655 X-15.933 Y-20.13 I22.809 J4.412
N4660 X-15.969 Y-15.733 I110.283 J3.118
N4665 G1 X-15.97 Y-8.826
N4670 G3 X-16. Y-5.367 I-39.408 J1.388
N4675 G1 Y-0.231
N4680 G2 X-13.916 Y2.883 I3.098 J0.181
N4685 X-8.416 Y3.886 I4.737 J-10.391
N4690 G1 X-7.37 Y3.929
N4695 X-6.324 Y3.957
N4700 X-5.277 Y3.972
N4705 X-4.23 Y3.973
N4710 X-3.183 Y3.961
N4715 X-2.137 Y3.935
N4720 G2 X-0.111 Y3.112 I-1.571 J-6.77
N4725 G1 X0.187 Y3.022
N4730 X0.489 Y2.954
N4735 G3 X0.945 Y3.764 I0.068 J0.495 F#104
N4740 G1 X0.733 Y4.075
N4745 X-0.805 Y6.332 F#105
N4750 G3 X-2.792 Y7.424 I-2.067 J-1.406
N4755 G1 X-15.63 Y7.52
N4760 G3 X-16.04 Y2.549 I-0.028 J-2.5
N4765 X-15.262 Y2.552 I0.382 J2.471 F#103
N4770 G2 X-14.484 Y2.605 I0.683 J-4.258
N4775 G1 X-14.475 Y2.607
N4780 G2 X-12.686 Y3.026 I1.703 J-3.238 F#100
N4785 X-2.663 Y3.373 I6.841 J-52.638
N4790 G3 X0.484 Y2.999 I2.408 J6.823
N4795 G1 X0.561 Y2.994 F#104
N4800 X0.638 Y3.003
N4805 X0.713 Y3.024
N4810 X0.784 Y3.058
N4815 X0.849 Y3.104
N4820 X0.905 Y3.161
N4825 X0.952 Y3.226
N4830 X0.987 Y3.299
N4835 X1.009 Y3.377
N4840 X1.018 Y3.459
N4845 X1.013 Y3.541
N4850 X0.994 Y3.622
N4855 X0.962 Y3.699
N4860 X0.917 Y3.77
N4865 X0.628 Y4.045
N4870 X-1.508 Y6.08 F#105
N4875 G3 X-2.935 Y6.738 I-1.708 J-1.825
N4880 G1 X-12.92 Y7.976
N4885 G3 X-14.653 Y3.461 I-0.275 J-2.485
N4890 X-13.205 Y2.991 I1.459 J2.03 F#103
N4895 G1 X-13.181
N4900 X-13.062 Y2.996 F#100
N4905 X-12.777 Y2.999
N4910 X-12.634 Y3.
N4915 X-1.015
N4920 X-0.652 Y3.175 F#104
N4925 X0.096 Y4.072
N4930 X0.489 Y4.543 F#105
N4935 G2 X3.858 Y4.905 I1.868 J-1.529
N4940 G1 X4.965 Y3.764
N4945 X5.728 Y2.48
N4950 X6.11 Y1.196
N4955 X6.226 Y-0.088
N4960 Y-2.799
N4965 G2 X5.44 Y-4.511 I-2.413 J0.071
N4970 G1 X3.708 Y-6.139
N4975 X2.707 Y-7.079 F#103
N4980 X2.6 Y-7.246
N4985 G3 X1.615 Y-11.089 I5.36 J-3.423 F#100
N4990 X1.491 Y-19.252 I93.143 J-5.493
N4995 G1 X1.47 Y-23.648
N5000 G2 X-2.272 Y-28.772 I-4.855 J-0.383
N5005 X-7.857 Y-29.412 I-4.657 J15.953
N5010 X-12.198 Y-29.044 I-1.348 J9.909
N5015 X-15.184 Y-23.803 I3.35 J5.379
N5020 X-15.439 Y-16.906 I42.498 J5.024
N5025 G1 X-15.471 Y-12.329
N5030 X-15.493 Y-7.751
N5035 G2 X-15.998 Y-5.798 I15.166 J4.965
N5040 G1 X-15.996 Y-5.779 F#104
N5045 G2 X-16.701 Y-5.46 I1.417 J4.073
N5050 G1 X-17.225 Y-4.889
N5055 X-17.572 Y-4.511 F#105
N5060 X-18.911 Y-2.356
N5065 G2 X-19.299 Y-1.087 I2.111 J1.34
N5070 G1 X-19.239 Y0.91
N5075 X-18.797 Y2.48
N5080 X-18.055 Y3.77
N5085 X-16.771 Y5.052
N5090 X-15.345 Y5.852
N5095 X-14.061 Y6.216
N5100 X-13.348 Y6.296
N5105 X-1.651 Y6.299
N5110 X1.215 Y6.187
N5115 X2.534 Y5.761
N5120 X3.627 Y5.141
N5125 X4.805 Y4.049
N5130 X5.713 Y2.622
N5135 X6.153 Y1.196
N5140 X6.269 Y-0.516
N5145 Y-3.227
N5150 G2 X5.364 Y-5.082 I-2.499 J0.071
N5155 G1 X3.513 Y-6.669
N5160 X2.37 Y-7.65 F#103
N5165 X2.33 Y-7.701
N5170 G3 X1.203 Y-10.965 I4.01 J-3.211 F#100
N5175 X1.002 Y-18.431 I56.012 J-5.248
N5180 G2 X0.91 Y-24.08 I-105.075 J-1.131
N5185 X-1.093 Y-27.349 I-5.32 J1.013
N5190 X-4.642 Y-28.968 I-3.092 J2.077
N5195 X-9.652 Y-28.957 I-2.386 J53.053
N5200 X-14.349 Y-24.569 I0.532 J5.277
N5205 X-14.914 Y-18.968 I18.07 J4.652
N5210 X-15.011 Y-8.596 I977.263 J14.323
N5215 G1 X-15.093 Y-8.25
N5220 X-15.221 Y-7.918
N5225 X-15.392 Y-7.606
N5230 X-15.773 Y-7.39 F#104
N5235 X-16.127 Y-7.507
N5240 X-16.444 Y-8.199
N5245 X-18.029 Y-11.645 F#105
N5250 G3 X-18.268 Y-12.786 I2.26 J-1.07
N5255 G1 X-18.202 Y-21.061
N5260 X-17.888 Y-24.109
N5265 X-17.179 Y-26.625
N5270 X-16.486 Y-28.065
N5275 X-12.272 Y-32.902
N5280 G3 X-8.085 Y-30.293 I1.879 J1.649
N5285 X-8.489 Y-29.634 I-2.308 J-0.961 F#103
N5290 G2 X-8.935 Y-28.999 I3.221 J2.741
N5295 G1 X-8.949 Y-28.989
N5300 G2 X-12.718 Y-26.496 I0.483 J4.825 F#100
N5305 X-14.282 Y-21.152 I8.101 J5.273
N5310 X-14.462 Y-9.533 I150.103 J8.129
N5315 G3 X-15.404 Y-7.616 I-3.672 J-0.615
N5320 G1 X-15.454 Y-7.553 F#104
N5325 X-15.515 Y-7.498
N5330 X-15.584 Y-7.454
N5335 X-15.659 Y-7.423
N5340 X-15.739 Y-7.404
N5345 X-15.821 Y-7.399
N5350 X-15.903 Y-7.407
N5355 X-15.982 Y-7.429
N5360 X-16.057 Y-7.465
N5365 X-16.125 Y-7.512
N5370 X-16.185 Y-7.57
N5375 X-16.234 Y-7.638
N5380 X-16.271 Y-7.712
N5385 X-16.295 Y-7.793
N5390 X-16.394 Y-8.179
N5395 X-17.759 Y-13.499 F#105
N5400 X-17.709 Y-18.635
N5405 X-15.781 Y-30.049
N5410 G3 X-10.924 Y-30.334 I2.462 J0.433
N5415 G1 X-10.886 Y-30.192
N5420 G3 X-10.838 Y-29.307 I-2.433 J0.576
N5425 X-11.492 Y-27.909 I-2.481 J-0.309 F#103
N5430 G1 X-11.493 Y-27.908
N5435 G2 X-13.271 Y-23.908 I6. J5.062 F#100
N5440 X-13.911 Y-17.052 I24.308 J5.726
N5445 G3 X-14.013 Y-9.956 I-544.9 J-4.279
N5450 X-15.07 Y-8.094 I-3.074 J-0.512
N5455 G1 X-15.131 Y-8.032 F#104
N5460 X-15.202 Y-7.983
N5465 X-15.281 Y-7.947
N5470 X-15.366 Y-7.925
N5475 X-15.453 Y-7.919
N5480 X-15.541 Y-7.928
N5485 X-15.625 Y-7.953
N5490 X-15.704 Y-7.993
N5495 X-15.775 Y-8.046
N5500 X-15.835 Y-8.111
N5505 X-15.883 Y-8.186
N5510 X-15.917 Y-8.269
N5515 X-15.927 Y-8.34 Z-16.995
N5520 X-15.937 Y-8.409 Z-16.979
N5525 X-15.923 Y-8.48 Z-16.952
N5530 X-15.91 Y-8.545 Z-16.913
N5535 X-15.898 Y-8.603 Z-16.865
N5540 X-15.871 Y-8.647 Z-16.809
N5545 X-15.849 Y-8.683 Z-16.746
N5550 X-15.832 Y-8.711 Z-16.676
N5555 X-15.821 Y-8.729 Z-16.603
N5560 X-15.816 Y-8.735 Z-16.552
N5565 X-15.814 Y-8.737 Z-16.5
N5570 G0 Z3.2
N5575 X3.733 Y-7.049
N5580 Z-16.
N5585 G1 Z-16.5 F#103
N5590 X3.726 Y-7.051 Z-16.587
N5595 X3.705 Y-7.06 Z-16.671
N5600 X3.671 Y-7.073 Z-16.75
N5605 X3.624 Y-7.092 Z-16.821
N5610 X3.567 Y-7.114 Z-16.883
N5615 X3.501 Y-7.141 Z-16.933
N5620 X3.427 Y-7.17 Z-16.97
N5625 X3.349 Y-7.201 Z-16.992
N5630 X3.268 Y-7.233 Z-17.
N5635 G3 X1.998 Y-8.157 I1.168 J-2.942
N5640 X0.842 Y-10.79 I2.761 J-2.782 F#100
N5645 X0.51 Y-17.801 I34.922 J-5.164
N5650 G2 X0.393 Y-23.449 I-121.129 J-0.3
N5655 G3 X-0.454 Y-26.194 I19.296 J-7.453
N5660 G2 X-1.069 Y-27.381 I-3.039 J0.823
N5665 G1 Y-27.393 F#104
N5670 G2 X-1.325 Y-28.42 I-4.199 J0.5
N5675 G1 X-1.361 Y-28.499 Z-16.992
N5680 X-1.396 Y-28.575 Z-16.97
N5685 X-1.429 Y-28.647 Z-16.933
N5690 X-1.458 Y-28.712 Z-16.883
N5695 X-1.484 Y-28.768 Z-16.821
N5700 X-1.505 Y-28.814 Z-16.75
N5705 X-1.52 Y-28.847 Z-16.671
N5710 X-1.529 Y-28.868 Z-16.587
N5715 X-1.532 Y-28.875 Z-16.5
N5720 G0 Z3.2
N5725 X3.677 Y-7.651
N5730 Z-16.
N5735 G1 Z-16.5 F#103
N5740 X3.669 Y-7.653 Z-16.587
N5745 X3.647 Y-7.657 Z-16.671
N5750 X3.611 Y-7.664 Z-16.75
N5755 X3.562 Y-7.673 Z-16.821
N5760 X3.501 Y-7.684 Z-16.883
N5765 X3.431 Y-7.697 Z-16.933
N5770 X3.353 Y-7.712 Z-16.97
N5775 X3.27 Y-7.727 Z-16.992
N5780 X3.185 Y-7.743 Z-17.
N5785 G3 X1.761 Y-8.406 I0.583 J-3.111
N5790 X0.442 Y-10.98 I2.183 J-2.744 F#100
N5795 X0.021 Y-16.489 I21.253 J-4.393
N5800 G2 X-0.149 Y-22.955 I-116.176 J-0.182
N5805 G3 X-0.232 Y-25.193 I5.889 J-1.339
N5810 G1 X-0.27 Y-25.341
N5815 X-0.295 Y-25.483
N5820 G3 X0.547 Y-25.912 I0.495 J-0.069 F#104
N5825 G1 X0.76 Y-25.655
N5830 X2.675 Y-23.343 F#105
N5835 G3 X3.235 Y-22.202 I-1.89 J1.636
N5840 G1 X5.291 Y-11.217
N5845 G3 X2.96 Y-8.245 I-2.454 J0.475
N5850 X1.487 Y-8.637 I-0.124 J-2.497 F#103
N5855 G1 X1.469 Y-8.649
N5860 G3 X0.036 Y-11.148 I1.912 J-2.756 F#100
N5865 X-0.465 Y-16.392 I17.779 J-4.345
N5870 X-0.21 Y-20.624 I13.471 J-1.312
N5875 G1 X-0.25 Y-23.506
N5880 G3 X0.73 Y-23.629 I0.5 J0.017 F#104
N5885 G1 X0.783 Y-23.478
N5890 X4.9 Y-11.787 F#105
N5895 G3 X2.67 Y-8.449 I-2.354 J0.842
N5900 X1.179 Y-8.853 I-0.124 J-2.497 F#103
N5905 X-0.303 Y-11.043 I1.563 J-2.654 F#100
N5910 X-0.921 Y-18.118 I19.372 J-5.256
N5915 G2 X-0.424 Y-19.347 I-57.826 J-24.129
N5920 G1 X-0.393 Y-19.424 F#104
N5925 X-0.349 Y-19.495
N5930 X-0.294 Y-19.558
N5935 X-0.23 Y-19.611
N5940 X-0.157 Y-19.652
N5945 X-0.078 Y-19.681
N5950 X0.004 Y-19.696
N5955 X0.088
N5960 X0.171 Y-19.683
N5965 X0.25 Y-19.656
N5970 X0.324 Y-19.616
N5975 X0.39 Y-19.564
N5980 X0.446 Y-19.502
N5985 X0.492 Y-19.431
N5990 X0.524 Y-19.353
N5995 X0.544 Y-19.271
N6000 X0.574 Y-19.053
N6005 X2.102 Y-8.249 F#105
N6010 G2 X2.498 Y-8.305 I0.198 J-0.028
N6015 X2.352 Y-8.47 I-0.198 J0.028
N6020 G3 X0.887 Y-9.039 I1.892 J-7.042 F#103
N6025 X-0.694 Y-11.183 I1.263 J-2.587 F#100
N6030 X-1.355 Y-17.581 I14.12 J-4.693
N6035 G1 X-1.157 Y-17.94
N6040 X-0.949 Y-18.277
N6045 G3 X-0.065 Y-18.068 I0.394 J0.308 F#104
N6050 G1 X0.021 Y-17.645
N6055 X1.85 Y-8.573 F#105
N6060 G2 X2.634 Y-8.731 I0.392 J-0.079
N6065 X2.175 Y-9.046 I-0.392 J0.079
N6070 G1 X2.159 Y-9.043
N6075 G3 X0.61 Y-9.178 I-0.509 J-3.124 F#103
N6080 X-0.961 Y-10.952 I0.878 J-2.359 F#100
N6085 X-1.849 Y-16.644 I11.329 J-4.683
N6090 X-0.942 Y-18.27 I3.753 J1.028
N6095 G1 X-0.886 Y-18.331 F#104
N6100 X-0.822 Y-18.382
N6105 X-0.749 Y-18.421
N6110 X-0.671 Y-18.448
N6115 X-0.59 Y-18.461
N6120 X-0.507
N6125 X-0.425 Y-18.447
N6130 X-0.347 Y-18.419
N6135 X-0.274 Y-18.378
N6140 X-0.209 Y-18.326
N6145 X-0.154 Y-18.264
N6150 X-0.109 Y-18.193
N6155 X-0.078 Y-18.116
N6160 X-0.059 Y-18.034
N6165 X-0.007 Y-17.641
N6170 X0.948 Y-10.378 F#105
N6175 X1.023 Y-9.801 F#103
N6180 G3 X0.391 Y-9.255 I-0.496 J0.065
N6185 X-1.378 Y-11.125 I0.753 J-2.484 F#100
N6190 X-2.257 Y-16.317 I9.23 J-4.233
N6195 X-1.481 Y-17.622 I2.985 J0.891
N6200 G1 X-1.41 Y-17.675 F#104
N6205 X-1.331 Y-17.714
N6210 X-1.246 Y-17.739
N6215 X-1.158 Y-17.748
N6220 X-1.07 Y-17.742
N6225 X-0.985 Y-17.721
N6230 X-0.904 Y-17.684
N6235 X-0.831 Y-17.635
N6240 X-0.768 Y-17.573
N6245 X-0.717 Y-17.501
N6250 X-0.679 Y-17.422
N6255 X-0.656 Y-17.337
N6260 X-0.563 Y-16.832
N6265 X0.605 Y-10.481 F#105
N6270 X0.708 Y-9.924 F#103
N6275 G3 X0.09 Y-9.35 I-0.492 J0.09
N6280 X-1.71 Y-11.076 I0.602 J-2.428 F#100
N6285 X-2.64 Y-16.053 I7.584 J-3.993
N6290 X-1.686 Y-17.445 I2.982 J1.022
N6295 G1 X-1.613 Y-17.489 F#104
N6300 X-1.535 Y-17.52
N6305 X-1.452 Y-17.537
N6310 X-1.367 Y-17.541
N6315 X-1.283 Y-17.53
N6320 X-1.203 Y-17.505
N6325 X-1.127 Y-17.467
N6330 X-1.059 Y-17.417
N6335 X-1.001 Y-17.356
N6340 X-0.953 Y-17.286
N6345 X-0.918 Y-17.21
N6350 X-0.896 Y-17.128
N6355 X-0.797 Y-16.578
N6360 X0.29 Y-10.585 F#105
N6365 X0.396 Y-9.999 F#103
N6370 G3 X-0.196 Y-9.42 I-0.492 J0.089
N6375 X-2.054 Y-11.055 I0.47 J-2.408 F#100
N6380 X-3.001 Y-15.864 I6.367 J-3.752
N6385 X-1.904 Y-17.286 I2.98 J1.165
N6390 G1 X-1.824 Y-17.326 F#104
N6395 X-1.739 Y-17.351
N6400 X-1.65 Y-17.361
N6405 X-1.562 Y-17.355
N6410 X-1.475 Y-17.334
N6415 X-1.394 Y-17.297
N6420 X-1.321 Y-17.247
N6425 X-1.258 Y-17.185
N6430 X-1.206 Y-17.113
N6435 X-1.168 Y-17.033
N6440 X-1.145 Y-16.948
N6445 X-1.039 Y-16.361
N6450 X-0.011 Y-10.7 F#105
N6455 X0.106 Y-10.056 F#103
N6460 G3 X-0.427 Y-9.468 I-0.492 J0.089
N6465 X-2.324 Y-10.903 I0.239 J-2.287 F#100
N6470 X-3.404 Y-15.393 I5.59 J-3.72
N6475 X-1.9 Y-17.279 I2.92 J0.786
N6480 G1 X-1.827 Y-17.317 F#104
N6485 X-1.748 Y-17.342
N6490 X-1.667 Y-17.354
N6495 X-1.585 Y-17.353
N6500 X-1.504 Y-17.337
N6505 X-1.426 Y-17.309
N6510 X-1.354 Y-17.268
N6515 X-1.29 Y-17.216
N6520 X-1.236 Y-17.154
N6525 X-1.192 Y-17.084
N6530 X-1.16 Y-17.007
N6535 X-1.142 Y-16.926
N6540 X-1.064 Y-16.357
N6545 X-0.292 Y-10.741 F#105
N6550 X-0.2 Y-10.071 F#103
N6555 G3 X-0.737 Y-9.505 I-0.495 J0.068
N6560 X-2.633 Y-10.829 I0.132 J-2.208 F#100
N6565 X-3.716 Y-15.412 I4.838 J-3.564
N6570 X-2.429 Y-16.952 I2.82 J1.048
N6575 G1 X-2.35 Y-16.983 F#104
N6580 X-2.267 Y-17.001
N6585 X-2.183 Y-17.005
N6590 X-2.099 Y-16.995
N6595 X-2.018 Y-16.97
N6600 X-1.942 Y-16.933
N6605 X-1.874 Y-16.883
N6610 X-1.815 Y-16.822
N6615 X-1.767 Y-16.753
N6620 X-1.731 Y-16.676
N6625 X-1.709 Y-16.595
N6630 X-1.59 Y-15.962
N6635 X-0.617 Y-10.818 F#105
N6640 X-0.482 Y-10.103 F#103
N6645 G3 X-0.938 Y-9.511 I-0.491 J0.093
N6650 X-2.92 Y-10.721 I-0.049 J-2.149 F#100
N6655 X-4.046 Y-15.3 I4.341 J-3.495
N6660 X-2.62 Y-16.856 I2.772 J1.108
N6665 G1 X-2.542 Y-16.882 F#104
N6670 X-2.461 Y-16.894
N6675 X-2.379
N6680 X-2.298 Y-16.88
N6685 X-2.221 Y-16.853
N6690 X-2.149 Y-16.814
N6695 X-2.085 Y-16.764
N6700 X-2.029 Y-16.704
N6705 X-1.984 Y-16.636
N6710 X-1.951 Y-16.562
N6715 X-1.93 Y-16.483
N6720 X-1.807 Y-15.819
N6725 X-0.877 Y-10.808 F#105
N6730 X-0.744 Y-10.091 F#103
N6735 G3 X-1.2 Y-9.501 I-0.492 J0.091
N6740 X-3.227 Y-10.64 I-0.142 J-2.121 F#100
N6745 X-4.333 Y-15.324 I3.929 J-3.4
N6750 X-2.786 Y-16.784 I2.333 J0.921
N6755 G1 X-2.701 Y-16.806 F#104
N6760 X-2.614 Y-16.812
N6765 X-2.528 Y-16.804
N6770 X-2.444 Y-16.781
N6775 X-2.365 Y-16.743
N6780 X-2.294 Y-16.693
N6785 X-2.233 Y-16.631
N6790 X-2.184 Y-16.56
N6795 X-2.148 Y-16.481
N6800 X-2.125 Y-16.397
N6805 X-2.002 Y-15.705
N6810 X-1.137 Y-10.832 F#105
N6815 X-1.001 Y-10.062 F#103
N6820 G3 X-1.409 Y-9.482 I-0.492 J0.087
N6825 X-3.511 Y-10.526 I-0.279 J-2.076 F#100
N6830 X-4.706 Y-15.109 I3.755 J-3.426
N6835 X-2.989 Y-16.722 I2.594 J1.04
N6840 G1 X-2.907 Y-16.737 F#104
N6845 X-2.823 Y-16.738
N6850 X-2.741 Y-16.725
N6855 X-2.661 Y-16.698
N6860 X-2.588 Y-16.659
N6865 X-2.522 Y-16.608
N6870 X-2.465 Y-16.547
N6875 X-2.419 Y-16.477
N6880 X-2.386 Y-16.401
N6885 X-2.365 Y-16.321
N6890 X-2.239 Y-15.592
N6895 X-1.414 Y-10.807 F#105
N6900 X-1.279 Y-10.021 F#103
N6905 G3 X-1.675 Y-9.445 I-0.493 J0.085
N6910 X-3.82 Y-10.443 I-0.347 J-2.06 F#100
N6915 X-4.954 Y-15.259 I3.511 J-3.368
N6920 X-2.986 Y-16.708 I2.361 J1.144
N6925 G1 X-2.904 Y-16.724 F#104
N6930 X-2.821 Y-16.726
N6935 X-2.738 Y-16.714
N6940 X-2.658 Y-16.687
N6945 X-2.584 Y-16.648
N6950 X-2.517 Y-16.596
N6955 X-2.46 Y-16.533
N6960 X-2.414 Y-16.462
N6965 X-2.381 Y-16.384
N6970 X-2.362 Y-16.301
N6975 X-2.268 Y-15.588
N6980 X-1.636 Y-10.795 F#105
N6985 X-1.524 Y-9.952 F#103
N6990 G3 X-1.891 Y-9.404 I-0.496 J0.065
N6995 X-4.097 Y-10.319 I-0.455 J-2.019 F#100
N7000 X-5.302 Y-15.149 I3.417 J-3.417
N7005 X-3.22 Y-16.648 I2.464 J1.227
N7010 G1 X-3.131 Y-16.655 F#104
N7015 X-3.042 Y-16.646
N7020 X-2.957 Y-16.621
N7025 X-2.877 Y-16.582
N7030 X-2.805 Y-16.529
N7035 X-2.744 Y-16.464
N7040 X-2.695 Y-16.389
N7045 X-2.66 Y-16.307
N7050 X-2.641 Y-16.22
N7055 X-2.539 Y-15.459
N7060 X-1.906 Y-10.735 F#105
N7065 X-1.793 Y-9.891 F#103
N7070 G3 X-2.157 Y-9.342 I-0.496 J0.066
N7075 X-4.258 Y-10.077 I-0.528 J-1.863 F#100
N7080 X-5.654 Y-14.997 I3.209 J-3.568
N7085 X-3.444 Y-16.594 I2.411 J1.008
N7090 G1 X-3.357 Y-16.602 F#104
N7095 X-3.269 Y-16.593
N7100 X-3.185 Y-16.57
N7105 X-3.105 Y-16.531
N7110 X-3.034 Y-16.48
N7115 X-2.973 Y-16.416
N7120 X-2.924 Y-16.342
N7125 X-2.888 Y-16.26
N7130 X-2.868 Y-16.174
N7135 X-2.767 Y-15.411
N7140 X-2.15 Y-10.732 F#105
N7145 X-2.028 Y-9.809 F#103
N7150 G3 X-2.319 Y-9.287 I-0.496 J0.065
N7155 X-4.479 Y-9.904 I-0.662 J-1.773 F#100
N7160 X-5.855 Y-15.292 I3.055 J-3.65
N7165 X-3.648 Y-16.559 I2.365 J1.563
N7170 G1 X-3.563 Y-16.561 F#104
N7175 X-3.479 Y-16.548
N7180 X-3.398 Y-16.521
N7185 X-3.323 Y-16.48
N7190 X-3.256 Y-16.428
N7195 X-3.199 Y-16.364
N7200 X-3.154 Y-16.292
N7205 X-3.121 Y-16.214
N7210 X-3.102 Y-16.13
N7215 X-2.995 Y-15.335
N7220 X-2.364 Y-10.645 F#105
N7225 X-2.24 Y-9.724 F#103
N7230 G3 X-2.53 Y-9.201 I-0.496 J0.067
N7235 X-4.678 Y-9.711 I-0.728 J-1.713 F#100
N7240 X-6.306 Y-14.92 I2.967 J-3.786
N7245 X-4.096 Y-16.512 I2.399 J1.001
N7250 G1 X-4.007 Y-16.506 F#104
N7255 X-3.92 Y-16.484
N7260 X-3.838 Y-16.448
N7265 X-3.765 Y-16.397
N7270 X-3.701 Y-16.334
N7275 X-3.65 Y-16.261
N7280 X-3.612 Y-16.181
N7285 X-3.59 Y-16.094
N7290 X-3.444 Y-15.249
N7295 X-2.637 Y-10.578 F#105
N7300 X-2.474 Y-9.637 F#103
N7305 G3 X-2.723 Y-9.115 I-0.493 J0.085
N7310 X-4.868 Y-9.515 I-0.807 J-1.623 F#100
N7315 X-6.553 Y-15.097 I2.823 J-3.898
N7320 X-4.285 Y-16.505 I2.32 J1.206
N7325 G1 X-4.2 Y-16.495 F#104
N7330 X-4.117 Y-16.47
N7335 X-4.04 Y-16.431
N7340 X-3.971 Y-16.38
N7345 X-3.912 Y-16.318
N7350 X-3.864 Y-16.247
N7355 X-3.829 Y-16.169
N7360 X-3.808 Y-16.087
N7365 X-3.657 Y-15.213
N7370 X-2.84 Y-10.486 F#105
N7375 X-2.674 Y-9.527 F#103
N7380 G3 X-2.907 Y-9.015 I-0.493 J0.085
N7385 X-5.07 Y-9.327 I-0.875 J-1.585 F#100
N7390 X-6.892 Y-15.05 I2.746 J-4.026
N7395 X-4.285 Y-16.497 I2.373 J1.203
N7400 G1 X-4.199 Y-16.488 F#104
N7405 X-4.115 Y-16.463
N7410 X-4.038 Y-16.424
N7415 X-3.968 Y-16.372
N7420 X-3.908 Y-16.308
N7425 X-3.86 Y-16.235
N7430 X-3.825 Y-16.155
N7435 X-3.805 Y-16.07
N7440 X-3.686 Y-15.208
N7445 X-3.021 Y-10.39 F#105
N7450 X-2.883 Y-9.389 F#103
N7455 G3 X-3.101 Y-8.904 I-0.495 J0.068
N7460 X-5.27 Y-9.138 I-0.931 J-1.537 F#100
N7465 X-7.187 Y-15.114 I2.664 J-4.15
N7470 X-4.574 Y-16.496 I2.35 J1.281
N7475 G1 X-4.488 Y-16.486 F#104
N7480 X-4.405 Y-16.462
N7485 X-4.328 Y-16.423
N7490 X-4.258 Y-16.372
N7495 X-4.198 Y-16.309
N7500 X-4.15 Y-16.237
N7505 X-4.115 Y-16.158
N7510 X-4.095 Y-16.073
N7515 X-3.967 Y-15.208
N7520 X-3.24 Y-10.274 F#105
N7525 X-3.09 Y-9.261 F#103
N7530 G3 X-3.293 Y-8.782 I-0.495 J0.073
N7535 X-5.482 Y-8.953 I-0.982 J-1.52 F#100
N7540 X-7.512 Y-15.111 I2.61 J-4.275
N7545 X-4.895 Y-16.495 I2.347 J1.273
N7550 G1 X-4.81 Y-16.485 F#104
N7555 X-4.729 Y-16.461
N7560 X-4.652 Y-16.424
N7565 X-4.583 Y-16.373
N7570 X-4.523 Y-16.312
N7575 X-4.475 Y-16.241
N7580 X-4.44 Y-16.163
N7585 X-4.418 Y-16.08
N7590 X-4.278 Y-15.208
N7595 X-3.464 Y-10.143 F#105
N7600 X-3.301 Y-9.127 F#103
N7605 G3 X-3.493 Y-8.649 I-0.494 J0.079
N7610 X-5.753 Y-8.802 I-1.031 J-1.538 F#100
N7615 X-8.102 Y-14.292 I2.633 J-4.374
N7620 X-5.218 Y-16.493 I2.61 J0.43
N7625 G1 X-5.134 Y-16.484 F#104
N7630 X-5.053 Y-16.461
N7635 X-4.978 Y-16.424
N7640 X-4.909 Y-16.375
N7645 X-4.849 Y-16.315
N7650 X-4.801 Y-16.246
N7655 X-4.765 Y-16.169
N7660 X-4.742 Y-16.088
N7665 X-4.587 Y-15.211
N7670 X-3.666 Y-10.014 F#105
N7675 X-3.486 Y-9.002 F#103
N7680 G3 X-3.672 Y-8.52 I-0.492 J0.087
N7685 X-5.991 Y-8.624 I-1.093 J-1.539 F#100
N7690 X-8.059 Y-10.965 I1.949 J-3.806
N7695 G2 X-13.035 Y-10.39 I-2.357 J1.422
N7700 G3 X-14.779 Y-8.405 I-4.428 J-2.131
N7705 G1 X-14.849 Y-8.357 F#104
N7710 X-14.927 Y-8.322
N7715 X-15.01 Y-8.301
N7720 X-15.095 Y-8.295
N7725 X-15.18 Y-8.303
N7730 X-15.263 Y-8.326
N7735 X-15.34 Y-8.363
N7740 X-15.41 Y-8.413
N7745 X-15.47 Y-8.474
N7750 X-15.519 Y-8.545
N7755 X-15.555 Y-8.623
N7760 X-15.577 Y-8.706
N7765 X-15.584 Y-8.792
N7770 X-15.576 Y-8.878
N7775 X-15.554 Y-8.962
N7780 X-15.517 Y-9.04
N7785 X-15.468 Y-9.111
N7790 X-15.407 Y-9.172
N7795 X-15.398 Y-9.179
N7800 X-15.33 Y-9.233 Z-16.992
N7805 X-15.265 Y-9.286 Z-16.97
N7810 X-15.203 Y-9.335 Z-16.933
N7815 X-15.147 Y-9.38 Z-16.883
N7820 X-15.099 Y-9.418 Z-16.821
N7825 X-15.06 Y-9.449 Z-16.75
N7830 X-15.031 Y-9.472 Z-16.671
N7835 X-15.014 Y-9.486 Z-16.587
N7840 X-15.008 Y-9.491 Z-16.5
N7845 G0 Z3.2
N7850 X-2.727 Y-10.063
N7855 Z-16.
N7860 G1 Z-16.5 F#103
N7865 X-2.73 Y-10.056 Z-16.587
N7870 X-2.739 Y-10.036 Z-16.671
N7875 X-2.754 Y-10.002 Z-16.75
N7880 X-2.774 Y-9.956 Z-16.821
N7885 X-2.798 Y-9.899 Z-16.883
N7890 X-2.827 Y-9.834 Z-16.933
N7895 X-2.858 Y-9.761 Z-16.97
N7900 X-2.892 Y-9.684 Z-16.992
N7905 X-2.926 Y-9.605 Z-17.
N7910 G3 X-3.889 Y-8.363 I-2.904 J-1.258
N7915 X-6.201 Y-8.423 I-1.116 J-1.561 F#100
N7920 X-8.013 Y-9.938 I2.245 J-4.527
N7925 G2 X-12.143 Y-9.584 I-1.783 J3.471
N7930 G1 X-12.413 Y-9.517
N7935 X-12.671 Y-9.45
N7940 G3 X-12.849 Y-10.434 I-0.084 J-0.493 F#104
N7945 G1 X-12.838 Y-10.436
N7950 X-12.753 Y-10.45 Z-16.992
N7955 X-12.67 Y-10.464 Z-16.97
N7960 X-12.592 Y-10.478 Z-16.933
N7965 X-12.522 Y-10.49 Z-16.883
N7970 X-12.461 Y-10.5 Z-16.821
N7975 X-12.412 Y-10.508 Z-16.75
N7980 X-12.375 Y-10.515 Z-16.671
N7985 X-12.353 Y-10.518 Z-16.587
N7990 X-12.345 Y-10.52 Z-16.5
N7995 G0 Z-9.59
N8000 X-2.885 Y-9.799
N8005 Z-16.
N8010 G1 Z-16.5 F#103
N8015 X-2.888 Y-9.792 Z-16.587
N8020 X-2.899 Y-9.772 Z-16.671
N8025 X-2.915 Y-9.74 Z-16.75
N8030 X-2.938 Y-9.695 Z-16.821
N8035 X-2.966 Y-9.64 Z-16.883
N8040 X-2.999 Y-9.577 Z-16.933
N8045 X-3.035 Y-9.506 Z-16.97
N8050 X-3.073 Y-9.431 Z-16.992
N8055 X-3.113 Y-9.354 Z-17.
N8060 G3 X-4.154 Y-8.178 I-2.816 J-1.444
N8065 X-6.755 Y-8.42 I-1.136 J-1.884 F#100
N8070 G2 X-9.58 Y-9.394 I-3.029 J4.203
N8075 X-10.773 Y-9.302 I-0.204 J5.176 F#106
N8080 G1 X-11.04 Y-9.388 F#100
N8085 G3 X-10.804 Y-10.36 I0.121 J-0.485 F#104
N8090 G1 X-10.798 Y-10.359
N8095 X-4.998 Y-8.988 F#105
N8100 X-4.654 Y-8.907 F#103
N8105 G3 X-4.541 Y-7.975 I-0.115 J0.487
N8110 X-6.471 Y-7.938 I-1. J-1.787 F#100
N8115 G1 X-6.863 Y-8.086
N8120 X-7.259 Y-8.223
N8125 X-7.66 Y-8.347
N8130 X-8.063 Y-8.46
N8135 X-8.47 Y-8.56
N8140 X-8.88 Y-8.649
N8145 X-9.292 Y-8.725
N8150 X-9.706 Y-8.788
N8155 X-10.018 Y-8.973
N8160 G3 X-9.638 Y-9.885 I0.26 J-0.427 F#104
N8165 G1 X-9.49 Y-9.849
N8170 X-5.361 Y-8.823 F#105
N8175 X-5.041 Y-8.744 F#103
N8180 G3 X-4.959 Y-7.801 I-0.12 J0.485
N8185 X-6.996 Y-7.772 I-1.056 J-2.581 F#100
N8190 X-9.22 Y-8.421 I0.336 J-5.292
N8195 G1 X-9.284 Y-8.48 F#104
N8200 X-9.336 Y-8.549
N8205 X-9.376 Y-8.626
N8210 X-9.403 Y-8.708
N8215 X-9.415 Y-8.794
N8220 X-9.413 Y-8.88
N8225 X-9.397 Y-8.964
N8230 X-9.366 Y-9.045
N8235 X-9.323 Y-9.118
N8240 X-9.268 Y-9.184
N8245 X-9.203 Y-9.239
N8250 X-9.13 Y-9.282
N8255 X-9.05 Y-9.312
N8260 X-8.967 Y-9.329
N8265 X-8.883 Y-9.331
N8270 X-8.799 Y-9.319
N8275 X-8.581 Y-9.272
N8280 X-5.75 Y-8.66 F#105
N8285 X-5.505 Y-8.607 F#103
N8290 G3 X-5.468 Y-7.639 I-0.106 J0.489
N8295 X-9.755 Y-8.856 I-1.015 J-4.585 F#100
N8300 G2 X-13.393 Y-9.262 I-2.24 J3.564
N8305 G1 X-13.776 Y-9.295 F#104
N8310 X-14.558 Y-10.183
N8315 X-16.35 Y-12.215 F#105
N8320 G3 X-16.914 Y-13.19 I1.826 J-1.708
N8325 G1 X-17.227 Y-14.498
N8330 X-17.408 Y-26.768
N8335 G3 X-12.561 Y-27.841 I2.488 J-0.246
N8340 X-12.525 Y-26.296 I-2.359 J0.827 F#103
N8345 G2 X-13.426 Y-16.631 I52.124 J9.732 F#100
N8350 X-9.022 Y-15.006 I2.678 J-0.476
N8355 G3 X-6.623 Y-16.498 I3.971 J3.71
N8360 G1 X-6.227 Y-16.5
N8365 X-5.52
N8370 X-5.183 Y-16.353 F#104
N8375 X-5.038 Y-16.
N8380 X-5.088 Y-15.782
N8385 X-5.386 Y-15.264
N8390 X-6.643 Y-13.072 F#105
N8395 G3 X-7.927 Y-11.952 I-2.187 J-1.211
N8400 G1 X-8.926 Y-11.61
N8405 X-10.352 Y-11.415
N8410 X-12.634 Y-11.827
N8415 X-14.061 Y-12.599
N8420 X-15.089 Y-13.499
N8425 X-16.001 Y-14.783
N8430 X-16.454 Y-15.925
N8435 X-17.719 Y-24.913
N8440 G3 X-13.207 Y-26.67 I2.482 J-0.298
N8445 X-12.74 Y-25.341 I-2.03 J1.459 F#103
N8450 G1 X-12.737 Y-25.198
N8455 G3 X-12.837 Y-19.037 I-396.12 J-3.387 F#100
N8460 G2 X-10.732 Y-16.711 I2.888 J-0.498
N8465 X-9.543 Y-16.633 I0.782 J-2.824 F#106
N8470 G1 X-9.423 Y-16.576 F#100
N8475 G3 X-9.038 Y-16.089 I-0.115 J0.487 F#104
N8480 G1 X-9.211 Y-15.711
N8485 X-9.681 Y-15.588
N8490 X-12.349 Y-14.893 F#105
N8495 G3 X-13.918 Y-15.411 I-0.339 J-1.609
N8500 G1 X-14.774 Y-16.419
N8505 X-15.372 Y-17.637
N8510 X-16.021 Y-22.202
N8515 G3 X-13.492 Y-23.805 I1.628 J-0.228
N8520 X-12.761 Y-22.63 I-0.901 J1.375 F#103
N8525 G1 X-12.75 Y-22.487
N8530 G2 X-12.579 Y-19.347 I10.471 J1.005 F#100
N8535 X-8.356 Y-16.513 I3.874 J-1.209
N8540 G1 X-6.227 Y-16.5
N8545 G3 X-6.251 Y-15.5 I-0.017 J0.5 F#104
N8550 G1 X-6.262 Y-15.501
N8555 X-6.349 Y-15.504 Z-16.992
N8560 X-6.433 Y-15.507 Z-16.97
N8565 X-6.512 Y-15.509 Z-16.933
N8570 X-6.583 Y-15.512 Z-16.883
N8575 X-6.645 Y-15.514 Z-16.821
N8580 X-6.695 Y-15.516 Z-16.75
N8585 X-6.732 Y-15.517 Z-16.671
N8590 X-6.754 Y-15.518 Z-16.587
N8595 X-6.762 Z-16.5
N8600 G0 Z6.2
(2D CONTOUR5)
N8610 M8
N8615 G0 Z11.2
N8620 X-14.55 Y-25.6
N8625 #102=330. (FINISH)
N8630 #103=200. (ENTRY)
N8635 #104=200. (EXIT)
N8640 #108=100. (PLUNGE)
N8645 G1 Z-9.2 F#108
N8650 G18 G2 X-13.95 Z-9.8 I0.6 K0.
N8655 G1 X-13.35 F#103
N8660 G17 G3 X-12.75 Y-25. I0. J0.6
N8665 G1 Y-20.5 F#102
N8670 G2 X-8.75 Y-16.5 I4. J0.
N8675 G1 X-4.25
N8680 G2 X-0.25 Y-20.5 I0. J-4.
N8685 G1 Y-25.
N8690 G2 X-4.25 Y-29. I-4. J0.
N8695 G1 X-8.75
N8700 G2 X-12.75 Y-25. I0. J4.
N8705 G3 X-13.35 Y-24.4 I-0.6 J0. F#104
N8710 G1 X-13.95
N8715 G18 G3 X-14.55 Z-9.2 I0. K0.6
N8720 G1 Y-25.6
N8725 Z-16.4 F#108
N8730 G2 X-13.95 Z-17. I0.6 K0.
N8735 G1 X-13.35 F#103
N8740 G17 G3 X-12.75 Y-25. I0. J0.6
N8745 G1 Y-20.5 F#102
N8750 G2 X-8.75 Y-16.5 I4. J0.
N8755 G1 X-4.25
N8760 G2 X-0.25 Y-20.5 I0. J-4.
N8765 G1 Y-25.
N8770 G2 X-4.25 Y-29. I-4. J0.
N8775 G1 X-8.75
N8780 G2 X-12.75 Y-25. I0. J4.
N8785 G3 X-13.35 Y-24.4 I-0.6 J0. F#104
N8790 G1 X-13.95
N8795 G18 G3 X-14.55 Z-16.4 I0. K0.6
N8800 G0 Z11.2
N8805 X4.8 Y-4.919
N8810 G1 Z-9.2 F#108
N8815 G3 X4.2 Z-9.8 I-0.6 K0.
N8820 G1 X3.6 F#103
N8825 G17 G3 X3. Y-5.519 I0. J-0.6
N8830 G2 X-3.588 Y-8.569 I-4. J0. F#102
N8835 G3 X-9.412 I-2.912 J-3.431
N8840 G2 X-16. Y-5.519 I-2.588 J3.05
N8845 G3 X-16.6 Y-4.919 I-0.6 J0. F#104
N8850 G1 X-17.2
N8855 G18 G3 X-17.8 Z-9.2 I0. K0.6
N8860 G0 Z2.2
N8865 X4.8
N8870 G1 Z1.2 F#103
N8875 Z-16.4 F#108
N8880 G3 X4.2 Z-17. I-0.6 K0.
N8885 G1 X3.6 F#103
N8890 G17 G3 X3. Y-5.519 I0. J-0.6
N8895 G2 X-3.588 Y-8.569 I-4. J0. F#102
N8900 G3 X-9.412 I-2.912 J-3.431
N8905 G2 X-16. Y-5.519 I-2.588 J3.05
N8910 G3 X-16.6 Y-4.919 I-0.6 J0. F#104
N8915 G1 X-17.2
N8920 G18 G3 X-17.8 Z-16.4 I0. K0.6
N8925 G0 Z4.2
N8930 G17
(BEARING SEAT ROUGHING)
N8935 M8
N8940 G0 Z6.2
N8945 X-8.362 Y-11.995
N8950 #100=330. (CUTTING)
N8955 #103=200. (ENTRY)
N8960 #104=200. (EXIT)
N8965 #106=82.5 (REDUCED)
N8970 #107=270. (RAMPING)
N8975 Z-10.
N8980 G1 Z-13.501 F#103
N8985 S3000
N8990 X-8.367 Y-12.01 Z-13.626 F#107
N8995 X-8.384 Y-12.054 Z-13.743
N9000 X-8.408 Y-12.124 Z-13.845
N9005 X-8.435 Y-12.218 Z-13.925
N9010 X-8.46 Y-12.33 Z-13.978
N9015 X-8.48 Y-12.453 Z-14.
N9020 G3 X-4.722 Y-12.94 Z-14.312 I1.879 J-0.244
N9025 X-8.48 Y-12.453 Z-14.624 I-1.879 J0.244
N9030 X-4.722 Y-12.94 Z-14.936 I1.879 J-0.244
N9035 X-8.48 Y-12.453 Z-15.248 I-1.879 J0.244
N9040 X-4.722 Y-12.94 Z-15.56 I1.879 J-0.244
N9045 X-8.48 Y-12.453 Z-15.872 I-1.879 J0.244
N9050 X-4.722 Y-12.94 Z-16.184 I1.879 J-0.244
N9055 X-8.48 Y-12.453 Z-16.496 I-1.879 J0.244
N9060 X-4.722 Y-12.94 Z-16.808 I1.879 J-0.244
N9065 X-8.48 Y-12.453 Z-17.12 I-1.879 J0.244
N9070 X-4.722 Y-12.94 Z-17.432 I1.879 J-0.244
N9075 X-8.48 Y-12.453 Z-17.744 I-1.879 J0.244
N9080 X-6.845 Y-14.576 Z-17.9 I1.879 J-0.244
N9085 X-6.526 Y-11.978 I0.16 J1.299
N9090 S3200
N9095 G1 X-6.544 Y-11.975 F#106
N9100 X-6.558
N9105 X-6.571 Y-11.978
N9110 X-6.583 Y-11.984
N9115 X-6.6 Y-11.994
N9120 G3 X-6.65 Y-12.064 I0.06 J-0.096
N9125 G1 X-6.654 Y-12.078
N9130 G3 X-6.643 Y-12.177 I0.145 J-0.034
N9135 G1 X-6.632 Y-12.198
N9140 G3 X-6.537 Y-12.295 I0.194 J0.095
N9145 G1 X-6.516 Y-12.306
N9150 G3 X-6.343 Y-12.335 I0.132 J0.256
N9155 G1 X-6.321 Y-12.332 F#100
N9160 G3 X-6.13 Y-12.241 I-0.052 J0.354
N9165 G1 X-6.113 Y-12.226
N9170 G3 X-5.987 Y-12.01 I-0.292 J0.316
N9175 G1 X-5.982 Y-11.989
N9180 G3 X-5.998 Y-11.702 I-0.489 J0.117
N9185 G1 X-6.005 Y-11.681
N9190 G3 X-6.198 Y-11.419 I-0.541 J-0.195
N9195 G1 X-6.215 Y-11.406
N9200 G3 X-6.555 Y-11.276 I-0.391 J-0.515
N9205 G1 X-6.578 Y-11.274
N9210 G3 X-6.97 Y-11.354 I-0.057 J-0.722
N9215 G1 X-6.987 Y-11.363
N9220 G3 X-7.3 Y-11.657 I0.366 J-0.703
N9225 G1 X-7.309 Y-11.672
N9230 G3 X-7.431 Y-12.113 I0.733 J-0.44
N9235 G1 Y-12.134
N9240 G3 X-7.299 Y-12.611 I0.931 J0.001
N9245 G1 X-7.292 Y-12.623
N9250 G3 X-6.906 Y-12.989 I0.843 J0.503
N9255 G1 X-6.88 Y-13.002
N9260 G3 X-6.292 Y-13.123 I0.503 J0.958
N9265 G1 X-6.277 Y-13.122
N9270 G3 X-5.69 Y-12.902 I-0.089 J1.131
N9275 G1 X-5.673 Y-12.889
N9280 G3 X-5.269 Y-12.36 I-0.719 J0.969
N9285 G1 X-5.261 Y-12.341
N9290 G3 X-5.195 Y-11.64 I-1.19 J0.466
N9295 G1 X-5.199 Y-11.62
N9300 G3 X-5.532 Y-10.955 I-1.326 J-0.249
N9305 G1 X-5.545 Y-10.94
N9310 G3 X-6.212 Y-10.533 I-1.045 J-0.961
N9315 G1 X-6.232 Y-10.527
N9320 G3 X-7.052 Y-10.535 I-0.397 J-1.436
N9325 G1 X-7.078 Y-10.543
N9330 G3 X-7.799 Y-10.995 I0.451 J-1.52
N9335 G1 X-7.805 Y-11.001
N9340 G3 X-8.192 Y-11.759 I1.195 J-1.088
N9345 G1 X-8.197 Y-11.783
N9350 G3 X-8.142 Y-12.679 I1.669 J-0.348
N9355 G1 X-8.114 Y-12.763
N9360 G3 X-6.942 Y-13.898 I1.691 J0.575
N9365 X-6.406 Y-13.983 I0.569 J1.858
N9370 G1 X-6.401
N9375 G3 X-5.857 Y-13.916 I0.034 J1.98
N9380 G1 X-5.852 Y-13.915
N9385 G3 X-5.337 Y-13.697 I-0.52 J1.949
N9390 G1 X-5.332 Y-13.695
N9395 G3 X-4.889 Y-13.338 I-1.053 J1.763
N9400 G1 X-4.886 Y-13.334
N9405 G3 X-4.552 Y-12.862 I-1.523 J1.431
N9410 G1 X-4.549 Y-12.857
N9415 G3 X-4.354 Y-12.301 I-1.89 J0.975
N9420 G1 X-4.353 Y-12.296
N9425 G3 X-4.318 Y-11.699 I-2.12 J0.427
N9430 G1 Y-11.694
N9435 G3 X-4.45 Y-11.099 I-2.192 J-0.174
N9440 G1 X-4.452 Y-11.094
N9445 G3 X-4.746 Y-10.55 I-2.095 J-0.781
N9450 G1 X-4.749 Y-10.546
N9455 G3 X-5.188 Y-10.096 I-1.83 J-1.347
N9460 G1 X-5.193 Y-10.093
N9465 G3 X-5.747 Y-9.775 I-1.413 J-1.826
N9470 G1 X-5.752 Y-9.774
N9475 G3 X-6.382 Y-9.618 I-0.872 J-2.177
N9480 G1 X-6.387
N9485 G3 X-7.046 Y-9.641 I-0.245 J-2.369
N9490 G1 X-7.072 Y-9.646
N9495 G3 X-7.668 Y-9.839 I0.393 J-2.231
N9500 G1 X-8. Y-10.
N9505 G3 X-5. Y-14. I1.5 J-2.
N9510 X-8. Y-10. I-1.5 J2.
N9515 X-8.072 Y-10.084 Z-17.887 I0.156 J-0.208
N9520 X-8.103 Y-10.185 Z-17.85 I0.228 J-0.124
N9525 X-8.092 Y-10.287 Z-17.813 I0.259 J-0.023
N9530 X-8.038 Y-10.38 Z-17.8 I0.248 J0.079
N9535 G1 X-8.034 Y-10.385
N9540 G3 X-7.656 Y-10.387 I0.19 J0.177
N9545 G1 X-7.574 Y-10.301
N9550 G2 X-7.255 Y-10.257 I0.188 J-0.179
N9555 X-7.173 Y-10.332 Z-17.813 I-0.132 J-0.224
N9560 X-7.132 Y-10.534 Z-17.887 I-0.213 J-0.149
N9565 X-7.177 Y-10.635 Z-17.9 I-0.254 J0.053
N9570 S3000
N9575 G3 X-4.132 Y-12.891 Z-18.212 I1.523 J-1.128 F#107
N9580 X-7.177 Y-10.635 Z-18.524 I-1.523 J1.128
N9585 X-4.132 Y-12.891 Z-18.836 I1.523 J-1.128
N9590 X-7.177 Y-10.635 Z-19.148 I-1.523 J1.128
N9595 X-4.132 Y-12.891 Z-19.46 I1.523 J-1.128
N9600 X-7.177 Y-10.635 Z-19.772 I-1.523 J1.128
N9605 X-4.132 Y-12.891 Z-20.084 I1.523 J-1.128
N9610 X-7.177 Y-10.635 Z-20.396 I-1.523 J1.128
N9615 X-4.132 Y-12.891 Z-20.708 I1.523 J-1.128
N9620 X-3.838 Y-11.224 Z-20.8 I-1.523 J1.128
N9625 X-5.581 Y-10.292 I-1.338 J-0.405
N9630 X-6.513 Y-12.035 I0.405 J-1.338
N9635 S3200
N9640 G1 X-6.509 Y-12.048 F#106
N9645 X-6.506 Y-12.056
N9650 X-6.501 Y-12.063
N9655 X-6.495 Y-12.069
N9660 X-6.478 Y-12.082
N9665 G3 X-6.409 Y-12.103 I0.064 J0.084
N9670 G1 X-6.393 Y-12.102
N9675 G3 X-6.299 Y-12.062 I-0.007 J0.148
N9680 G1 X-6.285 Y-12.048
N9685 G3 X-6.224 Y-11.931 I-0.139 J0.146
N9690 G1 X-6.221 Y-11.907
N9695 G3 X-6.25 Y-11.742 I-0.268 J0.037
N9700 G1 X-6.262 Y-11.721 F#100
N9705 G3 X-6.409 Y-11.576 I-0.305 J-0.163
N9710 G1 X-6.429 Y-11.566
N9715 G3 X-6.673 Y-11.523 I-0.191 J-0.372
N9720 G1 X-6.701 Y-11.527
N9725 G3 X-6.963 Y-11.64 I0.065 J-0.509
N9730 G1 X-6.973 Y-11.649
N9735 G3 X-7.147 Y-11.9 I0.357 J-0.433
N9740 G1 X-7.155 Y-11.923
N9745 G3 X-7.173 Y-12.273 I0.61 J-0.208
N9750 G1 X-7.169 Y-12.291
N9755 G3 X-6.984 Y-12.631 I0.693 J0.157
N9760 G1 X-6.969 Y-12.647
N9765 G3 X-6.591 Y-12.862 I0.563 J0.551
N9770 G1 X-6.569 Y-12.867
N9775 G3 X-6.087 Y-12.845 I0.204 J0.841
N9780 G1 X-6.068 Y-12.839
N9785 G3 X-5.643 Y-12.542 I-0.3 J0.884
N9790 G1 X-5.629 Y-12.525
N9795 G3 X-5.412 Y-12.01 I-0.783 J0.634
N9800 G1 X-5.41 Y-11.989
N9805 G3 X-5.507 Y-11.398 I-1.074 J0.127
N9810 G1 X-5.516 Y-11.379
N9815 G3 X-5.938 Y-10.9 I-1.044 J-0.495
N9820 G1 X-5.956 Y-10.889
N9825 G3 X-6.607 Y-10.696 I-0.661 J-1.037
N9830 G1 X-6.631
N9835 G3 X-7.32 Y-10.885 I-0.011 J-1.312
N9840 G1 X-7.337 Y-10.895
N9845 G3 X-7.843 Y-11.43 I0.714 J-1.182
N9850 G1 X-7.851 Y-11.446
N9855 G3 X-8.017 Y-12.19 I1.276 J-0.676
N9860 G1 X-8.016 Y-12.212
N9865 G3 X-7.767 Y-12.976 I1.522 J0.073
N9870 G1 X-7.76 Y-12.987
N9875 G3 X-7.123 Y-13.543 I1.314 J0.863
N9880 G1 X-7.094 Y-13.557
N9885 G3 X-6.18 Y-13.71 I0.724 J1.519
N9890 G1 X-6.095 Y-13.7
N9895 G3 X-4.738 Y-12.774 I-0.198 J1.746
N9900 X-4.557 Y-12.273 I-1.697 J0.896
N9905 G1 X-4.556 Y-12.268
N9910 G3 X-4.519 Y-11.727 I-1.915 J0.403
N9915 G1 Y-11.721
N9920 G3 X-4.634 Y-11.181 I-1.99 J-0.141
N9925 G1 X-4.636 Y-11.176
N9930 G3 X-4.9 Y-10.678 I-1.911 J-0.695
N9935 G1 X-4.903 Y-10.674
N9940 G3 X-5.301 Y-10.26 I-1.678 J-1.215
N9945 G1 X-5.305 Y-10.257
N9950 G3 X-5.81 Y-9.963 I-1.303 J-1.658
N9955 G1 X-5.815 Y-9.961
N9960 G3 X-6.391 Y-9.814 I-0.813 J-1.987
N9965 G1 X-6.397 Y-9.813
N9970 G3 X-7.001 Y-9.83 I-0.241 J-2.172
N9975 G1 X-7.007 Y-9.831
N9980 G3 X-7.594 Y-10.017 I0.37 J-2.191
N9985 G1 X-7.602 Y-10.021
N9990 G3 X-8.517 Y-10.814 I0.983 J-2.058
N9995 G1 X-8.52 Y-10.819
N10000 G3 X-8.793 Y-11.375 I1.943 J-1.296
N10005 X-8.912 Y-11.998 I2.248 J-0.755
N10010 G1 X-8.916 Y-12.138
N10015 G3 X-8.864 Y-12.639 I2.408 J0.
N10020 X-8.645 Y-13.254 I2.392 J0.504
N10025 X-8.267 Y-13.798 I2.209 J1.131
N10030 G1 X-8.255 Y-13.812
N10035 G3 X-7.764 Y-14.22 I1.739 J1.591
N10040 G1 X-7.432 Y-14.427
N10045 G3 X-5.568 Y-9.573 I0.932 J2.427
N10050 X-7.432 Y-14.427 I-0.932 J-2.427
N10055 G2 X-7.38 Y-14.499 I-0.029 J-0.075
N10060 G3 X-7.327 Y-14.57 I0.078 J0.003
N10065 X-5.673 Y-9.43 I0.827 J2.57
N10070 X-7.327 Y-14.57 I-0.827 J-2.57
N10075 X-7.2 Y-14.594 Z-20.783 I0.153 J0.476 F#104
N10080 X-7.08 Y-14.585 Z-20.733 I0.026 J0.499
N10085 X-6.981 Y-14.556 Z-20.654 I-0.094 J0.491
N10090 X-6.91 Y-14.519 Z-20.55 I-0.193 J0.461
N10095 X-6.869 Y-14.491 Z-20.429 I-0.263 J0.425
N10100 G1 X-6.856 Y-14.48 Z-20.3
N10105 G0 Z6.2
(BEARING SEAT ROUGHING 2)
N10115 M8
N10120 G0 X-7.197 Y-10.253
N10125 #100=330. (CUTTING)
N10130 #103=200. (ENTRY)
N10135 #104=200. (EXIT)
N10140 #106=82.5 (REDUCED)
N10145 #107=270. (RAMPING)
N10150 Z6.2
N10155 Z-14.
N10160 G1 Z-17.501 F#103
N10165 S3000
N10170 X-7.211 Y-10.261 Z-17.626 F#107
N10175 X-7.251 Y-10.286 Z-17.743
N10180 X-7.313 Y-10.327 Z-17.845
N10185 X-7.391 Y-10.385 Z-17.925
N10190 X-7.48 Y-10.458 Z-17.978
N10195 X-7.571 Y-10.543 Z-18.
N10200 G3 X-4.893 Y-13.224 Z-18.312 I1.339 J-1.341
N10205 X-7.571 Y-10.543 Z-18.624 I-1.339 J1.341
N10210 X-4.893 Y-13.224 Z-18.936 I1.339 J-1.341
N10215 X-7.571 Y-10.543 Z-19.248 I-1.339 J1.341
N10220 X-4.893 Y-13.224 Z-19.56 I1.339 J-1.341
N10225 X-7.571 Y-10.543 Z-19.872 I-1.339 J1.341
N10230 X-4.893 Y-13.224 Z-20.184 I1.339 J-1.341
N10235 X-7.571 Y-10.543 Z-20.496 I-1.339 J1.341
N10240 X-4.893 Y-13.224 Z-20.808 I1.339 J-1.341
N10245 X-7.571 Y-10.543 Z-21.12 I-1.339 J1.341
N10250 X-4.893 Y-13.224 Z-21.432 I1.339 J-1.341
N10255 X-7.571 Y-10.543 Z-21.744 I-1.339 J1.341
N10260 X-4.893 Y-13.224 Z-22.056 I1.339 J-1.341
N10265 X-7.571 Y-10.543 Z-22.368 I-1.339 J1.341
N10270 X-4.893 Y-13.224 Z-22.68 I1.339 J-1.341
N10275 X-4.503 Y-11.107 Z-22.8 I-1.339 J1.341
N10280 X-6.511 Y-12.031 I-1.004 J-0.462
N10285 S3200
N10290 G1 X-6.505 Y-12.043 F#106
N10295 X-6.499 Y-12.052
N10300 X-6.49 Y-12.059
N10305 X-6.472 Y-12.068
N10310 G3 X-6.406 Y-12.073 I0.039 J0.079
N10315 G1 X-6.391 Y-12.068
N10320 G3 X-6.317 Y-12.005 I-0.038 J0.12
N10325 G1 X-6.308 Y-11.987
N10330 G3 X-6.295 Y-11.862 I-0.156 J0.08
N10335 G1 X-6.301 Y-11.839
N10340 G3 X-6.396 Y-11.706 I-0.229 J-0.063
N10345 G1 X-6.415 Y-11.692 F#100
N10350 G3 X-6.611 Y-11.64 I-0.171 J-0.249
N10355 G1 X-6.637 Y-11.642
N10360 G3 X-6.858 Y-11.738 I0.031 J-0.374
N10365 G1 X-6.872 Y-11.751
N10370 G3 X-7.005 Y-11.988 I0.289 J-0.319
N10375 G1 X-7.01 Y-12.011
N10380 G3 X-6.969 Y-12.321 I0.49 J-0.094
N10385 G1 X-6.961 Y-12.338
N10390 G3 X-6.718 Y-12.59 I0.501 J0.241
N10395 G1 X-6.696 Y-12.602
N10400 G3 X-6.298 Y-12.665 I0.292 J0.559
N10405 G1 X-6.28 Y-12.662
N10410 G3 X-5.895 Y-12.457 I-0.114 J0.679
N10415 G1 X-5.88 Y-12.441
N10420 G3 X-5.678 Y-12.01 I-0.546 J0.519
N10425 G1 X-5.675 Y-11.989
N10430 G3 X-5.779 Y-11.484 I-0.812 J0.096
N10435 G1 X-5.79 Y-11.466
N10440 G3 X-6.204 Y-11.097 I-0.764 J-0.441
N10445 G1 X-6.224 Y-11.089
N10450 G3 X-6.816 Y-11.037 I-0.375 J-0.868
N10455 G1 X-6.84 Y-11.042
N10460 G3 X-7.379 Y-11.371 I0.235 J-0.992
N10465 G1 X-7.389 Y-11.383
N10470 G3 X-7.643 Y-11.987 I0.812 J-0.695
N10475 G1 X-7.645 Y-12.01
N10480 G3 X-7.488 Y-12.691 I1.136 J-0.097
N10485 G1 X-7.45 Y-12.754
N10490 G3 X-7.355 Y-12.892 I1.057 J0.63
N10495 X-6.306 Y-13.352 I0.961 J0.768 F#106
N10500 G1 X-6.297 Y-13.351
N10505 G3 X-5.877 Y-13.252 I-0.097 J1.359 F#100
N10510 G1 X-5.872 Y-13.25
N10515 G3 X-5.495 Y-13.02 I-0.53 J1.291
N10520 G1 X-5.491 Y-13.017
N10525 G3 X-5.198 Y-12.672 I-0.929 J1.086
N10530 G1 X-5.195 Y-12.667
N10535 G3 X-5.021 Y-12.239 I-1.25 J0.758
N10540 G1 X-5.019 Y-12.233
N10545 G3 X-4.987 Y-11.761 I-1.457 J0.337
N10550 G1 X-4.988 Y-11.756
N10555 G3 X-5.107 Y-11.287 I-1.522 J-0.138
N10560 G1 X-5.109 Y-11.283
N10565 G3 X-5.374 Y-10.866 I-1.433 J-0.62
N10570 G1 X-5.378 Y-10.862
N10575 G3 X-5.768 Y-10.542 I-1.193 J-1.059
N10580 G1 X-5.773 Y-10.54
N10585 G3 X-6.253 Y-10.354 I-0.819 J-1.407
N10590 G1 X-6.258 Y-10.353
N10595 G3 X-6.783 Y-10.326 I-0.346 J-1.625
N10600 G1 X-6.788 Y-10.327
N10605 G3 X-7.305 Y-10.468 I0.182 J-1.684
N10610 G1 X-7.312 Y-10.471
N10615 G3 X-7.765 Y-10.77 I0.718 J-1.584
N10620 X-8.105 Y-11.193 I1.178 J-1.295
N10625 G1 X-8.109 Y-11.199
N10630 G3 X-8.307 Y-11.716 I1.555 J-0.894
N10635 G1 X-8.308 Y-11.721
N10640 G3 X-8.34 Y-12.284 I1.786 J-0.383
N10645 G1 X-8.339 Y-12.289
N10650 G3 X-8.195 Y-12.845 I1.85 J0.183
N10655 G1 X-8.193 Y-12.849
N10660 G3 X-7.881 Y-13.343 I1.736 J0.752
N10665 G1 X-7.869 Y-13.357
N10670 G3 X-7.433 Y-13.72 I1.368 J1.197
N10675 G1 X-7.143 Y-13.894
N10680 G3 X-5.857 Y-10.106 I0.643 J1.894
N10685 X-7.143 Y-13.894 I-0.643 J-1.894
N10690 G2 X-7.088 Y-13.964 I-0.026 J-0.076
N10695 G3 X-7.031 Y-14.032 I0.076 J0.006
N10700 X-5.969 Y-9.968 I0.531 J2.032
N10705 X-7.031 Y-14.032 I-0.531 J-2.032
N10710 X-6.903 Y-14.048 Z-22.783 I0.126 J0.484 F#104
N10715 X-6.784 Y-14.033 Z-22.733 I-0.002 J0.5
N10720 X-6.687 Y-13.998 Z-22.654 I-0.121 J0.485
N10725 X-6.618 Y-13.958 Z-22.55 I-0.218 J0.45
N10730 X-6.579 Y-13.927 Z-22.429 I-0.287 J0.41
N10735 G1 X-6.566 Y-13.916 Z-22.3
N10740 G0 Z6.2
(BEARING SEAT 6MM FINISH)
N10750 M8
N10755 G0 Z15.2
N10760 X-5.3 Y-12.6
N10765 #102=330. (FINISH)
N10770 #103=200. (ENTRY)
N10775 #104=200. (EXIT)
N10780 #108=100. (PLUNGE)
N10785 Z-10.
N10790 G1 Z-14. F#103
N10795 Z-20.4 F#108
N10800 G18 G2 X-4.7 Z-21. I0.6 K0.
N10805 G1 X-4.1 F#103
N10810 G17 G3 X-3.5 Y-12. I0. J0.6
N10815 X-9.5 I-3. J0. F#102
N10820 X-3.5 I3. J0.
N10825 X-9.5 I-3. J0.
N10830 X-3.5 I3. J0.
N10835 X-4.1 Y-11.4 I-0.6 J0. F#104
N10840 G1 X-4.7
N10845 G18 G3 X-5.3 Z-20.4 I0. K0.6
N10850 G0 Z15.2
N10855 G17
(2D CONTOUR6)
N10860 M8
N10865 G0 X-19.722 Y-37.107
N10870 #102=330. (FINISH)
N10875 #103=200. (ENTRY)
N10880 #104=200. (EXIT)
N10885 #108=100. (PLUNGE)
N10890 G1 Z11.2 F#108
N10895 Z-4.8
N10900 X-19.719 Y-37.1 Z-5.08
N10905 X-19.711 Y-37.077 Z-5.36
N10910 X-19.698 Y-37.041 Z-5.638
N10915 X-19.679 Y-36.989 Z-5.913
N10920 X-19.655 Y-36.923 Z-6.184
N10925 X-19.626 Y-36.843 Z-6.451
N10930 X-19.592 Y-36.749 Z-6.713
N10935 X-19.552 Y-36.642 Z-6.969
N10940 X-19.508 Y-36.521 Z-7.219
N10945 X-19.46 Y-36.387 Z-7.46
N10950 X-19.406 Y-36.24 Z-7.693
N10955 X-19.349 Y-36.082 Z-7.917
N10960 X-19.287 Y-35.912 Z-8.132
N10965 X-19.221 Y-35.731 Z-8.336
N10970 X-19.151 Y-35.539 Z-8.528
N10975 X-19.078 Y-35.338 Z-8.709
N10980 X-19.001 Y-35.127 Z-8.878
N10985 X-18.921 Y-34.908 Z-9.034
N10990 X-18.839 Y-34.681 Z-9.176
N10995 X-18.754 Y-34.447 Z-9.305
N11000 X-18.666 Y-34.207 Z-9.419
N11005 X-18.576 Y-33.96 Z-9.519
N11010 X-18.485 Y-33.709 Z-9.605
N11015 X-18.392 Y-33.454 Z-9.675
N11020 X-18.298 Y-33.196 Z-9.729
N11025 X-18.203 Y-32.935 Z-9.769
N11030 X-18.108 Y-32.672 Z-9.792
N11035 X-18.012 Y-32.409 Z-9.8
N11040 X-16.302 Y-27.71 F#103
N11045 G3 X-16. Y-26. I-4.698 J1.71
N11050 G1 Y0. F#102
N11055 G2 X-13. Y3. I3. J0.
N11060 G1 X0.
N11065 G2 X3. Y0. I0. J-3.
N11070 G1 Y-26.
N11075 G2 X0. Y-29. I-3. J0.
N11080 G1 X-13.
N11085 G2 X-16. Y-26. I0. J3.
N11090 G3 X-16.302 Y-24.29 I-5. J0. F#104
N11095 G1 X-18.012 Y-19.591
N11100 X-18.108 Y-19.328 Z-9.792
N11105 X-18.203 Y-19.065 Z-9.769
N11110 X-18.298 Y-18.804 Z-9.729
N11115 X-18.392 Y-18.546 Z-9.675
N11120 X-18.485 Y-18.291 Z-9.605
N11125 X-18.576 Y-18.04 Z-9.519
N11130 X-18.666 Y-17.793 Z-9.419
N11135 X-18.754 Y-17.553 Z-9.305
N11140 X-18.839 Y-17.319 Z-9.176
N11145 X-18.921 Y-17.092 Z-9.034
N11150 X-19.001 Y-16.873 Z-8.878
N11155 X-19.078 Y-16.662 Z-8.709
N11160 X-19.151 Y-16.461 Z-8.528
N11165 X-19.221 Y-16.269 Z-8.336
N11170 X-19.287 Y-16.088 Z-8.132
N11175 X-19.349 Y-15.918 Z-7.917
N11180 X-19.406 Y-15.76 Z-7.693
N11185 X-19.46 Y-15.613 Z-7.46
N11190 X-19.508 Y-15.479 Z-7.219
N11195 X-19.552 Y-15.358 Z-6.969
N11200 X-19.592 Y-15.251 Z-6.713
N11205 X-19.626 Y-15.157 Z-6.451
N11210 X-19.655 Y-15.077 Z-6.184
N11215 X-19.679 Y-15.011 Z-5.913
N11220 X-19.698 Y-14.959 Z-5.638
N11225 X-19.711 Y-14.923 Z-5.36
N11230 X-19.719 Y-14.9 Z-5.08
N11235 X-19.722 Y-14.893 Z-4.8
N11240 Y-37.107
N11245 Z-14.8 F#108
N11250 X-19.719 Y-37.1 Z-15.08
N11255 X-19.711 Y-37.077 Z-15.36
N11260 X-19.698 Y-37.041 Z-15.638
N11265 X-19.679 Y-36.989 Z-15.913
N11270 X-19.655 Y-36.923 Z-16.184
N11275 X-19.626 Y-36.843 Z-16.451
N11280 X-19.592 Y-36.749 Z-16.713
N11285 X-19.552 Y-36.642 Z-16.969
N11290 X-19.508 Y-36.521 Z-17.219
N11295 X-19.46 Y-36.387 Z-17.46
N11300 X-19.406 Y-36.24 Z-17.693
N11305 X-19.349 Y-36.082 Z-17.917
N11310 X-19.287 Y-35.912 Z-18.132
N11315 X-19.221 Y-35.731 Z-18.336
N11320 X-19.151 Y-35.539 Z-18.528
N11325 X-19.078 Y-35.338 Z-18.709
N11330 X-19.001 Y-35.127 Z-18.878
N11335 X-18.921 Y-34.908 Z-19.034
N11340 X-18.839 Y-34.681 Z-19.176
N11345 X-18.754 Y-34.447 Z-19.305
N11350 X-18.666 Y-34.207 Z-19.419
N11355 X-18.576 Y-33.96 Z-19.519
N11360 X-18.485 Y-33.709 Z-19.605
N11365 X-18.392 Y-33.454 Z-19.675
N11370 X-18.298 Y-33.196 Z-19.729
N11375 X-18.203 Y-32.935 Z-19.769
N11380 X-18.108 Y-32.672 Z-19.792
N11385 X-18.012 Y-32.409 Z-19.8
N11390 X-16.302 Y-27.71 F#103
N11395 G3 X-16. Y-26. I-4.698 J1.71
N11400 G1 Y0. F#102
N11405 G2 X-13. Y3. I3. J0.
N11410 G1 X0.
N11415 G2 X3. Y0. I0. J-3.
N11420 G1 Y-26.
N11425 G2 X0. Y-29. I-3. J0.
N11430 G1 X-13.
N11435 G2 X-16. Y-26. I0. J3.
N11440 G3 X-16.302 Y-24.29 I-5. J0. F#104
N11445 G1 X-18.012 Y-19.591
N11450 X-18.108 Y-19.328 Z-19.792
N11455 X-18.203 Y-19.065 Z-19.769
N11460 X-18.298 Y-18.804 Z-19.729
N11465 X-18.392 Y-18.546 Z-19.675
N11470 X-18.485 Y-18.291 Z-19.605
N11475 X-18.576 Y-18.04 Z-19.519
N11480 X-18.666 Y-17.793 Z-19.419
N11485 X-18.754 Y-17.553 Z-19.305
N11490 X-18.839 Y-17.319 Z-19.176
N11495 X-18.921 Y-17.092 Z-19.034
N11500 X-19.001 Y-16.873 Z-18.878
N11505 X-19.078 Y-16.662 Z-18.709
N11510 X-19.151 Y-16.461 Z-18.528
N11515 X-19.221 Y-16.269 Z-18.336
N11520 X-19.287 Y-16.088 Z-18.132
N11525 X-19.349 Y-15.918 Z-17.917
N11530 X-19.406 Y-15.76 Z-17.693
N11535 X-19.46 Y-15.613 Z-17.46
N11540 X-19.508 Y-15.479 Z-17.219
N11545 X-19.552 Y-15.358 Z-16.969
N11550 X-19.592 Y-15.251 Z-16.713
N11555 X-19.626 Y-15.157 Z-16.451
N11560 X-19.655 Y-15.077 Z-16.184
N11565 X-19.679 Y-15.011 Z-15.913
N11570 X-19.698 Y-14.959 Z-15.638
N11575 X-19.711 Y-14.923 Z-15.36
N11580 X-19.719 Y-14.9 Z-15.08
N11585 X-19.722 Y-14.893 Z-14.8
N11590 Y-37.107
N11595 Z-19. F#108
N11600 X-19.719 Y-37.1 Z-19.28
N11605 X-19.711 Y-37.077 Z-19.56
N11610 X-19.698 Y-37.041 Z-19.838
N11615 X-19.679 Y-36.989 Z-20.113
N11620 X-19.655 Y-36.923 Z-20.384
N11625 X-19.626 Y-36.843 Z-20.651
N11630 X-19.592 Y-36.749 Z-20.913
N11635 X-19.552 Y-36.642 Z-21.169
N11640 X-19.508 Y-36.521 Z-21.419
N11645 X-19.46 Y-36.387 Z-21.66
N11650 X-19.406 Y-36.24 Z-21.893
N11655 X-19.349 Y-36.082 Z-22.117
N11660 X-19.287 Y-35.912 Z-22.332
N11665 X-19.221 Y-35.731 Z-22.536
N11670 X-19.151 Y-35.539 Z-22.728
N11675 X-19.078 Y-35.338 Z-22.909
N11680 X-19.001 Y-35.127 Z-23.078
N11685 X-18.921 Y-34.908 Z-23.234
N11690 X-18.839 Y-34.681 Z-23.376
N11695 X-18.754 Y-34.447 Z-23.505
N11700 X-18.666 Y-34.207 Z-23.619
N11705 X-18.576 Y-33.96 Z-23.719
N11710 X-18.485 Y-33.709 Z-23.805
N11715 X-18.392 Y-33.454 Z-23.875
N11720 X-18.298 Y-33.196 Z-23.929
N11725 X-18.203 Y-32.935 Z-23.969
N11730 X-18.108 Y-32.672 Z-23.992
N11735 X-18.012 Y-32.409 Z-24.
N11740 X-16.302 Y-27.71 F#103
N11745 G3 X-16. Y-26. I-4.698 J1.71
N11750 G1 Y0. F#102
N11755 G2 X-13. Y3. I3. J0.
N11760 G1 X0.
N11765 G2 X3. Y0. I0. J-3.
N11770 G1 Y-26.
N11775 G2 X0. Y-29. I-3. J0.
N11780 G1 X-13.
N11785 G2 X-16. Y-26. I0. J3.
N11790 G3 X-16.302 Y-24.29 I-5. J0. F#104
N11795 G1 X-18.012 Y-19.591
N11800 X-18.108 Y-19.328 Z-23.992
N11805 X-18.203 Y-19.065 Z-23.969
N11810 X-18.298 Y-18.804 Z-23.929
N11815 X-18.392 Y-18.546 Z-23.875
N11820 X-18.485 Y-18.291 Z-23.805
N11825 X-18.576 Y-18.04 Z-23.719
N11830 X-18.666 Y-17.793 Z-23.619
N11835 X-18.754 Y-17.553 Z-23.505
N11840 X-18.839 Y-17.319 Z-23.376
N11845 X-18.921 Y-17.092 Z-23.234
N11850 X-19.001 Y-16.873 Z-23.078
N11855 X-19.078 Y-16.662 Z-22.909
N11860 X-19.151 Y-16.461 Z-22.728
N11865 X-19.221 Y-16.269 Z-22.536
N11870 X-19.287 Y-16.088 Z-22.332
N11875 X-19.349 Y-15.918 Z-22.117
N11880 X-19.406 Y-15.76 Z-21.893
N11885 X-19.46 Y-15.613 Z-21.66
N11890 X-19.508 Y-15.479 Z-21.419
N11895 X-19.552 Y-15.358 Z-21.169
N11900 X-19.592 Y-15.251 Z-20.913
N11905 X-19.626 Y-15.157 Z-20.651
N11910 X-19.655 Y-15.077 Z-20.384
N11915 X-19.679 Y-15.011 Z-20.113
N11920 X-19.698 Y-14.959 Z-19.838
N11925 X-19.711 Y-14.923 Z-19.56
N11930 X-19.719 Y-14.9 Z-19.28
N11935 X-19.722 Y-14.893 Z-19.
N11940 G0 Z2.2
N11950 M5
N11955 G53 Z0.
(DRILLING 2.5)
N11960 M9
N11965 M1
N11970 T125 M6
N11975 T1
N11980 S3200 M3
N11985 M9
N11995 G0 X-11. Y-2.75
N12000 G43 Z4.2 H0
N12010 G0 Z2.2
N12015 G98 G83 X-11. Y-2.75 Z-10. R2. Q2. F50.
N12020 X-2.
N12025 X-6.5 Y-23.
N12030 G80
N12035 G0 Z4.2
N12045 M9
N12050 G53 Z0.
N12055 M30
%
