%
(1001)
(T1  D=6. CR=0. - ZMIN=-10.9 - FLAT END MILL)
N10 G90 G94 G17 G91.1
N15 G21
N20 G53 G0 Z0.
(2D ADAPTIVE1)
N25 M9
N30 T1 M6
N35 S3200 M3
N40 G54
N45 M8
N55 G0 X-27.908 Y-28.466
N60 G43 Z4. H1
N65 #100=330. (CUTTING)
N70 #103=200. (ENTRY)
N75 #104=200. (EXIT)
N80 #105=3000. (DIRECT)
N85 #106=82.5 (REDUCED)
N90 #107=270. (RAMPING)
N95 G0 Z1.65
N100 G1 Z1.15 F#103
N105 S3000
N110 G3 X-22.21 Y-27.533 Z0.796 I2.521 J2.466 F#107
N115 X-25. Y-22.536 Z0.441 I-3.148 J1.519
N120 X-28.718 Y-26.82 Z0.087 I-0.356 J-3.447
N125 X-23.473 Y-28.842 Z-0.268 I3.332 J0.83
N130 X-23.355 Y-23.272 Z-0.622 I-1.896 J2.826
N135 X-28.585 Y-25.038 Z-0.976 I-1.995 J-2.719
N140 X-25.178 Y-29.318 Z-1.331 I3.205 J-0.944
N145 X-22.338 Y-24.702 Z-1.685 I-0.2 J3.305
N150 X-27.595 Y-23.61 Z-2.04 I-3.011 J-1.299
N155 X-26.841 Y-28.875 Z-2.394 I2.224 J-2.368
N160 X-22.191 Y-26.401 Z-2.749 I1.457 J2.869
N165 X-26.061 Y-22.902 Z-3.103 I-3.163 J0.391
N170 X-28.017 Y-27.685 Z-3.457 I0.701 J-3.078
N175 X-22.905 Y-27.896 Z-3.812 I2.63 J1.688
N180 X-24.428 Y-23.065 Z-4.166 I-2.457 J1.881
N185 X-28.414 Y-26.109 Z-4.521 I-0.924 J-2.921
N190 X-24.239 Y-28.795 Z-4.875 I3.03 J0.122
N195 X-23.143 Y-24.004 Z-5.229 I-1.133 J2.78
N200 X-27.971 Y-24.596 Z-5.584 I-2.206 J-1.99
N205 X-25.796 Y-28.89 Z-5.938 I2.594 J-1.384
N210 X-22.531 Y-25.422 Z-6.293 I0.415 J2.88
N215 X-26.856 Y-23.551 Z-6.647 I-2.819 J-0.582
N220 X-27.143 Y-28.204 Z-7.001 I1.49 J-2.427
N225 X-22.718 Y-26.906 Z-7.356 I1.757 J2.202
N230 X-25.413 Y-23.227 Z-7.71 I-2.639 J0.894
N235 X-27.929 Y-26.97 Z-8.065 I0.056 J-2.755
N240 X-23.602 Y-28.052 Z-8.419 I2.543 J0.978
N245 X-24.051 Y-23.665 Z-8.774 I-1.764 J2.036
N250 X-27.978 Y-25.556 Z-9.128 I-1.3 J-2.324
N255 X-24.901 Y-28.571 Z-9.482 I2.597 J-0.428
N260 X-23.132 Y-24.698 Z-9.837 I-0.475 J2.557
N265 X-27.325 Y-24.355 Z-10.191 I-2.217 J-1.3
N270 X-26.236 Y-28.367 Z-10.546 I1.953 J-1.624
N275 X-22.875 Y-26.008 Z-10.9 I0.853 J2.359
N280 X-27.892 I-2.508 J0.
N285 X-22.875 I2.508 J0.
N290 S3200
N295 X-22.765 Y-24.541 I-2.756 J0.945 F#100
N300 X-27.48 Y-23.401 I-2.737 J-0.999
N305 X-23.318 Y-28.71 I2.081 J-2.655
N310 X-22.352 Y-27.503 I-2.081 J2.654
N315 X-26.751 Y-21.92 I-3.087 J2.092
N320 X-24.1 Y-30.222 I1.326 J-4.151
N325 X-22.316 Y-29.124 I-1.326 J4.151
N330 X-27.767 Y-21.178 I-3.192 J3.652
N335 X-30.157 Y-28.763 I2.33 J-4.904
N340 X-22.418 Y-30.595 I4.721 J2.681
N345 X-28.09 Y-20.078 I-3.103 J5.114
N350 X-23.718 Y-32.41 I2.625 J-6.01
N355 X-18.681 Y-23.356 I-1.797 J6.928
N360 X-27.965 Y-18.756 I-6.834 J-2.126
N365 X-24.518 Y-33.775 I2.48 J-7.336
N370 X-17.195 Y-24.396 I-0.964 J8.301
N375 X-26.674 Y-17.202 I-8.287 J-1.078
N380 X-27.701 Y-34.764 I1.137 J-8.877
N385 X-16.003 Y-24.135 I2.368 J9.145
N390 X-32.162 Y-18.312 I-9.633 J-1.399
N395 X-21.386 Y-35.563 I6.723 J-7.791
N400 X-26.32 Y-14.593 I-4.089 J10.103
N405 X-30.851 Y-36.29 I0.744 J-11.477
N410 X-13.352 Y-26.57 I5.579 J10.569
N415 X-31.472 Y-14.684 I-12.236 J1.101
N420 X-24.043 Y-38.926 I5.988 J-11.424
N425 X-23.318 Y-12.102 I-1.393 J13.459
N430 X-34.117 Y-14.738 I-2.473 J-13.309
N435 X-34.976 Y-16.335 I10.783 J-6.835
N440 G2 X-36.483 Y-17.592 I-5.805 J5.429
N445 G3 X-39.445 Y-28.63 I8.952 J-8.318
N450 X-37.222 Y-34.112 I12.448 J1.856
N455 X-35.809 Y-34.883 I3.528 J4.789
N460 G2 X-34.161 Y-36.949 I-4.231 J-5.065
N465 G3 X-22.143 Y-39.986 I8.744 J9.304
N470 X-18.12 Y-38.467 I-1.965 J11.292
N475 X-17.131 Y-37.788 I-5.989 J9.773 F#106
N480 G2 X-15.794 Y-35.639 I5.098 J-1.682 F#100
N485 G3 X-11.586 Y-30.668 I-3.68 J7.381
N490 X-21.781 Y-11.033 I-13.766 J5.317
N495 X-33.742 Y-12.835 I-3.956 J-14.342
N500 X-34.405 Y-14.547 I1.531 J-1.577
N505 G1 X-34.439 Y-16.118 F#104
N510 X-34.826 Y-34.441 F#105
N515 X-34.854 Y-35.753 F#103
N520 G3 X-34.794 Y-36.001 I0.5 J-0.011
N525 G2 X-34.279 Y-37.64 I-6.954 J-3.088 F#100
N530 G3 X-29.282 Y-41.11 I6.595 J4.163
N535 X-17.685 Y-39.754 I4.241 J13.997
N540 X-16.981 Y-38.133 I-1.407 J1.575
N545 X-17.446 Y-37.649 I-0.5 J-0.014 F#104
N550 G1 X-18.278 Y-37.591
N555 X-33.196 Y-36.553 F#105
N560 X-33.903 Y-36.504 F#103
N565 G3 X-34.436 Y-37.044 I-0.035 J-0.499
N570 G1 X-34.45 Y-37.3 F#100
N575 X-34.447 Y-37.557
N580 X-34.428 Y-37.813
N585 X-34.394 Y-38.067
N590 X-34.344 Y-38.319
N595 X-34.278 Y-38.567
N600 X-34.197 Y-38.811
N605 X-34.101 Y-39.049
N610 X-33.991 Y-39.281
N615 X-33.866 Y-39.505
N620 X-33.728 Y-39.721
N625 X-33.577 Y-39.929
N630 X-33.413 Y-40.126
N635 X-33.237 Y-40.313
N640 X-33.05 Y-40.489
N645 X-32.852 Y-40.653
N650 X-32.645 Y-40.804
N655 X-32.428 Y-40.942
N660 X-32.204 Y-41.066
N665 G3 X-25.775 Y-43.053 I6.37 J9.216
N670 X-17.855 Y-41.352 I0.981 J14.719
N675 X-16.984 Y-39.669 I-1.232 J1.704
N680 G1 Y-38.68
N685 X-16.981 Y-38.215
N690 G3 X-17.474 Y-37.729 I-0.5 J-0.014 F#104
N695 G1 X-18.28 Y-37.718
N700 X-33.1 Y-37.501 F#105
N705 X-33.893 Y-37.49 F#103
N710 G3 X-34.4 Y-37.974 I-0.007 J-0.5
N715 X-34.211 Y-40.149 I4.83 J-0.676 F#100
N720 X-29.772 Y-43.625 I6.141 J3.27
N725 X-22.628 Y-44.213 I4.643 J12.722
N730 X-17.541 Y-42.566 I-0.468 J10.127
N735 X-16.984 Y-41.121 I-1.76 J1.507
N740 G1 Y-39.669
N745 G3 X-17.735 Y-39.254 I-0.5 J-0.017 F#104
N750 G1 X-18.202 Y-39.524
N755 X-24.764 Y-43.327 F#105
N760 X-25.006 Y-43.468 F#103
N765 G3 X-24.773 Y-44.4 I0.251 J-0.433
N770 G1 X-19.865 F#100
N775 G3 X-17.055 Y-42.929 I0.289 J2.866
N780 G1 X-17.013 Y-42.579
N785 X-16.984 Y-42.242
N790 G3 X-17.769 Y-41.849 I-0.5 J-0.017 F#104
N795 G1 X-18.179 Y-42.134
N800 X-19.869 Y-43.307 F#105
N805 X-20.132 Y-43.49 F#103
N810 G3 X-19.865 Y-44.4 I0.285 J-0.411
N815 G1 X-18.116 F#100
N820 G3 X-16.985 Y-43.243 I-0.017 J1.148
N825 G1 X-16.998 Y-43.113 F#104
N830 X-17.025 Y-42.985
N835 X-17.068 Y-42.862
N840 X-17.125 Y-42.744
N845 X-17.196 Y-42.634
N850 X-17.279 Y-42.533
N855 X-17.374 Y-42.443
N860 X-17.478 Y-42.365
N865 X-17.592 Y-42.3
N870 X-17.712 Y-42.248
N875 X-17.838 Y-42.212
N880 X-17.967 Y-42.19
N885 G3 X-18.381 Y-42.226 I-0.114 J-1.091 F#105
N890 X-19.178 Y-43.424 I0.303 J-1.066
N895 X-18.116 Y-44.4 I1.101 J0.131 F#103
N900 X-17.096 Y-44.202 I0.307 J1.145 F#100
N905 X-17.066 Y-43.704 I-0.435 J0.276 F#104
N910 X-17.939 Y-44.121 I-0.436 J-0.209
N915 X-17.502 Y-44.396 I0.436 J0.209
N920 X-16.986 Y-43.895 I0.01 J0.506 F#100
N925 G1 X-16.984 Y-41.121
N930 G3 X-17.426 Y-40.642 I-0.5 J-0.017 F#104
N935 G1 X-18.281 Y-40.542
N940 X-33.103 Y-38.809 F#105
N945 X-33.842 Y-38.722 F#103
N950 G3 X-34.4 Y-39.201 I-0.058 J-0.497
N955 X-34.274 Y-41.285 I5.588 J-0.707 F#100
N960 X-31.015 Y-44.385 I5.156 J2.158
N965 G1 X-30.65 Y-44.4
N970 G3 X-30.307 Y-43.554 I-0.017 J0.5 F#104
N975 G1 X-30.598 Y-43.251
N980 X-33.262 Y-40.48 F#105
N985 X-33.54 Y-40.191 F#103
N990 G3 X-34.4 Y-40.52 I-0.36 J-0.347
N995 X-34.273 Y-42.613 I5.512 J-0.714 F#100
N1000 X-32.153 Y-44.426 I2.353 J0.606
N1005 G1 X-32.063 Y-44.414 F#104
N1010 X-31.977 Y-44.386
N1015 X-31.898 Y-44.344
N1020 X-31.826 Y-44.289
N1025 X-31.766 Y-44.223
N1030 X-31.718 Y-44.148
N1035 X-31.684 Y-44.066
N1040 X-31.665 Y-43.98
N1045 X-31.66 Y-43.892
N1050 X-31.671 Y-43.805
N1055 X-31.697 Y-43.722
N1060 X-31.736 Y-43.644
N1065 X-31.788 Y-43.575
N1070 X-32.08 Y-43.234
N1075 X-33.279 Y-41.834 F#105
N1080 X-33.521 Y-41.552 F#103
N1085 G3 X-34.4 Y-41.86 I-0.38 J-0.325
N1090 G1 Y-43.179 F#100
N1095 G3 X-33.149 Y-44.399 I1.243 J0.023
N1100 G1 X-33.066 Y-44.389 F#104
N1105 X-32.986 Y-44.366
N1110 X-32.911 Y-44.329
N1115 X-32.843 Y-44.281
N1120 X-32.784 Y-44.222
N1125 X-32.736 Y-44.154
N1130 X-32.699 Y-44.078
N1135 X-32.676 Y-43.998
N1140 X-32.667 Y-43.915
N1145 X-32.671 Y-43.832
N1150 X-32.689 Y-43.75
N1155 X-32.721 Y-43.673
N1160 X-32.765 Y-43.602
N1165 X-32.82 Y-43.539
N1170 X-33.108 Y-43.263
N1175 X-33.251 Y-43.127 F#105
N1180 X-33.554 Y-42.836 F#103
N1185 G3 X-34.4 Y-43.179 I-0.346 J-0.361
N1190 X-34.318 Y-44.143 I1.719 J-0.339 F#100
N1195 G1 X-34.233 Y-44.259
N1200 G3 X-33.67 Y-44.344 I0.357 J0.454 F#104
N1205 X-34.055 Y-43.339 I-0.192 J0.502
N1210 X-34.4 Y-43.824 I0.192 J-0.502
N1215 X-33.874 Y-44.4 I0.524 J-0.05 F#100
N1220 G1 X-26.185
N1225 G3 X-25.731 Y-43.733 I-0.017 J0.5 F#104
N1230 G1 X-25.943 Y-43.137
N1235 X-34.87 Y-18.037 F#105
N1240 X-35.108 Y-17.37 F#103
N1245 G3 X-35.817 Y-17.098 I-0.471 J-0.168
N1250 G2 X-37.426 Y-17.725 I-4.178 J8.33 F#100
N1255 G3 X-40.649 Y-22.952 I4.511 J-6.389
N1260 X-39.061 Y-33.698 I13.942 J-3.43
N1265 X-37.537 Y-34.405 I1.566 J1.379
N1270 X-37.049 Y-33.93 I-0.011 J0.5 F#104
N1275 G1 X-37.008 Y-33.11
N1280 X-36.297 Y-18.726 F#105
N1285 X-36.263 Y-18.043 F#103
N1290 G3 X-36.839 Y-17.524 I-0.499 J0.025
N1295 X-38.728 Y-17.859 I0.066 J-5.865 F#100
N1300 X-41.958 Y-22.892 I4.228 J-6.266
N1305 X-40.638 Y-33.568 I14.2 J-3.664
N1310 X-38.985 Y-34.4 I1.671 J1.26
N1315 G1 X-38.066
N1320 X-37.862 Y-34.401
N1325 X-37.537 Y-34.405
N1330 G3 X-37.048 Y-33.901 I-0.011 J0.5 F#104
N1335 G1 X-37.054 Y-33.109
N1340 X-37.162 Y-18.893 F#105
N1345 X-37.168 Y-18.093 F#103
N1350 G3 X-37.657 Y-17.596 I-0.5 J-0.004
N1355 X-39.967 Y-17.873 I-0.621 J-4.6 F#100
N1360 X-43.269 Y-22.857 I4.054 J-6.271
N1365 X-42.126 Y-33.542 I14.286 J-3.875
N1370 X-40.443 Y-34.4 I1.708 J1.27
N1375 G1 X-38.985
N1380 G3 X-38.503 Y-33.903 I-0.017 J0.5 F#104
N1385 G1 X-38.497 Y-33.097
N1390 X-38.407 Y-18.903 F#105
N1395 X-38.402 Y-18.103 F#103
N1400 G3 X-38.884 Y-17.6 I-0.5 J0.003
N1405 X-41.023 Y-17.791 I-0.67 J-4.578 F#100
N1410 X-44.418 Y-22.444 I3.099 J-5.826
N1415 G1 X-44.407 Y-22.532 F#104
N1420 X-44.381 Y-22.616
N1425 X-44.341 Y-22.694
N1430 X-44.288 Y-22.765
N1435 X-44.225 Y-22.825
N1440 X-44.152 Y-22.874
N1445 X-44.072 Y-22.909
N1450 X-43.988 Y-22.93
N1455 X-43.901 Y-22.936
N1460 X-43.815 Y-22.928
N1465 X-43.732 Y-22.905
N1470 X-43.654 Y-22.868
N1475 X-43.584 Y-22.819
N1480 X-43.523 Y-22.758
N1485 X-43.276 Y-22.475
N1490 X-40.044 Y-18.763 F#105
N1495 X-39.752 Y-18.428 F#103
N1500 G3 X-40.111 Y-17.6 I-0.377 J0.328
N1505 X-42.147 Y-17.731 I-0.689 J-5.191 F#100
N1510 X-44.401 Y-19.883 I1.208 J-3.521
N1515 G1 X-44.4 Y-20.274
N1520 G3 X-43.572 Y-20.634 I0.5 J0.017 F#104
N1525 G1 X-43.236 Y-20.342
N1530 X-41.373 Y-18.723 F#105
N1535 X-41.09 Y-18.477 F#103
N1540 G3 X-41.4 Y-17.6 I-0.328 J0.377
N1545 G1 X-42.678 F#100
N1550 G3 X-44.4 Y-19.351 I0.027 J-1.748
N1555 G1 X-44.39 Y-19.434 F#104
N1560 X-44.366 Y-19.513
N1565 X-44.33 Y-19.588
N1570 X-44.282 Y-19.656
N1575 X-44.223 Y-19.715
N1580 X-44.156 Y-19.763
N1585 X-44.081 Y-19.8
N1590 X-44.001 Y-19.823
N1595 X-43.918 Y-19.833
N1600 X-43.835 Y-19.829
N1605 X-43.754 Y-19.812
N1610 X-43.677 Y-19.781
N1615 X-43.605 Y-19.737
N1620 X-43.543 Y-19.683
N1625 X-43.26 Y-19.394
N1630 X-42.628 Y-18.747 F#105
N1635 X-42.338 Y-18.449 F#103
N1640 G3 X-42.678 Y-17.6 I-0.358 J0.349
N1645 G1 X-43.547 F#100
N1650 G3 X-44.399 Y-18.451 I-0.01 J-0.842
N1655 G1 X-44.388 Y-18.539 F#104
N1660 X-44.362 Y-18.624
N1665 X-44.321 Y-18.703
N1670 X-44.266 Y-18.773
N1675 X-44.2 Y-18.833
N1680 X-44.125 Y-18.88
N1685 X-44.042 Y-18.912
N1690 X-43.955 Y-18.93
N1695 X-43.866 Y-18.932
N1700 X-43.778 Y-18.918
N1705 X-43.694 Y-18.889
N1710 X-43.616 Y-18.845
N1715 X-43.548 Y-18.788
N1720 X-43.502 Y-18.742
N1725 X-43.212 Y-18.454 F#103
N1730 G3 X-43.547 Y-17.6 I-0.352 J0.355
N1735 X-44.398 Y-18.075 I-0.237 J-0.576 F#100
N1740 G1 X-44.4 Y-18.126
N1745 Y-29.886
N1750 G3 X-43.29 Y-33.728 I6.415 J-0.228
N1755 X-41.794 Y-34.4 I1.496 J1.328
N1760 X-41.368 Y-33.669 I-0.017 J0.5 F#104
N1765 G1 X-41.629 Y-33.171
N1770 X-43.338 Y-29.9 F#105
N1775 X-43.457 Y-29.672 F#103
N1780 G3 X-44.4 Y-29.886 I-0.443 J-0.232
N1785 G1 Y-32.749 F#100
N1790 G3 X-42.715 Y-34.399 I1.682 J0.031
N1795 G1 X-42.632 Y-34.39 F#104
N1800 X-42.552 Y-34.366
N1805 X-42.477 Y-34.33
N1810 X-42.409 Y-34.282
N1815 X-42.351 Y-34.223
N1820 X-42.302 Y-34.155
N1825 X-42.266 Y-34.08
N1830 X-42.242 Y-34.
N1835 X-42.233 Y-33.917
N1840 X-42.237 Y-33.834
N1845 X-42.255 Y-33.753
N1850 X-42.286 Y-33.675
N1855 X-42.329 Y-33.604
N1860 X-42.384 Y-33.542
N1865 X-42.673 Y-33.261
N1870 X-43.252 Y-32.698 F#105
N1875 X-43.552 Y-32.408 F#103
N1880 G3 X-44.4 Y-32.749 I-0.348 J-0.359
N1885 G1 Y-33.567 F#100
N1890 G3 X-43.583 Y-34.399 I0.811 J-0.021
N1895 G1 X-43.483 Y-34.39 F#104
N1900 X-43.385 Y-34.368
N1905 X-43.29 Y-34.334
N1910 X-43.199 Y-34.289
N1915 X-43.116 Y-34.233
N1920 X-43.039 Y-34.167
N1925 G3 X-42.866 Y-33.276 I-0.561 J0.572
N1930 X-43.269 Y-32.866 I-0.734 J-0.319 F#105
N1935 X-44.4 Y-33.567 I-0.331 J-0.729 F#103
N1940 X-43.895 Y-34.4 I0.562 J-0.229 F#100
N1945 G1 X-40.443
N1950 X-40.44 F#104
N1955 G2 X-38.898 Y-34.122 I10.699 J-55.041
N1960 X-35.603 Y-33.677 I9.156 J-55.319 F#105
N1965 X-35.533 Y-33.674 I0.052 J-0.497
N1970 G1 X-20.017 Y-34.224
N1975 X-19.982 Y-34.227
N1980 X-19.948 Y-34.231
N1985 G2 X-16.683 Y-34.911 I-9.794 J-55.209
N1990 X-15.173 Y-35.295 I-13.058 J-54.53 F#103
N1995 G1 X-15.161
N2000 G3 X-13.096 Y-34.645 I-3.327 J14.189 F#100
N2005 X-9.472 Y-27.965 I-6.119 J7.643
N2010 X-21.603 Y-9.652 I-15.872 J2.66
N2015 X-33.543 Y-11.154 I-4.112 J-15.52
N2020 X-34.4 Y-12.831 I1.258 J-1.7
N2025 G1 Y-13.934
N2030 X-34.401 Y-14.138
N2035 X-34.403 Y-14.324
N2040 G3 X-34.262 Y-14.661 I0.5 J0.011 F#104
N2045 G1 X-33.429 Y-15.519
N2050 X-15.415 Y-34.073 F#105
N2055 X-14.622 Y-34.889 F#103
N2060 G3 X-14.23 Y-35.039 I0.359 J0.348
N2065 X-12.112 Y-34.761 I0.438 J4.865 F#100
N2070 X-8.688 Y-30.203 I-3.94 J6.526
N2075 X-10.631 Y-15.961 I-15.435 J5.148
N2080 X-33.201 Y-9.436 I-14.978 J-9.51
N2085 X-34.4 Y-11.335 I0.995 J-1.956
N2090 G1 Y-12.831
N2095 G3 X-33.4 Y-12.807 I0.5 J0.017 F#104
N2100 G1 X-33.401 Y-12.796
N2105 X-33.404 Y-12.71 Z-10.892
N2110 X-33.407 Y-12.626 Z-10.87
N2115 X-33.409 Y-12.547 Z-10.833
N2120 X-33.412 Y-12.475 Z-10.783
N2125 X-33.414 Y-12.414 Z-10.721
N2130 X-33.416 Y-12.364 Z-10.65
N2135 X-33.417 Y-12.327 Z-10.571
N2140 X-33.418 Y-12.304 Z-10.487
N2145 Y-12.297 Z-10.4
N2150 G0 Z-9.9
N2155 X-15.145 Y-34.318
N2160 G1 Z-10.4 F#103
N2165 X-15.138 Y-34.322 Z-10.487
N2170 X-15.119 Y-34.333 Z-10.571
N2175 X-15.087 Y-34.352 Z-10.65
N2180 X-15.044 Y-34.378 Z-10.721
N2185 X-14.991 Y-34.409 Z-10.783
N2190 X-14.93 Y-34.445 Z-10.833
N2195 X-14.862 Y-34.486 Z-10.87
N2200 X-14.789 Y-34.529 Z-10.892
N2205 X-14.715 Y-34.573 Z-10.9
N2210 G3 X-13.208 Y-35.016 I1.618 J2.721
N2215 X-11.133 Y-34.885 I0.704 J5.333 F#100
N2220 X-7.559 Y-30.55 I-2.59 J5.775
N2225 G1 X-7.571 Y-30.459 F#104
N2230 X-7.598 Y-30.373
N2235 X-7.639 Y-30.293
N2240 X-7.692 Y-30.221
N2245 X-7.756 Y-30.159
N2250 X-7.83 Y-30.11
N2255 X-7.91 Y-30.073
N2260 X-7.995 Y-30.051
N2265 X-8.082 Y-30.043
N2270 X-8.168 Y-30.051
N2275 X-8.251 Y-30.072
N2280 X-8.329 Y-30.107
N2285 X-8.4 Y-30.154
N2290 X-8.462 Y-30.213
N2295 X-8.736 Y-30.501
N2300 X-11.942 Y-33.866 F#105
N2305 X-12.233 Y-34.171 F#103
N2310 G3 X-11.889 Y-35.016 I0.362 J-0.345
N2315 X-9.789 Y-34.883 I0.714 J5.35 F#100
N2320 X-7.586 Y-32.777 I-1.025 J3.278
N2325 G1 X-7.6 Y-32.437
N2330 G3 X-8.423 Y-32.073 I-0.5 J-0.017 F#104
N2335 G1 X-8.767 Y-32.365
N2340 X-10.573 Y-33.896 F#105
N2345 X-10.855 Y-34.135 F#103
N2350 G3 X-10.549 Y-35.016 I0.323 J-0.381
N2355 G1 X-9.23 F#100
N2360 G3 X-7.6 Y-33.369 I-0.015 J1.645
N2365 G1 X-7.61 Y-33.286 F#104
N2370 X-7.633 Y-33.207
N2375 X-7.67 Y-33.132
N2380 X-7.718 Y-33.064
N2385 X-7.776 Y-33.005
N2390 X-7.844 Y-32.957
N2395 X-7.918 Y-32.921
N2400 X-7.998 Y-32.897
N2405 X-8.08 Y-32.887
N2410 X-8.163 Y-32.891
N2415 X-8.245 Y-32.908
N2420 X-8.322 Y-32.938
N2425 X-8.393 Y-32.981
N2430 X-8.456 Y-33.036
N2435 X-8.741 Y-33.325
N2440 X-9.278 Y-33.87 F#105
N2445 X-9.569 Y-34.165 F#103
N2450 G3 X-9.23 Y-35.016 I0.356 J-0.351
N2455 G1 X-8.412 F#100
N2460 G3 X-7.601 Y-34.221 I0.022 J0.789
N2465 G1 X-7.61 Y-34.124 F#104
N2470 X-7.631 Y-34.028
N2475 X-7.664 Y-33.935
N2480 X-7.708 Y-33.847
N2485 X-7.763 Y-33.766
N2490 X-7.827 Y-33.691
N2495 G3 X-8.731 Y-33.538 I-0.557 J-0.545
N2500 X-9.077 Y-33.878 I0.347 J-0.699 F#105
N2505 X-8.412 Y-35.016 I0.692 J-0.359 F#103
N2510 G1 X-8.321 Y-35.041 F#100
N2515 X-8.228 Y-35.051
N2520 X-8.134 Y-35.047
N2525 X-8.041 Y-35.029
N2530 X-7.953 Y-34.997
N2535 X-7.871 Y-34.951
N2540 X-7.796 Y-34.893
N2545 X-7.732 Y-34.825
N2550 X-7.679 Y-34.747
N2555 X-7.638 Y-34.662
N2560 X-7.611 Y-34.572
N2565 X-7.598 Y-34.479
N2570 X-7.6 Y-34.385
N2575 Y-20.887
N2580 G3 X-10.87 Y-13.316 I-12.263 J-0.805
N2585 X-18.919 Y-7.588 I-13.92 J-11.041
N2590 G1 X-19.185 Y-7.6
N2595 X-30.499
N2600 G3 X-33.938 Y-8.696 I-0.182 J-5.368
N2605 X-34.4 Y-10.039 I1.919 J-1.411
N2610 X-33.653 Y-10.456 I0.5 J0.017 F#104
N2615 G1 X-33.18 Y-10.187
N2620 X-30.51 Y-8.671 F#105
N2625 X-30.27 Y-8.534 F#103
N2630 G3 X-30.499 Y-7.6 I-0.247 J0.435
N2635 G1 X-32.953 F#100
N2640 G3 X-34.399 Y-9.082 I0.031 J-1.476
N2645 G1 X-34.389 Y-9.165 F#104
N2650 X-34.366 Y-9.245
N2655 X-34.329 Y-9.32
N2660 X-34.281 Y-9.388
N2665 X-34.222 Y-9.447
N2670 X-34.154 Y-9.495
N2675 X-34.079 Y-9.531
N2680 X-33.999 Y-9.554
N2685 X-33.916 Y-9.564
N2690 X-33.833 Y-9.56
N2695 X-33.751 Y-9.542
N2700 X-33.674 Y-9.51
N2705 X-33.603 Y-9.467
N2710 X-33.54 Y-9.411
N2715 X-33.262 Y-9.123
N2720 X-32.902 Y-8.749 F#105
N2725 X-32.611 Y-8.447 F#103
N2730 G3 X-32.953 Y-7.6 I-0.36 J0.347
N2735 G1 X-33.68 F#100
N2740 G3 X-34.399 Y-8.297 I-0.028 J-0.691
N2745 G1 X-34.388 Y-8.401 F#104
N2750 X-34.362 Y-8.502
N2755 X-34.321 Y-8.599
N2760 X-34.266 Y-8.688
N2765 X-34.199 Y-8.769
N2770 G3 X-33.252 Y-8.811 I0.496 J0.48
N2775 X-33.195 Y-8.755 I-0.452 J0.521 F#105
N2780 X-33.679 Y-7.6 I-0.509 J0.466 F#103
N2785 X-34.4 Y-8.105 I-0.156 J-0.543 F#100
N2790 G1 Y-11.335
N2795 G3 X-34.074 Y-11.786 I0.5 J0.017 F#104
N2800 G1 X-33.155 Y-12.126
N2805 X-8.86 Y-21.121 F#105
N2810 X-8.273 Y-21.339 F#103
N2815 G3 X-7.6 Y-20.887 I0.174 J0.469
N2820 G1 Y-17.617 F#100
N2825 G3 X-10.262 Y-11.95 I-9.274 J-0.897
N2830 X-15.36 Y-7.706 I-13.118 J-10.573
N2835 G1 X-15.699 Y-7.63
N2840 X-16.042 Y-7.6
N2845 X-19.185
N2850 G3 X-19.493 Y-8.479 I0.017 J-0.5 F#104
N2855 G1 X-19.21 Y-8.721
N2860 X-8.765 Y-17.685 F#105
N2865 X-8.425 Y-17.977 F#103
N2870 G3 X-7.6 Y-17.615 I0.326 J0.379
N2875 G1 Y-15.163 F#100
N2880 G3 X-9.783 Y-10.521 I-7.497 J-0.691
N2885 X-12.93 Y-7.67 I-8.998 J-6.77
N2890 G1 X-13.259 Y-7.625
N2895 X-13.578 Y-7.6
N2900 X-16.042
N2905 G3 X-16.356 Y-8.473 I0.017 J-0.5 F#104
N2910 G1 X-16.072 Y-8.726
N2915 X-8.76 Y-15.225 F#105
N2920 X-8.432 Y-15.517 F#103
N2925 G3 X-7.6 Y-15.161 I0.332 J0.374
N2930 G1 Y-12.913 F#100
N2935 G3 X-9.979 Y-8.389 I-7.316 J-0.959
N2940 X-10.932 Y-7.662 I-4.937 J-5.484 F#106
N2945 G1 X-11.262 Y-7.625 F#100
N2950 X-11.576 Y-7.6
N2955 X-13.578
N2960 G3 X-13.89 Y-8.475 I0.017 J-0.5 F#104
N2965 G1 X-13.606 Y-8.725
N2970 X-8.762 Y-12.977 F#105
N2975 X-8.43 Y-13.269 F#103
N2980 G3 X-7.6 Y-12.911 I0.33 J0.376
N2985 X-7.658 Y-10.386 I-11.3 J1.002 F#100
N2990 X-9.349 Y-7.705 I-3.877 J-0.572
N2995 G1 X-9.743 Y-7.637
N3000 X-10.123 Y-7.6
N3005 G3 X-10.514 Y-8.388 I0.017 J-0.5 F#104
N3010 G1 X-10.229 Y-8.793
N3015 X-8.696 Y-10.964 F#105
N3020 X-8.508 Y-11.229 F#103
N3025 G3 X-7.6 Y-10.958 I0.408 J0.288
N3030 G1 Y-9.23 F#100
N3035 G3 X-9.195 Y-7.6 I-1.597 J0.033
N3040 G1 X-9.282 Y-7.611 F#104
N3045 X-9.367 Y-7.637
N3050 X-9.446 Y-7.678
N3055 X-9.516 Y-7.732
N3060 X-9.576 Y-7.797
N3065 X-9.623 Y-7.872
N3070 X-9.656 Y-7.954
N3075 X-9.674 Y-8.041
N3080 X-9.676 Y-8.13
N3085 X-9.663 Y-8.217
N3090 X-9.635 Y-8.301
N3095 X-9.592 Y-8.379
N3100 X-9.536 Y-8.447
N3105 X-9.245 Y-8.748
N3110 X-8.739 Y-9.271 F#105
N3115 X-8.459 Y-9.56 F#103
N3120 G3 X-7.6 Y-9.23 I0.359 J0.348
N3125 G1 Y-8.378 F#100
N3130 G3 X-8.363 Y-7.601 I-0.755 J0.021
N3135 G1 X-8.456 Y-7.61 F#104
N3140 X-8.548 Y-7.63
N3145 X-8.637 Y-7.662
N3150 X-8.721 Y-7.704
N3155 X-8.799 Y-7.756
N3160 X-8.871 Y-7.818
N3165 G3 X-8.985 Y-8.742 I0.523 J-0.534
N3170 X-8.748 Y-8.983 I0.638 J0.39 F#105
N3175 X-7.6 Y-8.378 I0.4 J0.631 F#103
N3180 X-8.105 Y-7.6 I-0.553 J0.194 F#100
N3185 G1 X-11.576
N3190 G3 X-11.552 Y-8.6 I0.017 J-0.5 F#104
N3195 G1 X-11.541 Y-8.599
N3200 X-11.455 Y-8.596 Z-10.892
N3205 X-11.37 Y-8.593 Z-10.87
N3210 X-11.292 Y-8.591 Z-10.833
N3215 X-11.22 Y-8.588 Z-10.783
N3220 X-11.159 Y-8.586 Z-10.721
N3225 X-11.109 Y-8.584 Z-10.65
N3230 X-11.072 Y-8.583 Z-10.571
N3235 X-11.049 Y-8.582 Z-10.487
N3240 X-11.042 Z-10.4
N3245 G0 Z4.
(CIRCULAR1)
N3255 M8
N3260 G0 Z15.
N3265 X-44.636 Y-8.071
N3270 #100=330. (CUTTING)
N3275 #103=200. (ENTRY)
N3280 #104=200. (EXIT)
N3285 Z1.
N3290 G1 Z-0.4 F#103
N3295 X-44.631 Y-8.076 Z-0.494
N3300 X-44.616 Y-8.091 Z-0.585
N3305 X-44.59 Y-8.117 Z-0.672
N3310 X-44.555 Y-8.152 Z-0.753
N3315 X-44.512 Y-8.195 Z-0.824
N3320 X-44.462 Y-8.246 Z-0.885
N3325 X-44.405 Y-8.302 Z-0.935
N3330 X-44.343 Y-8.364 Z-0.971
N3335 X-44.279 Y-8.429 Z-0.993
N3340 X-44.212 Y-8.495 Z-1.
N3345 X-44. Y-8.707
N3350 G3 X-43.293 I0.354 J0.354
N3355 X-44.707 Y-7.293 I-0.707 J0.707 F#100
N3360 X-43.293 Y-8.707 I0.707 J-0.707
N3365 Y-8. I-0.354 J0.354 F#104
N3370 G1 X-43.505 Y-7.788
N3375 X-43.571 Y-7.721 Z-0.993
N3380 X-43.636 Y-7.657 Z-0.971
N3385 X-43.698 Y-7.595 Z-0.935
N3390 X-43.754 Y-7.538 Z-0.885
N3395 X-43.805 Y-7.488 Z-0.824
N3400 X-43.848 Y-7.445 Z-0.753
N3405 X-43.883 Y-7.41 Z-0.672
N3410 X-43.909 Y-7.384 Z-0.585
N3415 X-43.924 Y-7.369 Z-0.494
N3420 X-43.929 Y-7.364 Z-0.4
N3425 G0 Z5.
N3430 Y-44.636
N3435 Z1.
N3440 G1 Z-0.4 F#103
N3445 X-43.924 Y-44.631 Z-0.494
N3450 X-43.909 Y-44.616 Z-0.585
N3455 X-43.883 Y-44.59 Z-0.672
N3460 X-43.848 Y-44.555 Z-0.753
N3465 X-43.805 Y-44.512 Z-0.824
N3470 X-43.754 Y-44.462 Z-0.885
N3475 X-43.698 Y-44.405 Z-0.935
N3480 X-43.636 Y-44.343 Z-0.971
N3485 X-43.571 Y-44.279 Z-0.993
N3490 X-43.505 Y-44.212 Z-1.
N3495 X-43.293 Y-44.
N3500 G3 Y-43.293 I-0.354 J0.354
N3505 X-44.707 Y-44.707 I-0.707 J-0.707 F#100
N3510 X-43.293 Y-43.293 I0.707 J0.707
N3515 X-44. I-0.354 J-0.354 F#104
N3520 G1 X-44.212 Y-43.505
N3525 X-44.279 Y-43.571 Z-0.993
N3530 X-44.343 Y-43.636 Z-0.971
N3535 X-44.405 Y-43.698 Z-0.935
N3540 X-44.462 Y-43.754 Z-0.885
N3545 X-44.512 Y-43.805 Z-0.824
N3550 X-44.555 Y-43.848 Z-0.753
N3555 X-44.59 Y-43.883 Z-0.672
N3560 X-44.616 Y-43.909 Z-0.585
N3565 X-44.631 Y-43.924 Z-0.494
N3570 X-44.636 Y-43.929 Z-0.4
N3575 G0 Z5.
N3580 X-8.636 Y-44.071
N3585 Z1.
N3590 G1 Z-0.4 F#103
N3595 X-8.631 Y-44.076 Z-0.494
N3600 X-8.616 Y-44.091 Z-0.585
N3605 X-8.59 Y-44.117 Z-0.672
N3610 X-8.555 Y-44.152 Z-0.753
N3615 X-8.512 Y-44.195 Z-0.824
N3620 X-8.462 Y-44.246 Z-0.885
N3625 X-8.405 Y-44.302 Z-0.935
N3630 X-8.343 Y-44.364 Z-0.971
N3635 X-8.279 Y-44.429 Z-0.993
N3640 X-8.212 Y-44.495 Z-1.
N3645 X-8. Y-44.707
N3650 G3 X-7.293 I0.354 J0.354
N3655 X-8.707 Y-43.293 I-0.707 J0.707 F#100
N3660 X-7.293 Y-44.707 I0.707 J-0.707
N3665 Y-44. I-0.354 J0.354 F#104
N3670 G1 X-7.505 Y-43.788
N3675 X-7.571 Y-43.721 Z-0.993
N3680 X-7.636 Y-43.657 Z-0.971
N3685 X-7.698 Y-43.595 Z-0.935
N3690 X-7.754 Y-43.538 Z-0.885
N3695 X-7.805 Y-43.488 Z-0.824
N3700 X-7.848 Y-43.445 Z-0.753
N3705 X-7.883 Y-43.41 Z-0.672
N3710 X-7.909 Y-43.384 Z-0.585
N3715 X-7.924 Y-43.369 Z-0.494
N3720 X-7.929 Y-43.364 Z-0.4
N3725 G0 Z15.
N3735 M9
N3740 G53 Z0.
N3745 M30
%
