%
(1001)
(T10  D=6. CR=0. - ZMIN=-40. - FLAT END MILL)
N10 G90 G94 G17 G91.1
N15 G21
N20 G53 G0 Z0.
(2D ADAPTIVE2 2)
N25 M9
N30 T10 M6
N35 S4000 M3
N40 G54
N45 M9
N55 G0 X-26.602 Y-27.783
N60 G43 Z0.1 H10
N65 #100=800. (CUTTING)
N70 #103=600. (ENTRY)
N75 #104=600. (EXIT)
N80 #105=3000. (DIRECT)
N85 #106=400. (REDUCED)
N90 #107=600. (RAMPING)
N95 G0 Z-11.3
N100 G1 Z-11.8 F#103
N105 S3800
N110 G3 X-28.815 Y-32.392 Z-12.111 I0.602 J-3.125 F#107
N115 X-23.805 Y-33.165 Z-12.422 I2.792 J1.471
N120 X-24.515 Y-28.189 Z-12.733 I-2.2 J2.224
N125 X-29.031 Y-30.296 Z-13.045 I-1.477 J-2.727
N130 X-25.732 Y-33.972 Z-13.356 I3.012 J-0.615
N135 X-23.195 Y-29.785 Z-13.667 I-0.284 J3.034
N140 X-27.896 Y-28.585 Z-13.978 I-2.796 J-1.143
N145 X-27.681 Y-33.388 Z-14.289 I1.888 J-2.322
N150 X-23.189 Y-31.801 Z-14.6 I1.658 J2.459
N155 X-25.986 Y-27.998 Z-14.912 I-2.809 J0.864
N160 X-28.786 Y-31.745 Z-15.223 I-0.011 J-2.912
N165 X-24.428 Y-33.321 Z-15.534 I2.763 J0.828
N170 X-24.189 Y-28.737 Z-15.845 I-1.58 J2.381
N175 X-28.603 Y-29.829 Z-16.156 I-1.802 J-2.182
N180 X-26.298 Y-33.698 Z-16.467 I2.587 J-1.08
N185 X-23.294 Y-30.401 Z-16.778 I0.279 J2.762
N190 X-27.283 Y-28.503 Z-17.09 I-2.698 J-0.53
N195 X-27.933 Y-32.828 Z-17.401 I1.278 J-2.403
N200 X-23.649 Y-32.2 Z-17.712 I1.909 J1.902
N205 X-25.476 Y-28.323 Z-18.023 I-2.351 J1.262
N210 X-28.623 Y-31.168 Z-18.334 I-0.519 J-2.589
N215 X-25.024 Y-33.331 Z-18.645 I2.601 J0.253
N220 X-24.011 Y-29.3 Z-18.957 I-0.988 J2.391
N225 X-28.118 Y-29.5 Z-19.268 I-1.98 J-1.622
N230 X-26.749 Y-33.331 Z-19.579 I2.105 J-1.408
N235 X-23.515 Y-30.934 Z-19.89 I0.728 J2.397
N240 X-28.526 I-2.505 J0.
N245 X-23.515 I2.505 J0.
N250 S4000
N255 X-23.407 Y-29.467 I-2.706 J0.938 F#100
N260 X-28.118 Y-28.332 I-2.732 J-0.997
N265 X-23.955 Y-33.631 I2.081 J-2.65
N270 X-22.99 Y-32.421 I-2.081 J2.649
N275 X-27.392 Y-26.852 I-3.086 J2.085
N280 X-24.735 Y-35.143 I1.329 J-4.145
N285 X-22.953 Y-34.043 I-1.329 J4.145
N290 X-28.407 Y-26.111 I-3.193 J3.645
N295 X-30.869 Y-33.547 I2.33 J-4.897
N300 X-23.333 Y-35.684 I4.791 J2.54
N305 X-28.733 Y-25.008 I-2.83 J5.272
N310 X-32.055 Y-33.749 I2.646 J-6.007
N315 X-23.266 Y-36.942 I5.967 J2.734
N320 X-28.608 Y-23.69 I-2.883 J6.54
N325 X-26.474 Y-38.733 I2.471 J-7.322
N330 X-23.495 Y-22.504 I0.39 J8.316
N335 X-32.973 Y-36.721 I-2.761 J-8.428
N340 X-18.187 Y-35.756 I7.045 J5.822
N345 X-28.836 Y-21.145 I-7.956 J5.387
N350 X-30.054 Y-40.452 I2.651 J-9.859
N355 X-15.537 Y-27.996 I4.103 J9.906
N360 X-33.883 Y-22.459 I-10.753 J-2.469
N365 X-21.85 Y-41.828 I7.806 J-8.572
N370 X-26.674 Y-18.187 I-4.257 J11.444
N375 X-30.018 Y-18.786 I-0.381 J-7.507
N380 G2 X-32.455 Y-20.064 I-3.062 J2.875
N385 G3 X-38.796 Y-33.087 I5.418 J-10.693
N390 X-37.733 Y-36.39 I7.447 J0.574
N395 G1 X-37.511 Y-36.55
N400 X-37.297 Y-36.721
N405 X-37.093 Y-36.903
N410 X-36.897 Y-37.096
N415 X-36.712 Y-37.297
N420 X-36.538 Y-37.508
N425 X-36.374 Y-37.728
N430 X-36.222 Y-37.956
N435 X-36.081 Y-38.191
N440 X-35.953 Y-38.433
N445 X-35.837 Y-38.681
N450 X-35.733 Y-38.934
N455 X-35.643 Y-39.193
N460 G3 X-29.618 Y-43.403 I8.719 J6.063
N465 G1 X-29.399 Y-43.4
N470 X-23.955
N475 G3 X-17.346 Y-40.736 I-0.402 J10.527
N480 X-16.497 Y-39.888 I-7.011 J7.863 F#106
N485 G2 X-15.765 Y-37.852 I18.339 J-5.445 F#100
N490 G3 X-13.251 Y-34.31 I-7.64 J8.088
N495 X-28.258 Y-16.982 I-12.846 J4.037
N500 X-29.41 Y-17.971 I0.59 J-1.852
N505 G1 X-29.454 Y-18.228 F#104
N510 X-29.388 Y-18.433
N515 X-28.731 Y-19.309
N520 X-16.071 Y-36.189 F#105
N525 X-15.57 Y-36.858 F#103
N530 X-15.161 Y-37.009
N535 X-14.886 Y-36.892
N540 G3 X-13.091 Y-35.687 I-40.199 J61.824 F#100
N545 X-11.381 Y-28.854 I-7.269 J5.45
N550 X-27.593 Y-15.547 I-14.675 J-1.35
N555 X-29.234 Y-17.686 I0.78 J-2.297
N560 G1 X-29.334 Y-17.819
N565 X-29.41 Y-17.971
N570 G3 X-29.338 Y-18.503 I0.454 J-0.21 F#104
N575 G1 X-28.691 Y-19.27
N580 X-15.099 Y-35.358 F#105
N585 X-14.46 Y-36.115 F#103
N590 G3 X-13.934 Y-36.271 I0.382 J0.323
N595 X-10.695 Y-33.286 I-0.643 J3.947 F#100
N600 X-10.464 Y-26.202 I-10.259 J3.881
N605 X-26.538 Y-14.109 I-15.587 J-3.988
N610 X-28.628 Y-15.183 I0.233 J-3.025
N615 X-28.986 Y-16.798 I4.474 J-1.836
N620 G1 X-29.065 Y-17.018
N625 G3 X-28.961 Y-17.449 I0.488 J-0.111 F#104
N630 G1 X-28.249 Y-18.302
N635 X-14.258 Y-35.058 F#105
N640 X-13.589 Y-35.859 F#103
N645 G3 X-13.116 Y-36.03 I0.384 J0.32
N650 X-11.435 Y-35.68 I-0.567 J6.927 F#100
N655 X-8.916 Y-31.164 I-3.6 J4.969
N660 X-11.178 Y-21.068 I-14.071 J2.149
N665 X-25.897 Y-12.74 I-14.796 J-8.98
N670 X-28.383 Y-13.657 I0.378 J-4.853
N675 X-28.874 Y-16.176 I2.64 J-1.821
N680 G1 X-28.876 Y-16.26 F#104
N685 X-28.864 Y-16.345
N690 X-28.836 Y-16.427
N695 X-28.792 Y-16.505
N700 X-28.008 Y-17.441
N705 X-13.411 Y-34.867 F#105
N710 X-12.685 Y-35.733 F#103
N715 G3 X-12.298 Y-35.912 I0.383 J0.321
N720 G1 X-12.077 Y-35.936 F#100
N725 X-11.855 Y-35.946
N730 X-11.633 Y-35.942
N735 X-11.412 Y-35.925
N740 X-11.192 Y-35.893
N745 X-10.975 Y-35.848
N750 X-10.761 Y-35.789
N755 X-10.551 Y-35.717
N760 X-10.346 Y-35.632
N765 G3 X-7.653 Y-31.033 I-3.435 J5.099
N770 X-8.76 Y-22.735 I-13.357 J2.441
N775 X-10.462 Y-21.211 I-12.696 J-12.465
N780 G2 X-12.173 Y-18.01 I8.321 J6.507
N785 G3 X-23.3 Y-11.569 I-12.91 J-9.469
N790 X-28.201 Y-12.22 I-1.554 J-7.07
N795 X-28.9 Y-13.801 I1.529 J-1.622
N800 G1 Y-15.049
N805 G3 X-28.523 Y-15.516 I0.5 J0.017 F#104
N810 G1 X-27.625 Y-15.745
N815 X-12.898 Y-19.484 F#105
N820 X-12.375 Y-19.617 F#103
N825 G3 X-11.766 Y-19.013 I0.123 J0.485
N830 X-12.454 Y-16.206 I-12.771 J-1.644 F#100
N835 X-19.063 Y-11.242 I-10.383 J-6.942
N840 X-27.251 Y-10.454 I-5.235 J-11.464
N845 X-28.889 Y-12.164 I0.816 J-2.421
N850 G1 X-28.9 Y-12.53
N855 Y-13.801
N860 G3 X-28.512 Y-14.271 I0.5 J0.017 F#104
N865 G1 X-27.62 Y-14.476
N870 X-13.336 Y-17.753 F#105
N875 X-12.685 Y-17.902 F#103
N880 G3 X-12.073 Y-17.41 I0.112 J0.487
N885 X-12.295 Y-15.104 I-6.989 J0.489 F#100
N890 X-17.049 Y-10.655 I-8.409 J-4.22
N895 X-26.501 Y-8.939 I-7.198 J-12.761
N900 X-28.668 Y-10.23 I0.723 J-3.68
N905 G1 X-28.784 Y-10.563
N910 X-28.871 Y-10.895
N915 X-28.9 Y-11.236
N920 Y-12.53
N925 G3 X-28.513 Y-13. I0.5 J0.017 F#104
N930 G1 X-27.62 Y-13.206
N935 X-13.384 Y-16.498 F#105
N940 X-12.712 Y-16.653 F#103
N945 G3 X-12.1 Y-16.183 I0.113 J0.487
N950 X-12.151 Y-14.088 I-8.496 J0.84 F#100
N955 X-15.624 Y-9.983 I-6.709 J-2.154
N960 X-19.925 Y-8.1 I-6.249 J-8.418
N965 G1 X-26.205
N970 G3 X-28.909 Y-9.828 I-0.321 J-2.477
N975 G1 X-28.9 Y-10.193
N980 G3 X-28.107 Y-10.581 I0.5 J0.017 F#104
N985 G1 X-27.71 Y-10.294
N990 X-26.197 Y-9.199 F#105
N995 X-25.929 Y-9.005 F#103
N1000 G3 X-26.205 Y-8.1 I-0.293 J0.405
N1005 G1 X-27.799 F#100
N1010 G3 X-28.899 Y-9.199 I-0.005 J-1.095
N1015 G1 X-28.888 Y-9.287 F#104
N1020 X-28.862 Y-9.372
N1025 X-28.821 Y-9.451
N1030 X-28.766 Y-9.521
N1035 X-28.7 Y-9.581
N1040 X-28.625 Y-9.628
N1045 X-28.542 Y-9.661
N1050 X-28.454 Y-9.678
N1055 X-28.365 Y-9.68
N1060 X-28.277 Y-9.666
N1065 X-28.193 Y-9.636
N1070 X-28.116 Y-9.592
N1075 X-28.047 Y-9.535
N1080 X-27.756 Y-9.245
N1085 X-27.754 Y-9.243 F#105
N1090 X-27.464 Y-8.954 F#103
N1095 G3 X-27.799 Y-8.1 I-0.353 J0.354
N1100 X-28.557 Y-8.126 I-0.27 J-3.18 F#100
N1105 G1 X-28.614 Y-8.16 F#104
N1110 X-28.663 Y-8.205
N1115 X-28.703 Y-8.257
N1120 X-28.731 Y-8.317
N1125 X-28.748 Y-8.38
N1130 X-28.752 Y-8.446
N1135 G3 X-28.747 Y-8.5 I0.341 J0.008 F#103
N1140 X-28.087 Y-8.379 I0.33 J0.06
N1145 X-28.413 Y-8.104 I-0.33 J-0.06
N1150 X-28.899 Y-8.616 I0.027 J-0.513 F#100
N1155 G1 X-28.9 Y-11.236
N1160 X-28.827 Y-11.48 F#104
N1165 X-27.998 Y-12.502
N1170 X-26.342 Y-14.547 F#105
N1175 G2 X-25.844 Y-16.183 I-1.528 J-1.358
N1180 G1 X-26.266 Y-18.433
N1185 X-26.505 Y-19.251
N1190 G2 X-28.045 Y-20.635 I-1.948 J0.619
N1195 G1 X-28.868 Y-20.683
N1200 X-30.406 Y-20.301
N1205 X-31.931 Y-19.922 F#103
N1210 G2 X-33.528 Y-20.1 I-1.316 J4.573 F#100
N1215 G3 X-37.754 Y-23.044 I1.278 J-6.339
N1220 X-39.724 Y-35.087 I10.599 J-7.917
N1225 X-38.362 Y-36.174 I1.829 J0.894
N1230 G1 X-38.28 Y-36.189 F#104
N1235 X-38.196 Y-36.19
N1240 X-38.113 Y-36.176
N1245 X-38.033 Y-36.149
N1250 X-37.959 Y-36.109
N1255 X-37.893 Y-36.057
N1260 X-37.836 Y-35.995
N1265 X-37.791 Y-35.924
N1270 X-37.759 Y-35.846
N1275 X-37.51 Y-35.074
N1280 X-33.102 Y-21.369 F#105
N1285 X-32.904 Y-20.753 F#103
N1290 G3 X-33.362 Y-20.1 I-0.476 J0.153
N1295 X-35.681 Y-20.188 I-0.855 J-8.095 F#100
N1300 X-39.794 Y-23.85 I2.416 J-6.855
N1305 X-41.25 Y-34.567 I11.904 J-7.075
N1310 X-38.888 Y-35.984 I2.173 J0.946
N1315 G1 X-38.68 Y-36.08
N1320 X-38.499 Y-36.135
N1325 G3 X-37.883 Y-35.76 I0.128 J0.483 F#104
N1330 G1 X-37.716 Y-35.013
N1335 X-34.679 Y-21.385 F#105
N1340 X-34.528 Y-20.708 F#103
N1345 G3 X-34.999 Y-20.1 I-0.488 J0.109
N1350 X-37.272 Y-20.188 I-0.851 J-7.401 F#100
N1355 X-41.498 Y-24.347 I2.581 J-6.85
N1360 X-42.634 Y-34.384 I12.235 J-6.467
N1365 G1 X-42.563 Y-34.558
N1370 X-42.478 Y-34.726
N1375 X-42.379 Y-34.887
N1380 X-42.269 Y-35.04
N1385 X-42.146 Y-35.183
N1390 X-42.013 Y-35.316
N1395 X-41.869 Y-35.438
N1400 X-41.716 Y-35.548
N1405 X-41.555 Y-35.645
N1410 X-41.386 Y-35.729
N1415 X-41.211 Y-35.8
N1420 X-41.031 Y-35.856
N1425 X-40.848 Y-35.897
N1430 X-40.661 Y-35.924
N1435 X-40.473 Y-35.936
N1440 X-40.285 Y-35.933
N1445 X-40.097 Y-35.915
N1450 X-39.912 Y-35.882
N1455 X-39.498 Y-35.921
N1460 G3 X-39.003 Y-35.515 I0.004 J0.5 F#104
N1465 G1 X-38.838 Y-34.654
N1470 X-36.294 Y-21.389 F#105
N1475 X-36.161 Y-20.694 F#103
N1480 G3 X-36.635 Y-20.1 I-0.491 J0.094
N1485 X-38.807 Y-20.19 I-0.805 J-6.827 F#100
N1490 X-42.589 Y-23.696 I2.367 J-6.346
N1495 X-43.972 Y-34.34 I12.043 J-6.976
N1500 X-42.27 Y-35.87 I2.26 J0.803
N1505 G1 X-41.922 Y-35.9
N1510 X-40.619
N1515 G3 X-40.143 Y-35.482 I-0.017 J0.5 F#104
N1520 G1 X-39.999 Y-34.609
N1525 X-37.82 Y-21.393 F#105
N1530 X-37.703 Y-20.681 F#103
N1535 G3 X-38.179 Y-20.1 I-0.493 J0.081
N1540 X-40.427 Y-20.23 I-0.766 J-6.249 F#100
N1545 X-44.217 Y-24.09 I2.792 J-6.533
N1550 X-44.9 Y-25.938 I2.617 J-2.017
N1555 G1 Y-33.57
N1560 G3 X-42.87 Y-35.916 I2.124 J-0.214
N1565 G1 X-42.783 Y-35.904 F#104
N1570 X-42.699 Y-35.878
N1575 X-42.62 Y-35.838
N1580 X-42.55 Y-35.785
N1585 X-42.491 Y-35.721
N1590 X-42.443 Y-35.648
N1595 X-42.408 Y-35.568
N1600 X-42.388 Y-35.483
N1605 X-42.382 Y-35.396
N1610 X-42.392 Y-35.31
N1615 X-42.415 Y-35.227
N1620 X-42.453 Y-35.15
N1625 X-42.503 Y-35.08
N1630 X-42.795 Y-34.73
N1635 X-43.783 Y-33.545 F#105
N1640 X-44.016 Y-33.264 F#103
N1645 G3 X-44.9 Y-33.567 I-0.384 J-0.32
N1650 G1 Y-34.857 F#100
N1655 G3 X-43.854 Y-35.899 I1.04 J-0.002
N1660 G1 X-43.734 Y-35.888 F#104
N1665 X-43.616 Y-35.862
N1670 X-43.502 Y-35.823
N1675 X-43.394 Y-35.77
N1680 X-43.292 Y-35.704
N1685 X-43.2 Y-35.627
N1690 X-43.117 Y-35.54
N1695 X-43.045 Y-35.443
N1700 X-42.985 Y-35.338
N1705 X-42.938 Y-35.227
N1710 X-42.904 Y-35.111
N1715 X-42.885 Y-34.992
N1720 X-42.88 Y-34.871
N1725 G3 X-42.913 Y-34.637 I-1.009 J-0.02 F#105
N1730 X-43.871 Y-33.881 I-0.978 J-0.254
N1735 X-44.9 Y-34.856 I-0.019 J-1.01 F#103
N1740 X-44.815 Y-35.666 I1.012 J-0.304 F#100
N1745 X-44.406 Y-35.9 I0.43 J0.278
N1750 G1 X-41.922
N1755 X-40.375 Y-35.624 F#104
N1760 X-39.161 Y-35.408 F#105
N1765 G2 X-37.573 Y-36.021 I0.374 J-1.394
N1770 G1 X-36.786 Y-37.146
N1775 X-36.142 Y-38.066 F#103
N1780 X-35.96 Y-38.475
N1785 G3 X-35.291 Y-40.953 I15.95 J2.981 F#100
N1790 X-32.485 Y-43.409 I5.006 J2.887
N1795 G1 X-32.153 Y-43.4
N1800 G3 X-31.805 Y-42.559 I-0.017 J0.5 F#104
N1805 G1 X-32.097 Y-42.247
N1810 X-34.574 Y-39.589 F#105
N1815 X-34.812 Y-39.334 F#103
N1820 G3 X-35.677 Y-39.702 I-0.366 J-0.341
N1825 X-35.47 Y-41.897 I6.647 J-0.48 F#100
N1830 X-33.472 Y-43.4 I2.056 J0.653
N1835 X-33.108 Y-42.576 I-0.017 J0.5 F#104
N1840 G1 X-33.4 Y-42.233
N1845 X-34.53 Y-40.905 F#105
N1850 X-34.769 Y-40.623 F#103
N1855 G3 X-35.65 Y-40.929 I-0.381 J-0.324
N1860 G1 Y-42.218 F#100
N1865 G3 X-34.465 Y-43.399 I1.181 J0.
N1870 G1 X-34.376 Y-43.388 F#104
N1875 X-34.291 Y-43.362
N1880 X-34.212 Y-43.321
N1885 X-34.142 Y-43.266
N1890 X-34.082 Y-43.2
N1895 X-34.035 Y-43.124
N1900 X-34.003 Y-43.041
N1905 X-33.985 Y-42.953
N1910 X-33.984 Y-42.864
N1915 X-33.998 Y-42.776
N1920 X-34.028 Y-42.692
N1925 X-34.072 Y-42.614
N1930 X-34.13 Y-42.546
N1935 X-34.42 Y-42.258
N1940 X-34.506 Y-42.172 F#105
N1945 X-34.798 Y-41.881 F#103
N1950 G3 X-35.65 Y-42.218 I-0.353 J-0.354
N1955 X-35.63 Y-43.027 I2.402 J-0.346 F#100
N1960 X-35.201 Y-43.281 I0.377 J0.147 F#104
N1965 X-35.302 Y-42.491 I-0.05 J0.395
N1970 X-35.65 Y-42.872 I0.05 J-0.395
N1975 X-34.999 Y-43.4 I0.543 J0.005 F#100
N1980 G1 X-29.399
N1985 X-27.828 F#104
N1990 X-25.526 F#105
N1995 X-23.955 F#103
N2000 X-20.683 F#100
N2005 G3 X-16.644 Y-41.629 I-0.281 J6.132
N2010 G1 X-16.495 Y-41.262
N2015 X-16.387 Y-40.895
N2020 X-16.35 Y-40.515
N2025 G3 X-17.113 Y-40.107 I-0.5 J-0.017 F#104
N2030 G1 X-17.559 Y-40.384
N2035 X-20.678 Y-42.32 F#105
N2040 X-20.929 Y-42.475 F#103
N2045 G3 X-20.683 Y-43.4 I0.264 J-0.425
N2050 X-17.895 Y-43.35 I1.15 J13.496 F#100
N2055 X-16.349 Y-41.418 I-0.442 J1.938
N2060 G1 X-16.36 Y-41.331 F#104
N2065 X-16.386 Y-41.247
N2070 X-16.426 Y-41.168
N2075 X-16.48 Y-41.098
N2080 X-16.544 Y-41.039
N2085 X-16.619 Y-40.992
N2090 X-16.7 Y-40.958
N2095 X-16.786 Y-40.939
N2100 X-16.874 Y-40.936
N2105 X-16.961 Y-40.948
N2110 X-17.044 Y-40.975
N2115 X-17.122 Y-41.016
N2120 X-17.191 Y-41.07
N2125 X-17.503 Y-41.362
N2130 X-18.47 Y-42.266 F#105
N2135 X-18.757 Y-42.535 F#103
N2140 G3 X-18.433 Y-43.4 I0.342 J-0.365
N2145 G1 X-17.35 F#100
N2150 G3 X-16.351 Y-42.392 I0. J0.999
N2155 G1 X-16.363 Y-42.272 F#104
N2160 X-16.389 Y-42.155
N2165 X-16.43 Y-42.041
N2170 X-16.485 Y-41.934
N2175 X-16.553 Y-41.834
N2180 X-16.633 Y-41.744
N2185 X-16.723 Y-41.664
N2190 X-16.823 Y-41.596
N2195 X-16.93 Y-41.54
N2200 X-17.044 Y-41.499
N2205 X-17.161 Y-41.472
N2210 X-17.282 Y-41.461
N2215 X-17.402 Y-41.464
N2220 G3 X-17.567 Y-41.493 I0.086 J-0.962 F#105
N2225 X-18.282 Y-42.35 I0.252 J-0.937
N2230 X-17.349 Y-43.4 I0.967 J-0.08 F#103
N2235 X-16.518 Y-43.262 I0.279 J0.885 F#100
N2240 X-16.35 Y-42.872 I-0.333 J0.374
N2245 G1 Y-40.111
N2250 X-16.342 Y-39.907
N2255 X-16.305 Y-39.498
N2260 X-16.264 Y-39.293
N2265 X-15.81 Y-37.79 F#104
N2270 X-15.523 Y-36.839 F#105
N2275 G2 X-14.343 Y-35.903 I1.267 J-0.384
N2280 G1 X-12.938 Y-35.901
N2285 X-11.367 Y-35.9 F#103
N2290 G3 X-9.375 Y-35.708 I0.615 J4.055 F#100
N2295 X-7.056 Y-32.758 I-1.871 J3.857
N2300 G1 X-7.068 Y-32.668 F#104
N2305 X-7.094 Y-32.581
N2310 X-7.135 Y-32.501
N2315 X-7.188 Y-32.43
N2320 X-7.251 Y-32.368
N2325 X-7.324 Y-32.318
N2330 X-7.403 Y-32.282
N2335 X-7.487 Y-32.259
N2340 X-7.573 Y-32.25
N2345 X-7.659 Y-32.256
N2350 X-7.742 Y-32.276
N2355 X-7.82 Y-32.31
N2360 X-7.891 Y-32.355
N2365 X-7.953 Y-32.412
N2370 X-8.243 Y-32.702
N2375 X-10.299 Y-34.757 F#105
N2380 X-10.589 Y-35.047 F#103
N2385 G3 X-10.252 Y-35.9 I0.354 J-0.354
N2390 X-8.361 Y-35.761 I0.625 J4.454 F#100
N2395 X-7.099 Y-33.898 I-0.758 J1.872
N2400 G1 X-7.11 Y-33.81 F#104
N2405 X-7.137 Y-33.725
N2410 X-7.178 Y-33.646
N2415 X-7.233 Y-33.575
N2420 X-7.299 Y-33.515
N2425 X-7.374 Y-33.469
N2430 X-7.457 Y-33.436
N2435 X-7.544 Y-33.418
N2440 X-7.633 Y-33.416
N2445 X-7.721 Y-33.43
N2450 X-7.805 Y-33.46
N2455 X-7.883 Y-33.503
N2460 X-7.951 Y-33.56
N2465 X-8.245 Y-33.85
N2470 X-9.162 Y-34.758 F#105
N2475 X-9.452 Y-35.045 F#103
N2480 G3 X-9.117 Y-35.9 I0.352 J-0.355
N2485 G1 X-8.099 F#100
N2490 G3 X-7.101 Y-34.894 I0. J0.997
N2495 G1 X-7.113 Y-34.774 F#104
N2500 X-7.14 Y-34.656
N2505 X-7.181 Y-34.543
N2510 X-7.236 Y-34.435
N2515 X-7.304 Y-34.336
N2520 X-7.384 Y-34.245
N2525 X-7.474 Y-34.165
N2530 X-7.574 Y-34.098
N2535 X-7.682 Y-34.043
N2540 X-7.795 Y-34.002
N2545 X-7.913 Y-33.976
N2550 X-8.033 Y-33.965
N2555 X-8.154 Y-33.969
N2560 G3 X-8.315 Y-33.998 I0.092 J-0.959 F#105
N2565 X-9.026 Y-34.849 I0.254 J-0.934
N2570 X-8.095 Y-35.9 I0.965 J-0.083 F#103
N2575 X-7.29 Y-35.783 I0.29 J0.839 F#100
N2580 X-7.1 Y-35.408 I-0.327 J0.4
N2585 G1 Y-24.977
N2590 G3 X-8.405 Y-22.629 I-2.256 J0.283
N2595 G1 X-8.491 Y-22.607 F#104
N2600 X-8.579 Y-22.6
N2605 X-8.668 Y-22.608
N2610 X-8.753 Y-22.631
N2615 X-8.833 Y-22.668
N2620 X-8.905 Y-22.718
N2625 X-8.967 Y-22.78
N2630 X-9.018 Y-22.851
N2635 X-9.056 Y-22.93
N2640 X-9.079 Y-23.014
N2645 X-9.088 Y-23.1
N2650 X-9.082 Y-23.187
N2655 X-9.061 Y-23.271
N2660 X-9.026 Y-23.35
N2665 X-8.854 Y-23.671
N2670 X-8.164 Y-24.964 F#105
N2675 X-8.041 Y-25.195 F#103
N2680 G3 X-7.1 Y-24.977 I0.441 J0.235
N2685 G1 Y-23.546 F#100
N2690 X-7.112 Y-23.396
N2695 X-7.114 Y-23.383
N2700 G3 X-7.65 Y-23.023 I-0.492 J-0.153 F#104
N2705 X-7.563 Y-24.033 I0.044 J-0.505
N2710 X-7.1 Y-23.546 I-0.044 J0.505
N2715 X-7.594 Y-22.965 I-0.561 J0.024 F#100
N2720 G2 X-9.271 Y-22.218 I2.274 J7.36
N2725 G1 X-9.495 Y-22.129 F#104
N2730 X-10.821 Y-22.041
N2735 X-12.802 Y-21.91 F#105
N2740 G2 X-14.504 Y-20.478 I0.073 J1.814
N2745 G1 X-14.902 Y-18.433
N2750 G2 X-14.343 Y-16.858 I1.799 J0.248
N2755 G1 X-13.132 Y-15.694
N2760 X-12.152 Y-14.752 F#103
N2765 X-12.1 Y-14.547
N2770 G3 X-12.191 Y-12.365 I-6.903 J0.805 F#100
N2775 X-16.366 Y-8.118 I-6.855 J-2.562
N2780 G1 X-16.737 Y-8.1
N2785 X-19.925
N2790 G3 X-20.165 Y-9.028 I0.017 J-0.5 F#104
N2795 G1 X-19.918 Y-9.176
N2800 X-13.314 Y-13.14 F#105
N2805 X-12.857 Y-13.414 F#103
N2810 G3 X-12.1 Y-13.003 I0.257 J0.429
N2815 X-12.187 Y-10.851 I-6.983 J0.794 F#100
N2820 X-14.222 Y-8.176 I-4.336 J-1.187
N2825 G1 X-14.566 Y-8.128
N2830 X-14.898 Y-8.1
N2835 G3 X-15.272 Y-8.911 I0.017 J-0.5 F#104
N2840 G1 X-14.981 Y-9.276
N2845 X-13.211 Y-11.497 F#105
N2850 X-12.991 Y-11.774 F#103
N2855 G3 X-12.1 Y-11.48 I0.391 J0.312
N2860 X-12.148 Y-9.533 I-9.446 J0.741 F#100
N2865 X-13.946 Y-8.099 I-1.804 J-0.418
N2870 G1 X-14.034 Y-8.11 F#104
N2875 X-14.118 Y-8.136
N2880 X-14.196 Y-8.176
N2885 X-14.266 Y-8.229
N2890 X-14.325 Y-8.294
N2895 X-14.373 Y-8.368
N2900 X-14.406 Y-8.449
N2905 X-14.425 Y-8.535
N2910 X-14.429 Y-8.623
N2915 X-14.417 Y-8.71
N2920 X-14.39 Y-8.793
N2925 X-14.349 Y-8.871
N2930 X-14.295 Y-8.94
N2935 X-14.004 Y-9.254
N2940 X-13.233 Y-10.084 F#105
N2945 X-12.966 Y-10.371 F#103
N2950 G3 X-12.1 Y-10.048 I0.366 J0.34
N2955 G1 Y-9.025 F#100
N2960 G3 X-13.023 Y-8.101 I-0.916 J0.009
N2965 G1 X-13.111 Y-8.112 F#104
N2970 X-13.196 Y-8.138
N2975 X-13.275 Y-8.179
N2980 X-13.345 Y-8.234
N2985 X-13.405 Y-8.3
N2990 X-13.452 Y-8.375
N2995 X-13.484 Y-8.458
N3000 X-13.502 Y-8.545
N3005 X-13.504 Y-8.634
N3010 X-13.49 Y-8.722
N3015 X-13.461 Y-8.806
N3020 X-13.417 Y-8.884
N3025 X-13.36 Y-8.952
N3030 X-13.242 Y-9.071
N3035 X-12.954 Y-9.36 F#103
N3040 G3 X-12.1 Y-9.025 I0.355 J0.352
N3045 X-12.353 Y-8.173 I-0.689 J0.259 F#100
N3050 G1 X-12.403 Y-8.146
N3055 X-12.453 Y-8.127
N3060 X-12.502 Y-8.113
N3065 X-12.553 Y-8.104
N3070 X-12.604 Y-8.1
N3075 X-16.737
N3080 G3 X-17.21 Y-8.698 I0.017 J-0.5 F#104
N3085 G1 X-17.169 Y-8.898
N3090 X-17.152 Y-8.983 Z-19.882
N3095 X-17.136 Y-9.066 Z-19.86
N3100 X-17.12 Y-9.143 Z-19.823
N3105 X-17.106 Y-9.213 Z-19.773
N3110 X-17.094 Y-9.273 Z-19.711
N3115 X-17.084 Y-9.323 Z-19.64
N3120 X-17.077 Y-9.359 Z-19.561
N3125 X-17.073 Y-9.381 Z-19.477
N3130 X-17.071 Y-9.388 Z-19.39
N3135 G0 Z0.1
N3140 X-39.246 Y-21.394
N3145 Z-19.39
N3150 G1 Z-19.89 F#103
N3155 X-39.134 Y-20.677
N3160 G3 X-39.61 Y-20.1 I-0.494 J0.077
N3165 X-41.75 Y-20.19 I-0.795 J-6.552 F#100
N3170 X-44.816 Y-22.788 I1.765 J-5.192
N3175 G1 X-44.874 Y-23.114
N3180 X-44.9 Y-23.439
N3185 G3 X-44.072 Y-23.799 I0.5 J0.017 F#104
N3190 G1 X-43.736 Y-23.507
N3195 X-41.107 Y-21.223 F#105
N3200 X-40.824 Y-20.977 F#103
N3205 G3 X-41.134 Y-20.1 I-0.328 J0.378
N3210 X-43.174 Y-20.188 I-0.748 J-6.368 F#100
N3215 X-44.913 Y-22.22 I0.434 J-2.132
N3220 G1 X-44.901 Y-22.308 F#104
N3225 X-44.875 Y-22.393
N3230 X-44.834 Y-22.471
N3235 X-44.78 Y-22.542
N3240 X-44.715 Y-22.601
N3245 X-44.641 Y-22.649
N3250 X-44.56 Y-22.683
N3255 X-44.474 Y-22.702
N3260 X-44.387 Y-22.707
N3265 X-44.3 Y-22.696
N3270 X-44.216 Y-22.67
N3275 X-44.139 Y-22.63
N3280 X-44.07 Y-22.578
N3285 X-43.739 Y-22.286
N3290 X-42.536 Y-21.225 F#105
N3295 X-42.252 Y-20.975 F#103
N3300 G3 X-42.566 Y-20.1 I-0.331 J0.375
N3305 G1 X-43.792 F#100
N3310 G3 X-44.899 Y-21.224 I0.009 J-1.116
N3315 G1 X-44.886 Y-21.354 F#104
N3320 X-44.858 Y-21.482
N3325 X-44.815 Y-21.605
N3330 X-44.757 Y-21.722
N3335 X-44.685 Y-21.831
N3340 X-44.6 Y-21.931
N3345 X-44.503 Y-22.019
N3350 X-44.397 Y-22.095
N3355 X-44.282 Y-22.158
N3360 X-44.161 Y-22.206
N3365 X-44.034 Y-22.239
N3370 X-43.904 Y-22.256
N3375 G3 X-43.543 Y-22.22 I0.076 J1.07 F#105
N3380 X-42.754 Y-21.091 I-0.287 J1.041
N3385 X-43.793 Y-20.1 I-1.076 J-0.088 F#103
N3390 X-44.508 Y-20.114 I-0.305 J-2.646 F#100
N3395 X-44.795 Y-20.559 I0.137 J-0.403 F#104
N3400 X-43.963 Y-20.477 I0.416 J0.041
N3405 X-44.365 Y-20.1 I-0.416 J-0.041
N3410 X-44.9 Y-20.683 I-0.014 J-0.524 F#100
N3415 G1 Y-25.938
N3420 G3 X-44.72 Y-26.306 I0.5 J0.017 F#104
N3425 G1 X-44.22 Y-26.72
N3430 X-44.153 Y-26.776 Z-19.882
N3435 X-44.088 Y-26.829 Z-19.86
N3440 X-44.028 Y-26.88 Z-19.823
N3445 X-43.973 Y-26.925 Z-19.773
N3450 X-43.925 Y-26.965 Z-19.711
N3455 X-43.887 Y-26.997 Z-19.64
N3460 X-43.858 Y-27.02 Z-19.561
N3465 X-43.841 Y-27.035 Z-19.477
N3470 X-43.835 Y-27.04 Z-19.39
N3475 G0 Z-19.29
N3480 X-26.602 Y-27.783
N3485 G1 Z-19.79 F#103
N3490 S3800
N3495 G3 X-28.815 Y-32.392 Z-20.101 I0.602 J-3.125 F#107
N3500 X-23.805 Y-33.165 Z-20.412 I2.792 J1.471
N3505 X-24.515 Y-28.189 Z-20.723 I-2.2 J2.224
N3510 X-29.031 Y-30.296 Z-21.035 I-1.477 J-2.727
N3515 X-25.732 Y-33.972 Z-21.346 I3.012 J-0.615
N3520 X-23.195 Y-29.785 Z-21.657 I-0.284 J3.034
N3525 X-27.896 Y-28.585 Z-21.968 I-2.796 J-1.143
N3530 X-27.681 Y-33.388 Z-22.279 I1.888 J-2.322
N3535 X-23.189 Y-31.801 Z-22.59 I1.658 J2.459
N3540 X-25.986 Y-27.998 Z-22.902 I-2.809 J0.864
N3545 X-28.786 Y-31.745 Z-23.213 I-0.011 J-2.912
N3550 X-24.428 Y-33.321 Z-23.524 I2.763 J0.828
N3555 X-24.189 Y-28.737 Z-23.835 I-1.58 J2.381
N3560 X-28.603 Y-29.829 Z-24.146 I-1.802 J-2.182
N3565 X-26.298 Y-33.698 Z-24.457 I2.587 J-1.08
N3570 X-23.294 Y-30.401 Z-24.768 I0.279 J2.762
N3575 X-27.283 Y-28.503 Z-25.08 I-2.698 J-0.53
N3580 X-27.933 Y-32.828 Z-25.391 I1.278 J-2.403
N3585 X-23.649 Y-32.2 Z-25.702 I1.909 J1.902
N3590 X-25.476 Y-28.323 Z-26.013 I-2.351 J1.262
N3595 X-28.623 Y-31.168 Z-26.324 I-0.519 J-2.589
N3600 X-25.024 Y-33.331 Z-26.635 I2.601 J0.253
N3605 X-24.011 Y-29.3 Z-26.947 I-0.988 J2.391
N3610 X-28.118 Y-29.5 Z-27.258 I-1.98 J-1.622
N3615 X-26.749 Y-33.331 Z-27.569 I2.105 J-1.408
N3620 X-23.515 Y-30.934 Z-27.88 I0.728 J2.397
N3625 X-28.526 I-2.505 J0.
N3630 X-23.515 I2.505 J0.
N3635 S4000
N3640 X-23.407 Y-29.467 I-2.706 J0.938 F#100
N3645 X-28.118 Y-28.332 I-2.732 J-0.997
N3650 X-23.955 Y-33.631 I2.081 J-2.65
N3655 X-22.99 Y-32.421 I-2.081 J2.649
N3660 X-27.392 Y-26.852 I-3.086 J2.085
N3665 X-24.735 Y-35.143 I1.329 J-4.145
N3670 X-22.953 Y-34.043 I-1.329 J4.145
N3675 X-28.407 Y-26.111 I-3.193 J3.645
N3680 X-30.869 Y-33.547 I2.33 J-4.897
N3685 X-23.333 Y-35.684 I4.791 J2.54
N3690 X-28.733 Y-25.008 I-2.83 J5.272
N3695 X-32.055 Y-33.749 I2.646 J-6.007
N3700 X-23.266 Y-36.942 I5.967 J2.734
N3705 X-28.608 Y-23.69 I-2.883 J6.54
N3710 X-26.474 Y-38.733 I2.471 J-7.322
N3715 X-23.495 Y-22.504 I0.39 J8.316
N3720 X-32.973 Y-36.721 I-2.761 J-8.428
N3725 X-18.187 Y-35.756 I7.045 J5.822
N3730 X-28.836 Y-21.145 I-7.956 J5.387
N3735 X-30.054 Y-40.452 I2.651 J-9.859
N3740 X-15.537 Y-27.996 I4.103 J9.906
N3745 X-33.883 Y-22.459 I-10.753 J-2.469
N3750 X-21.85 Y-41.828 I7.806 J-8.572
N3755 X-26.674 Y-18.187 I-4.257 J11.444
N3760 X-30.018 Y-18.786 I-0.381 J-7.507
N3765 G2 X-32.455 Y-20.064 I-3.062 J2.875
N3770 G3 X-38.796 Y-33.087 I5.418 J-10.693
N3775 X-37.733 Y-36.39 I7.447 J0.574
N3780 G1 X-37.511 Y-36.55
N3785 X-37.297 Y-36.721
N3790 X-37.093 Y-36.903
N3795 X-36.897 Y-37.096
N3800 X-36.712 Y-37.297
N3805 X-36.538 Y-37.508
N3810 X-36.374 Y-37.728
N3815 X-36.222 Y-37.956
N3820 X-36.081 Y-38.191
N3825 X-35.953 Y-38.433
N3830 X-35.837 Y-38.681
N3835 X-35.733 Y-38.934
N3840 X-35.643 Y-39.193
N3845 G3 X-29.618 Y-43.403 I8.719 J6.063
N3850 G1 X-29.399 Y-43.4
N3855 X-23.955
N3860 G3 X-17.346 Y-40.736 I-0.402 J10.527
N3865 X-16.497 Y-39.888 I-7.011 J7.863 F#106
N3870 G2 X-15.765 Y-37.852 I18.339 J-5.445 F#100
N3875 G3 X-13.251 Y-34.31 I-7.64 J8.088
N3880 X-28.258 Y-16.982 I-12.846 J4.037
N3885 X-29.41 Y-17.971 I0.59 J-1.852
N3890 G1 X-29.454 Y-18.228 F#104
N3895 X-29.388 Y-18.433
N3900 X-28.731 Y-19.309
N3905 X-16.071 Y-36.189 F#105
N3910 X-15.57 Y-36.858 F#103
N3915 X-15.161 Y-37.009
N3920 X-14.886 Y-36.892
N3925 G3 X-13.091 Y-35.687 I-40.199 J61.824 F#100
N3930 X-11.381 Y-28.854 I-7.269 J5.45
N3935 X-27.593 Y-15.547 I-14.675 J-1.35
N3940 X-29.234 Y-17.686 I0.78 J-2.297
N3945 G1 X-29.334 Y-17.819
N3950 X-29.41 Y-17.971
N3955 G3 X-29.338 Y-18.503 I0.454 J-0.21 F#104
N3960 G1 X-28.691 Y-19.27
N3965 X-15.099 Y-35.358 F#105
N3970 X-14.46 Y-36.115 F#103
N3975 G3 X-13.934 Y-36.271 I0.382 J0.323
N3980 X-10.695 Y-33.286 I-0.643 J3.947 F#100
N3985 X-10.464 Y-26.202 I-10.259 J3.881
N3990 X-26.538 Y-14.109 I-15.587 J-3.988
N3995 X-28.628 Y-15.183 I0.233 J-3.025
N4000 X-28.986 Y-16.798 I4.474 J-1.836
N4005 G1 X-29.065 Y-17.018
N4010 G3 X-28.961 Y-17.449 I0.488 J-0.111 F#104
N4015 G1 X-28.249 Y-18.302
N4020 X-14.258 Y-35.058 F#105
N4025 X-13.589 Y-35.859 F#103
N4030 G3 X-13.116 Y-36.03 I0.384 J0.32
N4035 X-11.435 Y-35.68 I-0.567 J6.927 F#100
N4040 X-8.916 Y-31.164 I-3.6 J4.969
N4045 X-11.178 Y-21.068 I-14.071 J2.149
N4050 X-25.897 Y-12.74 I-14.796 J-8.98
N4055 X-28.383 Y-13.657 I0.378 J-4.853
N4060 X-28.874 Y-16.176 I2.64 J-1.821
N4065 G1 X-28.876 Y-16.26 F#104
N4070 X-28.864 Y-16.345
N4075 X-28.836 Y-16.427
N4080 X-28.792 Y-16.505
N4085 X-28.008 Y-17.441
N4090 X-13.411 Y-34.867 F#105
N4095 X-12.685 Y-35.733 F#103
N4100 G3 X-12.298 Y-35.912 I0.383 J0.321
N4105 G1 X-12.077 Y-35.936 F#100
N4110 X-11.855 Y-35.946
N4115 X-11.633 Y-35.942
N4120 X-11.412 Y-35.925
N4125 X-11.192 Y-35.893
N4130 X-10.975 Y-35.848
N4135 X-10.761 Y-35.789
N4140 X-10.551 Y-35.717
N4145 X-10.346 Y-35.632
N4150 G3 X-7.653 Y-31.033 I-3.435 J5.099
N4155 X-8.76 Y-22.735 I-13.357 J2.441
N4160 X-10.462 Y-21.211 I-12.696 J-12.465
N4165 G2 X-12.173 Y-18.01 I8.321 J6.507
N4170 G3 X-23.3 Y-11.569 I-12.91 J-9.469
N4175 X-28.201 Y-12.22 I-1.554 J-7.07
N4180 X-28.9 Y-13.801 I1.529 J-1.622
N4185 G1 Y-15.049
N4190 G3 X-28.523 Y-15.516 I0.5 J0.017 F#104
N4195 G1 X-27.625 Y-15.745
N4200 X-12.898 Y-19.484 F#105
N4205 X-12.375 Y-19.617 F#103
N4210 G3 X-11.766 Y-19.013 I0.123 J0.485
N4215 X-12.454 Y-16.206 I-12.771 J-1.644 F#100
N4220 X-19.063 Y-11.242 I-10.383 J-6.942
N4225 X-27.251 Y-10.454 I-5.235 J-11.464
N4230 X-28.889 Y-12.164 I0.816 J-2.421
N4235 G1 X-28.9 Y-12.53
N4240 Y-13.801
N4245 G3 X-28.512 Y-14.271 I0.5 J0.017 F#104
N4250 G1 X-27.62 Y-14.476
N4255 X-13.336 Y-17.753 F#105
N4260 X-12.685 Y-17.902 F#103
N4265 G3 X-12.073 Y-17.41 I0.112 J0.487
N4270 X-12.295 Y-15.104 I-6.989 J0.489 F#100
N4275 X-17.049 Y-10.655 I-8.409 J-4.22
N4280 X-26.501 Y-8.939 I-7.198 J-12.761
N4285 X-28.668 Y-10.23 I0.723 J-3.68
N4290 G1 X-28.784 Y-10.563
N4295 X-28.871 Y-10.895
N4300 X-28.9 Y-11.236
N4305 Y-12.53
N4310 G3 X-28.513 Y-13. I0.5 J0.017 F#104
N4315 G1 X-27.62 Y-13.206
N4320 X-13.384 Y-16.498 F#105
N4325 X-12.712 Y-16.653 F#103
N4330 G3 X-12.1 Y-16.183 I0.113 J0.487
N4335 X-12.151 Y-14.088 I-8.496 J0.84 F#100
N4340 X-15.624 Y-9.983 I-6.709 J-2.154
N4345 X-19.925 Y-8.1 I-6.249 J-8.418
N4350 G1 X-26.205
N4355 G3 X-28.909 Y-9.828 I-0.321 J-2.477
N4360 G1 X-28.9 Y-10.193
N4365 G3 X-28.107 Y-10.581 I0.5 J0.017 F#104
N4370 G1 X-27.71 Y-10.294
N4375 X-26.197 Y-9.199 F#105
N4380 X-25.929 Y-9.005 F#103
N4385 G3 X-26.205 Y-8.1 I-0.293 J0.405
N4390 G1 X-27.799 F#100
N4395 G3 X-28.899 Y-9.199 I-0.005 J-1.095
N4400 G1 X-28.888 Y-9.287 F#104
N4405 X-28.862 Y-9.372
N4410 X-28.821 Y-9.451
N4415 X-28.766 Y-9.521
N4420 X-28.7 Y-9.581
N4425 X-28.625 Y-9.628
N4430 X-28.542 Y-9.661
N4435 X-28.454 Y-9.678
N4440 X-28.365 Y-9.68
N4445 X-28.277 Y-9.666
N4450 X-28.193 Y-9.636
N4455 X-28.116 Y-9.592
N4460 X-28.047 Y-9.535
N4465 X-27.756 Y-9.245
N4470 X-27.754 Y-9.243 F#105
N4475 X-27.464 Y-8.954 F#103
N4480 G3 X-27.799 Y-8.1 I-0.353 J0.354
N4485 X-28.557 Y-8.126 I-0.27 J-3.18 F#100
N4490 G1 X-28.614 Y-8.16 F#104
N4495 X-28.663 Y-8.205
N4500 X-28.703 Y-8.257
N4505 X-28.731 Y-8.317
N4510 X-28.748 Y-8.38
N4515 X-28.752 Y-8.446
N4520 G3 X-28.747 Y-8.5 I0.341 J0.008 F#103
N4525 X-28.087 Y-8.379 I0.33 J0.06
N4530 X-28.413 Y-8.104 I-0.33 J-0.06
N4535 X-28.899 Y-8.616 I0.027 J-0.513 F#100
N4540 G1 X-28.9 Y-11.236
N4545 X-28.827 Y-11.48 F#104
N4550 X-27.998 Y-12.502
N4555 X-26.342 Y-14.547 F#105
N4560 G2 X-25.844 Y-16.183 I-1.528 J-1.358
N4565 G1 X-26.266 Y-18.433
N4570 X-26.505 Y-19.251
N4575 G2 X-28.045 Y-20.635 I-1.948 J0.619
N4580 G1 X-28.868 Y-20.683
N4585 X-30.406 Y-20.301
N4590 X-31.931 Y-19.922 F#103
N4595 G2 X-33.528 Y-20.1 I-1.316 J4.573 F#100
N4600 G3 X-37.754 Y-23.044 I1.278 J-6.339
N4605 X-39.724 Y-35.087 I10.599 J-7.917
N4610 X-38.362 Y-36.174 I1.829 J0.894
N4615 G1 X-38.28 Y-36.189 F#104
N4620 X-38.196 Y-36.19
N4625 X-38.113 Y-36.176
N4630 X-38.033 Y-36.149
N4635 X-37.959 Y-36.109
N4640 X-37.893 Y-36.057
N4645 X-37.836 Y-35.995
N4650 X-37.791 Y-35.924
N4655 X-37.759 Y-35.846
N4660 X-37.51 Y-35.074
N4665 X-33.102 Y-21.369 F#105
N4670 X-32.904 Y-20.753 F#103
N4675 G3 X-33.362 Y-20.1 I-0.476 J0.153
N4680 X-35.681 Y-20.188 I-0.855 J-8.095 F#100
N4685 X-39.794 Y-23.85 I2.416 J-6.855
N4690 X-41.25 Y-34.567 I11.904 J-7.075
N4695 X-38.888 Y-35.984 I2.173 J0.946
N4700 G1 X-38.68 Y-36.08
N4705 X-38.499 Y-36.135
N4710 G3 X-37.883 Y-35.76 I0.128 J0.483 F#104
N4715 G1 X-37.716 Y-35.013
N4720 X-34.679 Y-21.385 F#105
N4725 X-34.528 Y-20.708 F#103
N4730 G3 X-34.999 Y-20.1 I-0.488 J0.109
N4735 X-37.272 Y-20.188 I-0.851 J-7.401 F#100
N4740 X-41.498 Y-24.347 I2.581 J-6.85
N4745 X-42.634 Y-34.384 I12.235 J-6.467
N4750 G1 X-42.563 Y-34.558
N4755 X-42.478 Y-34.726
N4760 X-42.379 Y-34.887
N4765 X-42.269 Y-35.04
N4770 X-42.146 Y-35.183
N4775 X-42.013 Y-35.316
N4780 X-41.869 Y-35.438
N4785 X-41.716 Y-35.548
N4790 X-41.555 Y-35.645
N4795 X-41.386 Y-35.729
N4800 X-41.211 Y-35.8
N4805 X-41.031 Y-35.856
N4810 X-40.848 Y-35.897
N4815 X-40.661 Y-35.924
N4820 X-40.473 Y-35.936
N4825 X-40.285 Y-35.933
N4830 X-40.097 Y-35.915
N4835 X-39.912 Y-35.882
N4840 X-39.498 Y-35.921
N4845 G3 X-39.003 Y-35.515 I0.004 J0.5 F#104
N4850 G1 X-38.838 Y-34.654
N4855 X-36.294 Y-21.389 F#105
N4860 X-36.161 Y-20.694 F#103
N4865 G3 X-36.635 Y-20.1 I-0.491 J0.094
N4870 X-38.807 Y-20.19 I-0.805 J-6.827 F#100
N4875 X-42.589 Y-23.696 I2.367 J-6.346
N4880 X-43.972 Y-34.34 I12.043 J-6.976
N4885 X-42.27 Y-35.87 I2.26 J0.803
N4890 G1 X-41.922 Y-35.9
N4895 X-40.619
N4900 G3 X-40.143 Y-35.482 I-0.017 J0.5 F#104
N4905 G1 X-39.999 Y-34.609
N4910 X-37.82 Y-21.393 F#105
N4915 X-37.703 Y-20.681 F#103
N4920 G3 X-38.179 Y-20.1 I-0.493 J0.081
N4925 X-40.427 Y-20.23 I-0.766 J-6.249 F#100
N4930 X-44.217 Y-24.09 I2.792 J-6.533
N4935 X-44.9 Y-25.938 I2.617 J-2.017
N4940 G1 Y-33.57
N4945 G3 X-42.87 Y-35.916 I2.124 J-0.214
N4950 G1 X-42.783 Y-35.904 F#104
N4955 X-42.699 Y-35.878
N4960 X-42.62 Y-35.838
N4965 X-42.55 Y-35.785
N4970 X-42.491 Y-35.721
N4975 X-42.443 Y-35.648
N4980 X-42.408 Y-35.568
N4985 X-42.388 Y-35.483
N4990 X-42.382 Y-35.396
N4995 X-42.392 Y-35.31
N5000 X-42.415 Y-35.227
N5005 X-42.453 Y-35.15
N5010 X-42.503 Y-35.08
N5015 X-42.795 Y-34.73
N5020 X-43.783 Y-33.545 F#105
N5025 X-44.016 Y-33.264 F#103
N5030 G3 X-44.9 Y-33.567 I-0.384 J-0.32
N5035 G1 Y-34.857 F#100
N5040 G3 X-43.854 Y-35.899 I1.04 J-0.002
N5045 G1 X-43.734 Y-35.888 F#104
N5050 X-43.616 Y-35.862
N5055 X-43.502 Y-35.823
N5060 X-43.394 Y-35.77
N5065 X-43.292 Y-35.704
N5070 X-43.2 Y-35.627
N5075 X-43.117 Y-35.54
N5080 X-43.045 Y-35.443
N5085 X-42.985 Y-35.338
N5090 X-42.938 Y-35.227
N5095 X-42.904 Y-35.111
N5100 X-42.885 Y-34.992
N5105 X-42.88 Y-34.871
N5110 G3 X-42.913 Y-34.637 I-1.009 J-0.02 F#105
N5115 X-43.871 Y-33.881 I-0.978 J-0.254
N5120 X-44.9 Y-34.856 I-0.019 J-1.01 F#103
N5125 X-44.815 Y-35.666 I1.012 J-0.304 F#100
N5130 X-44.406 Y-35.9 I0.43 J0.278
N5135 G1 X-41.922
N5140 X-40.375 Y-35.624 F#104
N5145 X-39.161 Y-35.408 F#105
N5150 G2 X-37.573 Y-36.021 I0.374 J-1.394
N5155 G1 X-36.786 Y-37.146
N5160 X-36.142 Y-38.066 F#103
N5165 X-35.96 Y-38.475
N5170 G3 X-35.291 Y-40.953 I15.95 J2.981 F#100
N5175 X-32.485 Y-43.409 I5.006 J2.887
N5180 G1 X-32.153 Y-43.4
N5185 G3 X-31.805 Y-42.559 I-0.017 J0.5 F#104
N5190 G1 X-32.097 Y-42.247
N5195 X-34.574 Y-39.589 F#105
N5200 X-34.812 Y-39.334 F#103
N5205 G3 X-35.677 Y-39.702 I-0.366 J-0.341
N5210 X-35.47 Y-41.897 I6.647 J-0.48 F#100
N5215 X-33.472 Y-43.4 I2.056 J0.653
N5220 X-33.108 Y-42.576 I-0.017 J0.5 F#104
N5225 G1 X-33.4 Y-42.233
N5230 X-34.53 Y-40.905 F#105
N5235 X-34.769 Y-40.623 F#103
N5240 G3 X-35.65 Y-40.929 I-0.381 J-0.324
N5245 G1 Y-42.218 F#100
N5250 G3 X-34.465 Y-43.399 I1.181 J0.
N5255 G1 X-34.376 Y-43.388 F#104
N5260 X-34.291 Y-43.362
N5265 X-34.212 Y-43.321
N5270 X-34.142 Y-43.266
N5275 X-34.082 Y-43.2
N5280 X-34.035 Y-43.124
N5285 X-34.003 Y-43.041
N5290 X-33.985 Y-42.953
N5295 X-33.984 Y-42.864
N5300 X-33.998 Y-42.776
N5305 X-34.028 Y-42.692
N5310 X-34.072 Y-42.614
N5315 X-34.13 Y-42.546
N5320 X-34.42 Y-42.258
N5325 X-34.506 Y-42.172 F#105
N5330 X-34.798 Y-41.881 F#103
N5335 G3 X-35.65 Y-42.218 I-0.353 J-0.354
N5340 X-35.63 Y-43.027 I2.402 J-0.346 F#100
N5345 X-35.201 Y-43.281 I0.377 J0.147 F#104
N5350 X-35.302 Y-42.491 I-0.05 J0.395
N5355 X-35.65 Y-42.872 I0.05 J-0.395
N5360 X-34.999 Y-43.4 I0.543 J0.005 F#100
N5365 G1 X-29.399
N5370 X-27.828 F#104
N5375 X-25.526 F#105
N5380 X-23.955 F#103
N5385 X-20.683 F#100
N5390 G3 X-16.644 Y-41.629 I-0.281 J6.132
N5395 G1 X-16.495 Y-41.262
N5400 X-16.387 Y-40.895
N5405 X-16.35 Y-40.515
N5410 G3 X-17.113 Y-40.107 I-0.5 J-0.017 F#104
N5415 G1 X-17.559 Y-40.384
N5420 X-20.678 Y-42.32 F#105
N5425 X-20.929 Y-42.475 F#103
N5430 G3 X-20.683 Y-43.4 I0.264 J-0.425
N5435 X-17.895 Y-43.35 I1.15 J13.496 F#100
N5440 X-16.349 Y-41.418 I-0.442 J1.938
N5445 G1 X-16.36 Y-41.331 F#104
N5450 X-16.386 Y-41.247
N5455 X-16.426 Y-41.168
N5460 X-16.48 Y-41.098
N5465 X-16.544 Y-41.039
N5470 X-16.619 Y-40.992
N5475 X-16.7 Y-40.958
N5480 X-16.786 Y-40.939
N5485 X-16.874 Y-40.936
N5490 X-16.961 Y-40.948
N5495 X-17.044 Y-40.975
N5500 X-17.122 Y-41.016
N5505 X-17.191 Y-41.07
N5510 X-17.503 Y-41.362
N5515 X-18.47 Y-42.266 F#105
N5520 X-18.757 Y-42.535 F#103
N5525 G3 X-18.433 Y-43.4 I0.342 J-0.365
N5530 G1 X-17.35 F#100
N5535 G3 X-16.351 Y-42.392 I0. J0.999
N5540 G1 X-16.363 Y-42.272 F#104
N5545 X-16.389 Y-42.155
N5550 X-16.43 Y-42.041
N5555 X-16.485 Y-41.934
N5560 X-16.553 Y-41.834
N5565 X-16.633 Y-41.744
N5570 X-16.723 Y-41.664
N5575 X-16.823 Y-41.596
N5580 X-16.93 Y-41.54
N5585 X-17.044 Y-41.499
N5590 X-17.161 Y-41.472
N5595 X-17.282 Y-41.461
N5600 X-17.402 Y-41.464
N5605 G3 X-17.567 Y-41.493 I0.086 J-0.962 F#105
N5610 X-18.282 Y-42.35 I0.252 J-0.937
N5615 X-17.349 Y-43.4 I0.967 J-0.08 F#103
N5620 X-16.518 Y-43.262 I0.279 J0.885 F#100
N5625 X-16.35 Y-42.872 I-0.333 J0.374
N5630 G1 Y-40.111
N5635 X-16.342 Y-39.907
N5640 X-16.305 Y-39.498
N5645 X-16.264 Y-39.293
N5650 X-15.81 Y-37.79 F#104
N5655 X-15.523 Y-36.839 F#105
N5660 G2 X-14.343 Y-35.903 I1.267 J-0.384
N5665 G1 X-12.938 Y-35.901
N5670 X-11.367 Y-35.9 F#103
N5675 G3 X-9.375 Y-35.708 I0.615 J4.055 F#100
N5680 X-7.056 Y-32.758 I-1.871 J3.857
N5685 G1 X-7.068 Y-32.668 F#104
N5690 X-7.094 Y-32.581
N5695 X-7.135 Y-32.501
N5700 X-7.188 Y-32.43
N5705 X-7.251 Y-32.368
N5710 X-7.324 Y-32.318
N5715 X-7.403 Y-32.282
N5720 X-7.487 Y-32.259
N5725 X-7.573 Y-32.25
N5730 X-7.659 Y-32.256
N5735 X-7.742 Y-32.276
N5740 X-7.82 Y-32.31
N5745 X-7.891 Y-32.355
N5750 X-7.953 Y-32.412
N5755 X-8.243 Y-32.702
N5760 X-10.299 Y-34.757 F#105
N5765 X-10.589 Y-35.047 F#103
N5770 G3 X-10.252 Y-35.9 I0.354 J-0.354
N5775 X-8.361 Y-35.761 I0.625 J4.454 F#100
N5780 X-7.099 Y-33.898 I-0.758 J1.872
N5785 G1 X-7.11 Y-33.81 F#104
N5790 X-7.137 Y-33.725
N5795 X-7.178 Y-33.646
N5800 X-7.233 Y-33.575
N5805 X-7.299 Y-33.515
N5810 X-7.374 Y-33.469
N5815 X-7.457 Y-33.436
N5820 X-7.544 Y-33.418
N5825 X-7.633 Y-33.416
N5830 X-7.721 Y-33.43
N5835 X-7.805 Y-33.46
N5840 X-7.883 Y-33.503
N5845 X-7.951 Y-33.56
N5850 X-8.245 Y-33.85
N5855 X-9.162 Y-34.758 F#105
N5860 X-9.452 Y-35.045 F#103
N5865 G3 X-9.117 Y-35.9 I0.352 J-0.355
N5870 G1 X-8.099 F#100
N5875 G3 X-7.101 Y-34.894 I0. J0.997
N5880 G1 X-7.113 Y-34.774 F#104
N5885 X-7.14 Y-34.656
N5890 X-7.181 Y-34.543
N5895 X-7.236 Y-34.435
N5900 X-7.304 Y-34.336
N5905 X-7.384 Y-34.245
N5910 X-7.474 Y-34.165
N5915 X-7.574 Y-34.098
N5920 X-7.682 Y-34.043
N5925 X-7.795 Y-34.002
N5930 X-7.913 Y-33.976
N5935 X-8.033 Y-33.965
N5940 X-8.154 Y-33.969
N5945 G3 X-8.315 Y-33.998 I0.092 J-0.959 F#105
N5950 X-9.026 Y-34.849 I0.254 J-0.934
N5955 X-8.095 Y-35.9 I0.965 J-0.083 F#103
N5960 X-7.29 Y-35.783 I0.29 J0.839 F#100
N5965 X-7.1 Y-35.408 I-0.327 J0.4
N5970 G1 Y-24.977
N5975 G3 X-8.405 Y-22.629 I-2.256 J0.283
N5980 G1 X-8.491 Y-22.607 F#104
N5985 X-8.579 Y-22.6
N5990 X-8.668 Y-22.608
N5995 X-8.753 Y-22.631
N6000 X-8.833 Y-22.668
N6005 X-8.905 Y-22.718
N6010 X-8.967 Y-22.78
N6015 X-9.018 Y-22.851
N6020 X-9.056 Y-22.93
N6025 X-9.079 Y-23.014
N6030 X-9.088 Y-23.1
N6035 X-9.082 Y-23.187
N6040 X-9.061 Y-23.271
N6045 X-9.026 Y-23.35
N6050 X-8.854 Y-23.671
N6055 X-8.164 Y-24.964 F#105
N6060 X-8.041 Y-25.195 F#103
N6065 G3 X-7.1 Y-24.977 I0.441 J0.235
N6070 G1 Y-23.546 F#100
N6075 X-7.112 Y-23.396
N6080 X-7.114 Y-23.383
N6085 G3 X-7.65 Y-23.023 I-0.492 J-0.153 F#104
N6090 X-7.563 Y-24.033 I0.044 J-0.505
N6095 X-7.1 Y-23.546 I-0.044 J0.505
N6100 X-7.594 Y-22.965 I-0.561 J0.024 F#100
N6105 G2 X-9.271 Y-22.218 I2.274 J7.36
N6110 G1 X-9.495 Y-22.129 F#104
N6115 X-10.821 Y-22.041
N6120 X-12.802 Y-21.91 F#105
N6125 G2 X-14.504 Y-20.478 I0.073 J1.814
N6130 G1 X-14.902 Y-18.433
N6135 G2 X-14.343 Y-16.858 I1.799 J0.248
N6140 G1 X-13.132 Y-15.694
N6145 X-12.152 Y-14.752 F#103
N6150 X-12.1 Y-14.547
N6155 G3 X-12.191 Y-12.365 I-6.903 J0.805 F#100
N6160 X-16.366 Y-8.118 I-6.855 J-2.562
N6165 G1 X-16.737 Y-8.1
N6170 X-19.925
N6175 G3 X-20.165 Y-9.028 I0.017 J-0.5 F#104
N6180 G1 X-19.918 Y-9.176
N6185 X-13.314 Y-13.14 F#105
N6190 X-12.857 Y-13.414 F#103
N6195 G3 X-12.1 Y-13.003 I0.257 J0.429
N6200 X-12.187 Y-10.851 I-6.983 J0.794 F#100
N6205 X-14.222 Y-8.176 I-4.336 J-1.187
N6210 G1 X-14.566 Y-8.128
N6215 X-14.898 Y-8.1
N6220 G3 X-15.272 Y-8.911 I0.017 J-0.5 F#104
N6225 G1 X-14.981 Y-9.276
N6230 X-13.211 Y-11.497 F#105
N6235 X-12.991 Y-11.774 F#103
N6240 G3 X-12.1 Y-11.48 I0.391 J0.312
N6245 X-12.148 Y-9.533 I-9.446 J0.741 F#100
N6250 X-13.946 Y-8.099 I-1.804 J-0.418
N6255 G1 X-14.034 Y-8.11 F#104
N6260 X-14.118 Y-8.136
N6265 X-14.196 Y-8.176
N6270 X-14.266 Y-8.229
N6275 X-14.325 Y-8.294
N6280 X-14.373 Y-8.368
N6285 X-14.406 Y-8.449
N6290 X-14.425 Y-8.535
N6295 X-14.429 Y-8.623
N6300 X-14.417 Y-8.71
N6305 X-14.39 Y-8.793
N6310 X-14.349 Y-8.871
N6315 X-14.295 Y-8.94
N6320 X-14.004 Y-9.254
N6325 X-13.233 Y-10.084 F#105
N6330 X-12.966 Y-10.371 F#103
N6335 G3 X-12.1 Y-10.048 I0.366 J0.34
N6340 G1 Y-9.025 F#100
N6345 G3 X-13.023 Y-8.101 I-0.916 J0.009
N6350 G1 X-13.111 Y-8.112 F#104
N6355 X-13.196 Y-8.138
N6360 X-13.275 Y-8.179
N6365 X-13.345 Y-8.234
N6370 X-13.405 Y-8.3
N6375 X-13.452 Y-8.375
N6380 X-13.484 Y-8.458
N6385 X-13.502 Y-8.545
N6390 X-13.504 Y-8.634
N6395 X-13.49 Y-8.722
N6400 X-13.461 Y-8.806
N6405 X-13.417 Y-8.884
N6410 X-13.36 Y-8.952
N6415 X-13.242 Y-9.071
N6420 X-12.954 Y-9.36 F#103
N6425 G3 X-12.1 Y-9.025 I0.355 J0.352
N6430 X-12.353 Y-8.173 I-0.689 J0.259 F#100
N6435 G1 X-12.403 Y-8.146
N6440 X-12.453 Y-8.127
N6445 X-12.502 Y-8.113
N6450 X-12.553 Y-8.104
N6455 X-12.604 Y-8.1
N6460 X-16.737
N6465 G3 X-17.21 Y-8.698 I0.017 J-0.5 F#104
N6470 G1 X-17.169 Y-8.898
N6475 X-17.152 Y-8.983 Z-27.872
N6480 X-17.136 Y-9.066 Z-27.85
N6485 X-17.12 Y-9.143 Z-27.813
N6490 X-17.106 Y-9.213 Z-27.763
N6495 X-17.094 Y-9.273 Z-27.701
N6500 X-17.084 Y-9.323 Z-27.63
N6505 X-17.077 Y-9.359 Z-27.551
N6510 X-17.073 Y-9.381 Z-27.467
N6515 X-17.071 Y-9.388 Z-27.38
N6520 G0 Z0.1
N6525 X-39.246 Y-21.394
N6530 Z-27.38
N6535 G1 Z-27.88 F#103
N6540 X-39.134 Y-20.677
N6545 G3 X-39.61 Y-20.1 I-0.494 J0.077
N6550 X-41.75 Y-20.19 I-0.795 J-6.552 F#100
N6555 X-44.816 Y-22.788 I1.765 J-5.192
N6560 G1 X-44.874 Y-23.114
N6565 X-44.9 Y-23.439
N6570 G3 X-44.072 Y-23.799 I0.5 J0.017 F#104
N6575 G1 X-43.736 Y-23.507
N6580 X-41.107 Y-21.223 F#105
N6585 X-40.824 Y-20.977 F#103
N6590 G3 X-41.134 Y-20.1 I-0.328 J0.378
N6595 X-43.174 Y-20.188 I-0.748 J-6.368 F#100
N6600 X-44.913 Y-22.22 I0.434 J-2.132
N6605 G1 X-44.901 Y-22.308 F#104
N6610 X-44.875 Y-22.393
N6615 X-44.834 Y-22.471
N6620 X-44.78 Y-22.542
N6625 X-44.715 Y-22.601
N6630 X-44.641 Y-22.649
N6635 X-44.56 Y-22.683
N6640 X-44.474 Y-22.702
N6645 X-44.387 Y-22.707
N6650 X-44.3 Y-22.696
N6655 X-44.216 Y-22.67
N6660 X-44.139 Y-22.63
N6665 X-44.07 Y-22.578
N6670 X-43.739 Y-22.286
N6675 X-42.536 Y-21.225 F#105
N6680 X-42.252 Y-20.975 F#103
N6685 G3 X-42.566 Y-20.1 I-0.331 J0.375
N6690 G1 X-43.792 F#100
N6695 G3 X-44.899 Y-21.224 I0.009 J-1.116
N6700 G1 X-44.886 Y-21.354 F#104
N6705 X-44.858 Y-21.482
N6710 X-44.815 Y-21.605
N6715 X-44.757 Y-21.722
N6720 X-44.685 Y-21.831
N6725 X-44.6 Y-21.931
N6730 X-44.503 Y-22.019
N6735 X-44.397 Y-22.095
N6740 X-44.282 Y-22.158
N6745 X-44.161 Y-22.206
N6750 X-44.034 Y-22.239
N6755 X-43.904 Y-22.256
N6760 G3 X-43.543 Y-22.22 I0.076 J1.07 F#105
N6765 X-42.754 Y-21.091 I-0.287 J1.041
N6770 X-43.793 Y-20.1 I-1.076 J-0.088 F#103
N6775 X-44.508 Y-20.114 I-0.305 J-2.646 F#100
N6780 X-44.795 Y-20.559 I0.137 J-0.403 F#104
N6785 X-43.963 Y-20.477 I0.416 J0.041
N6790 X-44.365 Y-20.1 I-0.416 J-0.041
N6795 X-44.9 Y-20.683 I-0.014 J-0.524 F#100
N6800 G1 Y-25.938
N6805 G3 X-44.72 Y-26.306 I0.5 J0.017 F#104
N6810 G1 X-44.22 Y-26.72
N6815 X-44.153 Y-26.776 Z-27.872
N6820 X-44.088 Y-26.829 Z-27.85
N6825 X-44.028 Y-26.88 Z-27.813
N6830 X-43.973 Y-26.925 Z-27.763
N6835 X-43.925 Y-26.965 Z-27.701
N6840 X-43.887 Y-26.997 Z-27.63
N6845 X-43.858 Y-27.02 Z-27.551
N6850 X-43.841 Y-27.035 Z-27.467
N6855 X-43.835 Y-27.04 Z-27.38
N6860 G0 Z-27.28
N6865 X-26.602 Y-27.783
N6870 G1 Z-27.78 F#103
N6875 S3800
N6880 G3 X-28.815 Y-32.392 Z-28.091 I0.602 J-3.125 F#107
N6885 X-23.805 Y-33.165 Z-28.402 I2.792 J1.471
N6890 X-24.515 Y-28.189 Z-28.713 I-2.2 J2.224
N6895 X-29.031 Y-30.296 Z-29.025 I-1.477 J-2.727
N6900 X-25.732 Y-33.972 Z-29.336 I3.012 J-0.615
N6905 X-23.195 Y-29.785 Z-29.647 I-0.284 J3.034
N6910 X-27.896 Y-28.585 Z-29.958 I-2.796 J-1.143
N6915 X-27.681 Y-33.388 Z-30.269 I1.888 J-2.322
N6920 X-23.189 Y-31.801 Z-30.58 I1.658 J2.459
N6925 X-25.986 Y-27.998 Z-30.892 I-2.809 J0.864
N6930 X-28.786 Y-31.745 Z-31.203 I-0.011 J-2.912
N6935 X-24.428 Y-33.321 Z-31.514 I2.763 J0.828
N6940 X-24.189 Y-28.737 Z-31.825 I-1.58 J2.381
N6945 X-28.603 Y-29.829 Z-32.136 I-1.802 J-2.182
N6950 X-26.298 Y-33.698 Z-32.447 I2.587 J-1.08
N6955 X-23.294 Y-30.401 Z-32.758 I0.279 J2.762
N6960 X-27.283 Y-28.503 Z-33.07 I-2.698 J-0.53
N6965 X-27.933 Y-32.828 Z-33.381 I1.278 J-2.403
N6970 X-23.649 Y-32.2 Z-33.692 I1.909 J1.902
N6975 X-25.476 Y-28.323 Z-34.003 I-2.351 J1.262
N6980 X-28.623 Y-31.168 Z-34.314 I-0.519 J-2.589
N6985 X-25.024 Y-33.331 Z-34.625 I2.601 J0.253
N6990 X-24.011 Y-29.3 Z-34.937 I-0.988 J2.391
N6995 X-28.118 Y-29.5 Z-35.248 I-1.98 J-1.622
N7000 X-26.749 Y-33.331 Z-35.559 I2.105 J-1.408
N7005 X-23.515 Y-30.934 Z-35.87 I0.728 J2.397
N7010 X-28.526 I-2.505 J0.
N7015 X-23.515 I2.505 J0.
N7020 S4000
N7025 X-23.407 Y-29.467 I-2.706 J0.938 F#100
N7030 X-28.118 Y-28.332 I-2.732 J-0.997
N7035 X-23.955 Y-33.631 I2.081 J-2.65
N7040 X-22.99 Y-32.421 I-2.081 J2.649
N7045 X-27.392 Y-26.852 I-3.086 J2.085
N7050 X-24.735 Y-35.143 I1.329 J-4.145
N7055 X-22.953 Y-34.043 I-1.329 J4.145
N7060 X-28.407 Y-26.111 I-3.193 J3.645
N7065 X-30.869 Y-33.547 I2.33 J-4.897
N7070 X-23.333 Y-35.684 I4.791 J2.54
N7075 X-28.733 Y-25.008 I-2.83 J5.272
N7080 X-32.055 Y-33.749 I2.646 J-6.007
N7085 X-23.266 Y-36.942 I5.967 J2.734
N7090 X-28.608 Y-23.69 I-2.883 J6.54
N7095 X-26.474 Y-38.733 I2.471 J-7.322
N7100 X-23.495 Y-22.504 I0.39 J8.316
N7105 X-32.973 Y-36.721 I-2.761 J-8.428
N7110 X-18.187 Y-35.756 I7.045 J5.822
N7115 X-28.836 Y-21.145 I-7.956 J5.387
N7120 X-30.054 Y-40.452 I2.651 J-9.859
N7125 X-15.537 Y-27.996 I4.103 J9.906
N7130 X-33.883 Y-22.459 I-10.753 J-2.469
N7135 X-21.85 Y-41.828 I7.806 J-8.572
N7140 X-26.674 Y-18.187 I-4.257 J11.444
N7145 X-30.018 Y-18.786 I-0.381 J-7.507
N7150 G2 X-32.455 Y-20.064 I-3.062 J2.875
N7155 G3 X-38.796 Y-33.087 I5.418 J-10.693
N7160 X-37.733 Y-36.39 I7.447 J0.574
N7165 G1 X-37.511 Y-36.55
N7170 X-37.297 Y-36.721
N7175 X-37.093 Y-36.903
N7180 X-36.897 Y-37.096
N7185 X-36.712 Y-37.297
N7190 X-36.538 Y-37.508
N7195 X-36.374 Y-37.728
N7200 X-36.222 Y-37.956
N7205 X-36.081 Y-38.191
N7210 X-35.953 Y-38.433
N7215 X-35.837 Y-38.681
N7220 X-35.733 Y-38.934
N7225 X-35.643 Y-39.193
N7230 G3 X-29.618 Y-43.403 I8.719 J6.063
N7235 G1 X-29.399 Y-43.4
N7240 X-23.955
N7245 G3 X-17.346 Y-40.736 I-0.402 J10.527
N7250 X-16.497 Y-39.888 I-7.011 J7.863 F#106
N7255 G2 X-15.765 Y-37.852 I18.339 J-5.445 F#100
N7260 G3 X-13.251 Y-34.31 I-7.64 J8.088
N7265 X-28.258 Y-16.982 I-12.846 J4.037
N7270 X-29.41 Y-17.971 I0.59 J-1.852
N7275 G1 X-29.454 Y-18.228 F#104
N7280 X-29.388 Y-18.433
N7285 X-28.731 Y-19.309
N7290 X-16.071 Y-36.189 F#105
N7295 X-15.57 Y-36.858 F#103
N7300 X-15.161 Y-37.009
N7305 X-14.886 Y-36.892
N7310 G3 X-13.091 Y-35.687 I-40.199 J61.824 F#100
N7315 X-11.381 Y-28.854 I-7.269 J5.45
N7320 X-27.593 Y-15.547 I-14.675 J-1.35
N7325 X-29.234 Y-17.686 I0.78 J-2.297
N7330 G1 X-29.334 Y-17.819
N7335 X-29.41 Y-17.971
N7340 G3 X-29.338 Y-18.503 I0.454 J-0.21 F#104
N7345 G1 X-28.691 Y-19.27
N7350 X-15.099 Y-35.358 F#105
N7355 X-14.46 Y-36.115 F#103
N7360 G3 X-13.934 Y-36.271 I0.382 J0.323
N7365 X-10.695 Y-33.286 I-0.643 J3.947 F#100
N7370 X-10.464 Y-26.202 I-10.259 J3.881
N7375 X-26.538 Y-14.109 I-15.587 J-3.988
N7380 X-28.628 Y-15.183 I0.233 J-3.025
N7385 X-28.986 Y-16.798 I4.474 J-1.836
N7390 G1 X-29.065 Y-17.018
N7395 G3 X-28.961 Y-17.449 I0.488 J-0.111 F#104
N7400 G1 X-28.249 Y-18.302
N7405 X-14.258 Y-35.058 F#105
N7410 X-13.589 Y-35.859 F#103
N7415 G3 X-13.116 Y-36.03 I0.384 J0.32
N7420 X-11.435 Y-35.68 I-0.567 J6.927 F#100
N7425 X-8.916 Y-31.164 I-3.6 J4.969
N7430 X-11.178 Y-21.068 I-14.071 J2.149
N7435 X-25.897 Y-12.74 I-14.796 J-8.98
N7440 X-28.383 Y-13.657 I0.378 J-4.853
N7445 X-28.874 Y-16.176 I2.64 J-1.821
N7450 G1 X-28.876 Y-16.26 F#104
N7455 X-28.864 Y-16.345
N7460 X-28.836 Y-16.427
N7465 X-28.792 Y-16.505
N7470 X-28.008 Y-17.441
N7475 X-13.411 Y-34.867 F#105
N7480 X-12.685 Y-35.733 F#103
N7485 G3 X-12.298 Y-35.912 I0.383 J0.321
N7490 G1 X-12.077 Y-35.936 F#100
N7495 X-11.855 Y-35.946
N7500 X-11.633 Y-35.942
N7505 X-11.412 Y-35.925
N7510 X-11.192 Y-35.893
N7515 X-10.975 Y-35.848
N7520 X-10.761 Y-35.789
N7525 X-10.551 Y-35.717
N7530 X-10.346 Y-35.632
N7535 G3 X-7.653 Y-31.033 I-3.435 J5.099
N7540 X-8.76 Y-22.735 I-13.357 J2.441
N7545 X-10.462 Y-21.211 I-12.696 J-12.465
N7550 G2 X-12.173 Y-18.01 I8.321 J6.507
N7555 G3 X-23.3 Y-11.569 I-12.91 J-9.469
N7560 X-28.201 Y-12.22 I-1.554 J-7.07
N7565 X-28.9 Y-13.801 I1.529 J-1.622
N7570 G1 Y-15.049
N7575 G3 X-28.523 Y-15.516 I0.5 J0.017 F#104
N7580 G1 X-27.625 Y-15.745
N7585 X-12.898 Y-19.484 F#105
N7590 X-12.375 Y-19.617 F#103
N7595 G3 X-11.766 Y-19.013 I0.123 J0.485
N7600 X-12.454 Y-16.206 I-12.771 J-1.644 F#100
N7605 X-19.063 Y-11.242 I-10.383 J-6.942
N7610 X-27.251 Y-10.454 I-5.235 J-11.464
N7615 X-28.889 Y-12.164 I0.816 J-2.421
N7620 G1 X-28.9 Y-12.53
N7625 Y-13.801
N7630 G3 X-28.512 Y-14.271 I0.5 J0.017 F#104
N7635 G1 X-27.62 Y-14.476
N7640 X-13.336 Y-17.753 F#105
N7645 X-12.685 Y-17.902 F#103
N7650 G3 X-12.073 Y-17.41 I0.112 J0.487
N7655 X-12.295 Y-15.104 I-6.989 J0.489 F#100
N7660 X-17.049 Y-10.655 I-8.409 J-4.22
N7665 X-26.501 Y-8.939 I-7.198 J-12.761
N7670 X-28.668 Y-10.23 I0.723 J-3.68
N7675 G1 X-28.784 Y-10.563
N7680 X-28.871 Y-10.895
N7685 X-28.9 Y-11.236
N7690 Y-12.53
N7695 G3 X-28.513 Y-13. I0.5 J0.017 F#104
N7700 G1 X-27.62 Y-13.206
N7705 X-13.384 Y-16.498 F#105
N7710 X-12.712 Y-16.653 F#103
N7715 G3 X-12.1 Y-16.183 I0.113 J0.487
N7720 X-12.151 Y-14.088 I-8.496 J0.84 F#100
N7725 X-15.624 Y-9.983 I-6.709 J-2.154
N7730 X-19.925 Y-8.1 I-6.249 J-8.418
N7735 G1 X-26.205
N7740 G3 X-28.909 Y-9.828 I-0.321 J-2.477
N7745 G1 X-28.9 Y-10.193
N7750 G3 X-28.107 Y-10.581 I0.5 J0.017 F#104
N7755 G1 X-27.71 Y-10.294
N7760 X-26.197 Y-9.199 F#105
N7765 X-25.929 Y-9.005 F#103
N7770 G3 X-26.205 Y-8.1 I-0.293 J0.405
N7775 G1 X-27.799 F#100
N7780 G3 X-28.899 Y-9.199 I-0.005 J-1.095
N7785 G1 X-28.888 Y-9.287 F#104
N7790 X-28.862 Y-9.372
N7795 X-28.821 Y-9.451
N7800 X-28.766 Y-9.521
N7805 X-28.7 Y-9.581
N7810 X-28.625 Y-9.628
N7815 X-28.542 Y-9.661
N7820 X-28.454 Y-9.678
N7825 X-28.365 Y-9.68
N7830 X-28.277 Y-9.666
N7835 X-28.193 Y-9.636
N7840 X-28.116 Y-9.592
N7845 X-28.047 Y-9.535
N7850 X-27.756 Y-9.245
N7855 X-27.754 Y-9.243 F#105
N7860 X-27.464 Y-8.954 F#103
N7865 G3 X-27.799 Y-8.1 I-0.353 J0.354
N7870 X-28.557 Y-8.126 I-0.27 J-3.18 F#100
N7875 G1 X-28.614 Y-8.16 F#104
N7880 X-28.663 Y-8.205
N7885 X-28.703 Y-8.257
N7890 X-28.731 Y-8.317
N7895 X-28.748 Y-8.38
N7900 X-28.752 Y-8.446
N7905 G3 X-28.747 Y-8.5 I0.341 J0.008 F#103
N7910 X-28.087 Y-8.379 I0.33 J0.06
N7915 X-28.413 Y-8.104 I-0.33 J-0.06
N7920 X-28.899 Y-8.616 I0.027 J-0.513 F#100
N7925 G1 X-28.9 Y-11.236
N7930 X-28.827 Y-11.48 F#104
N7935 X-27.998 Y-12.502
N7940 X-26.342 Y-14.547 F#105
N7945 G2 X-25.844 Y-16.183 I-1.528 J-1.358
N7950 G1 X-26.266 Y-18.433
N7955 X-26.505 Y-19.251
N7960 G2 X-28.045 Y-20.635 I-1.948 J0.619
N7965 G1 X-28.868 Y-20.683
N7970 X-30.406 Y-20.301
N7975 X-31.931 Y-19.922 F#103
N7980 G2 X-33.528 Y-20.1 I-1.316 J4.573 F#100
N7985 G3 X-37.754 Y-23.044 I1.278 J-6.339
N7990 X-39.724 Y-35.087 I10.599 J-7.917
N7995 X-38.362 Y-36.174 I1.829 J0.894
N8000 G1 X-38.28 Y-36.189 F#104
N8005 X-38.196 Y-36.19
N8010 X-38.113 Y-36.176
N8015 X-38.033 Y-36.149
N8020 X-37.959 Y-36.109
N8025 X-37.893 Y-36.057
N8030 X-37.836 Y-35.995
N8035 X-37.791 Y-35.924
N8040 X-37.759 Y-35.846
N8045 X-37.51 Y-35.074
N8050 X-33.102 Y-21.369 F#105
N8055 X-32.904 Y-20.753 F#103
N8060 G3 X-33.362 Y-20.1 I-0.476 J0.153
N8065 X-35.681 Y-20.188 I-0.855 J-8.095 F#100
N8070 X-39.794 Y-23.85 I2.416 J-6.855
N8075 X-41.25 Y-34.567 I11.904 J-7.075
N8080 X-38.888 Y-35.984 I2.173 J0.946
N8085 G1 X-38.68 Y-36.08
N8090 X-38.499 Y-36.135
N8095 G3 X-37.883 Y-35.76 I0.128 J0.483 F#104
N8100 G1 X-37.716 Y-35.013
N8105 X-34.679 Y-21.385 F#105
N8110 X-34.528 Y-20.708 F#103
N8115 G3 X-34.999 Y-20.1 I-0.488 J0.109
N8120 X-37.272 Y-20.188 I-0.851 J-7.401 F#100
N8125 X-41.498 Y-24.347 I2.581 J-6.85
N8130 X-42.634 Y-34.384 I12.235 J-6.467
N8135 G1 X-42.563 Y-34.558
N8140 X-42.478 Y-34.726
N8145 X-42.379 Y-34.887
N8150 X-42.269 Y-35.04
N8155 X-42.146 Y-35.183
N8160 X-42.013 Y-35.316
N8165 X-41.869 Y-35.438
N8170 X-41.716 Y-35.548
N8175 X-41.555 Y-35.645
N8180 X-41.386 Y-35.729
N8185 X-41.211 Y-35.8
N8190 X-41.031 Y-35.856
N8195 X-40.848 Y-35.897
N8200 X-40.661 Y-35.924
N8205 X-40.473 Y-35.936
N8210 X-40.285 Y-35.933
N8215 X-40.097 Y-35.915
N8220 X-39.912 Y-35.882
N8225 X-39.498 Y-35.921
N8230 G3 X-39.003 Y-35.515 I0.004 J0.5 F#104
N8235 G1 X-38.838 Y-34.654
N8240 X-36.294 Y-21.389 F#105
N8245 X-36.161 Y-20.694 F#103
N8250 G3 X-36.635 Y-20.1 I-0.491 J0.094
N8255 X-38.807 Y-20.19 I-0.805 J-6.827 F#100
N8260 X-42.589 Y-23.696 I2.367 J-6.346
N8265 X-43.972 Y-34.34 I12.043 J-6.976
N8270 X-42.27 Y-35.87 I2.26 J0.803
N8275 G1 X-41.922 Y-35.9
N8280 X-40.619
N8285 G3 X-40.143 Y-35.482 I-0.017 J0.5 F#104
N8290 G1 X-39.999 Y-34.609
N8295 X-37.82 Y-21.393 F#105
N8300 X-37.703 Y-20.681 F#103
N8305 G3 X-38.179 Y-20.1 I-0.493 J0.081
N8310 X-40.427 Y-20.23 I-0.766 J-6.249 F#100
N8315 X-44.217 Y-24.09 I2.792 J-6.533
N8320 X-44.9 Y-25.938 I2.617 J-2.017
N8325 G1 Y-33.57
N8330 G3 X-42.87 Y-35.916 I2.124 J-0.214
N8335 G1 X-42.783 Y-35.904 F#104
N8340 X-42.699 Y-35.878
N8345 X-42.62 Y-35.838
N8350 X-42.55 Y-35.785
N8355 X-42.491 Y-35.721
N8360 X-42.443 Y-35.648
N8365 X-42.408 Y-35.568
N8370 X-42.388 Y-35.483
N8375 X-42.382 Y-35.396
N8380 X-42.392 Y-35.31
N8385 X-42.415 Y-35.227
N8390 X-42.453 Y-35.15
N8395 X-42.503 Y-35.08
N8400 X-42.795 Y-34.73
N8405 X-43.783 Y-33.545 F#105
N8410 X-44.016 Y-33.264 F#103
N8415 G3 X-44.9 Y-33.567 I-0.384 J-0.32
N8420 G1 Y-34.857 F#100
N8425 G3 X-43.854 Y-35.899 I1.04 J-0.002
N8430 G1 X-43.734 Y-35.888 F#104
N8435 X-43.616 Y-35.862
N8440 X-43.502 Y-35.823
N8445 X-43.394 Y-35.77
N8450 X-43.292 Y-35.704
N8455 X-43.2 Y-35.627
N8460 X-43.117 Y-35.54
N8465 X-43.045 Y-35.443
N8470 X-42.985 Y-35.338
N8475 X-42.938 Y-35.227
N8480 X-42.904 Y-35.111
N8485 X-42.885 Y-34.992
N8490 X-42.88 Y-34.871
N8495 G3 X-42.913 Y-34.637 I-1.009 J-0.02 F#105
N8500 X-43.871 Y-33.881 I-0.978 J-0.254
N8505 X-44.9 Y-34.856 I-0.019 J-1.01 F#103
N8510 X-44.815 Y-35.666 I1.012 J-0.304 F#100
N8515 X-44.406 Y-35.9 I0.43 J0.278
N8520 G1 X-41.922
N8525 X-40.375 Y-35.624 F#104
N8530 X-39.161 Y-35.408 F#105
N8535 G2 X-37.573 Y-36.021 I0.374 J-1.394
N8540 G1 X-36.786 Y-37.146
N8545 X-36.142 Y-38.066 F#103
N8550 X-35.96 Y-38.475
N8555 G3 X-35.291 Y-40.953 I15.95 J2.981 F#100
N8560 X-32.485 Y-43.409 I5.006 J2.887
N8565 G1 X-32.153 Y-43.4
N8570 G3 X-31.805 Y-42.559 I-0.017 J0.5 F#104
N8575 G1 X-32.097 Y-42.247
N8580 X-34.574 Y-39.589 F#105
N8585 X-34.812 Y-39.334 F#103
N8590 G3 X-35.677 Y-39.702 I-0.366 J-0.341
N8595 X-35.47 Y-41.897 I6.647 J-0.48 F#100
N8600 X-33.472 Y-43.4 I2.056 J0.653
N8605 X-33.108 Y-42.576 I-0.017 J0.5 F#104
N8610 G1 X-33.4 Y-42.233
N8615 X-34.53 Y-40.905 F#105
N8620 X-34.769 Y-40.623 F#103
N8625 G3 X-35.65 Y-40.929 I-0.381 J-0.324
N8630 G1 Y-42.218 F#100
N8635 G3 X-34.465 Y-43.399 I1.181 J0.
N8640 G1 X-34.376 Y-43.388 F#104
N8645 X-34.291 Y-43.362
N8650 X-34.212 Y-43.321
N8655 X-34.142 Y-43.266
N8660 X-34.082 Y-43.2
N8665 X-34.035 Y-43.124
N8670 X-34.003 Y-43.041
N8675 X-33.985 Y-42.953
N8680 X-33.984 Y-42.864
N8685 X-33.998 Y-42.776
N8690 X-34.028 Y-42.692
N8695 X-34.072 Y-42.614
N8700 X-34.13 Y-42.546
N8705 X-34.42 Y-42.258
N8710 X-34.506 Y-42.172 F#105
N8715 X-34.798 Y-41.881 F#103
N8720 G3 X-35.65 Y-42.218 I-0.353 J-0.354
N8725 X-35.63 Y-43.027 I2.402 J-0.346 F#100
N8730 X-35.201 Y-43.281 I0.377 J0.147 F#104
N8735 X-35.302 Y-42.491 I-0.05 J0.395
N8740 X-35.65 Y-42.872 I0.05 J-0.395
N8745 X-34.999 Y-43.4 I0.543 J0.005 F#100
N8750 G1 X-29.399
N8755 X-27.828 F#104
N8760 X-25.526 F#105
N8765 X-23.955 F#103
N8770 X-20.683 F#100
N8775 G3 X-16.644 Y-41.629 I-0.281 J6.132
N8780 G1 X-16.495 Y-41.262
N8785 X-16.387 Y-40.895
N8790 X-16.35 Y-40.515
N8795 G3 X-17.113 Y-40.107 I-0.5 J-0.017 F#104
N8800 G1 X-17.559 Y-40.384
N8805 X-20.678 Y-42.32 F#105
N8810 X-20.929 Y-42.475 F#103
N8815 G3 X-20.683 Y-43.4 I0.264 J-0.425
N8820 X-17.895 Y-43.35 I1.15 J13.496 F#100
N8825 X-16.349 Y-41.418 I-0.442 J1.938
N8830 G1 X-16.36 Y-41.331 F#104
N8835 X-16.386 Y-41.247
N8840 X-16.426 Y-41.168
N8845 X-16.48 Y-41.098
N8850 X-16.544 Y-41.039
N8855 X-16.619 Y-40.992
N8860 X-16.7 Y-40.958
N8865 X-16.786 Y-40.939
N8870 X-16.874 Y-40.936
N8875 X-16.961 Y-40.948
N8880 X-17.044 Y-40.975
N8885 X-17.122 Y-41.016
N8890 X-17.191 Y-41.07
N8895 X-17.503 Y-41.362
N8900 X-18.47 Y-42.266 F#105
N8905 X-18.757 Y-42.535 F#103
N8910 G3 X-18.433 Y-43.4 I0.342 J-0.365
N8915 G1 X-17.35 F#100
N8920 G3 X-16.351 Y-42.392 I0. J0.999
N8925 G1 X-16.363 Y-42.272 F#104
N8930 X-16.389 Y-42.155
N8935 X-16.43 Y-42.041
N8940 X-16.485 Y-41.934
N8945 X-16.553 Y-41.834
N8950 X-16.633 Y-41.744
N8955 X-16.723 Y-41.664
N8960 X-16.823 Y-41.596
N8965 X-16.93 Y-41.54
N8970 X-17.044 Y-41.499
N8975 X-17.161 Y-41.472
N8980 X-17.282 Y-41.461
N8985 X-17.402 Y-41.464
N8990 G3 X-17.567 Y-41.493 I0.086 J-0.962 F#105
N8995 X-18.282 Y-42.35 I0.252 J-0.937
N9000 X-17.349 Y-43.4 I0.967 J-0.08 F#103
N9005 X-16.518 Y-43.262 I0.279 J0.885 F#100
N9010 X-16.35 Y-42.872 I-0.333 J0.374
N9015 G1 Y-40.111
N9020 X-16.342 Y-39.907
N9025 X-16.305 Y-39.498
N9030 X-16.264 Y-39.293
N9035 X-15.81 Y-37.79 F#104
N9040 X-15.523 Y-36.839 F#105
N9045 G2 X-14.343 Y-35.903 I1.267 J-0.384
N9050 G1 X-12.938 Y-35.901
N9055 X-11.367 Y-35.9 F#103
N9060 G3 X-9.375 Y-35.708 I0.615 J4.055 F#100
N9065 X-7.056 Y-32.758 I-1.871 J3.857
N9070 G1 X-7.068 Y-32.668 F#104
N9075 X-7.094 Y-32.581
N9080 X-7.135 Y-32.501
N9085 X-7.188 Y-32.43
N9090 X-7.251 Y-32.368
N9095 X-7.324 Y-32.318
N9100 X-7.403 Y-32.282
N9105 X-7.487 Y-32.259
N9110 X-7.573 Y-32.25
N9115 X-7.659 Y-32.256
N9120 X-7.742 Y-32.276
N9125 X-7.82 Y-32.31
N9130 X-7.891 Y-32.355
N9135 X-7.953 Y-32.412
N9140 X-8.243 Y-32.702
N9145 X-10.299 Y-34.757 F#105
N9150 X-10.589 Y-35.047 F#103
N9155 G3 X-10.252 Y-35.9 I0.354 J-0.354
N9160 X-8.361 Y-35.761 I0.625 J4.454 F#100
N9165 X-7.099 Y-33.898 I-0.758 J1.872
N9170 G1 X-7.11 Y-33.81 F#104
N9175 X-7.137 Y-33.725
N9180 X-7.178 Y-33.646
N9185 X-7.233 Y-33.575
N9190 X-7.299 Y-33.515
N9195 X-7.374 Y-33.469
N9200 X-7.457 Y-33.436
N9205 X-7.544 Y-33.418
N9210 X-7.633 Y-33.416
N9215 X-7.721 Y-33.43
N9220 X-7.805 Y-33.46
N9225 X-7.883 Y-33.503
N9230 X-7.951 Y-33.56
N9235 X-8.245 Y-33.85
N9240 X-9.162 Y-34.758 F#105
N9245 X-9.452 Y-35.045 F#103
N9250 G3 X-9.117 Y-35.9 I0.352 J-0.355
N9255 G1 X-8.099 F#100
N9260 G3 X-7.101 Y-34.894 I0. J0.997
N9265 G1 X-7.113 Y-34.774 F#104
N9270 X-7.14 Y-34.656
N9275 X-7.181 Y-34.543
N9280 X-7.236 Y-34.435
N9285 X-7.304 Y-34.336
N9290 X-7.384 Y-34.245
N9295 X-7.474 Y-34.165
N9300 X-7.574 Y-34.098
N9305 X-7.682 Y-34.043
N9310 X-7.795 Y-34.002
N9315 X-7.913 Y-33.976
N9320 X-8.033 Y-33.965
N9325 X-8.154 Y-33.969
N9330 G3 X-8.315 Y-33.998 I0.092 J-0.959 F#105
N9335 X-9.026 Y-34.849 I0.254 J-0.934
N9340 X-8.095 Y-35.9 I0.965 J-0.083 F#103
N9345 X-7.29 Y-35.783 I0.29 J0.839 F#100
N9350 X-7.1 Y-35.408 I-0.327 J0.4
N9355 G1 Y-24.977
N9360 G3 X-8.405 Y-22.629 I-2.256 J0.283
N9365 G1 X-8.491 Y-22.607 F#104
N9370 X-8.579 Y-22.6
N9375 X-8.668 Y-22.608
N9380 X-8.753 Y-22.631
N9385 X-8.833 Y-22.668
N9390 X-8.905 Y-22.718
N9395 X-8.967 Y-22.78
N9400 X-9.018 Y-22.851
N9405 X-9.056 Y-22.93
N9410 X-9.079 Y-23.014
N9415 X-9.088 Y-23.1
N9420 X-9.082 Y-23.187
N9425 X-9.061 Y-23.271
N9430 X-9.026 Y-23.35
N9435 X-8.854 Y-23.671
N9440 X-8.164 Y-24.964 F#105
N9445 X-8.041 Y-25.195 F#103
N9450 G3 X-7.1 Y-24.977 I0.441 J0.235
N9455 G1 Y-23.546 F#100
N9460 X-7.112 Y-23.396
N9465 X-7.114 Y-23.383
N9470 G3 X-7.65 Y-23.023 I-0.492 J-0.153 F#104
N9475 X-7.563 Y-24.033 I0.044 J-0.505
N9480 X-7.1 Y-23.546 I-0.044 J0.505
N9485 X-7.594 Y-22.965 I-0.561 J0.024 F#100
N9490 G2 X-9.271 Y-22.218 I2.274 J7.36
N9495 G1 X-9.495 Y-22.129 F#104
N9500 X-10.821 Y-22.041
N9505 X-12.802 Y-21.91 F#105
N9510 G2 X-14.504 Y-20.478 I0.073 J1.814
N9515 G1 X-14.902 Y-18.433
N9520 G2 X-14.343 Y-16.858 I1.799 J0.248
N9525 G1 X-13.132 Y-15.694
N9530 X-12.152 Y-14.752 F#103
N9535 X-12.1 Y-14.547
N9540 G3 X-12.191 Y-12.365 I-6.903 J0.805 F#100
N9545 X-16.366 Y-8.118 I-6.855 J-2.562
N9550 G1 X-16.737 Y-8.1
N9555 X-19.925
N9560 G3 X-20.165 Y-9.028 I0.017 J-0.5 F#104
N9565 G1 X-19.918 Y-9.176
N9570 X-13.314 Y-13.14 F#105
N9575 X-12.857 Y-13.414 F#103
N9580 G3 X-12.1 Y-13.003 I0.257 J0.429
N9585 X-12.187 Y-10.851 I-6.983 J0.794 F#100
N9590 X-14.222 Y-8.176 I-4.336 J-1.187
N9595 G1 X-14.566 Y-8.128
N9600 X-14.898 Y-8.1
N9605 G3 X-15.272 Y-8.911 I0.017 J-0.5 F#104
N9610 G1 X-14.981 Y-9.276
N9615 X-13.211 Y-11.497 F#105
N9620 X-12.991 Y-11.774 F#103
N9625 G3 X-12.1 Y-11.48 I0.391 J0.312
N9630 X-12.148 Y-9.533 I-9.446 J0.741 F#100
N9635 X-13.946 Y-8.099 I-1.804 J-0.418
N9640 G1 X-14.034 Y-8.11 F#104
N9645 X-14.118 Y-8.136
N9650 X-14.196 Y-8.176
N9655 X-14.266 Y-8.229
N9660 X-14.325 Y-8.294
N9665 X-14.373 Y-8.368
N9670 X-14.406 Y-8.449
N9675 X-14.425 Y-8.535
N9680 X-14.429 Y-8.623
N9685 X-14.417 Y-8.71
N9690 X-14.39 Y-8.793
N9695 X-14.349 Y-8.871
N9700 X-14.295 Y-8.94
N9705 X-14.004 Y-9.254
N9710 X-13.233 Y-10.084 F#105
N9715 X-12.966 Y-10.371 F#103
N9720 G3 X-12.1 Y-10.048 I0.366 J0.34
N9725 G1 Y-9.025 F#100
N9730 G3 X-13.023 Y-8.101 I-0.916 J0.009
N9735 G1 X-13.111 Y-8.112 F#104
N9740 X-13.196 Y-8.138
N9745 X-13.275 Y-8.179
N9750 X-13.345 Y-8.234
N9755 X-13.405 Y-8.3
N9760 X-13.452 Y-8.375
N9765 X-13.484 Y-8.458
N9770 X-13.502 Y-8.545
N9775 X-13.504 Y-8.634
N9780 X-13.49 Y-8.722
N9785 X-13.461 Y-8.806
N9790 X-13.417 Y-8.884
N9795 X-13.36 Y-8.952
N9800 X-13.242 Y-9.071
N9805 X-12.954 Y-9.36 F#103
N9810 G3 X-12.1 Y-9.025 I0.355 J0.352
N9815 X-12.353 Y-8.173 I-0.689 J0.259 F#100
N9820 G1 X-12.403 Y-8.146
N9825 X-12.453 Y-8.127
N9830 X-12.502 Y-8.113
N9835 X-12.553 Y-8.104
N9840 X-12.604 Y-8.1
N9845 X-16.737
N9850 G3 X-17.21 Y-8.698 I0.017 J-0.5 F#104
N9855 G1 X-17.169 Y-8.898
N9860 X-17.152 Y-8.983 Z-35.862
N9865 X-17.136 Y-9.066 Z-35.84
N9870 X-17.12 Y-9.143 Z-35.803
N9875 X-17.106 Y-9.213 Z-35.753
N9880 X-17.094 Y-9.273 Z-35.691
N9885 X-17.084 Y-9.323 Z-35.62
N9890 X-17.077 Y-9.359 Z-35.541
N9895 X-17.073 Y-9.381 Z-35.457
N9900 X-17.071 Y-9.388 Z-35.37
N9905 G0 Z0.1
N9910 X-39.246 Y-21.394
N9915 Z-35.37
N9920 G1 Z-35.87 F#103
N9925 X-39.134 Y-20.677
N9930 G3 X-39.61 Y-20.1 I-0.494 J0.077
N9935 X-41.75 Y-20.19 I-0.795 J-6.552 F#100
N9940 X-44.816 Y-22.788 I1.765 J-5.192
N9945 G1 X-44.874 Y-23.114
N9950 X-44.9 Y-23.439
N9955 G3 X-44.072 Y-23.799 I0.5 J0.017 F#104
N9960 G1 X-43.736 Y-23.507
N9965 X-41.107 Y-21.223 F#105
N9970 X-40.824 Y-20.977 F#103
N9975 G3 X-41.134 Y-20.1 I-0.328 J0.378
N9980 X-43.174 Y-20.188 I-0.748 J-6.368 F#100
N9985 X-44.913 Y-22.22 I0.434 J-2.132
N9990 G1 X-44.901 Y-22.308 F#104
N9995 X-44.875 Y-22.393
N10000 X-44.834 Y-22.471
N10005 X-44.78 Y-22.542
N10010 X-44.715 Y-22.601
N10015 X-44.641 Y-22.649
N10020 X-44.56 Y-22.683
N10025 X-44.474 Y-22.702
N10030 X-44.387 Y-22.707
N10035 X-44.3 Y-22.696
N10040 X-44.216 Y-22.67
N10045 X-44.139 Y-22.63
N10050 X-44.07 Y-22.578
N10055 X-43.739 Y-22.286
N10060 X-42.536 Y-21.225 F#105
N10065 X-42.252 Y-20.975 F#103
N10070 G3 X-42.566 Y-20.1 I-0.331 J0.375
N10075 G1 X-43.792 F#100
N10080 G3 X-44.899 Y-21.224 I0.009 J-1.116
N10085 G1 X-44.886 Y-21.354 F#104
N10090 X-44.858 Y-21.482
N10095 X-44.815 Y-21.605
N10100 X-44.757 Y-21.722
N10105 X-44.685 Y-21.831
N10110 X-44.6 Y-21.931
N10115 X-44.503 Y-22.019
N10120 X-44.397 Y-22.095
N10125 X-44.282 Y-22.158
N10130 X-44.161 Y-22.206
N10135 X-44.034 Y-22.239
N10140 X-43.904 Y-22.256
N10145 G3 X-43.543 Y-22.22 I0.076 J1.07 F#105
N10150 X-42.754 Y-21.091 I-0.287 J1.041
N10155 X-43.793 Y-20.1 I-1.076 J-0.088 F#103
N10160 X-44.508 Y-20.114 I-0.305 J-2.646 F#100
N10165 X-44.795 Y-20.559 I0.137 J-0.403 F#104
N10170 X-43.963 Y-20.477 I0.416 J0.041
N10175 X-44.365 Y-20.1 I-0.416 J-0.041
N10180 X-44.9 Y-20.683 I-0.014 J-0.524 F#100
N10185 G1 Y-25.938
N10190 G3 X-44.72 Y-26.306 I0.5 J0.017 F#104
N10195 G1 X-44.22 Y-26.72
N10200 X-44.153 Y-26.776 Z-35.862
N10205 X-44.088 Y-26.829 Z-35.84
N10210 X-44.028 Y-26.88 Z-35.803
N10215 X-43.973 Y-26.925 Z-35.753
N10220 X-43.925 Y-26.965 Z-35.691
N10225 X-43.887 Y-26.997 Z-35.62
N10230 X-43.858 Y-27.02 Z-35.541
N10235 X-43.841 Y-27.035 Z-35.457
N10240 X-43.835 Y-27.04 Z-35.37
N10245 G0 Z-35.27
N10250 X-28.461 Y-32.324
N10255 G1 Z-35.77 F#103
N10260 S3800
N10265 G3 X-24.202 Y-33.106 Z-36.028 I2.461 J1.416 F#107
N10270 X-24.125 Y-28.81 Z-36.286 I-1.784 J2.18
N10275 X-28.342 Y-29.43 Z-36.544 I-1.846 J-2.099
N10280 X-27.054 Y-33.457 Z-36.803 I2.352 J-1.467
N10285 X-23.321 Y-31.545 Z-37.061 I1.055 J2.539
N10290 X-25.796 Y-28.202 Z-37.319 I-2.655 J0.622
N10295 X-28.667 Y-31.163 Z-37.577 I-0.18 J-2.699
N10300 X-25.305 Y-33.494 Z-37.835 I2.67 J0.26
N10305 X-23.568 Y-29.828 Z-38.093 I-0.686 J2.57
N10310 X-27.435 Y-28.721 Z-38.351 I-2.403 J-1.087
N10315 X-27.893 Y-32.683 Z-38.609 I1.451 J-2.175
N10320 X-23.944 Y-32.491 Z-38.868 I1.893 J1.771
N10325 X-24.77 Y-28.659 Z-39.126 I-2.038 J1.565
N10330 X-28.384 Y-30.086 Z-39.384 I-1.202 J-2.246
N10335 X-26.405 Y-33.39 Z-39.642 I2.391 J-0.812
N10340 X-23.494 Y-30.921 Z-39.9 I0.408 J2.469
N10345 X-28.499 I-2.503 J0.
N10350 X-23.494 I2.503 J0.
N10355 S4000
N10360 X-23.581 Y-29.029 I-4.374 J0.747 F#100
N10365 X-29.157 Y-29.821 I-2.613 J-1.63
N10370 X-27.091 Y-34.152 I3.16 J-1.151
N10375 X-22.798 Y-32.007 I1.093 J3.18
N10380 X-27.593 Y-26.93 I-3.294 J1.692
N10385 X-24.481 Y-35.048 I1.556 J-4.059
N10390 X-22.782 Y-33.871 I-1.556 J4.059
N10395 X-28.903 Y-26.393 I-3.394 J3.466
N10400 X-30.422 Y-34.194 I2.862 J-4.606
N10405 X-22.53 Y-35.132 I4.381 J3.195
N10410 X-29.034 Y-25.165 I-3.645 J4.727
N10415 X-31.862 Y-34.064 I2.973 J-5.844
N10420 X-22.925 Y-36.767 I5.801 J3.055
N10425 X-28.984 Y-23.84 I-3.245 J6.363
N10430 X-23.83 Y-38.418 I2.9 J-7.175
N10435 X-28.264 Y-22.32 I-2.316 J8.022
N10440 X-27.313 Y-39.873 I2.125 J-8.687
N10445 X-17.032 Y-27.487 I1.32 J9.364
N10450 X-33.966 Y-24.468 I-9.273 J-3.014
N10455 X-20.945 Y-39.956 I7.93 J-6.551
N10460 X-28.206 Y-19.688 I-5.195 J9.574
N10465 X-30.269 Y-41.744 I2.027 J-11.314
N10470 X-13.975 Y-30.122 I4.353 J11.13
N10475 X-29.778 Y-18.679 I-12.222 J-0.245
N10480 G2 X-31.306 Y-19.751 I-8.705 J10.788
N10485 G3 X-37.91 Y-25.951 I2.839 J-9.642
N10490 X-37.908 Y-36.085 I11.295 J-5.065
N10495 X-36.839 Y-37.166 I26.309 J24.946
N10500 G2 X-35.558 Y-39.293 I-4.494 J-4.155
N10505 G3 X-29.524 Y-43.408 I8.759 J6.364
N10510 G1 X-29.322 Y-43.4
N10515 X-23.955
N10520 G3 X-17.334 Y-40.705 I-0.461 J10.613
N10525 X-16.487 Y-39.856 I-7.082 J7.918 F#106
N10530 G2 X-15.765 Y-37.852 I17.879 J-5.305 F#100
N10535 G3 X-13.282 Y-34.323 I-7.512 J7.923
N10540 X-28.265 Y-16.998 I-12.82 J4.054
N10545 X-29.417 Y-17.987 I0.585 J-1.848
N10550 G1 X-29.463 Y-18.228 F#104
N10555 X-29.404 Y-18.433
N10560 X-28.74 Y-19.324
N10565 X-16.123 Y-36.242 F#105
N10570 X-15.57 Y-36.983 F#103
N10575 X-15.161 Y-37.061
N10580 X-14.956 Y-36.956
N10585 G2 X-13.387 Y-35.956 I4.809 J-5.814 F#100
N10590 G3 X-11.36 Y-30.157 I-5.919 J5.323
N10595 X-24.442 Y-15.593 I-14.61 J0.034
N10600 X-27.961 Y-15.695 I-1.544 J-7.452
N10605 X-29.239 Y-17.687 I1.274 J-2.224
N10610 G1 X-29.334 Y-17.819
N10615 X-29.418 Y-17.986
N10620 G3 X-29.346 Y-18.519 I0.454 J-0.21 F#104
N10625 G1 X-28.698 Y-19.285
N10630 X-15.099 Y-35.359 F#105
N10635 X-14.46 Y-36.115 F#103
N10640 G3 X-13.934 Y-36.271 I0.382 J0.323
N10645 X-10.702 Y-33.238 I-0.661 J3.943 F#100
N10650 X-10.331 Y-26.883 I-9.884 J3.765
N10655 X-26.601 Y-14.127 I-15.707 J-3.28
N10660 X-28.635 Y-15.2 I0.276 J-2.988
N10665 X-28.986 Y-16.798 I4.512 J-1.827
N10670 G1 X-29.068 Y-17.031
N10675 G3 X-28.965 Y-17.463 I0.488 J-0.111 F#104
N10680 G1 X-28.252 Y-18.315
N10685 X-14.258 Y-35.058 F#105
N10690 X-13.589 Y-35.859 F#103
N10695 G3 X-13.116 Y-36.03 I0.384 J0.321
N10700 X-11.437 Y-35.672 I-0.507 J6.487 F#100
N10705 X-8.927 Y-31.083 I-3.675 J4.991
N10710 X-11.273 Y-20.952 I-14.172 J2.055
N10715 X-25.981 Y-12.756 I-14.687 J-9.063
N10720 X-28.393 Y-13.677 I0.447 J-4.796
N10725 G1 X-28.504 Y-13.845
N10730 X-28.604 Y-14.02
N10735 X-28.691 Y-14.202
N10740 X-28.766 Y-14.389
N10745 X-28.829 Y-14.581
N10750 X-28.878 Y-14.776
N10755 X-28.914 Y-14.974
N10760 X-28.937 Y-15.175
N10765 X-28.947 Y-15.376
N10770 X-28.943 Y-15.578
N10775 X-28.926 Y-15.778
N10780 X-28.895 Y-15.978
N10785 X-28.909 Y-16.183
N10790 G3 X-28.792 Y-16.505 I0.5 J-0.001 F#104
N10795 G1 X-28.008 Y-17.441
N10800 X-13.411 Y-34.867 F#105
N10805 X-12.685 Y-35.733 F#103
N10810 G3 X-12.298 Y-35.912 I0.383 J0.321
N10815 X-10.493 Y-35.709 I0.429 J4.307 F#100
N10820 X-7.774 Y-31.529 I-3.069 J4.97
N10825 X-8.798 Y-22.705 I-13.247 J2.935
N10830 X-10.661 Y-20.98 I-102.624 J-108.994
N10835 G2 X-12.2 Y-17.995 I11.016 J7.567
N10840 G3 X-22.64 Y-11.689 I-12.784 J-9.368
N10845 X-27.814 Y-12.009 I-2.096 J-8.068
N10850 X-28.904 Y-13.815 I1.025 J-1.851
N10855 G1 X-28.9 Y-15.059
N10860 G3 X-28.523 Y-15.526 I0.5 J0.017 F#104
N10865 G1 X-27.625 Y-15.754
N10870 X-12.898 Y-19.485 F#105
N10875 X-12.374 Y-19.617 F#103
N10880 G3 X-11.766 Y-19.013 I0.123 J0.485
N10885 X-12.47 Y-16.19 I-12.041 J-1.505 F#100
N10890 X-19.203 Y-11.204 I-10.474 J-7.106
N10895 X-27.279 Y-10.478 I-5.09 J-11.344
N10900 X-28.889 Y-12.181 I0.829 J-2.395
N10905 G1 X-28.9 Y-12.543
N10910 Y-13.815
N10915 G3 X-28.512 Y-14.285 I0.5 J0.017 F#104
N10920 G1 X-27.62 Y-14.489
N10925 X-13.336 Y-17.753 F#105
N10930 X-12.684 Y-17.902 F#103
N10935 G3 X-12.073 Y-17.41 I0.111 J0.487
N10940 X-12.296 Y-15.118 I-6.872 J0.487 F#100
N10945 X-17.065 Y-10.662 I-8.412 J-4.223
N10950 X-26.509 Y-8.954 I-7.184 J-12.756
N10955 X-28.668 Y-10.243 I0.729 J-3.674
N10960 G1 X-28.784 Y-10.577
N10965 X-28.871 Y-10.908
N10970 X-28.9 Y-11.249
N10975 Y-12.543
N10980 G3 X-28.513 Y-13.013 I0.5 J0.017 F#104
N10985 G1 X-27.62 Y-13.218
N10990 X-13.384 Y-16.498 F#105
N10995 X-12.712 Y-16.653 F#103
N11000 G3 X-12.1 Y-16.183 I0.112 J0.487
N11005 X-12.235 Y-13.776 I-6.804 J0.825 F#100
N11010 X-16.133 Y-9.675 I-7.366 J-3.099
N11015 X-19.957 Y-8.1 I-5.498 J-7.915
N11020 G1 X-26.205
N11025 G3 X-28.949 Y-10.192 I-0.34 J-2.4
N11030 G1 X-28.936 Y-10.283 F#104
N11035 X-28.908 Y-10.369
N11040 X-28.866 Y-10.45
N11045 X-28.812 Y-10.521
N11050 X-28.747 Y-10.582
N11055 X-28.673 Y-10.631
N11060 X-28.593 Y-10.667
N11065 X-28.508 Y-10.688
N11070 X-28.422 Y-10.696
N11075 X-28.336 Y-10.688
N11080 X-28.254 Y-10.667
N11085 X-28.177 Y-10.632
N11090 X-28.107 Y-10.586
N11095 X-27.711 Y-10.298
N11100 X-26.196 Y-9.199 F#105
N11105 X-25.928 Y-9.004 F#103
N11110 G3 X-26.205 Y-8.1 I-0.294 J0.405
N11115 G1 X-27.8 F#100
N11120 G3 X-28.899 Y-9.203 I-0.001 J-1.098
N11125 G1 X-28.888 Y-9.323 F#104
N11130 X-28.864 Y-9.441
N11135 X-28.826 Y-9.556
N11140 X-28.775 Y-9.665
N11145 X-28.713 Y-9.768
N11150 X-28.639 Y-9.864
N11155 X-28.555 Y-9.95
N11160 X-28.461 Y-10.027
N11165 X-28.36 Y-10.092
N11170 X-28.251 Y-10.145
N11175 X-28.138 Y-10.186
N11180 X-28.02 Y-10.214
N11185 X-27.9 Y-10.228
N11190 G3 X-27.568 Y-10.196 I0.064 J1.063 F#105
N11195 X-26.773 Y-9.099 I-0.268 J1.031
N11200 X-27.799 Y-8.1 I-1.063 J-0.065 F#103
N11205 X-28.557 Y-8.126 I-0.27 J-3.18 F#100
N11210 G1 X-28.614 Y-8.16 F#104
N11215 X-28.663 Y-8.205
N11220 X-28.703 Y-8.257
N11225 X-28.731 Y-8.317
N11230 X-28.748 Y-8.38
N11235 X-28.752 Y-8.446
N11240 G3 X-28.747 Y-8.5 I0.341 J0.008 F#103
N11245 X-28.087 Y-8.379 I0.33 J0.06
N11250 X-28.413 Y-8.104 I-0.33 J-0.06
N11255 X-28.899 Y-8.616 I0.027 J-0.513 F#100
N11260 G1 X-28.9 Y-11.249
N11265 X-28.834 Y-11.48 F#104
N11270 X-28. Y-12.516
N11275 X-26.365 Y-14.547 F#105
N11280 G2 X-25.859 Y-16.183 I-1.49 J-1.358
N11285 G1 X-26.281 Y-18.433
N11290 X-26.522 Y-19.251
N11295 G2 X-29.068 Y-20.543 I-1.917 J0.624
N11300 G1 X-30.225 Y-20.227
N11305 X-31.613 Y-19.847 F#103
N11310 X-31.744 Y-19.865
N11315 G2 X-33.663 Y-20.11 I-1.694 J5.628 F#100
N11320 G3 X-38.144 Y-23.639 I1.853 J-6.962
N11325 X-39.687 Y-35.111 I11.078 J-7.331
N11330 X-38.357 Y-36.177 I1.841 J0.934
N11335 G1 X-38.274 Y-36.192 F#104
N11340 X-38.19
N11345 X-38.107 Y-36.179
N11350 X-38.027 Y-36.151
N11355 X-37.953 Y-36.111
N11360 X-37.887 Y-36.059
N11365 X-37.831 Y-35.996
N11370 X-37.786 Y-35.925
N11375 X-37.753 Y-35.847
N11380 X-37.505 Y-35.075
N11385 X-33.102 Y-21.369 F#105
N11390 X-32.904 Y-20.753 F#103
N11395 G3 X-33.362 Y-20.1 I-0.476 J0.153
N11400 X-35.647 Y-20.186 I-0.851 J-7.76 F#100
N11405 X-39.769 Y-23.863 I2.41 J-6.851
N11410 X-41.169 Y-34.707 I11.827 J-7.039
N11415 X-38.887 Y-35.987 I2.11 J1.086
N11420 G1 X-38.68 Y-36.08
N11425 X-38.464 Y-36.145
N11430 G3 X-37.847 Y-35.77 I0.128 J0.483 F#104
N11435 G1 X-37.683 Y-35.024
N11440 X-34.677 Y-21.385 F#105
N11445 X-34.528 Y-20.707 F#103
N11450 G3 X-34.999 Y-20.1 I-0.488 J0.108
N11455 X-37.402 Y-20.234 I-0.825 J-6.833 F#100
N11460 X-41.435 Y-24.261 I2.897 J-6.933
N11465 X-42.608 Y-34.373 I12.36 J-6.559
N11470 G1 X-42.539 Y-34.547
N11475 X-42.456 Y-34.715
N11480 X-42.36 Y-34.876
N11485 X-42.251 Y-35.028
N11490 X-42.13 Y-35.172
N11495 X-41.998 Y-35.305
N11500 X-41.856 Y-35.428
N11505 X-41.704 Y-35.538
N11510 X-41.545 Y-35.636
N11515 X-41.377 Y-35.721
N11520 X-41.204 Y-35.792
N11525 X-41.025 Y-35.85
N11530 X-40.843 Y-35.892
N11535 X-40.657 Y-35.92
N11540 X-40.47 Y-35.933
N11545 X-40.283 Y-35.931
N11550 X-40.096 Y-35.915
N11555 X-39.911 Y-35.883
N11560 X-39.496 Y-35.921
N11565 G3 X-38.974 Y-35.518 I0.031 J0.499 F#104
N11570 G1 X-38.81 Y-34.683
N11575 X-36.205 Y-21.389 F#105
N11580 X-36.069 Y-20.696 F#103
N11585 G3 X-36.543 Y-20.1 I-0.491 J0.096
N11590 X-38.928 Y-20.235 I-0.818 J-6.7 F#100
N11595 X-42.814 Y-24.172 I2.866 J-6.716
N11600 X-43.958 Y-34.288 I12.33 J-6.517
N11605 X-42.244 Y-35.869 I2.279 J0.751
N11610 G1 X-41.892 Y-35.9
N11615 X-40.592
N11620 G3 X-40.117 Y-35.484 I-0.017 J0.5 F#104
N11625 G1 X-39.968 Y-34.61
N11630 X-37.712 Y-21.392 F#105
N11635 X-37.591 Y-20.684 F#103
N11640 G3 X-38.066 Y-20.1 I-0.493 J0.084
N11645 X-40.224 Y-20.182 I-0.805 J-7.232 F#100
N11650 X-44.187 Y-24.112 I2.43 J-6.414
N11655 X-44.9 Y-26.02 I2.679 J-2.088
N11660 G1 Y-33.568
N11665 G3 X-42.861 Y-35.919 I2.151 J-0.194
N11670 G1 X-42.773 Y-35.907 F#104
N11675 X-42.688 Y-35.88
N11680 X-42.61 Y-35.84
N11685 X-42.54 Y-35.786
N11690 X-42.48 Y-35.722
N11695 X-42.432 Y-35.648
N11700 X-42.397 Y-35.567
N11705 X-42.377 Y-35.482
N11710 X-42.372 Y-35.396
N11715 X-42.382 Y-35.309
N11720 X-42.406 Y-35.226
N11725 X-42.444 Y-35.149
N11730 X-42.495 Y-35.079
N11735 X-42.786 Y-34.731
N11740 X-43.782 Y-33.544 F#105
N11745 X-44.017 Y-33.263 F#103
N11750 G3 X-44.9 Y-33.567 I-0.383 J-0.321
N11755 G1 Y-34.854 F#100
N11760 G3 X-43.847 Y-35.899 I1.045 J0.
N11765 G1 X-43.727 Y-35.888 F#104
N11770 X-43.609 Y-35.862
N11775 X-43.495 Y-35.823
N11780 X-43.387 Y-35.77
N11785 X-43.285 Y-35.704
N11790 X-43.192 Y-35.627
N11795 X-43.109 Y-35.54
N11800 X-43.037 Y-35.443
N11805 X-42.977 Y-35.338
N11810 X-42.93 Y-35.227
N11815 X-42.897 Y-35.111
N11820 X-42.877 Y-34.992
N11825 X-42.872 Y-34.871
N11830 G3 X-42.907 Y-34.629 I-1.01 J-0.019 F#105
N11835 X-43.873 Y-33.877 I-0.98 J-0.263
N11840 X-44.9 Y-34.856 I-0.013 J-1.014 F#103
N11845 X-44.815 Y-35.666 I1.012 J-0.304 F#100
N11850 X-44.406 Y-35.9 I0.43 J0.278
N11855 G1 X-41.892
N11860 X-40.345 Y-35.629 F#104
N11865 X-39.089 Y-35.408 F#105
N11870 G2 X-37.657 Y-35.934 I0.306 J-1.378
N11875 G1 X-36.895 Y-37.021
N11880 X-36.1 Y-38.154 F#103
N11885 X-36.021 Y-38.323
N11890 G3 X-35.465 Y-40.516 I456.381 J114.54 F#100
N11895 X-32.74 Y-43.323 I5.676 J2.784
N11900 G1 X-32.424 Y-43.375
N11905 X-32.111 Y-43.4
N11910 G3 X-31.765 Y-42.557 I-0.017 J0.5 F#104
N11915 G1 X-32.056 Y-42.249
N11920 X-34.573 Y-39.587 F#105
N11925 X-34.814 Y-39.332 F#103
N11930 G3 X-35.677 Y-39.702 I-0.363 J-0.344
N11935 X-35.457 Y-41.9 I6.245 J-0.487 F#100
N11940 X-33.455 Y-43.4 I2.063 J0.667
N11945 X-33.093 Y-42.575 I-0.017 J0.5 F#104
N11950 G1 X-33.385 Y-42.235
N11955 X-34.528 Y-40.904 F#105
N11960 X-34.771 Y-40.621 F#103
N11965 G3 X-35.65 Y-40.929 I-0.379 J-0.326
N11970 G1 Y-42.218 F#100
N11975 G3 X-34.452 Y-43.399 I1.192 J0.011
N11980 G1 X-34.369 Y-43.389 F#104
N11985 X-34.289 Y-43.366
N11990 X-34.215 Y-43.33
N11995 X-34.147 Y-43.282
N12000 X-34.088 Y-43.223
N12005 X-34.04 Y-43.155
N12010 X-34.003 Y-43.08
N12015 X-33.98 Y-43.001
N12020 X-33.97 Y-42.918
N12025 X-33.974 Y-42.835
N12030 X-33.991 Y-42.754
N12035 X-34.022 Y-42.676
N12040 X-34.066 Y-42.605
N12045 X-34.12 Y-42.542
N12050 X-34.409 Y-42.26
N12055 X-34.503 Y-42.169 F#105
N12060 X-34.801 Y-41.878 F#103
N12065 G3 X-35.65 Y-42.218 I-0.349 J-0.358
N12070 X-35.612 Y-43.078 I1.872 J-0.348 F#100
N12075 X-35.044 Y-43.367 I0.487 J0.255 F#104
N12080 X-35.201 Y-42.323 I-0.078 J0.522
N12085 X-35.65 Y-42.826 I0.078 J-0.522
N12090 X-34.999 Y-43.4 I0.544 J-0.039 F#100
N12095 G1 X-29.322
N12100 X-27.751 F#104
N12105 X-25.526 F#105
N12110 X-23.955 F#103
N12115 X-20.683 F#100
N12120 G3 X-16.644 Y-41.613 I-0.328 J6.2
N12125 G1 X-16.495 Y-41.246
N12130 X-16.387 Y-40.879
N12135 X-16.35 Y-40.499
N12140 G3 X-17.115 Y-40.092 I-0.5 J-0.017 F#104
N12145 G1 X-17.559 Y-40.37
N12150 X-20.679 Y-42.319 F#105
N12155 X-20.93 Y-42.476 F#103
N12160 G3 X-20.683 Y-43.4 I0.265 J-0.424
N12165 G1 X-18.432 F#100
N12170 G3 X-16.341 Y-41.479 I0.113 J1.975
N12175 G1 X-16.352 Y-41.391 F#104
N12180 X-16.379 Y-41.307
N12185 X-16.419 Y-41.228
N12190 X-16.473 Y-41.158
N12195 X-16.538 Y-41.098
N12200 X-16.612 Y-41.051
N12205 X-16.693 Y-41.017
N12210 X-16.779 Y-40.998
N12215 X-16.866 Y-40.994
N12220 X-16.953 Y-41.005
N12225 X-17.037 Y-41.031
N12230 X-17.114 Y-41.071
N12235 X-17.184 Y-41.124
N12240 X-17.509 Y-41.416
N12245 X-18.464 Y-42.272 F#105
N12250 X-18.749 Y-42.528 F#103
N12255 G3 X-18.433 Y-43.4 I0.334 J-0.372
N12260 G1 X-17.299 F#100
N12265 G3 X-16.352 Y-42.432 I-0.009 J0.956
N12270 G1 X-16.364 Y-42.312 F#104
N12275 X-16.391 Y-42.194
N12280 X-16.434 Y-42.082
N12285 X-16.491 Y-41.975
N12290 X-16.562 Y-41.878
N12295 X-16.645 Y-41.79
N12300 X-16.738 Y-41.714
N12305 X-16.841 Y-41.651
N12310 X-16.951 Y-41.602
N12315 X-17.067 Y-41.568
N12320 X-17.186 Y-41.549
N12325 X-17.307 Y-41.546
N12330 X-17.427 Y-41.559
N12335 G3 X-17.519 Y-41.58 I0.159 J-0.905 F#105
N12340 X-18.182 Y-42.328 I0.253 J-0.893
N12345 X-17.298 Y-43.4 I0.917 J-0.145 F#103
N12350 X-16.444 Y-43.179 I0.267 J0.728 F#100
N12355 X-16.35 Y-42.872 I-0.408 J0.292
N12360 G1 Y-40.111
N12365 X-16.342 Y-39.907
N12370 X-16.305 Y-39.498
N12375 X-16.264 Y-39.293
N12380 X-15.81 Y-37.79 F#104
N12385 X-15.523 Y-36.839 F#105
N12390 G2 X-14.343 Y-35.903 I1.267 J-0.384
N12395 G1 X-12.938 Y-35.901
N12400 X-11.367 Y-35.9 F#103
N12405 G3 X-9.662 Y-35.805 I0.598 J4.644 F#100
N12410 X-7.061 Y-32.718 I-1.529 J3.927
N12415 G1 X-7.073 Y-32.629 F#104
N12420 X-7.1 Y-32.544
N12425 X-7.14 Y-32.464
N12430 X-7.192 Y-32.393
N12435 X-7.256 Y-32.332
N12440 X-7.328 Y-32.282
N12445 X-7.407 Y-32.246
N12450 X-7.491 Y-32.223
N12455 X-7.576 Y-32.215
N12460 X-7.662 Y-32.221
N12465 X-7.745 Y-32.241
N12470 X-7.823 Y-32.274
N12475 X-7.894 Y-32.32
N12480 X-7.956 Y-32.377
N12485 X-8.241 Y-32.666
N12490 X-10.301 Y-34.755 F#105
N12495 X-10.591 Y-35.049 F#103
N12500 G3 X-10.252 Y-35.9 I0.356 J-0.351
N12505 X-8.348 Y-35.751 I0.618 J4.355 F#100
N12510 X-7.099 Y-33.891 I-0.779 J1.873
N12515 G1 X-7.11 Y-33.802 F#104
N12520 X-7.137 Y-33.717
N12525 X-7.178 Y-33.638
N12530 X-7.233 Y-33.567
N12535 X-7.299 Y-33.508
N12540 X-7.375 Y-33.461
N12545 X-7.458 Y-33.428
N12550 X-7.545 Y-33.411
N12555 X-7.634 Y-33.409
N12560 X-7.722 Y-33.423
N12565 X-7.806 Y-33.453
N12570 X-7.884 Y-33.497
N12575 X-7.952 Y-33.554
N12580 X-8.244 Y-33.844
N12585 X-9.163 Y-34.758 F#105
N12590 X-9.453 Y-35.046 F#103
N12595 G3 X-9.117 Y-35.9 I0.353 J-0.355
N12600 G1 X-8.096 F#100
N12605 G3 X-7.101 Y-34.889 I-0.006 J1.001
N12610 G1 X-7.113 Y-34.769 F#104
N12615 X-7.14 Y-34.651
N12620 X-7.181 Y-34.538
N12625 X-7.236 Y-34.43
N12630 X-7.304 Y-34.331
N12635 X-7.384 Y-34.24
N12640 X-7.474 Y-34.161
N12645 X-7.574 Y-34.093
N12650 X-7.681 Y-34.038
N12655 X-7.795 Y-33.997
N12660 X-7.913 Y-33.971
N12665 X-8.033 Y-33.959
N12670 X-8.154 Y-33.963
N12675 G3 X-8.321 Y-33.994 I0.091 J-0.959 F#105
N12680 X-9.029 Y-34.85 I0.26 J-0.936
N12685 X-8.095 Y-35.9 I0.968 J-0.079 F#103
N12690 X-7.29 Y-35.783 I0.29 J0.839 F#100
N12695 X-7.1 Y-35.408 I-0.327 J0.4
N12700 G1 Y-24.977
N12705 G3 X-8.404 Y-22.628 I-2.267 J0.278
N12710 G1 X-8.49 Y-22.606 F#104
N12715 X-8.579 Y-22.599
N12720 X-8.668 Y-22.607
N12725 X-8.753 Y-22.63
N12730 X-8.833 Y-22.667
N12735 X-8.906 Y-22.717
N12740 X-8.968 Y-22.779
N12745 X-9.019 Y-22.851
N12750 X-9.056 Y-22.93
N12755 X-9.08 Y-23.014
N12760 X-9.088 Y-23.1
N12765 X-9.082 Y-23.187
N12770 X-9.061 Y-23.271
N12775 X-9.026 Y-23.35
N12780 X-8.854 Y-23.671
N12785 X-8.164 Y-24.964 F#105
N12790 X-8.041 Y-25.195 F#103
N12795 G3 X-7.1 Y-24.977 I0.441 J0.235
N12800 G1 Y-23.546 F#100
N12805 X-7.112 Y-23.396
N12810 X-7.114 Y-23.383
N12815 G3 X-7.649 Y-23.024 I-0.491 J-0.153 F#104
N12820 X-7.562 Y-24.032 I0.043 J-0.504
N12825 X-7.1 Y-23.546 I-0.043 J0.504
N12830 X-7.594 Y-22.965 I-0.561 J0.024 F#100
N12835 G1 X-8.412 Y-22.645
N12840 X-8.616 Y-22.562
N12845 X-10.187 Y-22.595 F#104
N12850 X-12.298 Y-22.639 F#105
N12855 G2 X-14.226 Y-21.296 I-0.094 J1.921
N12860 G1 X-14.783 Y-19.456
N12865 X-14.917 Y-18.638
N12870 G2 X-14.343 Y-16.752 I1.867 J0.462
N12875 G1 X-13.165 Y-15.752
N12880 X-12.228 Y-14.956 F#103
N12885 X-12.1 Y-14.639
N12890 G3 X-12.235 Y-12.232 I-6.922 J0.82 F#100
N12895 X-16.382 Y-8.117 I-6.967 J-2.874
N12900 G1 X-16.761 Y-8.1
N12905 X-19.957
N12910 G3 X-20.201 Y-9.026 I0.017 J-0.5 F#104
N12915 G1 X-19.951 Y-9.179
N12920 X-13.311 Y-13.249 F#105
N12925 X-12.861 Y-13.525 F#103
N12930 G3 X-12.1 Y-13.116 I0.261 J0.426
N12935 X-12.234 Y-10.704 I-6.844 J0.828 F#100
N12940 X-14.234 Y-8.178 I-4.35 J-1.39
N12945 G1 X-14.58 Y-8.128
N12950 X-14.915 Y-8.1
N12955 G3 X-15.292 Y-8.907 I0.017 J-0.5 F#104
N12960 G1 X-15.002 Y-9.28
N12965 X-13.208 Y-11.586 F#105
N12970 X-12.994 Y-11.861 F#103
N12975 G3 X-12.1 Y-11.572 I0.395 J0.307
N12980 X-12.148 Y-9.55 I-9.58 J0.786 F#100
N12985 X-13.968 Y-8.099 I-1.826 J-0.424
N12990 G1 X-14.056 Y-8.11 F#104
N12995 X-14.14 Y-8.136
N13000 X-14.218 Y-8.177
N13005 X-14.288 Y-8.23
N13010 X-14.348 Y-8.295
N13015 X-14.395 Y-8.37
N13020 X-14.428 Y-8.451
N13025 X-14.447 Y-8.537
N13030 X-14.45 Y-8.625
N13035 X-14.438 Y-8.713
N13040 X-14.41 Y-8.796
N13045 X-14.369 Y-8.874
N13050 X-14.314 Y-8.943
N13055 X-14.023 Y-9.252
N13060 X-13.235 Y-10.086 F#105
N13065 X-12.963 Y-10.374 F#103
N13070 G3 X-12.1 Y-10.048 I0.364 J0.343
N13075 G1 Y-9.023 F#100
N13080 G3 X-13.031 Y-8.101 I-0.922 J0.
N13085 G1 X-13.143 Y-8.112 F#104
N13090 X-13.252 Y-8.137
N13095 X-13.357 Y-8.175
N13100 X-13.457 Y-8.226
N13105 X-13.55 Y-8.289
N13110 X-13.634 Y-8.363
N13115 X-13.708 Y-8.447
N13120 X-13.771 Y-8.54
N13125 X-13.821 Y-8.64
N13130 X-13.859 Y-8.745
N13135 X-13.884 Y-8.855
N13140 X-13.895 Y-8.966
N13145 X-13.891 Y-9.078
N13150 X-13.874 Y-9.189
N13155 X-13.865 Y-9.225 F#105
N13160 G3 X-13.188 Y-9.872 I0.868 J0.231
N13165 X-12.1 Y-9.025 I0.19 J0.878 F#103
N13170 X-12.353 Y-8.173 I-0.689 J0.259 F#100
N13175 G1 X-12.403 Y-8.146
N13180 X-12.453 Y-8.127
N13185 X-12.502 Y-8.113
N13190 X-12.553 Y-8.104
N13195 X-12.604 Y-8.1
N13200 X-16.761
N13205 G3 X-17.234 Y-8.698 I0.017 J-0.5 F#104
N13210 G1 X-17.194 Y-8.898
N13215 X-17.177 Y-8.983 Z-39.892
N13220 X-17.16 Y-9.066 Z-39.87
N13225 X-17.145 Y-9.143 Z-39.833
N13230 X-17.131 Y-9.213 Z-39.783
N13235 X-17.118 Y-9.273 Z-39.721
N13240 X-17.109 Y-9.322 Z-39.65
N13245 X-17.101 Y-9.359 Z-39.571
N13250 X-17.097 Y-9.381 Z-39.487
N13255 X-17.095 Y-9.388 Z-39.4
N13260 G0 Z0.1
N13265 X-39.244 Y-21.394
N13270 Z-39.4
N13275 G1 Z-39.9 F#103
N13280 X-39.134 Y-20.676
N13285 G3 X-39.61 Y-20.1 I-0.494 J0.076
N13290 X-41.856 Y-20.232 I-0.766 J-6.154 F#100
N13295 X-44.808 Y-22.818 I2.012 J-5.276
N13300 G1 X-44.872 Y-23.151
N13305 X-44.9 Y-23.483
N13310 G3 X-44.075 Y-23.845 I0.5 J0.017 F#104
N13315 G1 X-43.734 Y-23.553
N13320 X-41.016 Y-21.221 F#105
N13325 X-40.734 Y-20.979 F#103
N13330 G3 X-41.042 Y-20.1 I-0.326 J0.38
N13335 X-43.289 Y-20.231 I-0.767 J-6.177 F#100
N13340 X-44.9 Y-22.235 I0.484 J-2.039
N13345 X-44.077 Y-22.599 I0.5 J0.017 F#104
N13350 G1 X-43.733 Y-22.307
N13355 X-42.449 Y-21.22 F#105
N13360 X-42.168 Y-20.981 F#103
N13365 G3 X-42.474 Y-20.1 I-0.323 J0.381
N13370 G1 X-43.792 F#100
N13375 G3 X-44.899 Y-21.232 I0.016 J-1.122
N13380 G1 X-44.886 Y-21.362 F#104
N13385 X-44.858 Y-21.49
N13390 X-44.815 Y-21.613
N13395 X-44.756 Y-21.73
N13400 X-44.685 Y-21.839
N13405 X-44.6 Y-21.939
N13410 X-44.504 Y-22.027
N13415 X-44.397 Y-22.103
N13420 X-44.283 Y-22.166
N13425 X-44.161 Y-22.214
N13430 X-44.035 Y-22.247
N13435 X-43.905 Y-22.265
N13440 G3 X-43.534 Y-22.227 I0.077 J1.07 F#105
N13445 X-42.75 Y-21.089 I-0.297 J1.043
N13450 X-43.793 Y-20.1 I-1.08 J-0.095 F#103
N13455 X-44.508 Y-20.114 I-0.305 J-2.646 F#100
N13460 X-44.795 Y-20.559 I0.137 J-0.403 F#104
N13465 X-43.963 Y-20.477 I0.416 J0.041
N13470 X-44.365 Y-20.1 I-0.416 J-0.041
N13475 X-44.9 Y-20.683 I-0.014 J-0.524 F#100
N13480 G1 Y-26.02
N13485 G3 X-44.719 Y-26.388 I0.5 J0.017 F#104
N13490 G1 X-44.219 Y-26.801
N13495 X-44.152 Y-26.856 Z-39.892
N13500 X-44.087 Y-26.91 Z-39.87
N13505 X-44.026 Y-26.96 Z-39.833
N13510 X-43.971 Y-27.006 Z-39.783
N13515 X-43.924 Y-27.045 Z-39.721
N13520 X-43.885 Y-27.077 Z-39.65
N13525 X-43.857 Y-27.1 Z-39.571
N13530 X-43.839 Y-27.114 Z-39.487
N13535 X-43.833 Y-27.119 Z-39.4
N13540 G0 Z0.1
(2D CONTOUR1 2)
N13550 M9
N13555 G0 X-17.144 Y-38.293
N13560 #100=800. (CUTTING)
N13565 #103=600. (ENTRY)
N13570 #104=600. (EXIT)
N13575 #106=400. (REDUCED)
N13580 #108=300. (PLUNGE)
N13585 Z0.1
N13590 Z-1.
N13595 G1 Z-21.4 F#108
N13600 X-17.137 Y-38.291 Z-21.494
N13605 X-17.115 Y-38.287 Z-21.585
N13610 X-17.08 Y-38.28 Z-21.672
N13615 X-17.032 Y-38.27 Z-21.753
N13620 X-16.972 Y-38.258 Z-21.824
N13625 X-16.901 Y-38.243 Z-21.885
N13630 X-16.823 Y-38.227 Z-21.935
N13635 X-16.738 Y-38.21 Z-21.971
N13640 X-16.648 Y-38.192 Z-21.993
N13645 X-16.556 Y-38.173 Z-22.
N13650 X-15.968 Y-38.053 F#103
N13655 G3 X-15.588 Y-37.795 I-0.12 J0.588
N13660 G2 X-12.25 Y-36. I3.338 J-2.205 F#100
N13665 G1 X-8.3
N13670 X-7.1 F#106
N13675 G3 X-7. Y-35.9 I0. J0.1
N13680 G1 Y-24.3 F#100
N13685 Y-23.1 F#106
N13690 G3 X-7.081 Y-23.002 I-0.1 J0.
N13695 G2 X-12. Y-17.017 I1.181 J5.985 F#100
N13700 G1 Y-9.2
N13705 Y-8. F#106
N13710 X-27.8 F#100
N13715 X-29. F#106
N13720 Y-16. F#100
N13725 G2 X-33. Y-20. I-4. J0.
N13730 G1 X-43.7
N13735 X-44.9 F#106
N13740 G3 X-45. Y-20.1 I0. J-0.1
N13745 G1 Y-34.7 F#100
N13750 Y-35.9 F#106
N13755 G3 X-44.9 Y-36. I0.1 J0.
N13760 G1 X-39.75 F#100
N13765 G2 X-35.75 Y-40. I0. J-4.
N13770 G1 Y-42.2
N13775 Y-43.4 F#106
N13780 G3 X-35.65 Y-43.5 I0.1 J0.
N13785 G1 X-17.55 F#100
N13790 X-16.35 F#106
N13795 G3 X-16.25 Y-43.4 I0. J0.1
N13800 G1 Y-40. F#100
N13805 G2 X-15.588 Y-37.795 I4. J0.
N13810 G3 X-15.5 Y-37.345 I-0.501 J0.331 F#104
N13815 G1 X-15.621 Y-36.757
N13820 X-15.639 Y-36.665 Z-21.993
N13825 X-15.658 Y-36.575 Z-21.971
N13830 X-15.675 Y-36.49 Z-21.935
N13835 X-15.691 Y-36.411 Z-21.885
N13840 X-15.706 Y-36.341 Z-21.824
N13845 X-15.718 Y-36.281 Z-21.753
N13850 X-15.728 Y-36.233 Z-21.672
N13855 X-15.735 Y-36.198 Z-21.585
N13860 X-15.739 Y-36.176 Z-21.494
N13865 X-15.741 Y-36.169 Z-21.4
N13870 X-17.144 Y-38.293
N13875 Z-31.4 F#108
N13880 X-17.137 Y-38.291 Z-31.494
N13885 X-17.115 Y-38.287 Z-31.585
N13890 X-17.08 Y-38.28 Z-31.672
N13895 X-17.032 Y-38.27 Z-31.753
N13900 X-16.972 Y-38.258 Z-31.824
N13905 X-16.901 Y-38.243 Z-31.885
N13910 X-16.823 Y-38.227 Z-31.935
N13915 X-16.738 Y-38.21 Z-31.971
N13920 X-16.648 Y-38.192 Z-31.993
N13925 X-16.556 Y-38.173 Z-32.
N13930 X-15.968 Y-38.053 F#103
N13935 G3 X-15.588 Y-37.795 I-0.12 J0.588
N13940 G2 X-12.25 Y-36. I3.338 J-2.205 F#100
N13945 G1 X-8.3
N13950 X-7.1 F#106
N13955 G3 X-7. Y-35.9 I0. J0.1
N13960 G1 Y-24.3 F#100
N13965 Y-23.1 F#106
N13970 G3 X-7.081 Y-23.002 I-0.1 J0.
N13975 G2 X-12. Y-17.017 I1.181 J5.985 F#100
N13980 G1 Y-9.2
N13985 Y-8. F#106
N13990 X-27.8 F#100
N13995 X-29. F#106
N14000 Y-16. F#100
N14005 G2 X-33. Y-20. I-4. J0.
N14010 G1 X-43.7
N14015 X-44.9 F#106
N14020 G3 X-45. Y-20.1 I0. J-0.1
N14025 G1 Y-34.7 F#100
N14030 Y-35.9 F#106
N14035 G3 X-44.9 Y-36. I0.1 J0.
N14040 G1 X-39.75 F#100
N14045 G2 X-35.75 Y-40. I0. J-4.
N14050 G1 Y-42.2
N14055 Y-43.4 F#106
N14060 G3 X-35.65 Y-43.5 I0.1 J0.
N14065 G1 X-17.55 F#100
N14070 X-16.35 F#106
N14075 G3 X-16.25 Y-43.4 I0. J0.1
N14080 G1 Y-40. F#100
N14085 G2 X-15.588 Y-37.795 I4. J0.
N14090 G3 X-15.5 Y-37.345 I-0.501 J0.331 F#104
N14095 G1 X-15.621 Y-36.757
N14100 X-15.639 Y-36.665 Z-31.993
N14105 X-15.658 Y-36.575 Z-31.971
N14110 X-15.675 Y-36.49 Z-31.935
N14115 X-15.691 Y-36.411 Z-31.885
N14120 X-15.706 Y-36.341 Z-31.824
N14125 X-15.718 Y-36.281 Z-31.753
N14130 X-15.728 Y-36.233 Z-31.672
N14135 X-15.735 Y-36.198 Z-31.585
N14140 X-15.739 Y-36.176 Z-31.494
N14145 X-15.741 Y-36.169 Z-31.4
N14150 X-17.144 Y-38.293
N14155 Z-39.4 F#108
N14160 X-17.137 Y-38.291 Z-39.494
N14165 X-17.115 Y-38.287 Z-39.585
N14170 X-17.08 Y-38.28 Z-39.672
N14175 X-17.032 Y-38.27 Z-39.753
N14180 X-16.972 Y-38.258 Z-39.824
N14185 X-16.901 Y-38.243 Z-39.885
N14190 X-16.823 Y-38.227 Z-39.935
N14195 X-16.738 Y-38.21 Z-39.971
N14200 X-16.648 Y-38.192 Z-39.993
N14205 X-16.556 Y-38.173 Z-40.
N14210 X-15.968 Y-38.053 F#103
N14215 G3 X-15.588 Y-37.795 I-0.12 J0.588
N14220 G2 X-12.25 Y-36. I3.338 J-2.205 F#100
N14225 G1 X-8.3
N14230 X-7.1 F#106
N14235 G3 X-7. Y-35.9 I0. J0.1
N14240 G1 Y-24.3 F#100
N14245 Y-23.1 F#106
N14250 G3 X-7.081 Y-23.002 I-0.1 J0.
N14255 G2 X-12. Y-17.017 I1.181 J5.985 F#100
N14260 G1 Y-9.2
N14265 Y-8. F#106
N14270 X-27.8 F#100
N14275 X-29. F#106
N14280 Y-16. F#100
N14285 G2 X-33. Y-20. I-4. J0.
N14290 G1 X-43.7
N14295 X-44.9 F#106
N14300 G3 X-45. Y-20.1 I0. J-0.1
N14305 G1 Y-34.7 F#100
N14310 Y-35.9 F#106
N14315 G3 X-44.9 Y-36. I0.1 J0.
N14320 G1 X-39.75 F#100
N14325 G2 X-35.75 Y-40. I0. J-4.
N14330 G1 Y-42.2
N14335 Y-43.4 F#106
N14340 G3 X-35.65 Y-43.5 I0.1 J0.
N14345 G1 X-17.55 F#100
N14350 X-16.35 F#106
N14355 G3 X-16.25 Y-43.4 I0. J0.1
N14360 G1 Y-40. F#100
N14365 G2 X-15.588 Y-37.795 I4. J0.
N14370 G3 X-15.5 Y-37.345 I-0.501 J0.331 F#104
N14375 G1 X-15.621 Y-36.757
N14380 X-15.639 Y-36.665 Z-39.993
N14385 X-15.658 Y-36.575 Z-39.971
N14390 X-15.675 Y-36.49 Z-39.935
N14395 X-15.691 Y-36.411 Z-39.885
N14400 X-15.706 Y-36.341 Z-39.824
N14405 X-15.718 Y-36.281 Z-39.753
N14410 X-15.728 Y-36.233 Z-39.672
N14415 X-15.735 Y-36.198 Z-39.585
N14420 X-15.739 Y-36.176 Z-39.494
N14425 X-15.741 Y-36.169 Z-39.4
N14430 G0 Z0.1
N14440 M9
N14445 G53 Z0.
N14450 M30
%
