%
(1001)
(T9  D=7. CR=0. - ZMIN=-18. - FLAT END MILL)
N10 G90 G94 G17 G91.1
N15 G21
N20 G53 G0 Z0.
(2D ADAPTIVE2)
N25 M9
N30 T9 M6
N35 S4000 M3
N40 G54
N45 M9
N55 G0 X-30.626 Y-29.371
N60 G43 Z4. H9
N65 #100=600. (CUTTING)
N70 #103=500. (ENTRY)
N75 #104=500. (EXIT)
N80 #105=3000. (DIRECT)
N85 #106=150. (REDUCED)
N90 #107=400. (RAMPING)
N95 G0 Z1.55
N100 G1 Z1.05 F#103
N105 S3800
N110 G3 X-24.031 Y-33.342 Z0.574 I4.626 J0.22 F#107
N115 X-22.887 Y-25.8 Z0.097 I-1.951 J4.154
N120 X-30.229 Y-27.604 Z-0.379 I-3.067 J-3.358
N125 X-25.801 Y-33.646 Z-0.855 I4.235 J-1.54
N130 X-21.941 Y-27.306 Z-1.331 I-0.191 J4.461
N135 X-29.206 Y-26.168 Z-1.808 I-4.013 J-1.861
N140 X-27.501 Y-33.251 Z-2.284 I3.221 J-2.971
N145 X-21.661 Y-29.013 Z-2.76 I1.503 J4.072
N150 X-27.748 Y-25.268 Z-3.236 I-4.296 J-0.164
N155 X-28.876 Y-32.255 Z-3.713 I1.773 J-3.871
N160 X-22.054 Y-30.647 Z-4.189 I2.873 J3.086
N165 X-26.103 Y-25.011 Z-4.665 I-3.91 J1.464
N170 X-29.732 Y-30.846 Z-5.141 I0.138 J-4.131
N175 X-23.022 Y-31.962 Z-5.617 I3.728 J1.687
N180 X-24.535 Y-25.401 Z-6.094 I-2.951 J2.774
N185 X-29.966 Y-29.263 Z-6.57 I-1.423 J-3.748
N190 X-24.382 Y-32.773 Z-7.046 I3.966 J0.113
N195 X-23.28 Y-26.34 Z-7.523 I-1.601 J3.585
N200 X-29.579 Y-27.761 Z-7.999 I-2.674 J-2.818
N205 X-25.902 Y-32.985 Z-8.475 I3.586 J-1.382
N210 X-22.513 Y-27.651 Z-8.951 I-0.09 J3.801
N215 X-28.669 Y-26.566 Z-9.427 I-3.441 J-1.517
N220 X-27.337 Y-32.603 Z-9.904 I2.685 J-2.573
N225 X-22.322 Y-29.108 Z-10.38 I1.338 J3.425
N230 X-27.409 Y-25.843 Z-10.856 I-3.635 J-0.069
N235 X-28.473 Y-31.723 Z-11.333 I1.435 J-3.296
N240 X-22.7 Y-30.478 Z-11.809 I2.47 J2.554
N245 X-26.015 Y-25.673 Z-12.285 I-3.265 J1.294
N250 X-29.153 Y-30.512 Z-12.761 I0.05 J-3.47
N255 X-23.55 Y-31.554 Z-13.238 I3.15 J1.353
N260 X-24.711 Y-26.045 Z-13.714 I-2.424 J2.367
N265 X-29.304 Y-29.181 Z-14.19 I-1.247 J-3.105
N270 X-24.71 Y-32.192 Z-14.666 I3.304 J0.031
N275 X-23.693 Y-26.864 Z-15.142 I-1.274 J3.004
N280 X-28.938 Y-27.943 Z-15.619 I-2.262 J-2.294
N285 X-25.977 Y-32.323 Z-16.095 I2.945 J-1.199
N290 X-23.097 Y-27.973 Z-16.571 I-0.015 J3.139
N295 X-28.149 Y-26.983 Z-17.048 I-2.857 J-1.195
N300 X-27.15 Y-31.963 Z-17.524 I2.166 J-2.156
N305 X-22.985 Y-29.177 Z-18. I1.15 J2.786
N310 X-29.014 I-3.014 J0.
N315 X-22.985 I3.014 J0.
N320 S4000
N325 X-23.034 Y-27.215 I-5.941 J0.834 F#100
N330 X-29.286 Y-27.192 I-3.132 J-1.631
N335 X-27.685 Y-32.701 I3.281 J-2.034
N340 X-22.374 Y-30.533 I1.68 J3.475
N345 X-27.879 Y-24.785 I-3.709 J1.959
N350 X-24.177 Y-33.686 I1.851 J-4.451
N355 X-21.97 Y-31.837 I-1.851 J4.451
N360 X-28.681 Y-24.026 I-4.158 J3.216
N365 X-31.166 Y-32.071 I2.629 J-5.218
N370 X-23.032 Y-34.248 I5.114 J2.827
N375 X-20.798 Y-25.224 I-3.153 J5.569
N380 X-29.93 Y-23.488 I-5.388 J-3.454
N385 X-31.628 Y-33.386 I3.891 J-5.762
N390 X-21.666 Y-34.656 I5.589 J4.136
N395 X-29.351 Y-21.867 I-4.489 J6.006
N400 X-23.382 Y-36.882 I3.276 J-7.391
N405 X-17.974 Y-25.748 I-2.77 J8.226
N410 X-29.197 Y-20.528 I-8.178 J-2.908
N415 X-23.682 Y-38.217 I3.108 J-8.736
N420 X-28.36 Y-19.024 I-2.448 J9.57
N425 X-27.937 Y-39.567 I2.217 J-10.23
N430 X-15.641 Y-25.068 I1.954 J10.805
N435 X-34.867 Y-21.439 I-10.649 J-3.677
N440 X-20.735 Y-39.803 I8.826 J-7.828
N445 X-23.897 Y-16.471 I-5.362 J11.154
N450 G1 X-27.414 Y-16.5
N455 G3 X-38.904 Y-26.973 I0.643 J-12.244
N460 X-38.056 Y-34.414 I11.955 J-2.406
N465 X-37.406 Y-35.653 I11.106 J5.035 F#106
N470 G2 X-35.219 Y-38.15 I-2.822 J-4.678 F#100
N475 G3 X-22.285 Y-41.777 I9.188 J7.891
N480 X-18.016 Y-39.715 I-2.758 J11.159
N485 X-16.963 Y-38.794 I-7.027 J9.097 F#106
N490 G2 X-15.903 Y-36.689 I9.542 J-3.486 F#100
N495 G3 X-12.529 Y-29.515 I-6.079 J7.239
N500 X-19.765 Y-16.563 I-13.295 J1.07
N505 G1 X-20.117 Y-16.524
N510 X-20.459 Y-16.5
N515 X-23.902
N520 X-25.473 F#104
N525 X-25.843 F#105
N530 X-27.414 F#103
N535 X-30.894 F#100
N540 G3 X-36.879 Y-19.867 I0.988 J-8.761
N545 X-39.44 Y-34.447 I10.315 J-9.327
N550 X-37.853 Y-35.623 I2.229 J1.35
N555 G1 X-37.774 Y-35.635 F#104
N560 X-37.693
N565 X-37.614 Y-35.621
N570 X-37.537 Y-35.596
N575 X-37.466 Y-35.558
N580 X-37.402 Y-35.509
N585 X-37.347 Y-35.451
N590 X-37.301 Y-35.384
N595 X-37.267 Y-35.311
N600 X-36.969 Y-34.519
N605 X-30.662 Y-17.759 F#105
N610 X-30.443 Y-17.176 F#103
N615 G3 X-30.893 Y-16.5 I-0.468 J0.176
N620 X-33.702 Y-16.558 I-1.115 J-13.936 F#100
N625 X-39.317 Y-20.98 I2.428 J-8.858
N630 X-40.944 Y-34.072 I12.201 J-8.164
N635 X-38.075 Y-35.527 I2.548 J1.47
N640 G1 X-37.853 Y-35.621
N645 G3 X-37.268 Y-35.256 I0.101 J0.49 F#104
N650 G1 X-37.066 Y-34.472
N655 X-32.77 Y-17.78 F#105
N660 X-32.601 Y-17.124 F#103
N665 G3 X-33.068 Y-16.5 I-0.484 J0.125
N670 X-35.523 Y-16.55 I-0.999 J-11.291 F#100
N675 X-40.222 Y-20.077 I2.094 J-7.684
N680 X-42.471 Y-33.567 I12.481 J-9.013
N685 X-39.934 Y-35.525 I2.761 J0.954
N690 G1 X-38.791 Y-35.501
N695 X-38.723
N700 G3 X-38.25 Y-35.102 I-0.017 J0.5 F#104
N705 G1 X-38.068 Y-34.217
N710 X-34.694 Y-17.788 F#105
N715 X-34.553 Y-17.1 F#103
N720 G3 X-35.026 Y-16.5 I-0.49 J0.101
N725 X-37.579 Y-16.632 I-0.876 J-7.833 F#100
N730 X-42.258 Y-20.929 I3.108 J-8.08
N735 X-43.814 Y-33.528 I13.514 J-8.064
N740 X-42.075 Y-35.381 I3.206 J1.266
N745 G1 X-41.66 Y-35.465
N750 X-41.243 Y-35.5
N755 X-39.932
N760 G3 X-39.458 Y-35.09 I-0.017 J0.5 F#104
N765 G1 X-39.298 Y-34.211
N770 X-36.32 Y-17.791 F#105
N775 X-36.193 Y-17.089 F#103
N780 G3 X-36.668 Y-16.5 I-0.492 J0.089
N785 X-39.163 Y-16.628 I-0.863 J-7.541 F#100
N790 X-43.614 Y-20.772 I3.022 J-7.709
N795 X-44.5 Y-22.998 I2.803 J-2.405
N800 G1 Y-33.062
N805 G3 X-42.232 Y-35.507 I2.309 J-0.132
N810 G1 X-42.144 Y-35.496 F#104
N815 X-42.06 Y-35.47
N820 X-41.981 Y-35.429
N825 X-41.911 Y-35.375
N830 X-41.851 Y-35.31
N835 X-41.804 Y-35.236
N840 X-41.77 Y-35.155
N845 X-41.751 Y-35.069
N850 X-41.748 Y-34.981
N855 X-41.759 Y-34.894
N860 X-41.786 Y-34.81
N865 X-41.827 Y-34.733
N870 X-41.88 Y-34.664
N875 X-42.172 Y-34.343
N880 X-43.37 Y-33.028 F#105
N885 X-43.631 Y-32.742 F#103
N890 G3 X-44.5 Y-33.062 I-0.37 J-0.337
N895 G1 Y-34.267 F#100
N900 G3 X-43.227 Y-35.499 I1.262 J0.032
N905 G1 X-43.144 Y-35.489 F#104
N910 X-43.064 Y-35.465
N915 X-42.989 Y-35.429
N920 X-42.921 Y-35.38
N925 X-42.862 Y-35.321
N930 X-42.814 Y-35.252
N935 X-42.778 Y-35.177
N940 X-42.755 Y-35.096
N945 X-42.745 Y-35.013
N950 X-42.75 Y-34.93
N955 X-42.769 Y-34.848
N960 X-42.801 Y-34.771
N965 X-42.845 Y-34.7
N970 X-42.901 Y-34.637
N975 X-43.189 Y-34.365
N980 X-43.349 Y-34.213 F#105
N985 X-43.657 Y-33.922 F#103
N990 G3 X-44.5 Y-34.268 I-0.344 J-0.363
N995 G1 Y-34.866 F#100
N1000 G3 X-43.868 Y-35.5 I0.626 J-0.009
N1005 X-43.453 Y-35.32 I-0.022 J0.619 F#104
N1010 X-44.319 Y-34.45 I-0.433 J0.435
N1015 X-44.5 Y-34.866 I0.433 J-0.435
N1020 X-43.942 Y-35.502 I0.532 J-0.096 F#100
N1025 G1 X-41.243 Y-35.5
N1030 G3 X-40.767 Y-35.081 I-0.017 J0.5 F#104
N1035 G1 X-40.624 Y-34.209
N1040 X-37.929 Y-17.793 F#105
N1045 X-37.812 Y-17.081 F#103
N1050 G3 X-38.288 Y-16.5 I-0.493 J0.081
N1055 X-40.679 Y-16.625 I-0.821 J-7.217 F#100
N1060 X-44.394 Y-19.821 I2.267 J-6.393
N1065 G1 X-44.467 Y-20.229
N1070 X-44.5 Y-20.635
N1075 G3 X-43.673 Y-20.995 I0.5 J0.017 F#104
N1080 G1 X-43.336 Y-20.703
N1085 X-39.783 Y-17.623 F#105
N1090 X-39.5 Y-17.377 F#103
N1095 G3 X-39.81 Y-16.5 I-0.328 J0.378
N1100 X-42.163 Y-16.621 I-0.812 J-7.146 F#100
N1105 G1 X-42.368 Y-16.673
N1110 X-42.569 Y-16.739
N1115 X-42.765 Y-16.819
N1120 X-42.955 Y-16.912
N1125 X-43.138 Y-17.019
N1130 X-43.313 Y-17.138
N1135 X-43.479 Y-17.269
N1140 X-43.636 Y-17.411
N1145 X-43.782 Y-17.564
N1150 X-43.918 Y-17.727
N1155 X-44.041 Y-17.899
N1160 X-44.153 Y-18.079
N1165 X-44.251 Y-18.266
N1170 X-44.336 Y-18.46
N1175 X-44.407 Y-18.659
N1180 X-44.465 Y-18.863
N1185 X-44.508 Y-19.07
N1190 X-44.536 Y-19.28
N1195 X-44.524 Y-19.365 F#104
N1200 X-44.499 Y-19.447
N1205 X-44.461 Y-19.523
N1210 X-44.412 Y-19.592
N1215 X-44.353 Y-19.652
N1220 X-44.285 Y-19.702
N1225 X-44.211 Y-19.739
N1230 X-44.132 Y-19.765
N1235 X-44.05 Y-19.777
N1240 X-43.968 Y-19.775
N1245 X-43.887 Y-19.761
N1250 X-43.81 Y-19.734
N1255 X-43.739 Y-19.696
N1260 X-43.675 Y-19.646
N1265 X-43.334 Y-19.354
N1270 X-41.307 Y-17.621 F#105
N1275 X-41.025 Y-17.38 F#103
N1280 G3 X-41.333 Y-16.5 I-0.325 J0.38
N1285 G1 X-42.757 F#100
N1290 G3 X-44.5 Y-18.238 I-0.005 J-1.738
N1295 X-43.647 Y-18.575 I0.5 J0.017 F#104
N1300 G1 X-43.356 Y-18.285
N1305 X-42.712 Y-17.643 F#105
N1310 X-42.422 Y-17.354 F#103
N1315 G3 X-42.757 Y-16.5 I-0.353 J0.354
N1320 G1 X-43.574 F#100
N1325 G3 X-44.499 Y-17.427 I-0.006 J-0.919
N1330 G1 X-44.488 Y-17.515 F#104
N1335 X-44.462 Y-17.6
N1340 X-44.42 Y-17.679
N1345 X-44.366 Y-17.749
N1350 X-44.3 Y-17.809
N1355 X-44.224 Y-17.856
N1360 X-44.141 Y-17.888
N1365 X-44.054 Y-17.906
N1370 X-43.965 Y-17.908
N1375 X-43.877 Y-17.893
N1380 X-43.793 Y-17.864
N1385 X-43.715 Y-17.82
N1390 X-43.647 Y-17.763
N1395 X-43.527 Y-17.643
N1400 X-43.237 Y-17.353 F#103
N1405 G3 X-43.573 Y-16.5 I-0.354 J0.354
N1410 G1 X-43.671 Y-16.47 F#100
N1415 X-43.773 Y-16.454
N1420 X-43.875 Y-16.453
N1425 X-43.977 Y-16.467
N1430 X-44.076 Y-16.495
N1435 X-44.169 Y-16.537
N1440 X-44.256 Y-16.592
N1445 X-44.334 Y-16.659
N1450 X-44.401 Y-16.736
N1455 X-44.457 Y-16.822
N1460 X-44.5 Y-16.915
N1465 X-44.529 Y-17.013
N1470 X-44.543 Y-17.115
N1475 Y-17.217
N1480 X-44.529 Y-17.319
N1485 X-44.5 Y-17.417
N1490 Y-22.998
N1495 G2 X-43.734 Y-23.745 I-489.455 J-503.212 F#104
N1500 G1 X-43.673 Y-23.807 Z-17.992
N1505 X-43.614 Y-23.866 Z-17.97
N1510 X-43.558 Y-23.923 Z-17.933
N1515 X-43.508 Y-23.973 Z-17.883
N1520 X-43.465 Y-24.017 Z-17.821
N1525 X-43.429 Y-24.053 Z-17.75
N1530 X-43.404 Y-24.079 Z-17.671
N1535 X-43.388 Y-24.095 Z-17.587
N1540 X-43.382 Y-24.1 Z-17.5
N1545 G0 X-16.471 Y-35.458
N1550 G1 Z-18. F#103
N1555 X-16.204 Y-36.079
N1560 G3 X-15.452 Y-36.287 I0.459 J0.198
N1565 X-13.51 Y-35.126 I-18.411 J33.008 F#100
N1570 X-11.234 Y-27.708 I-7.412 J6.332
N1575 X-16.935 Y-16.815 I-14.308 J-0.551
N1580 G1 X-17.331 Y-16.645
N1585 X-17.744 Y-16.537
N1590 X-18.171 Y-16.5
N1595 X-20.459
N1600 G3 X-20.918 Y-17.15 I0.017 J-0.5 F#104
N1605 G1 X-20.723 Y-17.77
N1610 X-15.383 Y-34.671 F#105
N1615 X-15.147 Y-35.416 F#103
N1620 G3 X-14.516 Y-35.741 I0.477 J0.151
N1625 X-12.555 Y-35.037 I-0.931 J5.68 F#100
N1630 X-9.974 Y-28.831 I-5.745 J6.029
N1635 X-14.73 Y-16.98 I-15.017 J0.854
N1640 X-16.209 Y-16.5 I-1.489 J-2.066
N1645 G1 X-18.171
N1650 G3 X-18.639 Y-17.119 I0.017 J-0.5 F#104
N1655 G1 X-18.477 Y-17.782
N1660 X-14.435 Y-34.301 F#105
N1665 X-14.227 Y-35.153 F#103
N1670 G3 X-13.712 Y-35.533 I0.486 J0.119
N1675 X-11.922 Y-35.247 I0.26 J4.121 F#100
N1680 X-8.992 Y-30.623 I-3.666 J5.563
N1685 X-10.958 Y-19.629 I-14.291 J3.117
N1690 X-13.23 Y-16.764 I-7.165 J-3.348
N1695 G1 X-13.622 Y-16.63
N1700 X-14.015 Y-16.533
N1705 X-14.418 Y-16.5
N1710 X-16.209
N1715 G3 X-16.683 Y-17.089 I0.017 J-0.5 F#104
N1720 G1 X-16.556 Y-17.791
N1725 X-13.575 Y-34.213 F#105
N1730 X-13.415 Y-35.09 F#103
N1735 G3 X-12.94 Y-35.501 I0.492 J0.089
N1740 X-11.262 Y-35.403 I0.584 J4.452 F#100
N1745 X-8.229 Y-32.02 I-2.127 J4.959
N1750 X-7.495 Y-29.29 I-6.799 J3.291
N1755 X-8.154 Y-22.525 I-20.852 J1.384
N1760 X-11.144 Y-17.013 I-14.974 J-4.557
N1765 X-12.736 Y-16.5 I-1.672 J-2.463
N1770 G1 X-14.418
N1775 G3 X-14.821 Y-17.27 I0.017 J-0.5 F#104
N1780 G1 X-14.542 Y-17.705
N1785 X-8.584 Y-26.976 F#105
N1790 X-8.42 Y-27.231 F#103
N1795 G3 X-7.5 Y-26.978 I0.421 J0.27
N1800 G1 Y-22.416 F#100
N1805 G3 X-9.486 Y-17.172 I-8.972 J-0.4
N1810 X-11.222 Y-16.5 I-1.755 J-1.954
N1815 X-11.634 Y-17.255 I0.017 J-0.5 F#104
N1820 G1 X-11.361 Y-17.715
N1825 X-8.575 Y-22.407 F#105
N1830 X-8.43 Y-22.653 F#103
N1835 G3 X-7.5 Y-22.415 I0.43 J0.255
N1840 G1 Y-19.59 F#100
N1845 G3 X-9.693 Y-16.486 I-3.028 J0.188
N1850 G1 X-10.093 Y-16.5
N1855 G3 X-10.464 Y-17.314 I0.017 J-0.5 F#104
N1860 G1 X-10.174 Y-17.674
N1865 X-8.613 Y-19.609 F#105
N1870 X-8.389 Y-19.887 F#103
N1875 G3 X-7.5 Y-19.59 I0.389 J0.314
N1880 G1 Y-18.003 F#100
N1885 G3 X-9.038 Y-16.501 I-1.533 J-0.031
N1890 G1 X-9.121 Y-16.511 F#104
N1895 X-9.201 Y-16.534
N1900 X-9.276 Y-16.57
N1905 X-9.344 Y-16.619
N1910 X-9.403 Y-16.678
N1915 X-9.451 Y-16.746
N1920 X-9.487 Y-16.821
N1925 X-9.511 Y-16.901
N1930 X-9.52 Y-16.983
N1935 X-9.516 Y-17.067
N1940 X-9.498 Y-17.148
N1945 X-9.467 Y-17.225
N1950 X-9.423 Y-17.297
N1955 X-9.368 Y-17.359
N1960 X-9.079 Y-17.638
N1965 X-8.648 Y-18.055 F#105
N1970 X-8.347 Y-18.346 F#103
N1975 G3 X-7.5 Y-18.003 I0.347 J0.36
N1980 G1 Y-17.297 F#100
N1985 G3 X-8.296 Y-16.501 I-0.786 J0.01
N1990 G1 X-8.392 Y-16.511 F#104
N1995 X-8.486 Y-16.532
N2000 X-8.577 Y-16.564
N2005 X-8.663 Y-16.608
N2010 X-8.743 Y-16.662
N2015 X-8.815 Y-16.725
N2020 G3 X-8.947 Y-17.641 I0.545 J-0.546
N2025 X-8.641 Y-17.947 I0.676 J0.37 F#105
N2030 X-7.5 Y-17.298 I0.371 J0.676 F#103
N2035 X-8.058 Y-16.5 I-0.549 J0.21 F#100
N2040 G1 X-12.736
N2045 G3 X-13.218 Y-17.024 I0.017 J-0.5 F#104
N2050 G1 X-13.179 Y-17.802
N2055 X-12.375 Y-34.198 F#105
N2060 X-12.335 Y-35.025 F#103
N2065 G3 X-11.853 Y-35.5 I0.499 J0.024
N2070 X-9.884 Y-35.316 I0.598 J4.236 F#100
N2075 X-7.498 Y-32.687 I-1.702 J3.942
N2080 G1 X-7.5 Y-32.274
N2085 G3 X-8.351 Y-31.936 I-0.5 J-0.017 F#104
N2090 G1 X-8.645 Y-32.226
N2095 X-10.809 Y-34.359 F#105
N2100 X-11.099 Y-34.644 F#103
N2105 G3 X-10.765 Y-35.5 I0.351 J-0.356
N2110 X-9.134 Y-35.446 I0.616 J6.113 F#100
N2115 X-7.499 Y-33.31 I-0.586 J2.142
N2120 G1 X-7.509 Y-33.227 F#104
N2125 X-7.533 Y-33.146
N2130 X-7.57 Y-33.071
N2135 X-7.619 Y-33.002
N2140 X-7.679 Y-32.943
N2145 X-7.748 Y-32.895
N2150 X-7.824 Y-32.859
N2155 X-7.905 Y-32.836
N2160 X-7.989 Y-32.828
N2165 X-8.073 Y-32.833
N2170 X-8.154 Y-32.852
N2175 X-8.232 Y-32.885
N2180 X-8.303 Y-32.93
N2185 X-8.365 Y-32.986
N2190 X-8.633 Y-33.274
N2195 X-9.636 Y-34.347 F#105
N2200 X-9.928 Y-34.659 F#103
N2205 G3 X-9.58 Y-35.5 I0.365 J-0.341
N2210 G1 X-8.71 F#100
N2215 G3 X-7.5 Y-34.295 I0.007 J1.203
N2220 G1 X-7.511 Y-34.207 F#104
N2225 X-7.538 Y-34.122
N2230 X-7.579 Y-34.043
N2235 X-7.633 Y-33.973
N2240 X-7.699 Y-33.913
N2245 X-7.775 Y-33.866
N2250 X-7.858 Y-33.834
N2255 X-7.945 Y-33.816
N2260 X-8.034 Y-33.814
N2265 X-8.122 Y-33.828
N2270 X-8.206 Y-33.857
N2275 X-8.283 Y-33.901
N2280 X-8.352 Y-33.958
N2285 X-8.644 Y-34.248
N2290 X-8.755 Y-34.358 F#105
N2295 X-9.045 Y-34.645 F#103
N2300 G3 X-8.71 Y-35.5 I0.352 J-0.355
N2305 X-7.78 Y-35.434 I0.367 J1.41 F#100
N2310 G1 X-7.713 Y-35.399
N2315 G3 X-7.884 Y-35.051 I-0.129 J0.153 F#103
N2320 G1 X-8.136 Y-35.105
N2325 G3 X-8.102 Y-35.5 I0.042 J-0.196
N2330 X-7.498 Y-35.018 I0.069 J0.532 F#100
N2335 G1 X-7.5 Y-34.583
N2340 Y-29.29
N2345 G3 X-7.732 Y-28.885 I-0.5 J-0.017 F#104
N2350 G1 X-8.226 Y-28.572
N2355 X-8.3 Y-28.525 Z-17.992
N2360 X-8.371 Y-28.48 Z-17.97
N2365 X-8.438 Y-28.438 Z-17.933
N2370 X-8.498 Y-28.4 Z-17.883
N2375 X-8.55 Y-28.367 Z-17.821
N2380 X-8.592 Y-28.34 Z-17.75
N2385 X-8.623 Y-28.32 Z-17.671
N2390 X-8.642 Y-28.308 Z-17.587
N2395 X-8.649 Y-28.304 Z-17.5
N2400 G0 X-36.093 Y-35.946
N2405 G1 Z-18. F#103
N2410 G2 X-35.619 Y-37.441 I-30.144 J-10.383
N2415 G1 X-35.618 Y-37.444
N2420 G3 X-34.969 Y-39.447 I37.818 J11.149 F#100
N2425 X-29.86 Y-42.995 I7.097 J4.767
N2430 G1 X-29.583 Y-43.
N2435 X-23.499
N2440 G3 X-17.503 Y-40.883 I-0.3 J10.397
N2445 X-16.742 Y-38.928 I-1.863 J1.852
N2450 G1 X-16.75 Y-38.843 F#104
N2455 X-16.773 Y-38.76
N2460 X-16.81 Y-38.682
N2465 X-16.86 Y-38.611
N2470 X-16.921 Y-38.551
N2475 X-16.992 Y-38.501
N2480 X-17.07 Y-38.465
N2485 X-17.154 Y-38.443
N2490 X-17.24 Y-38.435
N2495 X-17.326 Y-38.442
N2500 X-17.41 Y-38.464
N2505 X-17.488 Y-38.5
N2510 X-17.95 Y-38.764
N2515 X-23.489 Y-41.929 F#105
N2520 X-23.73 Y-42.066 F#103
N2525 G3 X-23.499 Y-43. I0.248 J-0.434
N2530 G1 X-20.236 F#100
N2535 G3 X-16.992 Y-41.423 I0.124 J3.87
N2540 G1 X-16.876 Y-41.029
N2545 X-16.782 Y-40.643
N2550 X-16.75 Y-40.247
N2555 G3 X-17.55 Y-39.865 I-0.5 J-0.017 F#104
N2560 G1 X-17.934 Y-40.154
N2565 X-20.248 Y-41.896 F#105
N2570 X-20.52 Y-42.101 F#103
N2575 G3 X-20.237 Y-43. I0.301 J-0.399
N2580 G1 X-18.431 F#100
N2585 G3 X-16.75 Y-41.295 I-0.022 J1.703
N2590 G1 X-16.76 Y-41.212 F#104
N2595 X-16.783 Y-41.133
N2600 X-16.82 Y-41.058
N2605 X-16.868 Y-40.99
N2610 X-16.926 Y-40.931
N2615 X-16.994 Y-40.883
N2620 X-17.069 Y-40.846
N2625 X-17.149 Y-40.823
N2630 X-17.231 Y-40.813
N2635 X-17.314 Y-40.817
N2640 X-17.396 Y-40.834
N2645 X-17.473 Y-40.865
N2650 X-17.544 Y-40.908
N2655 X-17.607 Y-40.963
N2660 X-17.89 Y-41.252
N2665 X-18.48 Y-41.854 F#105
N2670 X-18.771 Y-42.15 F#103
N2675 G3 X-18.431 Y-43. I0.357 J-0.35
N2680 G1 X-17.671 F#100
N2685 G3 X-16.751 Y-42.09 I0.015 J0.905
N2690 G1 X-16.762 Y-42.003 F#104
N2695 X-16.788 Y-41.918
N2700 X-16.828 Y-41.84
N2705 X-16.882 Y-41.769
N2710 X-16.948 Y-41.71
N2715 X-17.023 Y-41.663
N2720 X-17.105 Y-41.63
N2725 X-17.192 Y-41.612
N2730 X-17.28 Y-41.609
N2735 X-17.368 Y-41.622
N2740 X-17.452 Y-41.651
N2745 X-17.529 Y-41.694
N2750 X-17.598 Y-41.749
N2755 X-17.713 Y-41.861
N2760 X-18.002 Y-42.142 F#103
N2765 G3 X-17.671 Y-43. I0.348 J-0.359
N2770 X-16.851 Y-42.785 I0.262 J0.671 F#100
N2775 X-16.75 Y-42.405 I-0.434 J0.318
N2780 G1 Y-39.363
N2785 X-16.745 Y-39.128
N2790 G3 X-17.225 Y-38.635 I-0.5 J-0.006 F#104
N2795 G1 X-18.035 Y-38.603
N2800 X-34.05 Y-37.98 F#105
N2805 X-34.773 Y-37.952 F#103
N2810 G3 X-35.291 Y-38.494 I-0.019 J-0.5
N2815 X-32.251 Y-43.01 I4.339 J-0.36 F#100
N2820 G1 X-31.88 Y-43.
N2825 G3 X-31.532 Y-42.159 I-0.017 J0.5 F#104
N2830 G1 X-31.824 Y-41.847
N2835 X-34.117 Y-39.392 F#105
N2840 X-34.385 Y-39.105 F#103
N2845 G3 X-35.25 Y-39.429 I-0.365 J-0.341
N2850 X-35.131 Y-41.431 I5.691 J-0.665 F#100
N2855 X-32.921 Y-43.001 I2.223 J0.788
N2860 G1 X-32.832 Y-42.99 F#104
N2865 X-32.747 Y-42.963
N2870 X-32.668 Y-42.922
N2875 X-32.597 Y-42.867
N2880 X-32.538 Y-42.801
N2885 X-32.491 Y-42.725
N2890 X-32.458 Y-42.642
N2895 X-32.441 Y-42.554
N2900 X-32.439 Y-42.465
N2905 X-32.453 Y-42.377
N2910 X-32.483 Y-42.293
N2915 X-32.527 Y-42.216
N2920 X-32.584 Y-42.147
N2925 X-32.874 Y-41.856
N2930 X-34.107 Y-40.621 F#105
N2935 X-34.396 Y-40.331 F#103
N2940 G3 X-35.25 Y-40.667 I-0.354 J-0.353
N2945 G1 Y-41.709 F#100
N2950 G3 X-33.947 Y-42.999 I1.299 J0.008
N2955 G1 X-33.865 Y-42.99 F#104
N2960 X-33.785 Y-42.966
N2965 X-33.71 Y-42.93
N2970 X-33.643 Y-42.882
N2975 X-33.584 Y-42.824
N2980 X-33.536 Y-42.756
N2985 X-33.499 Y-42.682
N2990 X-33.475 Y-42.602
N2995 X-33.465 Y-42.52
N3000 X-33.469 Y-42.437
N3005 X-33.486 Y-42.355
N3010 X-33.517 Y-42.278
N3015 X-33.56 Y-42.207
N3020 X-33.614 Y-42.144
N3025 X-33.903 Y-41.859
N3030 X-34.105 Y-41.661 F#105
N3035 X-34.399 Y-41.37 F#103
N3040 G3 X-35.25 Y-41.709 I-0.351 J-0.356
N3045 G1 Y-42.338 F#100
N3050 G3 X-34.609 Y-42.998 I0.643 J-0.017
N3055 G1 X-34.511 Y-42.99 F#104
N3060 X-34.417 Y-42.967
N3065 X-34.326 Y-42.93
N3070 X-34.243 Y-42.88
N3075 X-34.167 Y-42.818
N3080 G3 X-35.056 Y-41.9 I-0.444 J0.459
N3085 X-35.25 Y-42.337 I0.444 J-0.459
N3090 X-34.591 Y-43. I0.553 J-0.11 F#100
N3095 G1 X-29.583
N3100 G3 X-29.607 Y-42. I-0.017 J0.5 F#104
N3105 G1 X-29.618 Y-42.001
N3110 X-29.705 Y-42.004 Z-17.992
N3115 X-29.789 Y-42.007 Z-17.97
N3120 X-29.868 Y-42.009 Z-17.933
N3125 X-29.939 Y-42.012 Z-17.883
N3130 X-30.001 Y-42.014 Z-17.821
N3135 X-30.051 Y-42.016 Z-17.75
N3140 X-30.087 Y-42.017 Z-17.671
N3145 X-30.11 Y-42.018 Z-17.587
N3150 X-30.118 Z-17.5
N3155 G0 Z4.
N3165 M9
N3170 G53 Z0.
N3175 M30
%
