%
(1001)
(T10  D=6. CR=0. - ZMIN=-12. - FLAT END MILL)
N10 G90 G94 G17 G91.1
N15 G21
N20 G53 G0 Z0.
(2D ADAPTIVE2)
N25 M9
N30 T10 M6
N35 S4000 M3
N40 G54
N45 M9
N55 G0 X-28.276 Y-29.14
N60 G43 Z4. H10
N65 #100=800. (CUTTING)
N70 #103=600. (ENTRY)
N75 #104=600. (EXIT)
N80 #105=3000. (DIRECT)
N85 #106=400. (REDUCED)
N90 #107=600. (RAMPING)
N95 G0 Z1.5
N100 G1 Z1. F#103
N105 S3800
N110 G3 X-23.085 Y-28.265 Z0.679 I2.276 J2.335 F#107
N115 X-25.472 Y-23.624 Z0.358 I-2.89 J1.448
N120 X-29.139 Y-27.274 Z0.037 I-0.499 J-3.166
N125 X-24.588 Y-29.64 Z-0.284 I3.14 J0.48
N130 X-23.721 Y-24.631 Z-0.605 I-1.397 J2.822
N135 X-28.712 Y-25.317 Z-0.926 I-2.245 J-2.168
N140 X-26.564 Y-29.825 Z-1.247 I2.722 J-1.469
N145 X-22.953 Y-26.442 Z-1.569 I0.569 J3.012
N150 X-27.232 Y-24.049 Z-1.89 I-3.015 J-0.368
N155 X-28.207 Y-28.808 Z-2.211 I1.253 J-2.736
N160 X-23.421 Y-28.298 Z-2.532 I2.206 J2.005
N165 X-25.34 Y-23.934 Z-2.853 I-2.555 J1.481
N170 X-28.883 Y-27.056 Z-3.174 I-0.63 J-2.857
N175 X-24.872 Y-29.462 Z-3.495 I2.885 J0.263
N180 X-23.806 Y-24.954 Z-3.816 I-1.115 J2.644
N185 X-28.38 Y-25.302 Z-4.137 I-2.16 J-1.846
N190 X-26.678 Y-29.513 Z-4.458 I2.39 J-1.484
N195 X-23.216 Y-26.644 Z-4.779 I0.682 J2.701
N200 X-26.962 Y-24.239 Z-5.1 I-2.753 J-0.167
N205 X-28.106 Y-28.495 Z-5.421 I0.984 J-2.546
N210 X-23.749 Y-28.296 Z-5.742 I2.106 J1.692
N215 X-25.244 Y-24.247 Z-6.064 I-2.228 J1.478
N220 X-28.614 Y-26.871 Z-6.385 I-0.725 J-2.544
N225 X-25.128 Y-29.261 Z-6.706 I2.617 J0.079
N230 X-23.921 Y-25.258 Z-7.027 I-0.86 J2.443
N235 X-28.056 Y-25.321 Z-7.348 I-2.045 J-1.543
N240 X-26.757 Y-29.2 Z-7.669 I2.068 J-1.464
N245 X-23.491 Y-26.812 Z-7.99 I0.76 J2.388
N250 X-28.503 I-2.506 J0.
N255 X-23.491 I2.506 J0.
N260 S4000
N265 X-23.372 Y-25.383 I-2.985 J0.968 F#100
N270 X-28.055 Y-24.18 I-2.74 J-0.949
N275 X-23.972 Y-29.541 I2.042 J-2.68
N280 X-23.006 Y-28.379 I-2.042 J2.68
N285 X-27.532 Y-22.785 I-3.061 J2.151
N290 X-24.538 Y-30.966 I1.497 J-4.091
N295 X-22.776 Y-29.765 I-1.497 J4.091
N300 X-28.044 Y-21.839 I-3.331 J3.5
N305 X-30.796 Y-29.517 I1.994 J-5.047
N310 X-22.826 Y-31.252 I4.747 J2.631
N315 X-28.29 Y-20.72 I-3.296 J4.973
N320 X-32.144 Y-29.374 I2.221 J-6.174
N325 X-23.336 Y-32.86 I6.075 J2.479
N330 X-28.479 Y-19.533 I-2.787 J6.581
N335 X-25.682 Y-34.617 I2.374 J-7.361
N340 X-17.774 Y-25.534 I-0.408 J8.339
N345 X-27.169 Y-17.999 I-8.316 J-0.744
N350 X-29.865 Y-35. I0.998 J-8.873
N355 X-16.537 Y-26.146 I3.95 J8.513
N360 X-31.275 Y-18.049 I-9.667 J-0.134
N365 X-23.275 Y-36.792 I5.199 J-8.86
N370 X-26.781 Y-15.395 I-2.809 J10.525
N375 X-32.714 Y-36.321 I0.575 J-11.467
N380 X-14.369 Y-29.564 I6.838 J9.717
N385 X-30.624 Y-14.843 I-11.795 J3.311
N390 X-26.314 Y-39.786 I4.504 J-12.066
N395 X-18.112 Y-15.365 I0.31 J13.484
N400 X-40.277 Y-27.549 I-8.218 J-11.303
N405 X-16.806 Y-37.914 I14.323 J0.676
N410 X-28.159 Y-11.473 I-9.299 J11.665
N415 X-33.339 Y-13.055 I1.104 J-12.892
N420 X-34.36 Y-13.685 I6.284 J-11.311 F#106
N425 G2 X-36.705 Y-15.852 I-4.364 J2.37 F#100
N430 G3 X-41.641 Y-27.693 I8.79 J-10.614
N435 X-39.338 Y-35.111 I14.444 J0.418
N440 X-38.646 Y-36.091 I12.141 J7.835 F#106
N445 G2 X-35.987 Y-38.458 I-1.942 J-4.859 F#100
N450 G3 X-24.929 Y-42.476 I9.631 J9.281
N455 X-16.437 Y-39.393 I-0.65 J15.029
N460 X-15.565 Y-37.73 I-10.897 J6.775
N465 G2 X-13.066 Y-35.611 I13.53 J-13.424
N470 G3 X-11.188 Y-19.834 I-11.795 J9.404
N475 X-33.291 Y-11.516 I-15.047 J-6.46
N480 X-34.239 Y-13.3 I1.91 J-2.159
N485 G1 X-34.259 Y-13.375 F#104
N490 X-34.39 Y-14.863
N495 X-36.288 Y-36.37 F#105
N500 X-36.4 Y-37.638 F#103
N505 G3 X-36.339 Y-37.925 I0.498 J-0.044
N510 G2 X-35.727 Y-39.589 I-6.567 J-3.358 F#100
N515 G3 X-30.9 Y-43.069 I6.848 J4.413
N520 X-29.301 Y-43.5 I1.742 J3.278
N525 G1 X-23.989
N530 G3 X-16.816 Y-41.28 I-0.201 J13.347
N535 X-16.153 Y-39.075 I-2.953 J2.091
N540 G1 X-15.994 Y-38.671
N545 X-15.966 Y-38.578
N550 G3 X-16.708 Y-38.021 I-0.483 J0.129 F#104
N555 G1 X-17.035 Y-38.219
N560 X-23.982 Y-42.423 F#105
N565 X-24.23 Y-42.573 F#103
N570 G3 X-23.989 Y-43.5 I0.259 J-0.428
N575 G1 X-19.966 F#100
N580 G3 X-16.738 Y-42.421 I0.276 J4.542
N585 X-16.25 Y-41.112 I-1.512 J1.309
N590 X-17.002 Y-40.698 I-0.5 J-0.017 F#104
N595 G1 X-17.467 Y-40.97
N600 X-19.958 Y-42.426 F#105
N605 X-20.201 Y-42.569 F#103
N610 G3 X-19.966 Y-43.5 I0.252 J-0.432
N615 G1 X-17.643 F#100
N620 G3 X-16.251 Y-42.078 I-0.024 J1.416
N625 G1 X-16.261 Y-41.996 F#104
N630 X-16.284 Y-41.916
N635 X-16.32 Y-41.841
N640 X-16.369 Y-41.773
N645 X-16.428 Y-41.714
N650 X-16.495 Y-41.666
N655 X-16.57 Y-41.629
N660 X-16.65 Y-41.606
N665 X-16.733 Y-41.596
N670 X-16.816 Y-41.6
N675 X-16.898 Y-41.618
N680 X-16.975 Y-41.65
N685 X-17.046 Y-41.693
N690 X-17.109 Y-41.748
N695 X-17.389 Y-42.037
N700 X-17.694 Y-42.352 F#105
N705 X-17.985 Y-42.652 F#103
N710 G3 X-17.643 Y-43.5 I0.359 J-0.348
N715 G1 X-16.949 F#100
N720 G3 X-16.25 Y-42.834 I0.035 J0.663
N725 G1 X-16.261 Y-42.732 F#104
N730 X-16.287 Y-42.634
N735 X-16.326 Y-42.54
N740 X-16.379 Y-42.453
N745 X-16.443 Y-42.374
N750 G3 X-17.408 Y-43.294 I-0.483 J-0.46
N755 X-16.949 Y-43.5 I0.482 J0.46
N760 X-16.25 Y-42.996 I0.144 J0.537 F#100
N765 G1 Y-40.481
N770 X-16.248 Y-40.28
N775 X-16.241 Y-39.878
N780 X-15.987 Y-38.328 F#104
N785 X-15.846 Y-37.464 F#105
N790 X-15.682 Y-37.287
N795 X-15.541 Y-37.135 F#103
N800 X-14.301 Y-36.569
N805 G3 X-12.118 Y-35.677 I-10.117 J27.865 F#100
N810 X-8.695 Y-28.879 I-7.108 J7.841
N815 X-24.961 Y-8.63 I-17.35 J2.721
N820 X-33.007 Y-9.922 I-1.566 J-15.949
N825 X-33.994 Y-12.318 I1.312 J-1.942
N830 G1 X-34.047 Y-12.524
N835 X-34.093 Y-12.725
N840 G3 X-33.415 Y-13.283 I0.491 J-0.094 F#104
N845 G1 X-33.358 Y-13.246 Z-7.985
N850 X-33.303 Y-13.209 Z-7.971
N855 X-33.25 Y-13.174 Z-7.949
N860 X-33.208 Y-13.112 Z-7.908
N865 X-33.171 Y-13.057 Z-7.856
N870 X-33.139 Y-13.01 Z-7.793
N875 X-33.128 Y-12.972 Z-7.731
N880 X-33.118 Y-12.943 Z-7.664
N885 X-33.112 Y-12.923 Z-7.593
N890 X-33.111 Y-12.915 Z-7.542
N895 X-33.11 Y-12.913 Z-7.49
N900 G0 Z-6.99
N905 X-15.189 Y-36.3
N910 G1 Z-7.49 F#103
N915 X-15.182 Z-7.577
N920 X-15.159 Z-7.661
N925 X-15.122 Z-7.74
N930 X-15.072 Z-7.811
N935 X-15.011 Z-7.873
N940 X-14.939 Z-7.923
N945 X-14.86 Z-7.96
N950 X-14.776 Z-7.982
N955 X-14.689 Z-7.99
N960 G3 X-13.128 Y-36.132 I0.006 J7.291
N965 X-10.942 Y-35.628 I-0.523 J7.25 F#100
N970 X-7.562 Y-30.012 I-5.522 J7.149
N975 X-11.931 Y-13.587 I-17.626 J4.105
N980 X-20.734 Y-7.991 I-13.823 J-12.022
N985 G1 X-20.947 Y-8.
N990 X-30.023
N995 G3 X-33.261 Y-8.846 I-0.25 J-5.664
N1000 X-34.001 Y-10.41 I1.321 J-1.583
N1005 G1 X-33.991 Y-10.494 F#104
N1010 X-33.967 Y-10.575
N1015 X-33.929 Y-10.652
N1020 X-33.879 Y-10.72
N1025 X-33.818 Y-10.779
N1030 X-33.748 Y-10.827
N1035 X-33.671 Y-10.863
N1040 X-33.589 Y-10.885
N1045 X-33.505 Y-10.893
N1050 X-33.42 Y-10.886
N1055 X-33.338 Y-10.865
N1060 X-33.26 Y-10.831
N1065 X-32.776 Y-10.566
N1070 X-30.035 Y-9.067 F#105
N1075 X-29.8 Y-8.938 F#103
N1080 G3 X-30.023 Y-8. I-0.24 J0.439
N1085 G1 X-32.547 F#100
N1090 G3 X-34. Y-9.457 I0.003 J-1.456
N1095 G1 X-33.989 Y-9.545 F#104
N1100 X-33.962 Y-9.631
N1105 X-33.921 Y-9.71
N1110 X-33.866 Y-9.78
N1115 X-33.8 Y-9.84
N1120 X-33.724 Y-9.887
N1125 X-33.641 Y-9.919
N1130 X-33.553 Y-9.937
N1135 X-33.464 Y-9.938
N1140 X-33.376 Y-9.924
N1145 X-33.292 Y-9.894
N1150 X-33.214 Y-9.85
N1155 X-33.146 Y-9.792
N1160 X-32.857 Y-9.502
N1165 X-32.5 Y-9.144 F#105
N1170 X-32.21 Y-8.853 F#103
N1175 G3 X-32.547 Y-8. I-0.354 J0.353
N1180 G1 X-33.302 F#100
N1185 G3 X-33.999 Y-8.681 I-0.024 J-0.672
N1190 G1 X-33.988 Y-8.782 F#104
N1195 X-33.963 Y-8.88
N1200 X-33.923 Y-8.973
N1205 X-33.87 Y-9.06
N1210 X-33.805 Y-9.138
N1215 G3 X-32.845 Y-8.202 I0.48 J0.468
N1220 X-33.302 Y-8. I-0.48 J-0.468
N1225 X-34. Y-8.502 I-0.143 J-0.538 F#100
N1230 G1 Y-11.519
N1235 X-34.001 Y-11.66
N1240 X-34.123 Y-13.226 F#104
N1245 X-34.194 Y-14.133 F#105
N1250 G2 X-34.707 Y-14.928 I-0.983 J0.072
N1255 X-34.85 Y-14.991 I-0.47 J0.867 F#103
N1260 G1 X-36.153 Y-15.541
N1265 G3 X-38.675 Y-16.453 I5.625 J-19.5 F#100
N1270 X-42.873 Y-24.597 I7.667 J-9.106
N1275 X-40.81 Y-35.304 I15.842 J-2.5
N1280 X-38.67 Y-36.15 I2.302 J2.691
N1285 G1 X-38.47 Y-36.239
N1290 X-38.269 Y-36.302
N1295 X-38.096 Y-36.371
N1300 G3 X-37.428 Y-35.915 I0.168 J0.471 F#104
N1305 G1 X-37.409 Y-35.287
N1310 X-36.857 Y-17.123 F#105
N1315 X-36.836 Y-16.449 F#103
N1320 G3 X-37.431 Y-15.943 I-0.5 J0.015
N1325 X-39.621 Y-16.274 I-0.207 J-6.053 F#100
N1330 X-43.527 Y-21.538 I4.661 J-7.539
N1335 X-42.399 Y-35.192 I15.902 J-5.56
N1340 X-40.76 Y-36. I1.658 J1.299
N1345 G1 X-39.878
N1350 X-39.677 Y-36.003
N1355 X-39.476 Y-36.015
N1360 G3 X-38.966 Y-35.541 I0.011 J0.5 F#104
N1365 G1 X-38.925 Y-34.741
N1370 X-38.028 Y-17.302 F#105
N1375 X-37.988 Y-16.525 F#103
N1380 G3 X-38.47 Y-16. I-0.499 J0.026
N1385 X-40.774 Y-16.192 I-0.723 J-5.254 F#100
N1390 X-44.533 Y-20.543 I3.427 J-6.759
N1395 X-45. Y-21.986 I2.235 J-1.52
N1400 G1 Y-30.626
N1405 G3 X-43.691 Y-35.345 I8.725 J-0.121
N1410 X-42.167 Y-36. I1.552 J1.511
N1415 X-41.733 Y-35.285 I-0.017 J0.5 F#104
N1420 G1 X-41.983 Y-34.761
N1425 X-43.946 Y-30.645 F#105
N1430 X-44.049 Y-30.428 F#103
N1435 G3 X-45. Y-30.626 I-0.451 J-0.215
N1440 G1 Y-34.045 F#100
N1445 G3 X-43.096 Y-36.003 I1.92 J-0.037
N1450 G1 X-43.008 Y-35.992 F#104
N1455 X-42.923 Y-35.965
N1460 X-42.844 Y-35.924
N1465 X-42.774 Y-35.87
N1470 X-42.714 Y-35.804
N1475 X-42.667 Y-35.729
N1480 X-42.634 Y-35.646
N1485 X-42.616 Y-35.56
N1490 X-42.614 Y-35.471
N1495 X-42.627 Y-35.383
N1500 X-42.655 Y-35.299
N1505 X-42.698 Y-35.222
N1510 X-42.754 Y-35.153
N1515 X-43.045 Y-34.851
N1520 X-43.862 Y-34.004 F#105
N1525 X-44.14 Y-33.716 F#103
N1530 G3 X-45. Y-34.045 I-0.36 J-0.347
N1535 G1 Y-35.052 F#100
N1540 G3 X-44.048 Y-35.999 I0.944 J-0.003
N1545 G1 X-43.928 Y-35.987 F#104
N1550 X-43.81 Y-35.959
N1555 X-43.697 Y-35.916
N1560 X-43.591 Y-35.859
N1565 X-43.494 Y-35.788
N1570 X-43.406 Y-35.705
N1575 X-43.33 Y-35.612
N1580 X-43.267 Y-35.509
N1585 X-43.218 Y-35.398
N1590 X-43.184 Y-35.283
N1595 X-43.165 Y-35.163
N1600 X-43.163 Y-35.043
N1605 X-43.176 Y-34.923
N1610 X-43.192 Y-34.85 F#105
N1615 G3 X-43.923 Y-34.177 I-0.889 J-0.233
N1620 X-45. Y-35.051 I-0.158 J-0.906 F#103
N1625 X-44.806 Y-35.886 I0.749 J-0.266 F#100
N1630 G1 X-44.772 Y-35.911
N1635 G3 X-44.504 Y-36. I0.284 J0.411
N1640 G1 X-40.76
N1645 X-39.197 Y-35.843 F#104
N1650 X-38.269 Y-35.75 F#105
N1655 G2 X-37.046 Y-36.459 I0.077 J-1.277
N1660 G1 X-36.496 Y-37.628
N1665 X-36.006 Y-38.671 F#103
N1670 X-35.894 Y-39.074
N1675 G3 X-35.553 Y-40.996 I15.634 J1.78 F#100
N1680 X-33.787 Y-42.959 I4.897 J2.628
N1685 X-32.73 Y-43.524 I3.131 J4.591 F#106
N1690 G1 X-32.413 Y-43.5 F#100
N1695 G3 X-32.071 Y-42.652 I-0.017 J0.5 F#104
N1700 G1 X-32.362 Y-42.352
N1705 X-34.622 Y-40.023 F#105
N1710 X-34.897 Y-39.74 F#103
N1715 G3 X-35.755 Y-40.079 I-0.359 J-0.348
N1720 X-35.469 Y-42.399 I4.548 J-0.617 F#100
N1725 X-33.661 Y-43.503 I1.846 J0.99
N1730 G1 X-33.574 Y-43.492 F#104
N1735 X-33.49 Y-43.466
N1740 X-33.411 Y-43.426
N1745 X-33.341 Y-43.372
N1750 X-33.282 Y-43.307
N1755 X-33.234 Y-43.233
N1760 X-33.201 Y-43.152
N1765 X-33.182 Y-43.066
N1770 X-33.178 Y-42.978
N1775 X-33.19 Y-42.891
N1780 X-33.217 Y-42.807
N1785 X-33.258 Y-42.73
N1790 X-33.312 Y-42.661
N1795 X-33.604 Y-42.346
N1800 X-34.618 Y-41.251 F#105
N1805 X-34.883 Y-40.964 F#103
N1810 G3 X-35.75 Y-41.286 I-0.367 J-0.34
N1815 G1 Y-42.402 F#100
N1820 G3 X-34.654 Y-43.499 I1.091 J-0.005
N1825 G1 X-34.566 Y-43.488 F#104
N1830 X-34.481 Y-43.462
N1835 X-34.402 Y-43.421
N1840 X-34.332 Y-43.366
N1845 X-34.272 Y-43.3
N1850 X-34.225 Y-43.225
N1855 X-34.193 Y-43.142
N1860 X-34.175 Y-43.054
N1865 X-34.173 Y-42.965
N1870 X-34.187 Y-42.877
N1875 X-34.217 Y-42.793
N1880 X-34.261 Y-42.716
N1885 X-34.318 Y-42.647
N1890 X-34.607 Y-42.357
N1895 X-34.896 Y-42.067 F#103
N1900 G3 X-35.75 Y-42.402 I-0.354 J-0.353
N1905 X-35.683 Y-43.231 I1.141 J-0.325 F#100
N1910 X-35.252 Y-43.5 I0.451 J0.243
N1915 G1 X-29.301
N1920 G3 X-29.107 Y-43.454 I-0.017 J0.5 F#104
N1925 G1 X-27.865 Y-42.876
N1930 X-17.15 Y-36.459 F#105
N1935 X-13.772 Y-35.886
N1940 X-13.682 Y-35.871 F#103
N1945 X-12.996 Y-35.888
N1950 G3 X-12.212 Y-36.002 I0.843 J3.051
N1955 X-10.251 Y-35.86 I0.638 J4.828 F#100
N1960 X-7.01 Y-32.206 I-2.55 J5.526
N1965 G1 X-7. Y-31.893
N1970 G3 X-7.858 Y-31.562 I-0.5 J-0.017 F#104
N1975 G1 X-8.139 Y-31.851
N1980 X-11.056 Y-34.853 F#105
N1985 X-11.347 Y-35.152 F#103
N1990 G3 X-11.006 Y-36. I0.359 J-0.348
N1995 X-8.951 Y-35.861 I0.693 J5.017 F#100
N2000 X-6.959 Y-33.605 I-0.747 J2.667
N2005 G1 X-6.971 Y-33.519 F#104
N2010 X-6.996 Y-33.436
N2015 X-7.034 Y-33.359
N2020 X-7.084 Y-33.289
N2025 X-7.144 Y-33.229
N2030 X-7.212 Y-33.179
N2035 X-7.288 Y-33.141
N2040 X-7.367 Y-33.116
N2045 X-7.45 Y-33.104
N2050 X-7.533 Y-33.106
N2055 X-7.614 Y-33.121
N2060 X-7.691 Y-33.148
N2065 X-7.762 Y-33.187
N2070 X-7.826 Y-33.237
N2075 X-8.165 Y-33.529
N2080 X-9.734 Y-34.878 F#105
N2085 X-10.017 Y-35.121 F#103
N2090 G3 X-9.708 Y-36. I0.326 J-0.379
N2095 G1 X-8.391 F#100
N2100 G3 X-7.001 Y-34.567 I-0.035 J1.425
N2105 G1 X-7.011 Y-34.484 F#104
N2110 X-7.034 Y-34.404
N2115 X-7.071 Y-34.329
N2120 X-7.119 Y-34.261
N2125 X-7.179 Y-34.202
N2130 X-7.247 Y-34.154
N2135 X-7.322 Y-34.118
N2140 X-7.402 Y-34.095
N2145 X-7.485 Y-34.085
N2150 X-7.569 Y-34.09
N2155 X-7.65 Y-34.108
N2160 X-7.728 Y-34.14
N2165 X-7.799 Y-34.184
N2170 X-7.861 Y-34.239
N2175 X-8.136 Y-34.528
N2180 X-8.444 Y-34.85 F#105
N2185 X-8.735 Y-35.155 F#103
N2190 G3 X-8.391 Y-36. I0.362 J-0.345
N2195 G1 X-7.697 F#100
N2200 G3 X-7.001 Y-35.331 I0.031 J0.664
N2205 G1 X-7.012 Y-35.23 F#104
N2210 X-7.037 Y-35.132
N2215 X-7.076 Y-35.038
N2220 X-7.129 Y-34.951
N2225 X-7.193 Y-34.873
N2230 G3 X-8.154 Y-35.796 I-0.48 J-0.461
N2235 X-7.697 Y-36. I0.48 J0.461
N2240 X-7. Y-35.453 I0.138 J0.542 F#100
N2245 G1 Y-20.972
N2250 G3 X-10.247 Y-13.449 I-12.451 J-0.913
N2255 X-16.759 Y-8.093 I-14.771 J-11.32
N2260 G1 X-17.075 Y-8.026
N2265 X-17.395 Y-8.
N2270 X-20.947
N2275 X-21.198 Y-8.099 F#104
N2280 X-21.334 Y-8.4
N2285 X-21.195 Y-8.703
N2290 X-20.825 Y-9.224
N2295 X-11.519 Y-22.357 F#105
N2300 G3 X-7.528 Y-22.424 I2.02 J1.473
N2305 X-7.015 Y-21.173 I-1.97 J1.539 F#103
N2310 G1 X-7. Y-20.972
N2315 Y-17.757 F#100
N2320 G3 X-9.742 Y-11.931 I-9.589 J-0.955
N2325 X-14.095 Y-8.073 I-12.539 J-9.763
N2330 G1 X-14.418 Y-8.025
N2335 X-14.733 Y-8.
N2340 X-17.395
N2345 G3 X-17.719 Y-8.865 I0.017 J-0.5 F#104
N2350 G1 X-17.431 Y-9.134
N2355 X-8.153 Y-17.81 F#105
N2360 X-7.841 Y-18.101 F#103
N2365 G3 X-7. Y-17.754 I0.342 J0.365
N2370 G1 Y-15.229 F#100
N2375 G3 X-9.284 Y-10.45 I-7.851 J-0.816
N2380 X-11.786 Y-8.092 I-7.12 J-5.048
N2385 G1 X-12.137 Y-8.03
N2390 X-12.481 Y-8.
N2395 X-14.733
N2400 G3 X-15.056 Y-8.866 I0.017 J-0.5 F#104
N2405 G1 X-14.769 Y-9.133
N2410 X-8.154 Y-15.286 F#105
N2415 X-7.84 Y-15.578 F#103
N2420 G3 X-7. Y-15.229 I0.341 J0.366
N2425 G1 Y-13.017 F#100
N2430 G3 X-9.645 Y-8.245 I-7.059 J-0.793
N2435 G1 X-9.958 Y-8.113
N2440 X-10.285 Y-8.028
N2445 X-10.621 Y-8.
N2450 G3 X-11.016 Y-8.784 I0.017 J-0.5 F#104
N2455 G1 X-10.731 Y-9.196
N2460 X-8.093 Y-13.021 F#105
N2465 X-7.911 Y-13.283 F#103
N2470 G3 X-7. Y-13.017 I0.412 J0.284
N2475 X-7.061 Y-10.409 I-11.674 J1.032 F#100
N2480 X-8.95 Y-7.99 I-2.842 J-0.271
N2485 G1 X-9.32 Y-8.
N2490 G3 X-9.707 Y-8.793 I0.017 J-0.5 F#104
N2495 G1 X-9.42 Y-9.189
N2500 X-8.099 Y-11.014 F#105
N2505 X-7.905 Y-11.282 F#103
N2510 G3 X-7. Y-11.006 I0.405 J0.293
N2515 G1 Y-9.306 F#100
N2520 G3 X-8.336 Y-8.001 I-1.329 J-0.023
N2525 G1 X-8.418 Y-8.011 F#104
N2530 X-8.498 Y-8.034
N2535 X-8.573 Y-8.071
N2540 X-8.641 Y-8.119
N2545 X-8.7 Y-8.178
N2550 X-8.748 Y-8.246
N2555 X-8.785 Y-8.321
N2560 X-8.808 Y-8.401
N2565 X-8.818 Y-8.484
N2570 X-8.813 Y-8.567
N2575 X-8.795 Y-8.649
N2580 X-8.764 Y-8.726
N2585 X-8.72 Y-8.797
N2590 X-8.665 Y-8.86
N2595 X-8.376 Y-9.138
N2600 X-8.149 Y-9.358 F#105
N2605 X-7.847 Y-9.649 F#103
N2610 G3 X-7. Y-9.306 I0.347 J0.36
N2615 X-7.131 Y-8.154 I-1.79 J0.38 F#100
N2620 G1 X-7.176 Y-8.123 F#103
N2625 X-7.227 Y-8.104
N2630 X-7.281 Y-8.098
N2635 X-7.334 Y-8.107
N2640 X-7.383 Y-8.129
N2645 X-7.424 Y-8.162
N2650 X-7.456 Y-8.204
N2655 X-7.475 Y-8.253
N2660 X-7.481 Y-8.304
N2665 X-7.474 Y-8.356
N2670 X-7.394 Y-8.683
N2675 G3 X-7. Y-8.642 I0.194 J0.047
N2680 X-7.496 Y-7.996 I-0.54 J0.099 F#100
N2685 G1 X-12.481 Y-8.
N2690 G3 X-12.875 Y-8.784 I0.017 J-0.5 F#104
N2695 G1 X-12.826 Y-8.831 Z-7.985
N2700 X-12.778 Y-8.877 Z-7.971
N2705 X-12.732 Y-8.921 Z-7.949
N2710 X-12.663 Y-8.948 Z-7.908
N2715 X-12.601 Y-8.972 Z-7.856
N2720 X-12.548 Y-8.993 Z-7.793
N2725 X-12.513 Y-8.996 Z-7.739
N2730 X-12.484 Y-8.998 Z-7.682
N2735 X-12.464 Y-9. Z-7.621
N2740 X-12.457 Z-7.593
N2745 X-12.449 Y-8.999 Z-7.542
N2750 X-12.446 Z-7.49
N2755 G0 X-39.345 Y-17.302
N2760 G1 Z-7.99 F#103
N2765 X-39.306 Y-16.525
N2770 G3 X-39.788 Y-16. I-0.499 J0.026
N2775 X-42.001 Y-16.129 I-0.755 J-6.077 F#100
N2780 X-44.431 Y-17.98 I1.836 J-4.932
N2785 X-45.017 Y-19.024 I4.266 J-3.081 F#106
N2790 G1 X-45. Y-19.373 F#100
N2795 G3 X-44.172 Y-19.733 I0.5 J0.017 F#104
N2800 G1 X-43.836 Y-19.441
N2805 X-41.168 Y-17.123 F#105
N2810 X-40.885 Y-16.877 F#103
N2815 G3 X-41.195 Y-16. I-0.328 J0.377
N2820 X-43.407 Y-16.13 I-0.755 J-6.052 F#100
N2825 X-45. Y-18.13 I0.509 J-2.04
N2830 X-44.175 Y-18.492 I0.5 J0.017 F#104
N2835 G1 X-43.834 Y-18.2
N2840 X-42.578 Y-17.121 F#105
N2845 X-42.295 Y-16.879 F#103
N2850 G3 X-42.603 Y-16. I-0.326 J0.379
N2855 G1 X-43.9 F#100
N2860 G3 X-44.998 Y-17.132 I0.022 J-1.121
N2865 G1 X-44.987 Y-17.252 F#104
N2870 X-44.963 Y-17.37
N2875 X-44.925 Y-17.485
N2880 X-44.875 Y-17.594
N2885 X-44.813 Y-17.698
N2890 X-44.739 Y-17.793
N2895 X-44.655 Y-17.88
N2900 X-44.562 Y-17.956
N2905 X-44.46 Y-18.022
N2910 X-44.352 Y-18.075
N2915 X-44.239 Y-18.117
N2920 X-44.121 Y-18.145
N2925 X-44.001 Y-18.159
N2930 G3 X-43.634 Y-18.118 I0.067 J1.064 F#105
N2935 X-42.861 Y-16.991 I-0.304 J1.037
N2940 X-43.901 Y-16. I-1.077 J-0.09 F#103
N2945 X-44.605 Y-16.014 I-0.3 J-2.655 F#100
N2950 X-44.893 Y-16.457 I0.135 J-0.403 F#104
N2955 X-44.062 Y-16.377 I0.415 J0.04
N2960 X-44.463 Y-16. I-0.415 J-0.04
N2965 X-45. Y-16.547 I-0.018 J-0.519 F#100
N2970 G1 Y-21.986
N2975 G3 X-44.216 Y-22.38 I0.5 J0.017 F#104
N2980 G1 X-44.169 Y-22.331 Z-7.985
N2985 X-44.123 Y-22.283 Z-7.971
N2990 X-44.079 Y-22.237 Z-7.949
N2995 X-44.052 Y-22.168 Z-7.908
N3000 X-44.028 Y-22.106 Z-7.856
N3005 X-44.007 Y-22.053 Z-7.793
N3010 X-44.004 Y-22.018 Z-7.739
N3015 X-44.002 Y-21.99 Z-7.682
N3020 X-44. Y-21.969 Z-7.621
N3025 Y-21.962 Z-7.593
N3030 X-44.001 Y-21.954 Z-7.542
N3035 Y-21.951 Z-7.49
N3040 G0 Z-6.49
N3045 X-25.425 Y-29.663
N3050 G1 Z-6.99 F#103
N3055 S3800
N3060 G3 X-23.374 Y-25.538 Z-7.268 I-0.575 J2.858 F#107
N3065 X-27.841 Y-24.583 Z-7.547 I-2.604 J-1.256
N3070 X-27.659 Y-29.109 Z-7.825 I1.847 J-2.193
N3075 X-23.356 Y-27.821 Z-8.103 I1.652 J2.314
N3080 X-25.652 Y-24.005 Z-8.382 I-2.629 J1.017
N3085 X-28.752 Y-27.149 Z-8.66 I-0.33 J-2.775
N3090 X-24.971 Y-29.352 Z-8.938 I2.746 J0.366
N3095 X-23.785 Y-25.179 Z-9.217 I-1.027 J2.547
N3100 X-28.084 Y-25.067 Z-9.495 I-2.193 J-1.612
N3105 X-27.134 Y-29.222 Z-9.773 I2.087 J-1.709
N3110 X-23.379 Y-27.288 Z-10.052 I1.127 J2.424
N3115 X-26.158 Y-24.159 Z-10.33 I-2.604 J0.486
N3120 X-28.479 Y-27.596 Z-10.608 I0.174 J-2.619
N3125 X-24.609 Y-28.978 Z-10.887 I2.471 J0.811
N3130 X-24.234 Y-24.925 Z-11.165 I-1.385 J2.172
N3135 X-28.216 Y-25.561 Z-11.443 I-1.744 J-1.863
N3140 X-26.627 Y-29.226 Z-11.722 I2.217 J-1.215
N3145 X-23.502 Y-26.8 Z-12. I0.621 J2.425
N3150 X-28.509 I-2.504 J0.
N3155 X-23.502 I2.504 J0.
N3160 S4000
N3165 X-23.58 Y-24.925 I-4.418 J0.756 F#100
N3170 X-29.158 Y-25.678 I-2.623 J-1.609
N3175 X-27.13 Y-30.023 I3.152 J-1.174
N3180 X-22.819 Y-27.926 I1.124 J3.17
N3185 X-27.791 Y-22.888 I-3.291 J1.725
N3190 X-29.964 Y-28.762 I1.728 J-3.979
N3195 X-24.003 Y-30.685 I3.902 J1.896
N3200 X-22.139 Y-23.619 I-2.215 J4.363
N3205 X-29.373 Y-22.582 I-4.078 J-2.703
N3210 X-30.048 Y-30.536 I3.339 J-4.289
N3215 X-22.066 Y-30.586 I4.014 J3.665
N3220 X-28.679 Y-20.873 I-4.102 J4.315
N3225 X-32.059 Y-29.567 I2.602 J-6.015
N3230 X-23.322 Y-32.835 I5.981 J2.679
N3235 X-28.945 Y-19.698 I-2.855 J6.55
N3240 X-23.891 Y-34.314 I2.851 J-7.196
N3245 X-28.213 Y-18.183 I-2.262 J8.039
N3250 X-26.878 Y-35.808 I2.07 J-8.706
N3255 X-17.015 Y-23.428 I0.871 J9.425
N3260 X-33.932 Y-20.291 I-9.297 J-2.955
N3265 X-21.018 Y-35.873 I7.887 J-6.606
N3270 X-28.138 Y-15.551 I-5.13 J9.611
N3275 X-30.354 Y-37.596 I1.949 J-11.33
N3280 X-13.979 Y-26.086 I4.431 J11.1
N3285 X-33.251 Y-16.185 I-12.282 J-0.201
N3290 X-23.306 Y-39.497 I7.157 J-10.724
N3295 X-26.193 Y-12.734 I-2.807 J13.235
N3300 X-37.167 Y-35.763 I-0.081 J-14.091
N3305 X-13.068 Y-33.365 I11.27 J9.034
N3310 X-30.803 Y-12.053 I-13.119 J7.118
N3315 X-34.363 Y-13.711 I2.166 J-9.301
N3320 G2 X-36.71 Y-15.859 I-4.467 J2.526
N3325 G3 X-41.639 Y-27.686 I8.766 J-10.593
N3330 X-39.328 Y-35.116 I14.428 J0.413
N3335 X-38.635 Y-36.095 I12.117 J7.843 F#106
N3340 G2 X-36. Y-38.434 I-1.955 J-4.856 F#100
N3345 G3 X-24.951 Y-42.455 I9.617 J9.237
N3350 X-16.415 Y-39.335 I-0.657 J15.036
N3355 X-15.541 Y-37.74 I-24.409 J14.408
N3360 G2 X-13.336 Y-35.846 I8.211 J-7.325
N3365 G3 X-10.48 Y-22.023 I-11.169 J9.514
N3370 X-33.324 Y-11.54 I-15.778 J-4.25
N3375 X-34.224 Y-13.301 I1.701 J-1.979
N3380 G1 X-34.259 Y-13.375 F#104
N3385 X-34.391 Y-14.863
N3390 X-36.303 Y-36.344 F#105
N3395 X-36.416 Y-37.611 F#103
N3400 G3 X-36.354 Y-37.899 I0.498 J-0.044
N3405 G2 X-35.732 Y-39.575 I-6.178 J-3.246 F#100
N3410 G3 X-30.916 Y-43.05 I6.844 J4.412
N3415 X-29.239 Y-43.5 I1.84 J3.502
N3420 G1 X-23.989
N3425 G3 X-17.723 Y-41.783 I-0.224 J13.112
N3430 X-16.709 Y-41.143 I-6.49 J11.395 F#106
N3435 X-16.12 Y-39.072 I-4.977 J2.535 F#100
N3440 G1 X-15.994 Y-38.671
N3445 X-15.948 Y-38.519
N3450 G3 X-16.692 Y-37.963 I-0.483 J0.129 F#104
N3455 G1 X-17.016 Y-38.162
N3460 X-23.983 Y-42.421 F#105
N3465 X-24.232 Y-42.574 F#103
N3470 G3 X-23.989 Y-43.5 I0.261 J-0.427
N3475 G1 X-19.966 F#100
N3480 G3 X-16.714 Y-42.424 I0.109 J5.124
N3485 X-16.25 Y-41.084 I-1.884 J1.403
N3490 X-17.005 Y-40.672 I-0.5 J-0.017 F#104
N3495 G1 X-17.465 Y-40.945
N3500 X-19.958 Y-42.425 F#105
N3505 X-20.204 Y-42.57 F#103
N3510 G3 X-19.966 Y-43.5 I0.255 J-0.43
N3515 G1 X-17.693 F#100
N3520 G3 X-16.25 Y-42.04 I-0.014 J1.457
N3525 G1 X-16.26 Y-41.958 F#104
N3530 X-16.284 Y-41.878
N3535 X-16.32 Y-41.803
N3540 X-16.368 Y-41.735
N3545 X-16.426 Y-41.677
N3550 X-16.494 Y-41.628
N3555 X-16.569 Y-41.592
N3560 X-16.648 Y-41.568
N3565 X-16.731 Y-41.558
N3570 X-16.814 Y-41.562
N3575 X-16.895 Y-41.579
N3580 X-16.972 Y-41.61
N3585 X-17.043 Y-41.653
N3590 X-17.106 Y-41.707
N3595 X-17.391 Y-41.997
N3600 X-17.742 Y-42.354 F#105
N3605 X-18.032 Y-42.65 F#103
N3610 G3 X-17.693 Y-43.5 I0.357 J-0.35
N3615 G1 X-16.949 F#100
N3620 G3 X-16.251 Y-42.818 I0.024 J0.673
N3625 G1 X-16.262 Y-42.717 F#104
N3630 X-16.287 Y-42.619
N3635 X-16.327 Y-42.525
N3640 X-16.38 Y-42.439
N3645 X-16.445 Y-42.361
N3650 G3 X-17.406 Y-43.298 I-0.48 J-0.469
N3655 X-16.949 Y-43.5 I0.48 J0.469
N3660 X-16.25 Y-42.996 I0.144 J0.537 F#100
N3665 G1 Y-40.481
N3670 X-16.248 Y-40.28
N3675 X-16.241 Y-39.878
N3680 X-15.987 Y-38.328 F#104
N3685 X-15.846 Y-37.464 F#105
N3690 X-15.682 Y-37.287
N3695 X-15.541 Y-37.135 F#103
N3700 X-14.301 Y-36.569
N3705 G3 X-12.41 Y-35.822 I-48.481 J125.424 F#100
N3710 X-8.949 Y-29.858 I-5.815 J7.361
N3715 X-15.86 Y-11.954 I-16.808 J3.798
N3720 X-33.005 Y-9.905 I-10.395 J-14.22
N3725 X-34.014 Y-12.518 I1.651 J-2.138
N3730 G1 X-34.093 Y-12.725
N3735 G3 X-33.415 Y-13.283 I0.491 J-0.094 F#104
N3740 G1 X-33.359 Y-13.246 Z-11.995
N3745 X-33.303 Y-13.21 Z-11.981
N3750 X-33.25 Y-13.174 Z-11.959
N3755 X-33.208 Y-13.113 Z-11.918
N3760 X-33.171 Y-13.057 Z-11.866
N3765 X-33.14 Y-13.01 Z-11.803
N3770 X-33.128 Y-12.972 Z-11.741
N3775 X-33.119 Y-12.943 Z-11.674
N3780 X-33.112 Y-12.923 Z-11.603
N3785 X-33.111 Y-12.915 Z-11.552
N3790 X-33.11 Y-12.913 Z-11.5
N3795 G0 Z-11.
N3800 X-15.28 Y-36.323
N3805 G1 Z-11.5 F#103
N3810 X-15.272 Z-11.587
N3815 X-15.25 Z-11.671
N3820 X-15.213 Z-11.75
N3825 X-15.163 Z-11.821
N3830 X-15.101 Z-11.883
N3835 X-15.03 Z-11.933
N3840 X-14.951 Z-11.97
N3845 X-14.867 Z-11.992
N3850 X-14.78 Z-12.
N3855 G3 X-13.218 Y-36.155 I0.006 J7.291
N3860 X-11.187 Y-35.74 I-1.677 J13.383 F#100
N3865 X-7.635 Y-30.049 I-4.997 J7.072
N3870 X-9.851 Y-16.462 I-17.188 J4.172
N3875 X-20.829 Y-7.988 I-16.133 J-9.553
N3880 G1 X-21.043 Y-8.
N3885 X-30.023
N3890 G3 X-33.269 Y-8.834 I-0.143 J-6.178
N3895 X-34. Y-10.412 I1.382 J-1.599
N3900 X-33.26 Y-10.833 I0.5 J0.017 F#104
N3905 G1 X-32.776 Y-10.568
N3910 X-30.035 Y-9.067 F#105
N3915 X-29.8 Y-8.938 F#103
N3920 G3 X-30.023 Y-8. I-0.24 J0.439
N3925 G1 X-32.547 F#100
N3930 G3 X-34. Y-9.459 I0.005 J-1.458
N3935 G1 X-33.989 Y-9.548 F#104
N3940 X-33.962 Y-9.633
N3945 X-33.921 Y-9.712
N3950 X-33.866 Y-9.783
N3955 X-33.8 Y-9.842
N3960 X-33.724 Y-9.889
N3965 X-33.64 Y-9.922
N3970 X-33.553 Y-9.939
N3975 X-33.464 Y-9.94
N3980 X-33.376 Y-9.926
N3985 X-33.291 Y-9.896
N3990 X-33.214 Y-9.852
N3995 X-33.146 Y-9.794
N4000 X-32.858 Y-9.504
N4005 X-32.5 Y-9.144 F#105
N4010 X-32.21 Y-8.852 F#103
N4015 G3 X-32.547 Y-8. I-0.355 J0.352
N4020 G1 X-33.302 F#100
N4025 G3 X-33.999 Y-8.682 I-0.024 J-0.673
N4030 G1 X-33.988 Y-8.783 F#104
N4035 X-33.963 Y-8.881
N4040 X-33.923 Y-8.974
N4045 X-33.87 Y-9.061
N4050 X-33.805 Y-9.139
N4055 G3 X-32.845 Y-8.202 I0.48 J0.468
N4060 X-33.302 Y-8. I-0.48 J-0.468
N4065 X-34. Y-8.502 I-0.143 J-0.538 F#100
N4070 G1 Y-11.519
N4075 X-34.001 Y-11.663
N4080 X-34.115 Y-13.23 F#104
N4085 X-34.195 Y-14.334 F#105
N4090 X-34.488 Y-14.737
N4095 X-34.738 Y-14.858
N4100 X-36.153 Y-15.541 F#103
N4105 G3 X-38.677 Y-16.454 I5.622 J-19.492 F#100
N4110 X-42.871 Y-24.592 I7.654 J-9.094
N4115 X-40.801 Y-35.309 I15.832 J-2.5
N4120 X-39.074 Y-36.081 I2.002 J2.162
N4125 G2 X-38.085 Y-36.375 I-1.297 J-6.163
N4130 G3 X-37.417 Y-35.919 I0.168 J0.471 F#104
N4135 G1 X-37.398 Y-35.291
N4140 X-36.856 Y-17.123 F#105
N4145 X-36.836 Y-16.449 F#103
N4150 G3 X-37.431 Y-15.943 I-0.5 J0.015
N4155 X-39.621 Y-16.273 I-0.206 J-6.074 F#100
N4160 X-43.523 Y-21.525 I4.646 J-7.527
N4165 X-42.394 Y-35.191 I15.897 J-5.567
N4170 X-40.756 Y-36. I1.658 J1.294
N4175 G1 X-39.878
N4180 X-39.677 Y-36.003
N4185 X-39.476 Y-36.015
N4190 G3 X-38.966 Y-35.541 I0.011 J0.5 F#104
N4195 G1 X-38.925 Y-34.741
N4200 X-38.028 Y-17.302 F#105
N4205 X-37.988 Y-16.525 F#103
N4210 G3 X-38.47 Y-16. I-0.499 J0.026
N4215 X-40.776 Y-16.192 I-0.723 J-5.264 F#100
N4220 X-44.533 Y-20.542 I3.425 J-6.755
N4225 X-45. Y-21.985 I2.235 J-1.52
N4230 G1 Y-30.626
N4235 G3 X-43.687 Y-35.345 I8.741 J-0.111
N4240 X-42.164 Y-36. I1.552 J1.511
N4245 X-41.73 Y-35.285 I-0.017 J0.5 F#104
N4250 G1 X-41.98 Y-34.761
N4255 X-43.946 Y-30.645 F#105
N4260 X-44.049 Y-30.428 F#103
N4265 G3 X-45. Y-30.626 I-0.451 J-0.215
N4270 G1 Y-34.045 F#100
N4275 G3 X-43.096 Y-36.003 I1.921 J-0.036
N4280 G1 X-43.008 Y-35.992 F#104
N4285 X-42.923 Y-35.965
N4290 X-42.844 Y-35.924
N4295 X-42.774 Y-35.87
N4300 X-42.714 Y-35.804
N4305 X-42.667 Y-35.729
N4310 X-42.634 Y-35.646
N4315 X-42.616 Y-35.56
N4320 X-42.614 Y-35.471
N4325 X-42.627 Y-35.383
N4330 X-42.655 Y-35.299
N4335 X-42.698 Y-35.222
N4340 X-42.754 Y-35.153
N4345 X-43.045 Y-34.851
N4350 X-43.862 Y-34.004 F#105
N4355 X-44.14 Y-33.716 F#103
N4360 G3 X-45. Y-34.045 I-0.36 J-0.347
N4365 G1 Y-35.052 F#100
N4370 G3 X-44.047 Y-35.999 I0.945 J-0.003
N4375 G1 X-43.927 Y-35.987 F#104
N4380 X-43.81 Y-35.959
N4385 X-43.697 Y-35.916
N4390 X-43.591 Y-35.859
N4395 X-43.493 Y-35.788
N4400 X-43.406 Y-35.705
N4405 X-43.33 Y-35.612
N4410 X-43.267 Y-35.509
N4415 X-43.218 Y-35.398
N4420 X-43.184 Y-35.283
N4425 X-43.165 Y-35.163
N4430 X-43.162 Y-35.043
N4435 X-43.175 Y-34.923
N4440 X-43.192 Y-34.85 F#105
N4445 G3 X-43.923 Y-34.177 I-0.889 J-0.233
N4450 X-45. Y-35.051 I-0.158 J-0.906 F#103
N4455 X-44.806 Y-35.886 I0.749 J-0.266 F#100
N4460 G1 X-44.772 Y-35.911
N4465 G3 X-44.504 Y-36. I0.284 J0.411
N4470 G1 X-40.756
N4475 X-39.193 Y-35.843 F#104
N4480 X-38.269 Y-35.751 F#105
N4485 G2 X-37.046 Y-36.459 I0.078 J-1.276
N4490 G1 X-36.497 Y-37.628
N4495 X-36.006 Y-38.671 F#103
N4500 X-35.894 Y-39.074
N4505 G3 X-35.565 Y-40.95 I18.087 J2.2 F#100
N4510 X-33.774 Y-42.958 I4.909 J2.576
N4515 X-32.716 Y-43.52 I3.117 J4.584 F#106
N4520 G1 X-32.394 Y-43.5 F#100
N4525 G3 X-32.051 Y-42.653 I-0.017 J0.5 F#104
N4530 G1 X-32.342 Y-42.351
N4535 X-34.624 Y-39.983 F#105
N4540 X-34.896 Y-39.701 F#103
N4545 G3 X-35.756 Y-40.038 I-0.36 J-0.347
N4550 X-35.464 Y-42.405 I4.634 J-0.629 F#100
N4555 X-33.656 Y-43.504 I1.85 J1.006
N4560 G1 X-33.569 Y-43.493 F#104
N4565 X-33.484 Y-43.466
N4570 X-33.406 Y-43.426
N4575 X-33.336 Y-43.372
N4580 X-33.276 Y-43.307
N4585 X-33.229 Y-43.233
N4590 X-33.195 Y-43.151
N4595 X-33.176 Y-43.065
N4600 X-33.173 Y-42.977
N4605 X-33.185 Y-42.89
N4610 X-33.212 Y-42.807
N4615 X-33.253 Y-42.729
N4620 X-33.307 Y-42.66
N4625 X-33.599 Y-42.346
N4630 X-34.617 Y-41.25 F#105
N4635 X-34.884 Y-40.963 F#103
N4640 G3 X-35.75 Y-41.286 I-0.366 J-0.34
N4645 G1 Y-42.403 F#100
N4650 G3 X-34.651 Y-43.499 I1.094 J-0.002
N4655 G1 X-34.53 Y-43.488 F#104
N4660 X-34.412 Y-43.464
N4665 X-34.298 Y-43.426
N4670 X-34.188 Y-43.375
N4675 X-34.085 Y-43.312
N4680 X-33.99 Y-43.238
N4685 X-33.903 Y-43.154
N4690 X-33.827 Y-43.06
N4695 X-33.762 Y-42.959
N4700 X-33.709 Y-42.85
N4705 X-33.669 Y-42.736
N4710 X-33.642 Y-42.619
N4715 X-33.628 Y-42.499
N4720 G3 X-33.66 Y-42.172 I-1.06 J0.06 F#105
N4725 X-34.749 Y-41.379 I-1.028 J-0.267
N4730 X-35.75 Y-42.402 I0.061 J-1.061 F#103
N4735 X-35.683 Y-43.231 I1.141 J-0.325 F#100
N4740 X-35.252 Y-43.5 I0.451 J0.243
N4745 G1 X-29.239
N4750 X-29.017 Y-43.439 F#104
N4755 X-27.929 Y-42.656
N4760 X-18.156 Y-35.622 F#105
N4765 G2 X-16.145 Y-35.148 I1.528 J-1.979
N4770 G1 X-13.801 Y-35.708
N4775 X-13.046 Y-35.889 F#103
N4780 G3 X-12.262 Y-36.002 I0.843 J3.051
N4785 X-10.176 Y-35.813 I0.621 J4.754 F#100
N4790 X-6.954 Y-31.797 I-2.724 J5.486
N4795 G1 X-6.966 Y-31.707 F#104
N4800 X-6.993 Y-31.619
N4805 X-7.034 Y-31.539
N4810 X-7.087 Y-31.466
N4815 X-7.152 Y-31.404
N4820 X-7.225 Y-31.354
N4825 X-7.305 Y-31.318
N4830 X-7.39 Y-31.295
N4835 X-7.477 Y-31.287
N4840 X-7.564 Y-31.294
N4845 X-7.647 Y-31.315
N4850 X-7.725 Y-31.35
N4855 X-7.796 Y-31.397
N4860 X-7.858 Y-31.455
N4865 X-8.139 Y-31.744
N4870 X-11.166 Y-34.853 F#105
N4875 X-11.457 Y-35.152 F#103
N4880 G3 X-11.116 Y-36. I0.358 J-0.349
N4885 X-9.045 Y-35.874 I0.704 J5.5 F#100
N4890 X-6.954 Y-33.561 I-0.77 J2.798
N4895 G1 X-6.966 Y-33.474 F#104
N4900 X-6.991 Y-33.391
N4905 X-7.03 Y-33.313
N4910 X-7.079 Y-33.243
N4915 X-7.14 Y-33.182
N4920 X-7.208 Y-33.132
N4925 X-7.284 Y-33.094
N4930 X-7.364 Y-33.069
N4935 X-7.446 Y-33.057
N4940 X-7.529 Y-33.058
N4945 X-7.61 Y-33.073
N4950 X-7.688 Y-33.1
N4955 X-7.759 Y-33.139
N4960 X-7.823 Y-33.189
N4965 X-8.168 Y-33.48
N4970 X-9.823 Y-34.881 F#105
N4975 X-10.104 Y-35.119 F#103
N4980 G3 X-9.799 Y-36. I0.323 J-0.382
N4985 G1 X-8.502 F#100
N4990 G3 X-7. Y-34.503 I0.005 J1.497
N4995 X-7.852 Y-34.166 I-0.5 J-0.017 F#104
N5000 G1 X-8.144 Y-34.456
N5005 X-8.547 Y-34.857 F#105
N5010 X-8.837 Y-35.146 F#103
N5015 G3 X-8.502 Y-36. I0.353 J-0.354
N5020 G1 X-7.738 F#100
N5025 G3 X-7.001 Y-35.29 I0.031 J0.706
N5030 G1 X-7.012 Y-35.183 F#104
N5035 X-7.039 Y-35.079
N5040 X-7.081 Y-34.98
N5045 X-7.136 Y-34.889
N5050 X-7.205 Y-34.806
N5055 G3 X-8.146 Y-34.738 I-0.508 J-0.489
N5060 X-8.257 Y-34.846 I0.433 J-0.557 F#105
N5065 X-7.738 Y-36. I0.544 J-0.45 F#103
N5070 X-7. Y-35.453 I0.163 J0.551 F#100
N5075 G1 Y-20.972
N5080 G3 X-10.261 Y-13.498 I-12.727 J-1.105
N5085 X-16.823 Y-8.093 I-14.861 J-11.355
N5090 G1 X-17.14 Y-8.026
N5095 X-17.46 Y-8.
N5100 X-21.043
N5105 X-21.374 Y-8.198 F#104
N5110 X-21.416 Y-8.502
N5115 X-20.905 Y-9.216
N5120 X-11.519 Y-22.357 F#105
N5125 G3 X-7.528 Y-22.424 I2.02 J1.473
N5130 X-7.015 Y-21.173 I-1.97 J1.539 F#103
N5135 G1 X-7. Y-20.972
N5140 Y-17.754 F#100
N5145 G3 X-9.756 Y-11.974 I-9.788 J-1.121
N5150 X-13.179 Y-8.706 I-12.722 J-9.898
N5155 X-14.184 Y-8.051 I-9.299 J-13.166 F#106
N5160 G1 X-14.494 Y-8.022 F#100
N5165 X-14.79 Y-8.
N5170 X-17.46
N5175 G3 X-17.783 Y-8.866 I0.017 J-0.5 F#104
N5180 G1 X-17.496 Y-9.133
N5185 X-8.154 Y-17.811 F#105
N5190 X-7.84 Y-18.103 F#103
N5195 G3 X-7. Y-17.754 I0.34 J0.366
N5200 G1 Y-15.343 F#100
N5205 G3 X-9.309 Y-10.481 I-7.883 J-0.764
N5210 X-11.839 Y-8.094 I-7.235 J-5.133
N5215 G1 X-12.191 Y-8.03
N5220 X-12.538 Y-8.
N5225 X-14.79
N5230 G3 X-15.115 Y-8.864 I0.017 J-0.5 F#104
N5235 G1 X-14.827 Y-9.134
N5240 X-8.153 Y-15.396 F#105
N5245 X-7.842 Y-15.687 F#103
N5250 G3 X-7. Y-15.34 I0.342 J0.365
N5255 X-7.067 Y-12.436 I-13.665 J1.139 F#100
N5260 X-9.679 Y-8.232 I-7.804 J-1.936
N5265 G1 X-10.004 Y-8.113
N5270 X-10.33 Y-8.028
N5275 X-10.667 Y-8.
N5280 G3 X-11.062 Y-8.782 I0.017 J-0.5 F#104
N5285 G1 X-10.778 Y-9.197
N5290 X-8.091 Y-13.13 F#105
N5295 X-7.913 Y-13.392 F#103
N5300 G3 X-7. Y-13.128 I0.413 J0.282
N5305 X-7.063 Y-10.46 I-12.552 J1.037 F#100
N5310 X-8.991 Y-7.982 I-2.904 J-0.271
N5315 G1 X-9.344 Y-8.
N5320 G3 X-9.736 Y-8.787 I0.017 J-0.5 F#104
N5325 G1 X-9.45 Y-9.193
N5330 X-8.095 Y-11.121 F#105
N5335 X-7.909 Y-11.386 F#103
N5340 G3 X-7. Y-11.116 I0.409 J0.288
N5345 G1 Y-9.397 F#100
N5350 G3 X-8.376 Y-8. I-1.377 J0.019
N5355 G1 X-8.464 Y-8.011 F#104
N5360 X-8.549 Y-8.037
N5365 X-8.628 Y-8.078
N5370 X-8.698 Y-8.132
N5375 X-8.758 Y-8.198
N5380 X-8.805 Y-8.273
N5385 X-8.838 Y-8.356
N5390 X-8.856 Y-8.443
N5395 X-8.858 Y-8.531
N5400 X-8.845 Y-8.619
N5405 X-8.816 Y-8.703
N5410 X-8.773 Y-8.78
N5415 X-8.717 Y-8.849
N5420 X-8.426 Y-9.147
N5425 X-8.14 Y-9.439 F#105
N5430 X-7.857 Y-9.729 F#103
N5435 G3 X-7. Y-9.397 I0.358 J0.349
N5440 G1 Y-8.642 F#100
N5445 G3 X-7.63 Y-8.002 I-0.618 J0.022
N5450 G1 X-7.722 Y-8.011 F#104
N5455 X-7.812 Y-8.035
N5460 X-7.898 Y-8.071
N5465 X-7.978 Y-8.12
N5470 X-8.05 Y-8.18
N5475 G3 X-7.185 Y-9.062 I0.432 J-0.441
N5480 X-7. Y-8.642 I-0.432 J0.441
N5485 X-7.496 Y-8. I-0.532 J0.101 F#100
N5490 G1 X-12.538
N5495 G3 X-12.931 Y-8.784 I0.017 J-0.5 F#104
N5500 G1 X-12.883 Y-8.831 Z-11.995
N5505 X-12.835 Y-8.877 Z-11.981
N5510 X-12.789 Y-8.921 Z-11.959
N5515 X-12.719 Y-8.948 Z-11.918
N5520 X-12.657 Y-8.972 Z-11.866
N5525 X-12.604 Y-8.993 Z-11.803
N5530 X-12.569 Y-8.996 Z-11.749
N5535 X-12.541 Y-8.998 Z-11.692
N5540 X-12.52 Y-9. Z-11.631
N5545 X-12.514 Z-11.603
N5550 X-12.505 Y-8.999 Z-11.552
N5555 X-12.503 Z-11.5
N5560 G0 X-39.345 Y-17.302
N5565 G1 Z-12. F#103
N5570 X-39.306 Y-16.525
N5575 G3 X-39.788 Y-16. I-0.499 J0.025
N5580 X-42.002 Y-16.129 I-0.755 J-6.088 F#100
N5585 X-44.431 Y-17.978 I1.835 J-4.929
N5590 X-45.017 Y-19.023 I4.263 J-3.08 F#106
N5595 G1 X-45. Y-19.372 F#100
N5600 G3 X-44.172 Y-19.732 I0.5 J0.017 F#104
N5605 G1 X-43.836 Y-19.44
N5610 X-41.168 Y-17.123 F#105
N5615 X-40.885 Y-16.877 F#103
N5620 G3 X-41.195 Y-16. I-0.328 J0.378
N5625 X-43.408 Y-16.13 I-0.755 J-6.06 F#100
N5630 G1 X-43.583 Y-16.184
N5635 X-43.752 Y-16.252
N5640 X-43.915 Y-16.335
N5645 X-44.071 Y-16.431
N5650 X-44.217 Y-16.541
N5655 X-44.354 Y-16.662
N5660 X-44.48 Y-16.795
N5665 X-44.595 Y-16.937
N5670 X-44.696 Y-17.089
N5675 X-44.785 Y-17.249
N5680 X-44.86 Y-17.416
N5685 X-44.92 Y-17.589
N5690 X-44.965 Y-17.766
N5695 X-44.995 Y-17.947
N5700 X-45.01 Y-18.129
N5705 X-44.998 Y-18.216 F#104
N5710 X-44.972 Y-18.3
N5715 X-44.932 Y-18.378
N5720 X-44.88 Y-18.448
N5725 X-44.816 Y-18.507
N5730 X-44.743 Y-18.555
N5735 X-44.663 Y-18.589
N5740 X-44.578 Y-18.61
N5745 X-44.491 Y-18.615
N5750 X-44.405 Y-18.605
N5755 X-44.322 Y-18.581
N5760 X-44.244 Y-18.542
N5765 X-44.175 Y-18.491
N5770 X-43.834 Y-18.199
N5775 X-42.578 Y-17.121 F#105
N5780 X-42.295 Y-16.879 F#103
N5785 G3 X-42.603 Y-16. I-0.326 J0.38
N5790 G1 X-43.9 F#100
N5795 G3 X-44.998 Y-17.132 I0.022 J-1.12
N5800 G1 X-44.987 Y-17.252 F#104
N5805 X-44.963 Y-17.37
N5810 X-44.925 Y-17.484
N5815 X-44.875 Y-17.594
N5820 X-44.813 Y-17.697
N5825 X-44.739 Y-17.793
N5830 X-44.655 Y-17.879
N5835 X-44.562 Y-17.956
N5840 X-44.46 Y-18.021
N5845 X-44.352 Y-18.075
N5850 X-44.239 Y-18.116
N5855 X-44.121 Y-18.144
N5860 X-44.001 Y-18.159
N5865 G3 X-43.634 Y-18.118 I0.067 J1.064 F#105
N5870 X-42.861 Y-16.991 I-0.304 J1.037
N5875 X-43.901 Y-16. I-1.077 J-0.089 F#103
N5880 X-44.605 Y-16.014 I-0.3 J-2.655 F#100
N5885 X-44.893 Y-16.457 I0.135 J-0.403 F#104
N5890 X-44.062 Y-16.377 I0.415 J0.04
N5895 X-44.463 Y-16. I-0.415 J-0.04
N5900 X-45. Y-16.547 I-0.018 J-0.519 F#100
N5905 G1 Y-21.985
N5910 G3 X-44.216 Y-22.379 I0.5 J0.017 F#104
N5915 G1 X-44.169 Y-22.33 Z-11.995
N5920 X-44.123 Y-22.282 Z-11.981
N5925 X-44.079 Y-22.236 Z-11.959
N5930 X-44.052 Y-22.167 Z-11.918
N5935 X-44.028 Y-22.105 Z-11.866
N5940 X-44.007 Y-22.052 Z-11.803
N5945 X-44.004 Y-22.017 Z-11.749
N5950 X-44.002 Y-21.988 Z-11.692
N5955 X-44. Y-21.968 Z-11.631
N5960 Y-21.961 Z-11.603
N5965 X-44.001 Y-21.953 Z-11.552
N5970 Y-21.95 Z-11.5
N5975 G0 Z4.
(2D CONTOUR1)
N5985 M9
N5990 G0 Z9.
N5995 X-8.024 Y-24.75
N6000 #100=800. (CUTTING)
N6005 #103=600. (ENTRY)
N6010 #104=600. (EXIT)
N6015 #106=400. (REDUCED)
N6020 #108=300. (PLUNGE)
N6025 G1 Z-7.4 F#108
N6030 X-8.019 Y-24.745 Z-7.494
N6035 X-8.003 Y-24.729 Z-7.585
N6040 X-7.978 Y-24.704 Z-7.672
N6045 X-7.943 Y-24.669 Z-7.753
N6050 X-7.9 Y-24.626 Z-7.824
N6055 X-7.849 Y-24.575 Z-7.885
N6060 X-7.793 Y-24.518 Z-7.935
N6065 X-7.731 Y-24.457 Z-7.971
N6070 X-7.666 Y-24.392 Z-7.993
N6075 X-7.6 Y-24.326 Z-8.
N6080 X-7.176 Y-23.901 F#103
N6085 G3 X-7. Y-23.477 I-0.424 J0.424
N6090 G1 Y-9.2 F#100
N6095 Y-8. F#106
N6100 X-32.8 F#100
N6105 X-34. F#106
N6110 Y-12. F#100
N6115 G2 X-38. Y-16. I-4. J0.
N6120 G1 X-43.7
N6125 X-44.9 F#106
N6130 G3 X-45. Y-16.1 I0. J-0.1
N6135 G1 Y-34.7 F#100
N6140 Y-35.9 F#106
N6145 G3 X-44.9 Y-36. I0.1 J0.
N6150 G1 X-39.75 F#100
N6155 G2 X-35.75 Y-40. I0. J-4.
N6160 G1 Y-42.2
N6165 Y-43.4 F#106
N6170 G3 X-35.65 Y-43.5 I0.1 J0.
N6175 G1 X-17.55 F#100
N6180 X-16.35 F#106
N6185 G3 X-16.25 Y-43.4 I0. J0.1
N6190 G1 Y-40. F#100
N6195 G2 X-12.25 Y-36. I4. J0.
N6200 G1 X-8.3
N6205 X-7.1 F#106
N6210 G3 X-7. Y-35.9 I0. J0.1
N6215 G1 Y-23.477 F#100
N6220 G3 X-7.176 Y-23.053 I-0.6 J0. F#104
N6225 G1 X-7.6 Y-22.629
N6230 X-7.666 Y-22.562 Z-7.993
N6235 X-7.731 Y-22.498 Z-7.971
N6240 X-7.793 Y-22.436 Z-7.935
N6245 X-7.849 Y-22.379 Z-7.885
N6250 X-7.9 Y-22.329 Z-7.824
N6255 X-7.943 Y-22.285 Z-7.753
N6260 X-7.978 Y-22.251 Z-7.672
N6265 X-8.003 Y-22.225 Z-7.585
N6270 X-8.019 Y-22.21 Z-7.494
N6275 X-8.024 Y-22.204 Z-7.4
N6280 Y-24.75
N6285 Z-11.4 F#108
N6290 X-8.019 Y-24.745 Z-11.494
N6295 X-8.003 Y-24.729 Z-11.585
N6300 X-7.978 Y-24.704 Z-11.672
N6305 X-7.943 Y-24.669 Z-11.753
N6310 X-7.9 Y-24.626 Z-11.824
N6315 X-7.849 Y-24.575 Z-11.885
N6320 X-7.793 Y-24.518 Z-11.935
N6325 X-7.731 Y-24.457 Z-11.971
N6330 X-7.666 Y-24.392 Z-11.993
N6335 X-7.6 Y-24.326 Z-12.
N6340 X-7.176 Y-23.901 F#103
N6345 G3 X-7. Y-23.477 I-0.424 J0.424
N6350 G1 Y-9.2 F#100
N6355 Y-8. F#106
N6360 X-32.8 F#100
N6365 X-34. F#106
N6370 Y-12. F#100
N6375 G2 X-38. Y-16. I-4. J0.
N6380 G1 X-43.7
N6385 X-44.9 F#106
N6390 G3 X-45. Y-16.1 I0. J-0.1
N6395 G1 Y-34.7 F#100
N6400 Y-35.9 F#106
N6405 G3 X-44.9 Y-36. I0.1 J0.
N6410 G1 X-39.75 F#100
N6415 G2 X-35.75 Y-40. I0. J-4.
N6420 G1 Y-42.2
N6425 Y-43.4 F#106
N6430 G3 X-35.65 Y-43.5 I0.1 J0.
N6435 G1 X-17.55 F#100
N6440 X-16.35 F#106
N6445 G3 X-16.25 Y-43.4 I0. J0.1
N6450 G1 Y-40. F#100
N6455 G2 X-12.25 Y-36. I4. J0.
N6460 G1 X-8.3
N6465 X-7.1 F#106
N6470 G3 X-7. Y-35.9 I0. J0.1
N6475 G1 Y-23.477 F#100
N6480 G3 X-7.176 Y-23.053 I-0.6 J0. F#104
N6485 G1 X-7.6 Y-22.629
N6490 X-7.666 Y-22.562 Z-11.993
N6495 X-7.731 Y-22.498 Z-11.971
N6500 X-7.793 Y-22.436 Z-11.935
N6505 X-7.849 Y-22.379 Z-11.885
N6510 X-7.9 Y-22.329 Z-11.824
N6515 X-7.943 Y-22.285 Z-11.753
N6520 X-7.978 Y-22.251 Z-11.672
N6525 X-8.003 Y-22.225 Z-11.585
N6530 X-8.019 Y-22.21 Z-11.494
N6535 X-8.024 Y-22.204 Z-11.4
N6540 G0 Z4.
N6550 M9
N6555 G53 Z0.
N6560 M30
%
