%
(4MM-HELIX-BORE-40MM)
(T2  D=4. CR=0. - ZMIN=-10.2 - FLAT END MILL)
N10 G90 G94 G17 G91.1
N15 G21
N20 G53 G0 Z0.
(BORE2)
N25 M9
N30 T2 M6
N35 S3000 M3
N40 G54
N45 M9
N55 G0 X-29.1 Y42.
N60 G43 Z4. H2
N65 #100=240. (CUTTING)
N70 #103=210. (ENTRY)
N75 #104=210. (EXIT)
N80 G0 Z2.
N85 G1 Z0.4 F#103
N90 G19 G3 Y42.4 Z0. J0.4 K0.
N95 G1 Y42.6
N100 G17 G3 X-29.5 Y43. I-0.4 J0.
N105 Y7. Z-0.5 I0. J-18. F#100
N110 Y43. Z-1. I0. J18.
N115 Y7. Z-1.5 I0. J-18.
N120 Y43. Z-2. I0. J18.
N125 Y7. Z-2.5 I0. J-18.
N130 Y43. Z-3. I0. J18.
N135 Y7. Z-3.5 I0. J-18.
N140 Y43. Z-4. I0. J18.
N145 Y7. Z-4.5 I0. J-18.
N150 Y43. Z-5. I0. J18.
N155 Y7. Z-5.5 I0. J-18.
N160 Y43. Z-6. I0. J18.
N165 Y7. Z-6.5 I0. J-18.
N170 Y43. Z-7. I0. J18.
N175 Y7. Z-7.5 I0. J-18.
N180 Y43. Z-8. I0. J18.
N185 Y7. Z-8.5 I0. J-18.
N190 Y43. Z-9. I0. J18.
N195 Y7. Z-9.5 I0. J-18.
N200 Y43. Z-10. I0. J18.
N205 X-46.619 Y30.562 Z-10.2 I0. J-18.
N210 X-12.381 Y19.438 I17.119 J-5.562
N215 X-46.619 Y30.562 I-17.119 J5.562
N220 X-46.362 Y30.058 I0.38 J-0.124 F#104
N225 G1 X-46.172 Y29.996
N230 X-46.098 Y29.972 Z-10.192
N235 X-46.026 Y29.949 Z-10.17
N240 X-45.961 Y29.928 Z-10.133
N245 X-45.903 Y29.909 Z-10.083
N250 X-45.856 Y29.894 Z-10.022
N255 X-45.821 Y29.882 Z-9.953
N260 X-45.799 Y29.875 Z-9.878
N265 X-45.792 Y29.873 Z-9.8
N270 G0 Z4.
N280 M9
N285 G53 Z0.
N290 M30
%
