%
(PATTERN1)
(T70  D=10. CR=0. TAPER=90DEG - ZMIN=-2. - SPOT DRILL)
N10 G90 G94 G17 G91.1
N15 G21
N20 G53 G0 Z0.
(SPOT DRILL)
N25 M9
N30 T70 M6
N35 S3000 M3
N40 G54
N45 M9
N55 G0 X-50. Y5.
N60 G43 Z15. H70
N70 G0 Z5.
N75 G98 G81 X-50. Y5. Z-2. R5. F100.
N80 X-27.5
N85 X-5.
N90 G80
N95 G0 Z15.
(SPOT DRILL)
N105 M9
N110 G0 X-50. Y13.
N115 Z15.
N125 Z5.
N130 G81 X-50. Y13. Z-2. R5. F100.
N135 X-27.5
N140 X-5.
N145 G80
N150 G0 Z15.
(SPOT DRILL)
N160 M9
N165 G0 X-50. Y21.
N170 Z15.
N180 Z5.
N185 G81 X-50. Y21. Z-2. R5. F100.
N190 X-27.5
N195 X-5.
N200 G80
N205 G0 Z15.
N215 M9
N220 G53 Z0.
N225 M30
%
