%
(SETUP3-MIDDLE-DRILL-4.2)
(T5  D=4.2 CR=0. TAPER=118DEG - ZMIN=-9.607 - DRILL)
N10 G90 G94 G17 G91.1
N15 G21
N20 G53 G0 Z0.
(DRILL5)
N25 M9
N30 T5 M6
N35 S2500 M3
N40 G54
N45 M9
N55 G0 X-25. Y5.
N60 G43 Z15. H5
N70 G0 Z5.
N75 G98 G83 X-25. Y5. Z-9.607 R5. Q3. F100.
N80 G80
N85 G0 Z15.
(DRILL5)
N95 M9
N100 G0 X-25. Y13.
N105 Z15.
N115 Z5.
N120 G83 X-25. Y13. Z-9.607 R5. Q3. F100.
N125 G80
N130 G0 Z15.
(DRILL5)
N140 M9
N145 G0 X-25. Y21.
N150 Z15.
N160 Z5.
N165 G83 X-25. Y21. Z-9.607 R5. Q3. F100.
N170 G80
N175 G0 Z15.
N185 M9
N190 G53 Z0.
N195 M30
%
