%
(PATTERN2 3)
(T5  D=4.2 CR=0. TAPER=118DEG - ZMIN=-11. - DRILL)
N10 G90 G94 G17 G91.1
N15 G21
N20 G53 G0 Z0.
(TWO RIGHT HOLES ONLY)
N25 M9
N30 T5 M6
N35 S2500 M3
N40 G54
N45 M9
N55 G0 X-27.5 Y5.
N60 G43 Z4. H5
N70 G0 Z2.
N75 G98 G83 X-27.5 Y5. Z-11. R2. Q2. F100.
N80 X-50.
N85 G80
N90 G0 Z4.
(TWO RIGHT HOLES ONLY)
N100 M9
N105 G0 X-27.5 Y13.
N110 Z4.
N120 Z2.
N125 G83 X-27.5 Y13. Z-11. R2. Q2. F100.
N130 X-50.
N135 G80
N140 G0 Z4.
(TWO RIGHT HOLES ONLY)
N150 M9
N155 G0 X-27.5 Y21.
N160 Z4.
N170 Z2.
N175 G83 X-27.5 Y21. Z-11. R2. Q2. F100.
N180 X-50.
N185 G80
N190 G0 Z4.
N200 M9
N205 G53 Z0.
N210 M30
%
