%
(PATTERN1)
(T5  D=4.2 CR=0. TAPER=118DEG - ZMIN=-11. - DRILL)
(T70  D=10. CR=0. TAPER=90DEG - ZMIN=-2. - SPOT DRILL)
N10 G90 G94 G17 G91.1
N15 G21
N20 G53 G0 Z0.
(SPOT DRILL)
N25 M9
N30 T70 M6
N35 T5
N40 S2200 M3
N45 G54
N50 M8
N60 G0 X-50. Y5.
N65 G43 Z15. H70
N75 G0 Z5.
N80 G98 G81 X-50. Y5. Z-2. R5. F250.
N85 X-27.5
N90 X-5.
N95 G80
N100 G0 Z15.
N110 M5
N115 G53 Z0.
(FINISH 4.2 DRILL)
N120 M9
N125 M1
N130 T5 M6
N135 T70
N140 S2500 M3
N145 M9
N155 G0 X-50. Y5.
N160 G43 Z4. H5
N170 G0 Z2.
N175 G83 X-50. Y5. Z-11. R2. Q2. F100.
N180 X-27.5
N185 X-5.
N190 G80
N195 G0 Z4.
N205 M5
N210 G53 Z0.
(SPOT DRILL)
N215 M9
N220 M1
N225 T70 M6
N230 T5
N235 S2200 M3
N240 M8
N250 G0 X-50. Y13.
N255 G43 Z15. H70
N265 G0 Z5.
N270 G81 X-50. Y13. Z-2. R5. F250.
N275 X-27.5
N280 X-5.
N285 G80
N290 G0 Z15.
N300 M5
N305 G53 Z0.
(FINISH 4.2 DRILL)
N310 M9
N315 M1
N320 T5 M6
N325 T70
N330 S2500 M3
N335 M9
N345 G0 X-50. Y13.
N350 G43 Z4. H5
N360 G0 Z2.
N365 G83 X-50. Y13. Z-11. R2. Q2. F100.
N370 X-27.5
N375 X-5.
N380 G80
N385 G0 Z4.
N395 M5
N400 G53 Z0.
(SPOT DRILL)
N405 M9
N410 M1
N415 T70 M6
N420 T5
N425 S2200 M3
N430 M8
N440 G0 X-50. Y21.
N445 G43 Z15. H70
N455 G0 Z5.
N460 G81 X-50. Y21. Z-2. R5. F250.
N465 X-27.5
N470 X-5.
N475 G80
N480 G0 Z15.
N490 M5
N495 G53 Z0.
(FINISH 4.2 DRILL)
N500 M9
N505 M1
N510 T5 M6
N515 T70
N520 S2500 M3
N525 M9
N535 G0 X-50. Y21.
N540 G43 Z4. H5
N550 G0 Z2.
N555 G83 X-50. Y21. Z-11. R2. Q2. F100.
N560 X-27.5
N565 X-5.
N570 G80
N575 G0 Z4.
N585 M9
N590 G53 Z0.
N595 M30
%
