%
(X-RIBS-55X50X10)
(T2  D=4. CR=0. - ZMIN=-11. - FLAT END MILL)
N10 G90 G94 G17 G91.1
N15 G21
N20 G53 G0 Z0.
(2D CONTOUR3)
N25 M9
N30 T2 M6
N35 S3000 M3
N40 G54
N45 M9
N55 G0 X-38.858 Y10.279
N60 G43 Z4. H2
N65 #102=240. (FINISH)
N70 #107=200. (RAMPING)
N75 G0 Z2.5
N80 S2600
N85 G3 X-18.142 Y39.721 Z2. I10.358 J14.721 F#107
N90 X-38.858 Y10.279 Z1.5 I-10.358 J-14.721
N95 X-18.142 Y39.721 Z1. I10.358 J14.721
N100 X-38.858 Y10.279 Z0.5 I-10.358 J-14.721
N105 X-18.142 Y39.721 Z0. I10.358 J14.721
N110 X-38.858 Y10.279 Z-0.5 I-10.358 J-14.721
N115 X-18.142 Y39.721 Z-1. I10.358 J14.721
N120 X-38.858 Y10.279 Z-1.5 I-10.358 J-14.721
N125 X-18.142 Y39.721 Z-2. I10.358 J14.721
N130 X-38.858 Y10.279 Z-2.5 I-10.358 J-14.721
N135 X-18.142 Y39.721 Z-3. I10.358 J14.721
N140 X-38.858 Y10.279 Z-3.5 I-10.358 J-14.721
N145 X-18.142 Y39.721 Z-4. I10.358 J14.721
N150 X-38.858 Y10.279 Z-4.5 I-10.358 J-14.721
N155 X-18.142 Y39.721 Z-5. I10.358 J14.721
N160 X-38.858 Y10.279 Z-5.5 I-10.358 J-14.721
N165 X-18.142 Y39.721 Z-6. I10.358 J14.721
N170 X-38.858 Y10.279 Z-6.5 I-10.358 J-14.721
N175 X-18.142 Y39.721 Z-7. I10.358 J14.721
N180 X-38.858 Y10.279 Z-7.5 I-10.358 J-14.721
N185 X-18.142 Y39.721 Z-8. I10.358 J14.721
N190 X-38.858 Y10.279 Z-8.5 I-10.358 J-14.721
N195 X-18.142 Y39.721 Z-9. I10.358 J14.721
N200 X-38.858 Y10.279 Z-9.5 I-10.358 J-14.721
N205 X-18.142 Y39.721 Z-10. I10.358 J14.721
N210 X-39.3 Y39.4 Z-10.2 I-10.358 J-14.721
N215 S3000
N220 X-17.7 Y10.6 I10.8 J-14.4 F#102
N225 X-39.3 Y39.4 I-10.8 J14.4
N230 G0 Z4.
(2D CONTOUR2)
N240 M9
N245 G0 X-28.5 Y52.
N250 #102=240. (FINISH)
N255 #107=200. (RAMPING)
N260 Z4.
N265 Z2.
N270 S2600
N275 G1 X-1. Z1.876 F#107
N280 G2 X1. Y50. Z1.862 I0. J-2.
N285 G1 Y0. Z1.638
N290 G2 X-1. Y-2. Z1.624 I-2. J0.
N295 G1 X-56. Z1.376
N300 G2 X-58. Y0. Z1.362 I0. J2.
N305 G1 Y50. Z1.138
N310 G2 X-56. Y52. Z1.124 I2. J0.
N315 G1 X-1. Z0.876
N320 G2 X1. Y50. Z0.862 I0. J-2.
N325 G1 Y0. Z0.638
N330 G2 X-1. Y-2. Z0.624 I-2. J0.
N335 G1 X-56. Z0.376
N340 G2 X-58. Y0. Z0.362 I0. J2.
N345 G1 Y50. Z0.138
N350 G2 X-56. Y52. Z0.124 I2. J0.
N355 G1 X-1. Z-0.124
N360 G2 X1. Y50. Z-0.138 I0. J-2.
N365 G1 Y0. Z-0.362
N370 G2 X-1. Y-2. Z-0.376 I-2. J0.
N375 G1 X-56. Z-0.624
N380 G2 X-58. Y0. Z-0.638 I0. J2.
N385 G1 Y50. Z-0.862
N390 G2 X-56. Y52. Z-0.876 I2. J0.
N395 G1 X-1. Z-1.124
N400 G2 X1. Y50. Z-1.138 I0. J-2.
N405 G1 Y0. Z-1.362
N410 G2 X-1. Y-2. Z-1.376 I-2. J0.
N415 G1 X-56. Z-1.624
N420 G2 X-58. Y0. Z-1.638 I0. J2.
N425 G1 Y50. Z-1.862
N430 G2 X-56. Y52. Z-1.876 I2. J0.
N435 G1 X-1. Z-2.124
N440 G2 X1. Y50. Z-2.138 I0. J-2.
N445 G1 Y0. Z-2.362
N450 G2 X-1. Y-2. Z-2.376 I-2. J0.
N455 G1 X-56. Z-2.624
N460 G2 X-58. Y0. Z-2.638 I0. J2.
N465 G1 Y50. Z-2.862
N470 G2 X-56. Y52. Z-2.876 I2. J0.
N475 G1 X-1. Z-3.124
N480 G2 X1. Y50. Z-3.138 I0. J-2.
N485 G1 Y0. Z-3.362
N490 G2 X-1. Y-2. Z-3.376 I-2. J0.
N495 G1 X-56. Z-3.624
N500 G2 X-58. Y0. Z-3.638 I0. J2.
N505 G1 Y50. Z-3.862
N510 G2 X-56. Y52. Z-3.876 I2. J0.
N515 G1 X-1. Z-4.124
N520 G2 X1. Y50. Z-4.138 I0. J-2.
N525 G1 Y0. Z-4.362
N530 G2 X-1. Y-2. Z-4.376 I-2. J0.
N535 G1 X-56. Z-4.624
N540 G2 X-58. Y0. Z-4.638 I0. J2.
N545 G1 Y50. Z-4.862
N550 G2 X-56. Y52. Z-4.876 I2. J0.
N555 G1 X-1. Z-5.124
N560 G2 X1. Y50. Z-5.138 I0. J-2.
N565 G1 Y0. Z-5.362
N570 G2 X-1. Y-2. Z-5.376 I-2. J0.
N575 G1 X-56. Z-5.624
N580 G2 X-58. Y0. Z-5.638 I0. J2.
N585 G1 Y50. Z-5.862
N590 G2 X-56. Y52. Z-5.876 I2. J0.
N595 G1 X-1. Z-6.124
N600 G2 X1. Y50. Z-6.138 I0. J-2.
N605 G1 Y0. Z-6.362
N610 G2 X-1. Y-2. Z-6.376 I-2. J0.
N615 G1 X-56. Z-6.624
N620 G2 X-58. Y0. Z-6.638 I0. J2.
N625 G1 Y50. Z-6.862
N630 G2 X-56. Y52. Z-6.876 I2. J0.
N635 G1 X-1. Z-7.124
N640 G2 X1. Y50. Z-7.138 I0. J-2.
N645 G1 Y0. Z-7.362
N650 G2 X-1. Y-2. Z-7.376 I-2. J0.
N655 G1 X-56. Z-7.624
N660 G2 X-58. Y0. Z-7.638 I0. J2.
N665 G1 Y50. Z-7.862
N670 G2 X-56. Y52. Z-7.876 I2. J0.
N675 G1 X-1. Z-8.124
N680 G2 X1. Y50. Z-8.138 I0. J-2.
N685 G1 Y0. Z-8.362
N690 G2 X-1. Y-2. Z-8.376 I-2. J0.
N695 G1 X-56. Z-8.624
N700 G2 X-58. Y0. Z-8.638 I0. J2.
N705 G1 Y50. Z-8.862
N710 G2 X-56. Y52. Z-8.876 I2. J0.
N715 G1 X-1. Z-9.124
N720 G2 X1. Y50. Z-9.138 I0. J-2.
N725 G1 Y0. Z-9.362
N730 G2 X-1. Y-2. Z-9.376 I-2. J0.
N735 G1 X-56. Z-9.624
N740 G2 X-58. Y0. Z-9.638 I0. J2.
N745 G1 Y50. Z-9.862
N750 G2 X-56. Y52. Z-9.876 I2. J0.
N755 G1 X-1. Z-10.124
N760 G2 X1. Y50. Z-10.138 I0. J-2.
N765 G1 Y0. Z-10.362
N770 G2 X-1. Y-2. Z-10.376 I-2. J0.
N775 G1 X-56. Z-10.624
N780 G2 X-58. Y0. Z-10.638 I0. J2.
N785 G1 Y50. Z-10.862
N790 G2 X-56. Y52. Z-10.876 I2. J0.
N795 G1 X-28.5 Z-11.
N800 S3000
N805 X-1. F#102
N810 G2 X1. Y50. I0. J-2.
N815 G1 Y0.
N820 G2 X-1. Y-2. I-2. J0.
N825 G1 X-56.
N830 G2 X-58. Y0. I0. J2.
N835 G1 Y50.
N840 G2 X-56. Y52. I2. J0.
N845 G1 X-28.5
N850 G0 Z4.
N860 M9
N865 G53 Z0.
N870 M30
%
