%
(X-RIBS-55X50X10)
(T2  D=4. CR=0. - ZMIN=-8.5 - FLAT END MILL)
N10 G90 G94 G17 G91.1
N15 G21
N20 G53 G0 Z0.
(2D CONTOUR3)
N25 M9
N30 T2 M6
N35 S3000 M3
N40 G54
N45 M9
N55 G0 X-39.3 Y39.4
N60 G43 Z4. H2
N65 #102=240. (FINISH)
N70 #107=200. (RAMPING)
N75 G0 Z2.5
N80 S2600
N85 G3 X-17.7 Y10.6 Z2. I10.8 J-14.4 F#107
N90 X-39.3 Y39.4 Z1.5 I-10.8 J14.4
N95 X-17.7 Y10.6 Z1. I10.8 J-14.4
N100 X-39.3 Y39.4 Z0.5 I-10.8 J14.4
N105 X-17.7 Y10.6 Z0. I10.8 J-14.4
N110 X-39.3 Y39.4 Z-0.5 I-10.8 J14.4
N115 X-17.7 Y10.6 Z-1. I10.8 J-14.4
N120 X-39.3 Y39.4 Z-1.5 I-10.8 J14.4
N125 X-17.7 Y10.6 Z-2. I10.8 J-14.4
N130 X-39.3 Y39.4 Z-2.5 I-10.8 J14.4
N135 X-17.7 Y10.6 Z-3. I10.8 J-14.4
N140 X-39.3 Y39.4 Z-3.5 I-10.8 J14.4
N145 X-17.7 Y10.6 Z-4. I10.8 J-14.4
N150 X-39.3 Y39.4 Z-4.5 I-10.8 J14.4
N155 X-17.7 Y10.6 Z-5. I10.8 J-14.4
N160 X-39.3 Y39.4 Z-5.5 I-10.8 J14.4
N165 X-17.7 Y10.6 Z-6. I10.8 J-14.4
N170 X-39.3 Y39.4 Z-6.5 I-10.8 J14.4
N175 X-17.7 Y10.6 Z-7. I10.8 J-14.4
N180 X-39.3 Y39.4 Z-7.5 I-10.8 J14.4
N185 X-17.7 Y10.6 Z-8. I10.8 J-14.4
N190 X-39.3 Y39.4 Z-8.5 I-10.8 J14.4
N195 S3000
N200 X-17.7 Y10.6 I10.8 J-14.4 F#102
N205 X-39.3 Y39.4 I-10.8 J14.4
N210 G0 Z4.
(2D CONTOUR2)
N220 M9
N225 G0 X-28.5 Y-2.
N230 #102=240. (FINISH)
N235 #107=200. (RAMPING)
N240 Z4.
N245 Z2.
N250 S2600
N255 G1 X-56. Z1.876 F#107
N260 G2 X-58. Y0. Z1.862 I0. J2.
N265 G1 Y50. Z1.638
N270 G2 X-56. Y52. Z1.624 I2. J0.
N275 G1 X-1. Z1.376
N280 G2 X1. Y50. Z1.362 I0. J-2.
N285 G1 Y0. Z1.138
N290 G2 X-1. Y-2. Z1.124 I-2. J0.
N295 G1 X-56. Z0.876
N300 G2 X-58. Y0. Z0.862 I0. J2.
N305 G1 Y50. Z0.638
N310 G2 X-56. Y52. Z0.624 I2. J0.
N315 G1 X-1. Z0.376
N320 G2 X1. Y50. Z0.362 I0. J-2.
N325 G1 Y0. Z0.138
N330 G2 X-1. Y-2. Z0.124 I-2. J0.
N335 G1 X-56. Z-0.124
N340 G2 X-58. Y0. Z-0.138 I0. J2.
N345 G1 Y50. Z-0.362
N350 G2 X-56. Y52. Z-0.376 I2. J0.
N355 G1 X-1. Z-0.624
N360 G2 X1. Y50. Z-0.638 I0. J-2.
N365 G1 Y0. Z-0.862
N370 G2 X-1. Y-2. Z-0.876 I-2. J0.
N375 G1 X-56. Z-1.124
N380 G2 X-58. Y0. Z-1.138 I0. J2.
N385 G1 Y50. Z-1.362
N390 G2 X-56. Y52. Z-1.376 I2. J0.
N395 G1 X-1. Z-1.624
N400 G2 X1. Y50. Z-1.638 I0. J-2.
N405 G1 Y0. Z-1.862
N410 G2 X-1. Y-2. Z-1.876 I-2. J0.
N415 G1 X-56. Z-2.124
N420 G2 X-58. Y0. Z-2.138 I0. J2.
N425 G1 Y50. Z-2.362
N430 G2 X-56. Y52. Z-2.376 I2. J0.
N435 G1 X-1. Z-2.624
N440 G2 X1. Y50. Z-2.638 I0. J-2.
N445 G1 Y0. Z-2.862
N450 G2 X-1. Y-2. Z-2.876 I-2. J0.
N455 G1 X-56. Z-3.124
N460 G2 X-58. Y0. Z-3.138 I0. J2.
N465 G1 Y50. Z-3.362
N470 G2 X-56. Y52. Z-3.376 I2. J0.
N475 G1 X-1. Z-3.624
N480 G2 X1. Y50. Z-3.638 I0. J-2.
N485 G1 Y0. Z-3.862
N490 G2 X-1. Y-2. Z-3.876 I-2. J0.
N495 G1 X-56. Z-4.124
N500 G2 X-58. Y0. Z-4.138 I0. J2.
N505 G1 Y50. Z-4.362
N510 G2 X-56. Y52. Z-4.376 I2. J0.
N515 G1 X-1. Z-4.624
N520 G2 X1. Y50. Z-4.638 I0. J-2.
N525 G1 Y0. Z-4.862
N530 G2 X-1. Y-2. Z-4.876 I-2. J0.
N535 G1 X-56. Z-5.124
N540 G2 X-58. Y0. Z-5.138 I0. J2.
N545 G1 Y50. Z-5.362
N550 G2 X-56. Y52. Z-5.376 I2. J0.
N555 G1 X-1. Z-5.624
N560 G2 X1. Y50. Z-5.638 I0. J-2.
N565 G1 Y0. Z-5.862
N570 G2 X-1. Y-2. Z-5.876 I-2. J0.
N575 G1 X-56. Z-6.124
N580 G2 X-58. Y0. Z-6.138 I0. J2.
N585 G1 Y50. Z-6.362
N590 G2 X-56. Y52. Z-6.376 I2. J0.
N595 G1 X-1. Z-6.624
N600 G2 X1. Y50. Z-6.638 I0. J-2.
N605 G1 Y0. Z-6.862
N610 G2 X-1. Y-2. Z-6.876 I-2. J0.
N615 G1 X-56. Z-7.124
N620 G2 X-58. Y0. Z-7.138 I0. J2.
N625 G1 Y50. Z-7.362
N630 G2 X-56. Y52. Z-7.376 I2. J0.
N635 G1 X-1. Z-7.624
N640 G2 X1. Y50. Z-7.638 I0. J-2.
N645 G1 Y0. Z-7.862
N650 G2 X-1. Y-2. Z-7.876 I-2. J0.
N655 G1 X-56. Z-8.124
N660 G2 X-58. Y0. Z-8.138 I0. J2.
N665 G1 Y50. Z-8.362
N670 G2 X-56. Y52. Z-8.376 I2. J0.
N675 G1 X-28.5 Z-8.5
N680 S3000
N685 X-1. F#102
N690 G2 X1. Y50. I0. J-2.
N695 G1 Y0.
N700 G2 X-1. Y-2. I-2. J0.
N705 G1 X-56.
N710 G2 X-58. Y0. I0. J2.
N715 G1 Y50.
N720 G2 X-56. Y52. I2. J0.
N725 G1 X-28.5
N730 G0 Z4.
N740 M9
N745 G53 Z0.
N750 M30
%
