%
(X-RIBS-55X50X10)
(T2  D=4. CR=0. - ZMIN=-8.5 - FLAT END MILL)
N10 G90 G94 G17 G91.1
N15 G21
N20 G53 G0 Z0.
(2D CONTOUR2)
N25 M9
N30 T2 M6
N35 S3300 M3
N40 G54
N45 M9
N55 G0 X-28.5 Y-2.
N60 G43 Z4. H2
N65 #102=220. (FINISH)
N70 #107=200. (RAMPING)
N75 G0 Z2.
N80 S3100
N85 G1 X-56. Z1.876 F#107
N90 G2 X-58. Y0. Z1.862 I0. J2.
N95 G1 Y50. Z1.638
N100 G2 X-56. Y52. Z1.624 I2. J0.
N105 G1 X-1. Z1.376
N110 G2 X1. Y50. Z1.362 I0. J-2.
N115 G1 Y0. Z1.138
N120 G2 X-1. Y-2. Z1.124 I-2. J0.
N125 G1 X-56. Z0.876
N130 G2 X-58. Y0. Z0.862 I0. J2.
N135 G1 Y50. Z0.638
N140 G2 X-56. Y52. Z0.624 I2. J0.
N145 G1 X-1. Z0.376
N150 G2 X1. Y50. Z0.362 I0. J-2.
N155 G1 Y0. Z0.138
N160 G2 X-1. Y-2. Z0.124 I-2. J0.
N165 G1 X-56. Z-0.124
N170 G2 X-58. Y0. Z-0.138 I0. J2.
N175 G1 Y50. Z-0.362
N180 G2 X-56. Y52. Z-0.376 I2. J0.
N185 G1 X-1. Z-0.624
N190 G2 X1. Y50. Z-0.638 I0. J-2.
N195 G1 Y0. Z-0.862
N200 G2 X-1. Y-2. Z-0.876 I-2. J0.
N205 G1 X-56. Z-1.124
N210 G2 X-58. Y0. Z-1.138 I0. J2.
N215 G1 Y50. Z-1.362
N220 G2 X-56. Y52. Z-1.376 I2. J0.
N225 G1 X-1. Z-1.624
N230 G2 X1. Y50. Z-1.638 I0. J-2.
N235 G1 Y0. Z-1.862
N240 G2 X-1. Y-2. Z-1.876 I-2. J0.
N245 G1 X-56. Z-2.124
N250 G2 X-58. Y0. Z-2.138 I0. J2.
N255 G1 Y50. Z-2.362
N260 G2 X-56. Y52. Z-2.376 I2. J0.
N265 G1 X-1. Z-2.624
N270 G2 X1. Y50. Z-2.638 I0. J-2.
N275 G1 Y0. Z-2.862
N280 G2 X-1. Y-2. Z-2.876 I-2. J0.
N285 G1 X-56. Z-3.124
N290 G2 X-58. Y0. Z-3.138 I0. J2.
N295 G1 Y50. Z-3.362
N300 G2 X-56. Y52. Z-3.376 I2. J0.
N305 G1 X-1. Z-3.624
N310 G2 X1. Y50. Z-3.638 I0. J-2.
N315 G1 Y0. Z-3.862
N320 G2 X-1. Y-2. Z-3.876 I-2. J0.
N325 G1 X-56. Z-4.124
N330 G2 X-58. Y0. Z-4.138 I0. J2.
N335 G1 Y50. Z-4.362
N340 G2 X-56. Y52. Z-4.376 I2. J0.
N345 G1 X-1. Z-4.624
N350 G2 X1. Y50. Z-4.638 I0. J-2.
N355 G1 Y0. Z-4.862
N360 G2 X-1. Y-2. Z-4.876 I-2. J0.
N365 G1 X-56. Z-5.124
N370 G2 X-58. Y0. Z-5.138 I0. J2.
N375 G1 Y50. Z-5.362
N380 G2 X-56. Y52. Z-5.376 I2. J0.
N385 G1 X-1. Z-5.624
N390 G2 X1. Y50. Z-5.638 I0. J-2.
N395 G1 Y0. Z-5.862
N400 G2 X-1. Y-2. Z-5.876 I-2. J0.
N405 G1 X-56. Z-6.124
N410 G2 X-58. Y0. Z-6.138 I0. J2.
N415 G1 Y50. Z-6.362
N420 G2 X-56. Y52. Z-6.376 I2. J0.
N425 G1 X-1. Z-6.624
N430 G2 X1. Y50. Z-6.638 I0. J-2.
N435 G1 Y0. Z-6.862
N440 G2 X-1. Y-2. Z-6.876 I-2. J0.
N445 G1 X-56. Z-7.124
N450 G2 X-58. Y0. Z-7.138 I0. J2.
N455 G1 Y50. Z-7.362
N460 G2 X-56. Y52. Z-7.376 I2. J0.
N465 G1 X-1. Z-7.624
N470 G2 X1. Y50. Z-7.638 I0. J-2.
N475 G1 Y0. Z-7.862
N480 G2 X-1. Y-2. Z-7.876 I-2. J0.
N485 G1 X-56. Z-8.124
N490 G2 X-58. Y0. Z-8.138 I0. J2.
N495 G1 Y50. Z-8.362
N500 G2 X-56. Y52. Z-8.376 I2. J0.
N505 G1 X-28.5 Z-8.5
N510 S3300
N515 X-1. F#102
N520 G2 X1. Y50. I0. J-2.
N525 G1 Y0.
N530 G2 X-1. Y-2. I-2. J0.
N535 G1 X-56.
N540 G2 X-58. Y0. I0. J2.
N545 G1 Y50.
N550 G2 X-56. Y52. I2. J0.
N555 G1 X-28.5
N560 G0 Z4.
N570 M9
N575 G53 Z0.
N580 M30
%
