%
(CONTOUR CUTOUT)
(6MM TWO FLUTE)
(T1  D=6. CR=0. - ZMIN=-6. - FLAT END MILL)
N10 G90 G94 G17 G91.1
N15 G21
N20 G53 G0 Z0.
(2D CONTOUR1)
N25 M9
N30 T1 M6
N35 S3200 M3
N40 G54
N45 M8
N55 G0 X-46.652 Y-38.459
N60 G43 Z4. H1
N65 #100=330. (CUTTING)
N70 #106=82.5 (REDUCED)
N75 #107=270. (RAMPING)
N80 G0 Z2.5
N85 S3000
N90 G1 X-41.768 Y-46.919 Z2.417 F#107
N95 X-22.232 Z2.25
N100 X-12.464 Y-30. Z2.083
N105 X-22.232 Y-13.081 Z1.917
N110 X-41.768 Z1.75
N115 X-51.536 Y-30. Z1.583
N120 X-41.768 Y-46.919 Z1.417
N125 X-22.232 Z1.25
N130 X-12.464 Y-30. Z1.083
N135 X-22.232 Y-13.081 Z0.917
N140 X-41.768 Z0.75
N145 X-51.536 Y-30. Z0.583
N150 X-41.768 Y-46.919 Z0.417
N155 X-22.232 Z0.25
N160 X-12.464 Y-30. Z0.083
N165 X-22.232 Y-13.081 Z-0.083
N170 X-41.768 Z-0.25
N175 X-51.536 Y-30. Z-0.417
N180 X-41.768 Y-46.919 Z-0.583
N185 X-22.232 Z-0.75
N190 X-12.464 Y-30. Z-0.917
N195 X-22.232 Y-13.081 Z-1.083
N200 X-41.768 Z-1.25
N205 X-51.536 Y-30. Z-1.417
N210 X-41.768 Y-46.919 Z-1.583
N215 X-22.232 Z-1.75
N220 X-12.464 Y-30. Z-1.917
N225 X-22.232 Y-13.081 Z-2.083
N230 X-41.768 Z-2.25
N235 X-51.536 Y-30. Z-2.417
N240 X-41.768 Y-46.919 Z-2.583
N245 X-22.232 Z-2.75
N250 X-12.464 Y-30. Z-2.917
N255 X-22.232 Y-13.081 Z-3.083
N260 X-41.768 Z-3.25
N265 X-51.536 Y-30. Z-3.417
N270 X-41.768 Y-46.919 Z-3.583
N275 X-22.232 Z-3.75
N280 X-12.464 Y-30. Z-3.917
N285 X-22.232 Y-13.081 Z-4.083
N290 X-41.768 Z-4.25
N295 X-51.536 Y-30. Z-4.417
N300 X-41.768 Y-46.919 Z-4.583
N305 X-22.232 Z-4.75
N310 X-12.464 Y-30. Z-4.917
N315 X-22.232 Y-13.081 Z-5.083
N320 X-41.768 Z-5.25
N325 X-51.536 Y-30. Z-5.417
N330 X-41.768 Y-46.919 Z-5.583
N335 X-22.232 Z-5.75
N340 X-12.464 Y-30. Z-5.917
N345 X-17.348 Y-21.541 Z-6.
N350 S3200
N355 X-21.632 Y-14.121 F#100
N360 X-22.232 Y-13.081 F#106
N365 X-40.568 F#100
N370 X-41.768 F#106
N375 X-50.936 Y-28.961 F#100
N380 X-51.536 Y-30. F#106
N385 X-42.368 Y-45.879 F#100
N390 X-41.768 Y-46.919 F#106
N395 X-23.432 F#100
N400 X-22.232 F#106
N405 X-13.064 Y-31.039 F#100
N410 X-12.464 Y-30. F#106
N415 X-17.348 Y-21.541 F#100
N420 G0 Z4.
N430 M9
N435 G53 Z0.
N440 M30
%
