%
(CONTOUR CUTOUT)
(6MM TWO FLUTE)
(T133  D=3.3 CR=0. TAPER=118DEG - ZMIN=-5. - DRILL)
N10 G90 G94 G17 G91.1
N15 G21
N20 G53 G0 Z0.
(DRILL1)
N25 M9
N30 T133 M6
N35 S3200 M3
N40 G54
N45 M9
N55 G0 X-13. Y-11.
N60 G43 Z15. H0
N70 G0 Z5.
N75 G98 G83 X-13. Y-11. Z-5. R5. Q0.825 F60.
N80 X-52.
N85 Y-49.
N90 X-13.
N95 G80
N100 G0 Z15.
N110 M9
N115 G53 Z0.
N120 M30
%
