%
(1001)
(T125  D=2.5 CR=0. TAPER=118DEG - ZMIN=-6. - DRILL)
N10 G90 G94 G17 G91.1
N15 G21
N20 G53 G0 Z0.
(DRILL1)
N25 M9
N30 T125 M6
N35 S3200 M3
N40 G54
N45 M9
N55 G0 X-46.693 Y77.7
N60 G43 Z10. H0
N70 G0 Z5.
N75 G98 G83 X-46.693 Y77.7 Z-6. R5. Q1.5 F50.
N80 Y92.7
N85 X-26.693
N90 Y77.7
N95 X-20. Y56.
N100 X-33.
N105 Y44.
N110 X-20.
N115 X-26.693 Y7.7
N120 Y22.7
N125 X-46.693
N130 Y7.7
N135 G80
N140 G0 Z10.
N150 M9
N155 G53 Z0.
N160 M30
%
