%
(C-HEAD-BASE-RIG2-SIDE)
(6MM TWO FLUTE)
(T1  D=6. CR=0. - ZMIN=-9.9 - FLAT END MILL)
N10 G90 G94 G17 G91.1
N15 G21
N20 G53 G0 Z0.
(FACE1)
N25 M9
N30 T1 M6
N35 S3200 M3
N40 G54
N45 M8
N55 G0 X7.063 Y-28.512
N60 G43 Z7. H1
N65 #100=330. (CUTTING)
N70 #102=330. (FINISH)
N75 #103=200. (ENTRY)
N80 #104=200. (EXIT)
N85 G0 Z5.
N90 G1 Z1. F#103
N95 G18 G3 X5.063 Z-1. I-2. K0.
N100 G1 X4. F#100
N105 X-34.
N110 G17 G2 Y-25.058 I0. J1.727
N115 G1 X4.
N120 G3 Y-21.605 I0. J1.727
N125 G1 X-34.
N130 G2 Y-18.152 I0. J1.727
N135 G1 X4.
N140 G3 Y-14.698 I0. J1.727
N145 G1 X-34.
N150 G2 Y-11.245 I0. J1.727
N155 G1 X4.
N160 G3 Y-7.792 I0. J1.727
N165 G1 X-34.
N170 G2 Y-4.338 I0. J1.727
N175 G1 X4.
N180 G3 Y-0.885 I0. J1.727
N185 G1 X-34.
N190 G18 G3 X-36. Z1. I0. K2. F#104
N195 G0 Z5.
N200 X-37.061 Y-28.512
N205 G1 Z0. F#103
N210 G2 X-35.061 Z-2. I2. K0.
N215 G1 X-34. F#100
N220 X4.
N225 G17 G3 Y-25.058 I0. J1.727
N230 G1 X-34.
N235 G2 Y-21.605 I0. J1.727
N240 G1 X4.
N245 G3 Y-18.152 I0. J1.727
N250 G1 X-34.
N255 G2 Y-14.698 I0. J1.727
N260 G1 X4.
N265 G3 Y-11.245 I0. J1.727
N270 G1 X-34.
N275 G2 Y-7.792 I0. J1.727
N280 G1 X4.
N285 G3 Y-4.338 I0. J1.727
N290 G1 X-34.
N295 G2 Y-0.885 I0. J1.727
N300 G1 X4.
N305 G18 G2 X6. Z0. I0. K2. F#104
N310 G0 Z5.
N315 X7.063 Y-28.512
N320 G1 Z-1. F#103
N325 G3 X5.063 Z-3. I-2. K0.
N330 G1 X4. F#100
N335 X-34.
N340 G17 G2 Y-25.058 I0. J1.727
N345 G1 X4.
N350 G3 Y-21.605 I0. J1.727
N355 G1 X-34.
N360 G2 Y-18.152 I0. J1.727
N365 G1 X4.
N370 G3 Y-14.698 I0. J1.727
N375 G1 X-34.
N380 G2 Y-11.245 I0. J1.727
N385 G1 X4.
N390 G3 Y-7.792 I0. J1.727
N395 G1 X-34.
N400 G2 Y-4.338 I0. J1.727
N405 G1 X4.
N410 G3 Y-0.885 I0. J1.727
N415 G1 X-34.
N420 G18 G3 X-36. Z-1. I0. K2. F#104
N425 G0 Z5.
N430 X-37.061 Y-28.512
N435 G1 Z-2. F#103
N440 G2 X-35.061 Z-4. I2. K0.
N445 G1 X-34. F#100
N450 X4. F#102
N455 G17 G3 Y-25.058 I0. J1.727 F#100
N460 G1 X-34. F#102
N465 G2 Y-21.605 I0. J1.727 F#100
N470 G1 X4. F#102
N475 G3 Y-18.152 I0. J1.727 F#100
N480 G1 X-34. F#102
N485 G2 Y-14.698 I0. J1.727 F#100
N490 G1 X4. F#102
N495 G3 Y-11.245 I0. J1.727 F#100
N500 G1 X-34. F#102
N505 G2 Y-7.792 I0. J1.727 F#100
N510 G1 X4. F#102
N515 G3 Y-4.338 I0. J1.727 F#100
N520 G1 X-34. F#102
N525 G2 Y-0.885 I0. J1.727 F#100
N530 G1 X4. F#102
N535 G18 G2 X6. Z-2. I0. K2. F#104
N540 G0 Z7.
N545 G17
(2D ADAPTIVE2)
N550 M8
N555 G0 X-33.981 Y-19.287
N560 #100=330. (CUTTING)
N565 #103=200. (ENTRY)
N570 #104=200. (EXIT)
N575 #105=3000. (DIRECT)
N580 #106=82.5 (REDUCED)
N585 Z4.
N590 Z-8.9
N595 G1 Z-9.4 F#103
N600 X-33.976 Y-19.282 Z-9.487
N605 X-33.962 Y-19.264 Z-9.571
N610 X-33.938 Y-19.236 Z-9.65
N615 X-33.906 Y-19.198 Z-9.721
N620 X-33.866 Y-19.151 Z-9.783
N625 X-33.82 Y-19.097 Z-9.833
N630 X-33.769 Y-19.036 Z-9.87
N635 X-33.714 Y-18.972 Z-9.892
N640 X-33.658 Y-18.906 Z-9.9
N645 G3 X-32.973 Y-17.493 I-2.416 J2.045
N650 G1 X-32.854 Y-16.969 F#100
N655 X-32.75 Y-16.442
N660 X-32.662 Y-15.912
N665 X-32.59 Y-15.38
N670 X-32.533 Y-14.846
N675 X-32.491 Y-14.31
N680 X-32.465 Y-13.774
N685 X-32.455 Y-13.237
N690 X-32.461 Y-12.699
N695 X-32.482 Y-12.163
N700 X-32.519 Y-11.627
N705 X-32.472 Y-10.722
N710 X-32.47 Y-8.02
N715 Y-0.812
N720 G2 X-29.344 Y2.092 I3.883 J-1.045
N725 X-23.064 Y2.44 I4.649 J-27.003
N730 G1 X-21.261 Y2.47
N735 X-10.096
N740 G3 X-8.496 Y3.003 I0. J2.667
N745 X-9.115 Y3.789 I-0.314 J0.389 F#104
N750 G1 X-9.123 Y3.782
N755 X-9.191 Y3.727 Z-9.892
N760 X-9.256 Y3.675 Z-9.87
N765 X-9.318 Y3.625 Z-9.833
N770 X-9.373 Y3.58 Z-9.783
N775 X-9.421 Y3.542 Z-9.721
N780 X-9.46 Y3.51 Z-9.65
N785 X-9.489 Y3.487 Z-9.571
N790 X-9.506 Y3.473 Z-9.487
N795 X-9.512 Y3.468 Z-9.4
N800 G0 Z2.15
N805 X-34.167 Y-18.217
N810 Z-8.9
N815 G1 Z-9.4 F#103
N820 X-34.161 Y-18.212 Z-9.487
N825 X-34.143 Y-18.198 Z-9.571
N830 X-34.114 Y-18.176 Z-9.65
N835 X-34.075 Y-18.145 Z-9.721
N840 X-34.026 Y-18.108 Z-9.783
N845 X-33.969 Y-18.064 Z-9.833
N850 X-33.907 Y-18.016 Z-9.87
N855 X-33.84 Y-17.965 Z-9.892
N860 X-33.771 Y-17.911 Z-9.9
N865 G3 X-32.804 Y-16.674 I-1.933 J2.506
N870 X-32.041 Y-12.449 I-8.107 J3.646 F#100
N875 G1 X-31.998 Y-10.797
N880 X-31.968 Y-9.146
N885 X-31.952 Y-7.494
N890 X-31.948 Y-5.842
N895 X-31.958 Y-4.19
N900 X-31.981 Y-2.538
N905 G2 X-28.811 Y1.378 I4.15 J-0.119
N910 X-24.043 Y1.94 I4.087 J-14.165
N915 X-22.777 Y2.1 I1.386 J-5.871
N920 G1 X-10.498
N925 G3 X-9.177 Y2.49 I0.097 J2.104
N930 G1 X-9.114 Y2.551 Z-9.889 F#104
N935 X-9.062 Y2.621 Z-9.878
N940 X-9.024 Y2.7 Z-9.867
N945 X-9. Y2.784 Z-9.856
N950 X-8.991 Y2.871 Z-9.844
N955 X-8.997 Y2.958 Z-9.833
N960 X-9.018 Y3.042 Z-9.822
N965 X-9.053 Y3.122 Z-9.811
N970 X-9.102 Y3.194 Z-9.8
N975 G3 X-9.628 Y3.362 I-0.39 J-0.313
N980 G1 X-9.815 Y3.309
N985 X-10.473 Y3.122 F#105
N990 X-10.617 Y3.081 F#103
N995 G3 X-10.98 Y2.617 I0.137 J-0.481
N1000 X-10.498 Y2.1 Z-9.9 I0.5 J-0.017
N1005 X-9.341 Y2.366 I0.341 J1.166 F#100
N1010 G1 X-9.279 Y2.426 F#104
N1015 X-9.227 Y2.497
N1020 X-9.189 Y2.575
N1025 X-9.165 Y2.658
N1030 X-9.155 Y2.744
N1035 X-9.16 Y2.831
N1040 X-9.181 Y2.915
N1045 X-9.215 Y2.995
N1050 X-9.263 Y3.068
N1055 X-9.323 Y3.131
N1060 X-9.392 Y3.183
N1065 X-9.469 Y3.222
N1070 X-9.552 Y3.247
N1075 X-9.638 Y3.257
N1080 X-9.725 Y3.253
N1085 X-9.809 Y3.234
N1090 X-9.889 Y3.2
N1095 X-9.962 Y3.153
N1100 X-9.97 Y3.146
N1105 X-10.038 Y3.092 Z-9.892
N1110 X-10.104 Y3.039 Z-9.87
N1115 X-10.165 Y2.99 Z-9.833
N1120 X-10.221 Y2.945 Z-9.783
N1125 X-10.269 Y2.906 Z-9.721
N1130 X-10.308 Y2.875 Z-9.65
N1135 X-10.336 Y2.852 Z-9.571
N1140 X-10.354 Y2.837 Z-9.487
N1145 X-10.36 Y2.833 Z-9.4
N1150 G0 Z2.15
N1155 X-34.06 Y-17.529
N1160 Z-8.9
N1165 G1 Z-9.4 F#103
N1170 X-34.054 Y-17.525 Z-9.487
N1175 X-34.035 Y-17.513 Z-9.571
N1180 X-34.004 Y-17.493 Z-9.65
N1185 X-33.962 Y-17.466 Z-9.721
N1190 X-33.91 Y-17.432 Z-9.783
N1195 X-33.85 Y-17.394 Z-9.833
N1200 X-33.783 Y-17.351 Z-9.87
N1205 X-33.713 Y-17.306 Z-9.892
N1210 X-33.64 Y-17.259 Z-9.9
N1215 G3 X-32.57 Y-16.109 I-1.71 J2.663
N1220 X-31.574 Y-11.819 I-6.767 J3.831 F#100
N1225 X-31.421 Y-2.81 I-253.339 J8.827
N1230 G2 X-27.891 Y0.884 I4.568 J-0.83
N1235 G1 X-27.023 Y1.128
N1240 G3 X-24.637 Y1.877 I-0.812 J6.762
N1245 G1 X-24.209 Y1.927
N1250 X-24.038 Y1.958
N1255 X-23.916 Y1.978
N1260 G3 X-24.096 Y2.961 I-0.095 J0.491 F#104
N1265 G1 X-24.107 Y2.959
N1270 X-24.192 Y2.943 Z-9.892
N1275 X-24.275 Y2.927 Z-9.87
N1280 X-24.352 Y2.912 Z-9.833
N1285 X-24.422 Y2.898 Z-9.783
N1290 X-24.483 Y2.886 Z-9.721
N1295 X-24.532 Y2.877 Z-9.65
N1300 X-24.568 Y2.87 Z-9.571
N1305 X-24.59 Y2.865 Z-9.487
N1310 X-24.598 Y2.864 Z-9.4
N1315 G0 Z2.15
N1320 X-33.781 Y-16.733
N1325 Z-8.9
N1330 G1 Z-9.4 F#103
N1335 X-33.774 Y-16.729 Z-9.487
N1340 X-33.754 Y-16.718 Z-9.571
N1345 X-33.722 Y-16.7 Z-9.65
N1350 X-33.679 Y-16.675 Z-9.721
N1355 X-33.625 Y-16.645 Z-9.783
N1360 X-33.563 Y-16.61 Z-9.833
N1365 X-33.494 Y-16.571 Z-9.87
N1370 X-33.421 Y-16.53 Z-9.892
N1375 X-33.345 Y-16.487 Z-9.9
N1380 G3 X-32.212 Y-15.399 I-1.556 J2.756
N1385 X-31.131 Y-11.64 I-5.175 J3.523 F#100
N1390 X-30.952 Y-3.622 I-105.79 J6.369
N1395 G2 X-28.372 Y-0.088 I5.019 J-0.955
N1400 X-27.26 Y0.356 I2.439 J-4.49 F#106
N1405 X-25.462 Y1.509 I4.888 J-5.644 F#100
N1410 G1 X-25.39 Y1.558 F#104
N1415 X-25.328 Y1.618
N1420 X-25.277 Y1.688
N1425 X-25.238 Y1.766
N1430 X-25.214 Y1.849
N1435 X-25.205 Y1.935
N1440 X-25.21 Y2.021
N1445 X-25.23 Y2.106
N1450 X-25.265 Y2.185
N1455 X-25.312 Y2.257
N1460 X-25.372 Y2.32
N1465 X-25.441 Y2.372
N1470 X-25.518 Y2.411
N1475 X-25.601 Y2.437
N1480 X-25.687 Y2.447
N1485 X-25.774 Y2.443
N1490 X-25.858 Y2.423
N1495 X-25.938 Y2.39
N1500 X-25.947 Y2.385
N1505 X-26.023 Y2.342 Z-9.892
N1510 X-26.097 Y2.302 Z-9.87
N1515 X-26.166 Y2.263 Z-9.833
N1520 X-26.228 Y2.229 Z-9.783
N1525 X-26.282 Y2.199 Z-9.721
N1530 X-26.326 Y2.175 Z-9.65
N1535 X-26.358 Y2.157 Z-9.571
N1540 X-26.378 Y2.146 Z-9.487
N1545 X-26.385 Y2.142 Z-9.4
N1550 G0 Z2.15
N1555 X-33.412 Y-16.308
N1560 Z-8.9
N1565 G1 Z-9.4 F#103
N1570 X-33.406 Y-16.303 Z-9.487
N1575 X-33.388 Y-16.289 Z-9.571
N1580 X-33.359 Y-16.266 Z-9.65
N1585 X-33.32 Y-16.235 Z-9.721
N1590 X-33.272 Y-16.197 Z-9.783
N1595 X-33.216 Y-16.152 Z-9.833
N1600 X-33.154 Y-16.103 Z-9.87
N1605 X-33.088 Y-16.051 Z-9.892
N1610 X-33.02 Y-15.997 Z-9.9
N1615 G3 X-31.903 Y-14.893 I-4.536 J5.709
N1620 X-30.769 Y-12.033 I-3.168 J2.911 F#100
N1625 X-30.498 Y-5.784 I-34.359 J4.623
N1630 G2 X-28.968 Y-1.505 I5.531 J0.435
N1635 X-28.049 Y-0.736 I4.001 J-3.843 F#106
N1640 X-27.279 Y0.235 I2.12 J-0.891 F#100
N1645 G1 X-26.771 Y0.73
N1650 G3 X-26.786 Y1.437 Z-9.8 I-0.361 J0.346 F#104
N1655 X-27.279 Y1.554 I-0.346 J-0.361
N1660 G1 X-27.523 Y1.512
N1665 X-30.553 Y0.994 F#105
N1670 G3 X-32.252 Y-0.294 I0.516 J-2.446
N1675 G1 X-33.245 Y-2.137
N1680 X-35.821 Y-12.169
N1685 G3 X-33.008 Y-15.301 I2.41 J-0.664
N1690 X-32.27 Y-15.058 I-0.403 J2.467 F#103
N1695 X-31.639 Y-14.597 Z-9.9 I-1.141 J2.225
N1700 X-30.329 Y-11.694 I-2.922 J3.066 F#100
N1705 X-29.995 Y-5.786 I-28.73 J4.587
N1710 G2 X-28.786 Y-2.323 I7.157 J-0.556
N1715 G1 X-28.72 Y-2.079
N1720 X-28.642 Y-1.839
N1725 X-28.552 Y-1.604
N1730 X-28.451 Y-1.373
N1735 X-28.338 Y-1.147
N1740 X-28.214 Y-0.927
N1745 X-28.079 Y-0.714
N1750 X-27.934 Y-0.507
N1755 X-27.901 Y-0.424 Z-9.889 F#104
N1760 X-27.882 Y-0.336 Z-9.878
N1765 X-27.88 Y-0.247 Z-9.867
N1770 X-27.893 Y-0.159 Z-9.856
N1775 X-27.921 Y-0.075 Z-9.844
N1780 X-27.963 Y0.003 Z-9.833
N1785 X-28.018 Y0.072 Z-9.822
N1790 X-28.083 Y0.13 Z-9.811
N1795 X-28.158 Y0.175 Z-9.8
N1800 G3 X-28.71 Y0.116 I-0.231 J-0.444
N1805 G1 X-28.879 Y0.026
N1810 X-31.577 Y-1.398 F#105
N1815 G3 X-32.799 Y-2.956 I1.194 J-2.196
N1820 G1 X-35.307 Y-11.555
N1825 G3 X-32.649 Y-14.819 I2.375 J-0.78
N1830 X-31.901 Y-14.612 I-0.283 J2.484 F#103
N1835 X-31.248 Y-14.183 Z-9.9 I-1.031 J2.277
N1840 X-29.858 Y-11.181 I-2.862 J3.147 F#100
N1845 X-29.483 Y-6.134 I-24.361 J4.352
N1850 X-29.11 Y-4.369 I-125.103 J27.296
N1855 G1 X-29.093 Y-4.161
N1860 Y-4.156 Z-9.899 F#104
N1865 G3 X-29.587 Y-3.656 Z-9.8 I-0.5 J0.
N1870 G1 X-29.593
N1875 X-29.939 Y-3.796
N1880 X-30.149 Y-4.136
N1885 X-34.347 Y-10.941 F#105
N1890 G3 X-32.3 Y-14.411 I1.94 J-1.194
N1895 X-31.542 Y-14.243 I-0.107 J2.276 F#103
N1900 X-30.881 Y-13.827 Z-9.9 I-0.864 J2.108
N1905 X-29.456 Y-11.094 I-2.424 J3.002 F#100
N1910 X-29.102 Y-8.63 I-9.55 J2.627
N1915 G1 X-29.113 Y-8.544 Z-9.889 F#104
N1920 X-29.138 Y-8.461 Z-9.878
N1925 X-29.177 Y-8.384 Z-9.867
N1930 X-29.229 Y-8.314 Z-9.856
N1935 X-29.292 Y-8.255 Z-9.844
N1940 X-29.365 Y-8.207 Z-9.833
N1945 X-29.445 Y-8.173 Z-9.822
N1950 X-29.53 Y-8.153 Z-9.811
N1955 X-29.617 Y-8.148 Z-9.8
N1960 G3 X-30.082 Y-8.514 I0.017 J-0.5
N1965 G1 X-30.121 Y-8.655
N1970 X-31.231 Y-12.669 F#105
N1975 X-31.321 Y-12.997 F#103
N1980 G3 X-31.249 Y-13.416 I0.482 J-0.133
N1985 X-30.553 Y-13.54 Z-9.9 I0.41 J0.286
N1990 X-29.108 Y-10.885 I-1.802 J2.701 F#100
N1995 G1 X-29.118 Y-10.8 Z-9.889 F#104
N2000 X-29.142 Y-10.718 Z-9.878
N2005 X-29.181 Y-10.641 Z-9.867
N2010 X-29.232 Y-10.572 Z-9.856
N2015 X-29.294 Y-10.512 Z-9.844
N2020 X-29.366 Y-10.464 Z-9.833
N2025 X-29.446 Y-10.429 Z-9.822
N2030 X-29.53 Y-10.409 Z-9.811
N2035 X-29.617 Y-10.403 Z-9.8
N2040 G3 X-30.056 Y-10.699 I0.017 J-0.5
N2045 G1 X-30.146 Y-10.901
N2050 X-30.82 Y-12.408 F#105
N2055 X-30.928 Y-12.65 F#103
N2060 G3 X-30.881 Y-13.14 I0.457 J-0.204
N2065 X-30.185 Y-13.264 Z-9.9 I0.41 J0.286
N2070 X-29.1 Y-11.561 I-0.88 J1.758 F#100
N2075 X-29.617 Y-11.078 Z-9.8 I-0.5 J-0.017 F#104
N2080 X-30.051 Y-11.364 I0.017 J-0.5
N2085 G1 X-30.151 Y-11.574
N2090 X-30.401 Y-12.101 F#105
N2095 X-30.51 Y-12.329 F#103
N2100 G3 X-30.468 Y-12.83 I0.452 J-0.214
N2105 X-29.772 Y-12.954 Z-9.9 I0.41 J0.286
N2110 X-29.1 Y-12.055 I-0.325 J0.943 F#100
N2115 X-29.5 Y-11.422 Z-9.8 I-0.742 J-0.026 F#104
N2120 G1 X-29.509 Y-11.418
N2125 G3 X-30.243 Y-11.458 I-0.332 J-0.662
N2130 X-30.58 Y-12.131 I0.402 J-0.622 F#105
N2135 X-30.164 Y-12.747 I0.739 J0.05 F#103
N2140 X-29.418 Y-12.688 Z-9.9 I0.323 J0.667
N2145 X-29.1 Y-12.169 I-0.254 J0.512 F#100
N2150 G1 Y-4.389
N2155 G2 X-28.826 Y-2.296 I9.672 J-0.203
N2160 G1 X-28.811 Y-2.211 F#104
N2165 Y-2.124
N2170 X-28.826 Y-2.039
N2175 X-28.855 Y-1.957
N2180 X-28.898 Y-1.882
N2185 X-28.954 Y-1.815
N2190 X-29.02 Y-1.759
N2195 X-29.094 Y-1.715
N2200 X-29.176 Y-1.685
N2205 X-29.261 Y-1.669
N2210 X-29.347 Y-1.668
N2215 X-29.433 Y-1.682
N2220 X-29.515 Y-1.711
N2225 X-29.59 Y-1.753
N2230 X-29.657 Y-1.807
N2235 X-29.714 Y-1.873
N2240 X-29.759 Y-1.947
N2245 X-29.79 Y-2.028
N2250 X-29.793 Y-2.038
N2255 X-29.815 Y-2.122 Z-9.892
N2260 X-29.837 Y-2.203 Z-9.87
N2265 X-29.857 Y-2.28 Z-9.833
N2270 X-29.876 Y-2.349 Z-9.783
N2275 X-29.891 Y-2.408 Z-9.721
N2280 X-29.904 Y-2.457 Z-9.65
N2285 X-29.914 Y-2.492 Z-9.571
N2290 X-29.92 Y-2.514 Z-9.487
N2295 X-29.922 Y-2.521 Z-9.4
N2300 G0 Z4.
N2310 M9
N2315 G53 Z0.
N2320 M30
%
