%
(C-HEAD-BASE-RIG2-SIDE)
(6MM TWO FLUTE)
(T130  D=3. CR=0. TAPER=118DEG - ZMIN=-11.901 - DRILL)
N10 G90 G94 G17 G91.1
N15 G21
N20 G53 G0 Z0.
(DRILL1)
N25 M9
N30 T130 M6
N35 S3200 M3
N40 G54
N45 M9
N55 G0 X-23. Y-4.
N60 G43 Z15. H0
N70 G0 Z5.
N75 G98 G83 X-23. Y-4. Z-11.901 R1. Q2. F60.
N80 X-7.
N85 Y-20.
N90 X-15. Y-12.
N95 X-23. Y-20.
N100 G80
N105 G0 Z15.
N115 M9
N120 G53 Z0.
N125 M30
%
