%
(C-HEAD-BASE-RIG2-SIDE)
(6MM TWO FLUTE)
(T1  D=6. CR=0. - ZMIN=-10. - FLAT END MILL)
N10 G90 G94 G17 G91.1
N15 G21
N20 G53 G0 Z0.
(2D ADAPTIVE1)
N25 M9
N30 T1 M6
N35 S3200 M3
N40 G54
N45 M8
N55 G0 X-17.549 Y-12.948
N60 G43 Z4. H1
N65 #100=330. (CUTTING)
N70 #103=200. (ENTRY)
N75 #104=200. (EXIT)
N80 #105=3000. (DIRECT)
N85 #107=270. (RAMPING)
N90 G0 Z1.65
N95 G1 Z1.15 F#103
N100 S3000
N105 G3 X-13.23 Y-14.104 Z0.874 I2.549 J0.878 F#107
N110 X-13.773 Y-9.706 Z0.598 I-1.754 J2.016
N115 X-17.611 Y-11.839 Z0.321 I-1.2 J-2.36
N120 X-14.226 Y-14.572 Z0.045 I2.614 J-0.225
N125 X-12.973 Y-10.447 Z-0.231 I-0.765 J2.485
N130 X-17.228 Y-10.829 Z-0.507 I-1.998 J-1.625
N135 X-15.296 Y-14.594 Z-0.784 I2.235 J-1.231
N140 X-12.556 Y-11.422 Z-1.06 I0.3 J2.51
N145 X-16.487 Y-10.085 Z-1.336 I-2.416 J-0.656
N150 X-16.255 Y-14.19 Z-1.612 I1.5 J-1.974
N155 X-12.572 Y-12.452 Z-1.889 I1.255 J2.11
N160 X-15.535 Y-9.717 Z-2.165 I-2.403 J0.369
N165 X-16.945 Y-13.452 Z-2.441 I0.554 J-2.343
N170 X-12.994 Y-13.36 Z-2.717 I1.945 J1.378
N175 X-14.545 Y-9.768 Z-2.994 I-1.987 J1.273
N180 X-17.265 Y-12.525 Z-3.27 I-0.431 J-2.295
N185 X-13.726 Y-13.997 Z-3.546 I2.266 J0.457
N190 X-13.689 Y-10.204 Z-3.822 I-1.26 J1.909
N195 X-17.182 Y-11.577 Z-4.099 I-1.283 J-1.864
N200 X-14.626 Y-14.271 Z-4.375 I2.186 J-0.486
N205 X-13.104 Y-10.929 Z-4.651 I-0.366 J2.185
N210 X-16.734 Y-10.772 Z-4.927 I-1.868 J-1.146
N215 X-15.531 Y-14.159 Z-5.204 I1.743 J-1.287
N220 X-12.873 Y-11.8 Z-5.48 I0.534 J2.075
N225 X-16.02 Y-10.238 Z-5.756 I-2.1 J-0.28
N230 X-16.285 Y-13.702 Z-6.032 I1.036 J-1.821
N235 X-13.013 Y-12.66 Z-6.309 I1.285 J1.624
N240 X-15.18 Y-10.048 Z-6.585 I-1.964 J0.575
N245 X-16.77 Y-13.002 Z-6.861 I0.201 J-2.013
N250 X-13.475 Y-13.363 Z-7.137 I1.769 J0.93
N255 X-14.365 Y-10.212 Z-7.414 I-1.507 J1.276
N260 X-16.921 Y-12.194 Z-7.69 I-0.61 J-1.853
N265 X-14.159 Y-13.8 Z-7.966 I1.922 J0.128
N270 X-13.711 Y-10.677 Z-8.243 I-0.829 J1.712
N275 X-16.736 Y-11.424 Z-8.519 I-1.261 J-1.393
N280 X-14.933 Y-13.915 Z-8.795 I1.741 J-0.638
N285 X-13.321 Y-11.344 Z-9.071 I-0.061 J1.829
N290 X-16.27 Y-10.82 Z-9.347 I-1.651 J-0.733
N295 X-15.657 Y-13.712 Z-9.624 I1.281 J-1.239
N300 X-13.24 Y-12.082 Z-9.9 I0.659 J1.63
N305 X-16.756 I-1.758 J0.
N310 X-13.24 I1.758 J0.
N315 S3200
N320 X-16.383 Y-10.724 I-1.763 J0.235 F#100
N325 X-13.612 Y-13.512 I1.386 J-1.394
N330 X-13.035 Y-12.217 I-1.386 J1.394
N335 X-16.395 Y-10.407 I-1.957 J0.39
N340 X-13.612 Y-13.832 I1.391 J-1.713
N345 X-12.857 Y-12.631 I-1.391 J1.713
N350 X-16.903 Y-10.565 I-2.164 J0.757
N355 X-13.095 Y-13.679 I1.904 J-1.557
N360 X-12.649 Y-12.847 I-1.904 J1.557
N365 X-17.216 Y-10.538 I-2.382 J0.959
N370 X-16.212 Y-14.563 I2.221 J-1.584
N375 X-12.393 Y-12.942 I1.217 J2.441
N380 X-17.503 Y-10.469 I-2.645 J1.051
N385 X-16.33 Y-14.815 I2.51 J-1.654
N390 X-12.158 Y-13.123 I1.337 J2.692
N395 X-17.735 Y-10.296 I-2.883 J1.228
N400 X-16.575 Y-15.014 I2.741 J-1.828
N405 X-11.977 Y-13.446 I1.581 J2.89
N410 X-18.035 Y-10.213 I-3.067 J1.545
N415 X-16.671 Y-15.301 I3.044 J-1.911
N420 X-11.697 Y-13.563 I1.68 J3.178
N425 X-18.292 Y-10.044 I-3.349 J1.662
N430 X-16.87 Y-15.544 I3.302 J-2.08
N435 X-11.464 Y-13.797 I1.88 J3.42
N440 X-18.555 Y-9.868 I-3.584 J1.895
N445 X-17.089 Y-15.785 I3.564 J-2.258
N450 X-11.242 Y-14.062 I2.099 J3.66
N455 X-10.672 Y-11.613 I-3.004 J1.989
N460 G1 X-10.691 Y-11.53 Z-9.889 F#104
N465 X-10.725 Y-11.451 Z-9.878
N470 X-10.771 Y-11.379 Z-9.867
N475 X-10.829 Y-11.315 Z-9.856
N480 X-10.898 Y-11.263 Z-9.844
N485 X-10.975 Y-11.224 Z-9.833
N490 X-11.058 Y-11.198 Z-9.822
N495 X-11.144 Y-11.187 Z-9.811
N500 X-11.231 Y-11.191 Z-9.8
N505 G3 X-11.658 Y-11.678 I0.073 J-0.495
N510 G1 X-11.659 Y-11.753
N515 X-11.667 Y-12.338 F#105
N520 X-11.668 Y-12.398 F#103
N525 G3 X-11.241 Y-12.9 I0.5 J-0.007
N530 X-10.674 Y-12.478 Z-9.9 I0.073 J0.495
N535 X-10.853 Y-10.688 I-3.738 J0.529 F#100
N540 G1 X-10.891 Y-10.611 Z-9.889 F#104
N545 X-10.941 Y-10.541 Z-9.878
N550 X-11.003 Y-10.481 Z-9.867
N555 X-11.075 Y-10.432 Z-9.856
N560 X-11.154 Y-10.397 Z-9.844
N565 X-11.238 Y-10.376 Z-9.833
N570 X-11.325 Y-10.369 Z-9.822
N575 X-11.411 Y-10.378 Z-9.811
N580 X-11.495 Y-10.402 Z-9.8
N585 G3 X-11.803 Y-10.973 I0.181 J-0.466
N590 G1 X-11.787 Y-11.045
N595 X-11.681 Y-11.541 F#105
N600 X-11.668 Y-11.6 F#103
N605 G3 X-11.14 Y-11.994 I0.489 J0.105
N610 X-10.681 Y-11.457 Z-9.9 I-0.039 J0.498
N615 X-11.211 Y-9.852 I-3.823 J-0.372 F#100
N620 G1 X-11.265 Y-9.784 Z-9.889 F#104
N625 X-11.331 Y-9.727 Z-9.878
N630 X-11.406 Y-9.683 Z-9.867
N635 X-11.487 Y-9.651 Z-9.856
N640 X-11.572 Y-9.635 Z-9.844
N645 X-11.659 Y-9.633 Z-9.833
N650 X-11.745 Y-9.647 Z-9.822
N655 X-11.827 Y-9.675 Z-9.811
N660 X-11.904 Y-9.718 Z-9.8
N665 G3 X-12.077 Y-10.342 I0.28 J-0.414
N670 G1 X-12.046 Y-10.41
N675 X-11.892 Y-10.74 F#105
N680 X-11.867 Y-10.794 F#103
N685 G3 X-11.264 Y-11.061 I0.453 J0.211
N690 X-10.936 Y-10.435 Z-9.9 I-0.149 J0.477
N695 X-11.713 Y-9.134 I-3.353 J-1.12 F#100
N700 G1 X-11.781 Y-9.08 Z-9.889 F#104
N705 X-11.858 Y-9.039 Z-9.878
N710 X-11.941 Y-9.012 Z-9.867
N715 X-12.027 Y-9. Z-9.856
N720 X-12.113 Y-9.003 Z-9.844
N725 X-12.198 Y-9.021 Z-9.833
N730 X-12.279 Y-9.053 Z-9.822
N735 X-12.353 Y-9.099 Z-9.811
N740 X-12.418 Y-9.157 Z-9.8
N745 G3 X-12.452 Y-9.798 I0.365 J-0.341
N750 G1 X-12.403 Y-9.864
N755 X-12.293 Y-10.011 F#105
N760 X-12.261 Y-10.053 F#103
N765 G3 X-11.61 Y-10.185 I0.4 J0.3
N770 X-11.429 Y-9.502 Z-9.9 I-0.251 J0.432
N775 X-12.291 Y-8.576 I-2.728 J-1.675 F#100
N780 G1 X-12.367 Y-8.537 Z-9.889 F#104
N785 X-12.449 Y-8.511 Z-9.878
N790 X-12.535 Y-8.5 Z-9.867
N795 X-12.621 Y-8.504 Z-9.856
N800 X-12.706 Y-8.523 Z-9.844
N805 X-12.786 Y-8.556 Z-9.833
N810 X-12.859 Y-8.603 Z-9.822
N815 X-12.923 Y-8.661 Z-9.811
N820 X-12.976 Y-8.73 Z-9.8
N825 G3 X-12.927 Y-9.325 I0.424 J-0.265
N830 G1 X-12.895 Y-9.363
N835 X-12.879 Y-9.379
N840 G3 X-12.177 Y-9.397 I0.36 J0.347 F#103
N845 X-12.154 Y-8.69 Z-9.9 I-0.342 J0.364
N850 X-13.133 Y-8.046 I-3.036 J-3.544 F#100
N855 G1 X-13.216 Y-8.024 Z-9.889 F#104
N860 X-13.303 Y-8.017 Z-9.878
N865 X-13.389 Y-8.025 Z-9.867
N870 X-13.473 Y-8.047 Z-9.856
N875 X-13.552 Y-8.084 Z-9.844
N880 X-13.623 Y-8.135 Z-9.833
N885 X-13.684 Y-8.196 Z-9.822
N890 X-13.734 Y-8.268 Z-9.811
N895 X-13.77 Y-8.347 Z-9.8
N900 G3 X-13.592 Y-8.92 I0.471 J-0.168
N905 G1 X-13.555 Y-8.946
N910 X-13.537 Y-8.959
N915 G3 X-12.848 Y-8.821 I0.275 J0.418 F#103
N920 X-12.982 Y-8.127 Z-9.9 I-0.414 J0.28
N925 X-14.066 Y-7.731 I-1.749 J-3.108 F#100
N930 G1 X-14.152 Y-7.727 Z-9.889 F#104
N935 X-14.238 Y-7.738 Z-9.878
N940 X-14.32 Y-7.763 Z-9.867
N945 X-14.397 Y-7.802 Z-9.856
N950 X-14.466 Y-7.854 Z-9.844
N955 X-14.526 Y-7.917 Z-9.833
N960 X-14.573 Y-7.99 Z-9.822
N965 X-14.607 Y-8.07 Z-9.811
N970 X-14.627 Y-8.155 Z-9.8
N975 G3 X-14.298 Y-8.693 I0.496 J-0.067
N980 G1 X-14.235 Y-8.715
N985 X-14.226 Y-8.718 F#103
N990 G3 X-13.593 Y-8.428 I0.167 J0.471
N995 X-13.878 Y-7.781 Z-9.9 I-0.466 J0.181
N1000 X-16.128 Y-16.224 I-1.125 J-4.222 F#100
N1005 X-10.66 Y-12.484 I1.125 J4.222
N1010 G1 X-10.662 Y-12.395 F#104
N1015 X-10.679 Y-12.308
N1020 X-10.71 Y-12.225
N1025 X-10.756 Y-12.149
N1030 X-10.813 Y-12.082
N1035 X-10.881 Y-12.026
N1040 X-10.958 Y-11.983
N1045 X-11.041 Y-11.954
N1050 X-11.128 Y-11.939
N1055 X-11.215 Y-11.94
N1060 X-11.302 Y-11.955
N1065 X-11.384 Y-11.986
N1070 X-11.459 Y-12.03
N1075 X-11.526 Y-12.086
N1080 X-11.582 Y-12.153
N1085 X-11.625 Y-12.228
N1090 X-11.655 Y-12.309
N1095 X-11.67 Y-12.395
N1100 X-11.671 Y-12.405
N1105 X-11.678 Y-12.492 Z-9.892
N1110 X-11.684 Y-12.576 Z-9.87
N1115 X-11.69 Y-12.655 Z-9.833
N1120 X-11.696 Y-12.726 Z-9.783
N1125 X-11.701 Y-12.787 Z-9.721
N1130 X-11.704 Y-12.837 Z-9.65
N1135 X-11.707 Y-12.874 Z-9.571
N1140 X-11.709 Y-12.896 Z-9.487
N1145 X-11.71 Y-12.904 Z-9.4
N1150 G0 Z4.
(2D CONTOUR1)
N1160 M8
N1165 G0 X-13.775 Y2.
N1170 #100=330. (CUTTING)
N1175 #106=82.5 (REDUCED)
N1180 #107=270. (RAMPING)
N1185 Z4.
N1190 Z2.5
N1195 S3000
N1200 G1 X-3.1 Z2.415 F#107
N1205 G2 X3. Y-4.1 Z2.339 I0. J-6.1
N1210 G1 Y-27. Z2.157
N1215 G2 X0. Y-30. Z2.119 I-3. J0.
N1220 G1 X-30. Z1.881
N1225 G2 X-33. Y-27. Z1.843 I0. J3.
N1230 G1 Y-18.55 Z1.776
N1235 G2 X-30.56 Y-13.67 Z1.731 I6.1 J0.
N1240 G1 X-29.04 Y-12.53 Z1.716
N1245 G3 X-29. Y-12.45 Z1.715 I-0.06 J0.08
N1250 G1 Y-4.1 Z1.649
N1255 G2 X-22.9 Y2. Z1.573 I6.1 J0.
N1260 G1 X-3.1 Z1.415
N1265 G2 X3. Y-4.1 Z1.339 I0. J-6.1
N1270 G1 Y-27. Z1.157
N1275 G2 X0. Y-30. Z1.119 I-3. J0.
N1280 G1 X-30. Z0.881
N1285 G2 X-33. Y-27. Z0.843 I0. J3.
N1290 G1 Y-18.55 Z0.776
N1295 G2 X-30.56 Y-13.67 Z0.731 I6.1 J0.
N1300 G1 X-29.04 Y-12.53 Z0.716
N1305 G3 X-29. Y-12.45 Z0.715 I-0.06 J0.08
N1310 G1 Y-4.1 Z0.649
N1315 G2 X-22.9 Y2. Z0.573 I6.1 J0.
N1320 G1 X-3.1 Z0.415
N1325 G2 X3. Y-4.1 Z0.339 I0. J-6.1
N1330 G1 Y-27. Z0.157
N1335 G2 X0. Y-30. Z0.119 I-3. J0.
N1340 G1 X-30. Z-0.119
N1345 G2 X-33. Y-27. Z-0.157 I0. J3.
N1350 G1 Y-18.55 Z-0.224
N1355 G2 X-30.56 Y-13.67 Z-0.269 I6.1 J0.
N1360 G1 X-29.04 Y-12.53 Z-0.284
N1365 G3 X-29. Y-12.45 Z-0.285 I-0.06 J0.08
N1370 G1 Y-4.1 Z-0.351
N1375 G2 X-22.9 Y2. Z-0.427 I6.1 J0.
N1380 G1 X-3.1 Z-0.585
N1385 G2 X3. Y-4.1 Z-0.661 I0. J-6.1
N1390 G1 Y-27. Z-0.843
N1395 G2 X0. Y-30. Z-0.881 I-3. J0.
N1400 G1 X-30. Z-1.119
N1405 G2 X-33. Y-27. Z-1.157 I0. J3.
N1410 G1 Y-18.55 Z-1.224
N1415 G2 X-30.56 Y-13.67 Z-1.269 I6.1 J0.
N1420 G1 X-29.04 Y-12.53 Z-1.284
N1425 G3 X-29. Y-12.45 Z-1.285 I-0.06 J0.08
N1430 G1 Y-4.1 Z-1.351
N1435 G2 X-22.9 Y2. Z-1.427 I6.1 J0.
N1440 G1 X-3.1 Z-1.585
N1445 G2 X3. Y-4.1 Z-1.661 I0. J-6.1
N1450 G1 Y-27. Z-1.843
N1455 G2 X0. Y-30. Z-1.881 I-3. J0.
N1460 G1 X-30. Z-2.119
N1465 G2 X-33. Y-27. Z-2.157 I0. J3.
N1470 G1 Y-18.55 Z-2.224
N1475 G2 X-30.56 Y-13.67 Z-2.269 I6.1 J0.
N1480 G1 X-29.04 Y-12.53 Z-2.284
N1485 G3 X-29. Y-12.45 Z-2.285 I-0.06 J0.08
N1490 G1 Y-4.1 Z-2.351
N1495 G2 X-22.9 Y2. Z-2.427 I6.1 J0.
N1500 G1 X-3.1 Z-2.585
N1505 G2 X3. Y-4.1 Z-2.661 I0. J-6.1
N1510 G1 Y-27. Z-2.843
N1515 G2 X0. Y-30. Z-2.881 I-3. J0.
N1520 G1 X-30. Z-3.119
N1525 G2 X-33. Y-27. Z-3.157 I0. J3.
N1530 G1 Y-18.55 Z-3.224
N1535 G2 X-30.56 Y-13.67 Z-3.269 I6.1 J0.
N1540 G1 X-29.04 Y-12.53 Z-3.284
N1545 G3 X-29. Y-12.45 Z-3.285 I-0.06 J0.08
N1550 G1 Y-4.1 Z-3.351
N1555 G2 X-22.9 Y2. Z-3.427 I6.1 J0.
N1560 G1 X-3.1 Z-3.585
N1565 G2 X3. Y-4.1 Z-3.661 I0. J-6.1
N1570 G1 Y-27. Z-3.843
N1575 G2 X0. Y-30. Z-3.881 I-3. J0.
N1580 G1 X-30. Z-4.119
N1585 G2 X-33. Y-27. Z-4.157 I0. J3.
N1590 G1 Y-18.55 Z-4.224
N1595 G2 X-30.56 Y-13.67 Z-4.269 I6.1 J0.
N1600 G1 X-29.04 Y-12.53 Z-4.284
N1605 G3 X-29. Y-12.45 Z-4.285 I-0.06 J0.08
N1610 G1 Y-4.1 Z-4.351
N1615 G2 X-22.9 Y2. Z-4.427 I6.1 J0.
N1620 G1 X-3.1 Z-4.585
N1625 G2 X3. Y-4.1 Z-4.661 I0. J-6.1
N1630 G1 Y-27. Z-4.843
N1635 G2 X0. Y-30. Z-4.881 I-3. J0.
N1640 G1 X-30. Z-5.119
N1645 G2 X-33. Y-27. Z-5.157 I0. J3.
N1650 G1 Y-18.55 Z-5.224
N1655 G2 X-30.56 Y-13.67 Z-5.269 I6.1 J0.
N1660 G1 X-29.04 Y-12.53 Z-5.284
N1665 G3 X-29. Y-12.45 Z-5.285 I-0.06 J0.08
N1670 G1 Y-4.1 Z-5.351
N1675 G2 X-22.9 Y2. Z-5.427 I6.1 J0.
N1680 G1 X-3.1 Z-5.585
N1685 G2 X3. Y-4.1 Z-5.661 I0. J-6.1
N1690 G1 Y-27. Z-5.843
N1695 G2 X0. Y-30. Z-5.881 I-3. J0.
N1700 G1 X-30. Z-6.119
N1705 G2 X-33. Y-27. Z-6.157 I0. J3.
N1710 G1 Y-18.55 Z-6.224
N1715 G2 X-30.56 Y-13.67 Z-6.269 I6.1 J0.
N1720 G1 X-29.04 Y-12.53 Z-6.284
N1725 G3 X-29. Y-12.45 Z-6.285 I-0.06 J0.08
N1730 G1 Y-4.1 Z-6.351
N1735 G2 X-22.9 Y2. Z-6.427 I6.1 J0.
N1740 G1 X-3.1 Z-6.585
N1745 G2 X3. Y-4.1 Z-6.661 I0. J-6.1
N1750 G1 Y-27. Z-6.843
N1755 G2 X0. Y-30. Z-6.881 I-3. J0.
N1760 G1 X-30. Z-7.119
N1765 G2 X-33. Y-27. Z-7.157 I0. J3.
N1770 G1 Y-18.55 Z-7.224
N1775 G2 X-30.56 Y-13.67 Z-7.269 I6.1 J0.
N1780 G1 X-29.04 Y-12.53 Z-7.284
N1785 G3 X-29. Y-12.45 Z-7.285 I-0.06 J0.08
N1790 G1 Y-4.1 Z-7.351
N1795 G2 X-22.9 Y2. Z-7.427 I6.1 J0.
N1800 G1 X-3.1 Z-7.585
N1805 G2 X3. Y-4.1 Z-7.661 I0. J-6.1
N1810 G1 Y-27. Z-7.843
N1815 G2 X0. Y-30. Z-7.881 I-3. J0.
N1820 G1 X-30. Z-8.119
N1825 G2 X-33. Y-27. Z-8.157 I0. J3.
N1830 G1 Y-18.55 Z-8.224
N1835 G2 X-30.56 Y-13.67 Z-8.269 I6.1 J0.
N1840 G1 X-29.04 Y-12.53 Z-8.284
N1845 G3 X-29. Y-12.45 Z-8.285 I-0.06 J0.08
N1850 G1 Y-4.1 Z-8.351
N1855 G2 X-22.9 Y2. Z-8.427 I6.1 J0.
N1860 G1 X-3.1 Z-8.585
N1865 G2 X3. Y-4.1 Z-8.661 I0. J-6.1
N1870 G1 Y-27. Z-8.843
N1875 G2 X0. Y-30. Z-8.881 I-3. J0.
N1880 G1 X-30. Z-9.119
N1885 G2 X-33. Y-27. Z-9.157 I0. J3.
N1890 G1 Y-18.55 Z-9.224
N1895 G2 X-30.56 Y-13.67 Z-9.269 I6.1 J0.
N1900 G1 X-29.04 Y-12.53 Z-9.284
N1905 G3 X-29. Y-12.45 Z-9.285 I-0.06 J0.08
N1910 G1 Y-4.1 Z-9.351
N1915 G2 X-22.9 Y2. Z-9.427 I6.1 J0.
N1920 G1 X-3.1 Z-9.585
N1925 G2 X3. Y-4.1 Z-9.661 I0. J-6.1
N1930 G1 Y-27. Z-9.843
N1935 G2 X0. Y-30. Z-9.881 I-3. J0.
N1940 G1 X-15. Z-10.
N1945 S3200
N1950 X-30. F#100
N1955 G2 X-33. Y-27. I0. J3.
N1960 G1 Y-18.55
N1965 G2 X-30.56 Y-13.67 I6.1 J0.
N1970 G1 X-30. Y-13.25
N1975 X-29.04 Y-12.53 F#106
N1980 G3 X-29. Y-12.45 I-0.06 J0.08
N1985 G1 Y-4.1 F#100
N1990 G2 X-22.9 Y2. I6.1 J0.
N1995 G1 X-3.1
N2000 G2 X3. Y-4.1 I0. J-6.1
N2005 G1 Y-27.
N2010 G2 X0. Y-30. I-3. J0.
N2015 G1 X-15.
N2020 G0 Z4.
N2030 M9
N2035 G53 Z0.
N2040 M30
%
