%
(C-HEAD-BASE-RIG2-SIDE)
(6MM TWO FLUTE)
(T1  D=6. CR=0. - ZMIN=-2. - FLAT END MILL)
N10 G90 G94 G17 G91.1
N15 G21
N20 G53 G0 Z0.
(2D CONTOUR2)
N25 M9
N30 T1 M6
N35 S3200 M3
N40 G54
N45 M8
N55 G0 X1.917 Y-60.303
N60 G43 Z4. H1
N65 #100=330. (CUTTING)
N70 #106=82.5 (REDUCED)
N75 #107=270. (RAMPING)
N80 G0 Z2.5
N85 S3000
N90 G2 X2. Y-61.307 Z2.495 I-6.017 J-1.004 F#107
N95 G1 Y-63.9 Z2.484
N100 G2 X-4.1 Y-70. Z2.44 I-6.1 J0.
N105 G1 X-33.9 Z2.306
N110 G2 X-40. Y-63.9 Z2.262 I0. J6.1
N115 G1 Y-14.1 Z2.037
N120 G3 X-40.1 Y-14. I-0.1 J0.
N125 G1 X-44. Z2.019
N130 G2 X-47. Y-11. Z1.998 I0. J3.
N135 G1 Y-1. Z1.952
N140 G2 X-44. Y2. Z1.931 I3. J0.
N145 G1 X-15.541 Z1.802
N150 G2 X-9.56 Y-2.904 Z1.765 I0. J-6.1
N155 G1 X1.882 Y-60.111 Z1.501
N160 G2 X2. Y-61.307 Z1.495 I-5.982 J-1.196
N165 G1 Y-63.9 Z1.484
N170 G2 X-4.1 Y-70. Z1.44 I-6.1 J0.
N175 G1 X-33.9 Z1.306
N180 G2 X-40. Y-63.9 Z1.262 I0. J6.1
N185 G1 Y-14.1 Z1.037
N190 G3 X-40.1 Y-14. I-0.1 J0.
N195 G1 X-44. Z1.019
N200 G2 X-47. Y-11. Z0.998 I0. J3.
N205 G1 Y-1. Z0.952
N210 G2 X-44. Y2. Z0.931 I3. J0.
N215 G1 X-15.541 Z0.802
N220 G2 X-9.56 Y-2.904 Z0.765 I0. J-6.1
N225 G1 X1.882 Y-60.111 Z0.501
N230 G2 X2. Y-61.307 Z0.495 I-5.982 J-1.196
N235 G1 Y-63.9 Z0.484
N240 G2 X-4.1 Y-70. Z0.44 I-6.1 J0.
N245 G1 X-33.9 Z0.306
N250 G2 X-40. Y-63.9 Z0.262 I0. J6.1
N255 G1 Y-14.1 Z0.037
N260 G3 X-40.1 Y-14. I-0.1 J0.
N265 G1 X-44. Z0.019
N270 G2 X-47. Y-11. Z-0.002 I0. J3.
N275 G1 Y-1. Z-0.048
N280 G2 X-44. Y2. Z-0.069 I3. J0.
N285 G1 X-15.541 Z-0.198
N290 G2 X-9.56 Y-2.904 Z-0.235 I0. J-6.1
N295 G1 X1.882 Y-60.111 Z-0.499
N300 G2 X2. Y-61.307 Z-0.505 I-5.982 J-1.196
N305 G1 Y-63.9 Z-0.516
N310 G2 X-4.1 Y-70. Z-0.56 I-6.1 J0.
N315 G1 X-33.9 Z-0.694
N320 G2 X-40. Y-63.9 Z-0.738 I0. J6.1
N325 G1 Y-14.1 Z-0.963
N330 G3 X-40.1 Y-14. I-0.1 J0.
N335 G1 X-44. Z-0.981
N340 G2 X-47. Y-11. Z-1.002 I0. J3.
N345 G1 Y-1. Z-1.048
N350 G2 X-44. Y2. Z-1.069 I3. J0.
N355 G1 X-15.541 Z-1.198
N360 G2 X-9.56 Y-2.904 Z-1.235 I0. J-6.1
N365 G1 X1.882 Y-60.111 Z-1.499
N370 G2 X2. Y-61.307 Z-1.505 I-5.982 J-1.196
N375 G1 Y-63.9 Z-1.516
N380 G2 X-4.1 Y-70. Z-1.56 I-6.1 J0.
N385 G1 X-33.9 Z-1.694
N390 G2 X-40. Y-63.9 Z-1.738 I0. J6.1
N395 G1 Y-14.1 Z-1.963
N400 G3 X-40.1 Y-14. I-0.1 J0.
N405 G1 X-44. Z-1.981
N410 G2 X-46.954 Y-11.523 Z-2. I0. J3.
N415 S3200
N420 X-47. Y-11. I2.954 J0.523 F#100
N425 G1 Y-1.
N430 G2 X-44. Y2. I3. J0.
N435 G1 X-15.541
N440 G2 X-9.56 Y-2.904 I0. J-6.1
N445 G1 X1.882 Y-60.111
N450 G2 X2. Y-61.307 I-5.982 J-1.196
N455 G1 Y-63.9
N460 G2 X-4.1 Y-70. I-6.1 J0.
N465 G1 X-33.9
N470 G2 X-40. Y-63.9 I0. J6.1
N475 G1 Y-15.3
N480 Y-14.1 F#106
N485 G3 X-40.1 Y-14. I-0.1 J0.
N490 G1 X-44. F#100
N495 G2 X-46.954 Y-11.523 I0. J3.
N500 G0 Z4.
N510 M9
N515 G53 Z0.
N520 M30
%
