%
(1.5MM-DRILL)
(T4  D=1.6 CR=0. TAPER=118DEG - ZMIN=-8. - DRILL)
N10 G90 G94 G17 G91.1
N15 G21
N20 G53 G0 Z0.
(DRILL2)
N25 M9
N30 T4 M6
N35 S2000 M3
N40 G54
N45 M9
N55 G0 X9.75 Y60.
N60 G43 Z10. H4
N70 G0 Z5.
N75 Z3.
N80 Z0.
N85 G1 Z-2.4 F100.
N90 G0 Z-2.3
N95 G1 Z-2.8 F100.
N100 G0 Z-2.7
N105 G1 Z-3.2 F100.
N110 G0 Z-3.1
N115 G1 Z-3.6 F100.
N120 G0 Z-3.5
N125 G1 Z-4. F100.
N130 G0 Z-3.9
N135 G1 Z-4.4 F100.
N140 G0 Z-4.3
N145 G1 Z-4.8 F100.
N150 G0 Z-4.7
N155 G1 Z-5.2 F100.
N160 G0 Z-5.1
N165 G1 Z-5.6 F100.
N170 G0 Z-5.5
N175 G1 Z-6. F100.
N180 G0 Z-5.9
N185 G1 Z-6.4 F100.
N190 G0 Z5.
N195 Z-4.4
N200 G1 Z-6.8 F100.
N205 G0 Z-6.7
N210 G1 Z-7.2 F100.
N215 G0 Z-7.1
N220 G1 Z-7.6 F100.
N225 G0 Z-7.5
N230 G1 Z-8. F100.
N235 G0 Z5.
N240 X16.25
N245 Z3.
N250 Z0.
N255 G1 Z-2.4 F100.
N260 G0 Z-2.3
N265 G1 Z-2.8 F100.
N270 G0 Z-2.7
N275 G1 Z-3.2 F100.
N280 G0 Z-3.1
N285 G1 Z-3.6 F100.
N290 G0 Z-3.5
N295 G1 Z-4. F100.
N300 G0 Z-3.9
N305 G1 Z-4.4 F100.
N310 G0 Z-4.3
N315 G1 Z-4.8 F100.
N320 G0 Z-4.7
N325 G1 Z-5.2 F100.
N330 G0 Z-5.1
N335 G1 Z-5.6 F100.
N340 G0 Z-5.5
N345 G1 Z-6. F100.
N350 G0 Z-5.9
N355 G1 Z-6.4 F100.
N360 G0 Z5.
N365 Z-4.4
N370 G1 Z-6.8 F100.
N375 G0 Z-6.7
N380 G1 Z-7.2 F100.
N385 G0 Z-7.1
N390 G1 Z-7.6 F100.
N395 G0 Z-7.5
N400 G1 Z-8. F100.
N405 G0 Z5.
N410 Z10.
N420 M9
N425 G53 Z0.
N430 M30
%
