%
(1.6M,M DRILL)
(T4  D=1.6 CR=0. TAPER=118DEG - ZMIN=-8. - DRILL)
N10 G90 G94 G17 G91.1
N15 G21
N20 G53 G0 Z0.
(DRILL2)
N25 M9
N30 T4 M6
N35 S2900 M3
N40 G54
N45 M9
N55 G0 X7.75 Y64.
N60 G43 Z10. H4
N70 G0 Z5.
N75 Z3.
N80 Z0.
N85 G1 Z-2.4 F87.
N90 G0 Z-2.3
N95 G1 Z-2.8 F87.
N100 G0 Z-2.7
N105 G1 Z-3.2 F87.
N110 G0 Z-3.1
N115 G1 Z-3.6 F87.
N120 G0 Z-3.5
N125 G1 Z-4. F87.
N130 G0 Z-3.9
N135 G1 Z-4.4 F87.
N140 G0 Z-4.3
N145 G1 Z-4.8 F87.
N150 G0 Z-4.7
N155 G1 Z-5.2 F87.
N160 G0 Z-5.1
N165 G1 Z-5.6 F87.
N170 G0 Z-5.5
N175 G1 Z-6. F87.
N180 G0 Z-5.9
N185 G1 Z-6.4 F87.
N190 G0 Z5.
N195 Z-4.4
N200 G1 Z-6.8 F87.
N205 G0 Z-6.7
N210 G1 Z-7.2 F87.
N215 G0 Z-7.1
N220 G1 Z-7.6 F87.
N225 G0 Z-7.5
N230 G1 Z-8. F87.
N235 G0 Z5.
N240 X14.25
N245 Z3.
N250 Z0.
N255 G1 Z-2.4 F87.
N260 G0 Z-2.3
N265 G1 Z-2.8 F87.
N270 G0 Z-2.7
N275 G1 Z-3.2 F87.
N280 G0 Z-3.1
N285 G1 Z-3.6 F87.
N290 G0 Z-3.5
N295 G1 Z-4. F87.
N300 G0 Z-3.9
N305 G1 Z-4.4 F87.
N310 G0 Z-4.3
N315 G1 Z-4.8 F87.
N320 G0 Z-4.7
N325 G1 Z-5.2 F87.
N330 G0 Z-5.1
N335 G1 Z-5.6 F87.
N340 G0 Z-5.5
N345 G1 Z-6. F87.
N350 G0 Z-5.9
N355 G1 Z-6.4 F87.
N360 G0 Z5.
N365 Z-4.4
N370 G1 Z-6.8 F87.
N375 G0 Z-6.7
N380 G1 Z-7.2 F87.
N385 G0 Z-7.1
N390 G1 Z-7.6 F87.
N395 G0 Z-7.5
N400 G1 Z-8. F87.
N405 G0 Z5.
N410 Z10.
(DRILL2)
N420 M9
N425 G0 X31.75 Y64.
N430 Z10.
N440 Z5.
N445 Z3.
N450 Z0.
N455 G1 Z-2.4 F87.
N460 G0 Z-2.3
N465 G1 Z-2.8 F87.
N470 G0 Z-2.7
N475 G1 Z-3.2 F87.
N480 G0 Z-3.1
N485 G1 Z-3.6 F87.
N490 G0 Z-3.5
N495 G1 Z-4. F87.
N500 G0 Z-3.9
N505 G1 Z-4.4 F87.
N510 G0 Z-4.3
N515 G1 Z-4.8 F87.
N520 G0 Z-4.7
N525 G1 Z-5.2 F87.
N530 G0 Z-5.1
N535 G1 Z-5.6 F87.
N540 G0 Z-5.5
N545 G1 Z-6. F87.
N550 G0 Z-5.9
N555 G1 Z-6.4 F87.
N560 G0 Z5.
N565 Z-4.4
N570 G1 Z-6.8 F87.
N575 G0 Z-6.7
N580 G1 Z-7.2 F87.
N585 G0 Z-7.1
N590 G1 Z-7.6 F87.
N595 G0 Z-7.5
N600 G1 Z-8. F87.
N605 G0 Z5.
N610 X38.25
N615 Z3.
N620 Z0.
N625 G1 Z-2.4 F87.
N630 G0 Z-2.3
N635 G1 Z-2.8 F87.
N640 G0 Z-2.7
N645 G1 Z-3.2 F87.
N650 G0 Z-3.1
N655 G1 Z-3.6 F87.
N660 G0 Z-3.5
N665 G1 Z-4. F87.
N670 G0 Z-3.9
N675 G1 Z-4.4 F87.
N680 G0 Z-4.3
N685 G1 Z-4.8 F87.
N690 G0 Z-4.7
N695 G1 Z-5.2 F87.
N700 G0 Z-5.1
N705 G1 Z-5.6 F87.
N710 G0 Z-5.5
N715 G1 Z-6. F87.
N720 G0 Z-5.9
N725 G1 Z-6.4 F87.
N730 G0 Z5.
N735 Z-4.4
N740 G1 Z-6.8 F87.
N745 G0 Z-6.7
N750 G1 Z-7.2 F87.
N755 G0 Z-7.1
N760 G1 Z-7.6 F87.
N765 G0 Z-7.5
N770 G1 Z-8. F87.
N775 G0 Z5.
N780 Z10.
(DRILL2)
N790 M9
N795 G0 X55.75 Y64.
N800 Z10.
N810 Z5.
N815 Z3.
N820 Z0.
N825 G1 Z-2.4 F87.
N830 G0 Z-2.3
N835 G1 Z-2.8 F87.
N840 G0 Z-2.7
N845 G1 Z-3.2 F87.
N850 G0 Z-3.1
N855 G1 Z-3.6 F87.
N860 G0 Z-3.5
N865 G1 Z-4. F87.
N870 G0 Z-3.9
N875 G1 Z-4.4 F87.
N880 G0 Z-4.3
N885 G1 Z-4.8 F87.
N890 G0 Z-4.7
N895 G1 Z-5.2 F87.
N900 G0 Z-5.1
N905 G1 Z-5.6 F87.
N910 G0 Z-5.5
N915 G1 Z-6. F87.
N920 G0 Z-5.9
N925 G1 Z-6.4 F87.
N930 G0 Z5.
N935 Z-4.4
N940 G1 Z-6.8 F87.
N945 G0 Z-6.7
N950 G1 Z-7.2 F87.
N955 G0 Z-7.1
N960 G1 Z-7.6 F87.
N965 G0 Z-7.5
N970 G1 Z-8. F87.
N975 G0 Z5.
N980 X62.25
N985 Z3.
N990 Z0.
N995 G1 Z-2.4 F87.
N1000 G0 Z-2.3
N1005 G1 Z-2.8 F87.
N1010 G0 Z-2.7
N1015 G1 Z-3.2 F87.
N1020 G0 Z-3.1
N1025 G1 Z-3.6 F87.
N1030 G0 Z-3.5
N1035 G1 Z-4. F87.
N1040 G0 Z-3.9
N1045 G1 Z-4.4 F87.
N1050 G0 Z-4.3
N1055 G1 Z-4.8 F87.
N1060 G0 Z-4.7
N1065 G1 Z-5.2 F87.
N1070 G0 Z-5.1
N1075 G1 Z-5.6 F87.
N1080 G0 Z-5.5
N1085 G1 Z-6. F87.
N1090 G0 Z-5.9
N1095 G1 Z-6.4 F87.
N1100 G0 Z5.
N1105 Z-4.4
N1110 G1 Z-6.8 F87.
N1115 G0 Z-6.7
N1120 G1 Z-7.2 F87.
N1125 G0 Z-7.1
N1130 G1 Z-7.6 F87.
N1135 G0 Z-7.5
N1140 G1 Z-8. F87.
N1145 G0 Z5.
N1150 Z10.
(DRILL2)
N1160 M9
N1165 G0 X79.75 Y64.
N1170 Z10.
N1180 Z5.
N1185 Z3.
N1190 Z0.
N1195 G1 Z-2.4 F87.
N1200 G0 Z-2.3
N1205 G1 Z-2.8 F87.
N1210 G0 Z-2.7
N1215 G1 Z-3.2 F87.
N1220 G0 Z-3.1
N1225 G1 Z-3.6 F87.
N1230 G0 Z-3.5
N1235 G1 Z-4. F87.
N1240 G0 Z-3.9
N1245 G1 Z-4.4 F87.
N1250 G0 Z-4.3
N1255 G1 Z-4.8 F87.
N1260 G0 Z-4.7
N1265 G1 Z-5.2 F87.
N1270 G0 Z-5.1
N1275 G1 Z-5.6 F87.
N1280 G0 Z-5.5
N1285 G1 Z-6. F87.
N1290 G0 Z-5.9
N1295 G1 Z-6.4 F87.
N1300 G0 Z5.
N1305 Z-4.4
N1310 G1 Z-6.8 F87.
N1315 G0 Z-6.7
N1320 G1 Z-7.2 F87.
N1325 G0 Z-7.1
N1330 G1 Z-7.6 F87.
N1335 G0 Z-7.5
N1340 G1 Z-8. F87.
N1345 G0 Z5.
N1350 X86.25
N1355 Z3.
N1360 Z0.
N1365 G1 Z-2.4 F87.
N1370 G0 Z-2.3
N1375 G1 Z-2.8 F87.
N1380 G0 Z-2.7
N1385 G1 Z-3.2 F87.
N1390 G0 Z-3.1
N1395 G1 Z-3.6 F87.
N1400 G0 Z-3.5
N1405 G1 Z-4. F87.
N1410 G0 Z-3.9
N1415 G1 Z-4.4 F87.
N1420 G0 Z-4.3
N1425 G1 Z-4.8 F87.
N1430 G0 Z-4.7
N1435 G1 Z-5.2 F87.
N1440 G0 Z-5.1
N1445 G1 Z-5.6 F87.
N1450 G0 Z-5.5
N1455 G1 Z-6. F87.
N1460 G0 Z-5.9
N1465 G1 Z-6.4 F87.
N1470 G0 Z5.
N1475 Z-4.4
N1480 G1 Z-6.8 F87.
N1485 G0 Z-6.7
N1490 G1 Z-7.2 F87.
N1495 G0 Z-7.1
N1500 G1 Z-7.6 F87.
N1505 G0 Z-7.5
N1510 G1 Z-8. F87.
N1515 G0 Z5.
N1520 Z10.
N1530 M9
N1535 G53 Z0.
N1540 M30
%
