%
(3MM DRILL)
(T3  D=3. CR=0. TAPER=118DEG - ZMIN=-9. - DRILL)
N10 G90 G94 G17 G91.1
N15 G21
N20 G53 G0 Z0.
(DRILL1 2)
N25 M9
N30 T3 M6
N35 S2500 M3
N40 G54
N45 M9
N55 G0 X8.5 Y17.
N60 G43 Z10. H3
N70 G0 Z5.
N75 Z-1.75
N80 Z-4.75
N85 G1 Z-7.75 F125.
N90 G0 Z-7.35
N95 G1 Z-8.75 F125.
N100 G0 Z-8.35
N105 G1 Z-9. F125.
N110 G0 Z5.
N115 X13.5
N120 Z-1.75
N125 Z-4.75
N130 G1 Z-7.75 F125.
N135 G0 Z-7.35
N140 G1 Z-8.75 F125.
N145 G0 Z-8.35
N150 G1 Z-9. F125.
N155 G0 Z5.
N160 Y57.
N165 Z-1.75
N170 Z-4.75
N175 G1 Z-7.75 F125.
N180 G0 Z-7.35
N185 G1 Z-8.75 F125.
N190 G0 Z-8.35
N195 G1 Z-9. F125.
N200 G0 Z5.
N205 X8.5
N210 Z-1.75
N215 Z-4.75
N220 G1 Z-7.75 F125.
N225 G0 Z-7.35
N230 G1 Z-8.75 F125.
N235 G0 Z-8.35
N240 G1 Z-9. F125.
N245 G0 Z5.
N255 X18. Y4.
N260 Z3.
N265 Z0.
N270 G1 Z-3. F125.
N275 G0 Z-2.6
N280 G1 Z-4. F125.
N285 G0 Z-3.6
N290 G1 Z-5. F125.
N295 G0 Z-4.6
N300 G1 Z-6. F125.
N305 G0 Z-5.6
N310 G1 Z-7. F125.
N315 G0 Z5.
N320 Z-5.
N325 G1 Z-8. F125.
N330 G0 Z-7.6
N335 G1 Z-9. F125.
N340 G0 Z5.
N345 X4.
N350 Z3.
N355 Z0.
N360 G1 Z-3. F125.
N365 G0 Z-2.6
N370 G1 Z-4. F125.
N375 G0 Z-3.6
N380 G1 Z-5. F125.
N385 G0 Z-4.6
N390 G1 Z-6. F125.
N395 G0 Z-5.6
N400 G1 Z-7. F125.
N405 G0 Z5.
N410 Z-5.
N415 G1 Z-8. F125.
N420 G0 Z-7.6
N425 G1 Z-9. F125.
N430 G0 Z5.
N435 Z10.
(DRILL1 2)
N445 M9
N450 G0 X32.5 Y17.
N455 Z10.
N465 Z5.
N470 Z-1.75
N475 Z-4.75
N480 G1 Z-7.75 F125.
N485 G0 Z-7.35
N490 G1 Z-8.75 F125.
N495 G0 Z-8.35
N500 G1 Z-9. F125.
N505 G0 Z5.
N510 X37.5
N515 Z-1.75
N520 Z-4.75
N525 G1 Z-7.75 F125.
N530 G0 Z-7.35
N535 G1 Z-8.75 F125.
N540 G0 Z-8.35
N545 G1 Z-9. F125.
N550 G0 Z5.
N555 Y57.
N560 Z-1.75
N565 Z-4.75
N570 G1 Z-7.75 F125.
N575 G0 Z-7.35
N580 G1 Z-8.75 F125.
N585 G0 Z-8.35
N590 G1 Z-9. F125.
N595 G0 Z5.
N600 X32.5
N605 Z-1.75
N610 Z-4.75
N615 G1 Z-7.75 F125.
N620 G0 Z-7.35
N625 G1 Z-8.75 F125.
N630 G0 Z-8.35
N635 G1 Z-9. F125.
N640 G0 Z5.
N650 X42. Y4.
N655 Z3.
N660 Z0.
N665 G1 Z-3. F125.
N670 G0 Z-2.6
N675 G1 Z-4. F125.
N680 G0 Z-3.6
N685 G1 Z-5. F125.
N690 G0 Z-4.6
N695 G1 Z-6. F125.
N700 G0 Z-5.6
N705 G1 Z-7. F125.
N710 G0 Z5.
N715 Z-5.
N720 G1 Z-8. F125.
N725 G0 Z-7.6
N730 G1 Z-9. F125.
N735 G0 Z5.
N740 X28.
N745 Z3.
N750 Z0.
N755 G1 Z-3. F125.
N760 G0 Z-2.6
N765 G1 Z-4. F125.
N770 G0 Z-3.6
N775 G1 Z-5. F125.
N780 G0 Z-4.6
N785 G1 Z-6. F125.
N790 G0 Z-5.6
N795 G1 Z-7. F125.
N800 G0 Z5.
N805 Z-5.
N810 G1 Z-8. F125.
N815 G0 Z-7.6
N820 G1 Z-9. F125.
N825 G0 Z5.
N830 Z10.
(DRILL1 2)
N840 M9
N845 G0 X56.5 Y17.
N850 Z10.
N860 Z5.
N865 Z-1.75
N870 Z-4.75
N875 G1 Z-7.75 F125.
N880 G0 Z-7.35
N885 G1 Z-8.75 F125.
N890 G0 Z-8.35
N895 G1 Z-9. F125.
N900 G0 Z5.
N905 X61.5
N910 Z-1.75
N915 Z-4.75
N920 G1 Z-7.75 F125.
N925 G0 Z-7.35
N930 G1 Z-8.75 F125.
N935 G0 Z-8.35
N940 G1 Z-9. F125.
N945 G0 Z5.
N950 Y57.
N955 Z-1.75
N960 Z-4.75
N965 G1 Z-7.75 F125.
N970 G0 Z-7.35
N975 G1 Z-8.75 F125.
N980 G0 Z-8.35
N985 G1 Z-9. F125.
N990 G0 Z5.
N995 X56.5
N1000 Z-1.75
N1005 Z-4.75
N1010 G1 Z-7.75 F125.
N1015 G0 Z-7.35
N1020 G1 Z-8.75 F125.
N1025 G0 Z-8.35
N1030 G1 Z-9. F125.
N1035 G0 Z5.
N1045 X66. Y4.
N1050 Z3.
N1055 Z0.
N1060 G1 Z-3. F125.
N1065 G0 Z-2.6
N1070 G1 Z-4. F125.
N1075 G0 Z-3.6
N1080 G1 Z-5. F125.
N1085 G0 Z-4.6
N1090 G1 Z-6. F125.
N1095 G0 Z-5.6
N1100 G1 Z-7. F125.
N1105 G0 Z5.
N1110 Z-5.
N1115 G1 Z-8. F125.
N1120 G0 Z-7.6
N1125 G1 Z-9. F125.
N1130 G0 Z5.
N1135 X52.
N1140 Z3.
N1145 Z0.
N1150 G1 Z-3. F125.
N1155 G0 Z-2.6
N1160 G1 Z-4. F125.
N1165 G0 Z-3.6
N1170 G1 Z-5. F125.
N1175 G0 Z-4.6
N1180 G1 Z-6. F125.
N1185 G0 Z-5.6
N1190 G1 Z-7. F125.
N1195 G0 Z5.
N1200 Z-5.
N1205 G1 Z-8. F125.
N1210 G0 Z-7.6
N1215 G1 Z-9. F125.
N1220 G0 Z5.
N1225 Z10.
(DRILL1 2)
N1235 M9
N1240 G0 X80.5 Y17.
N1245 Z10.
N1255 Z5.
N1260 Z-1.75
N1265 Z-4.75
N1270 G1 Z-7.75 F125.
N1275 G0 Z-7.35
N1280 G1 Z-8.75 F125.
N1285 G0 Z-8.35
N1290 G1 Z-9. F125.
N1295 G0 Z5.
N1300 X85.5
N1305 Z-1.75
N1310 Z-4.75
N1315 G1 Z-7.75 F125.
N1320 G0 Z-7.35
N1325 G1 Z-8.75 F125.
N1330 G0 Z-8.35
N1335 G1 Z-9. F125.
N1340 G0 Z5.
N1345 Y57.
N1350 Z-1.75
N1355 Z-4.75
N1360 G1 Z-7.75 F125.
N1365 G0 Z-7.35
N1370 G1 Z-8.75 F125.
N1375 G0 Z-8.35
N1380 G1 Z-9. F125.
N1385 G0 Z5.
N1390 X80.5
N1395 Z-1.75
N1400 Z-4.75
N1405 G1 Z-7.75 F125.
N1410 G0 Z-7.35
N1415 G1 Z-8.75 F125.
N1420 G0 Z-8.35
N1425 G1 Z-9. F125.
N1430 G0 Z5.
N1440 X90. Y4.
N1445 Z3.
N1450 Z0.
N1455 G1 Z-3. F125.
N1460 G0 Z-2.6
N1465 G1 Z-4. F125.
N1470 G0 Z-3.6
N1475 G1 Z-5. F125.
N1480 G0 Z-4.6
N1485 G1 Z-6. F125.
N1490 G0 Z-5.6
N1495 G1 Z-7. F125.
N1500 G0 Z5.
N1505 Z-5.
N1510 G1 Z-8. F125.
N1515 G0 Z-7.6
N1520 G1 Z-9. F125.
N1525 G0 Z5.
N1530 X76.
N1535 Z3.
N1540 Z0.
N1545 G1 Z-3. F125.
N1550 G0 Z-2.6
N1555 G1 Z-4. F125.
N1560 G0 Z-3.6
N1565 G1 Z-5. F125.
N1570 G0 Z-4.6
N1575 G1 Z-6. F125.
N1580 G0 Z-5.6
N1585 G1 Z-7. F125.
N1590 G0 Z5.
N1595 Z-5.
N1600 G1 Z-8. F125.
N1605 G0 Z-7.6
N1610 G1 Z-9. F125.
N1615 G0 Z5.
N1620 Z10.
N1630 M9
N1635 G53 Z0.
N1640 M30
%
