%
(3MM-DRILL)
(T3  D=3. CR=0. TAPER=118DEG - ZMIN=-9. - DRILL)
N10 G90 G94 G17 G91.1
N15 G21
N20 G53 G0 Z0.
(DRILL1 2)
N25 M9
N30 T3 M6
N35 S2000 M3
N40 G54
N45 M9
N55 G0 X15.5 Y13.
N60 G43 Z10. H3
N70 G0 Z5.
N75 Z-1.
N80 Z-4.
N85 G1 Z-7. F60.
N90 G0 Z-6.6
N95 G1 Z-8. F60.
N100 G0 Z-7.6
N105 G1 Z-9. F60.
N110 G0 Z5.
N115 X10.5
N120 Z-1.
N125 Z-4.
N130 G1 Z-7. F60.
N135 G0 Z-6.6
N140 G1 Z-8. F60.
N145 G0 Z-7.6
N150 G1 Z-9. F60.
N155 G0 Z5.
N160 Y53.
N165 Z-1.
N170 Z-4.
N175 G1 Z-7. F60.
N180 G0 Z-6.6
N185 G1 Z-8. F60.
N190 G0 Z-7.6
N195 G1 Z-9. F60.
N200 G0 Z5.
N205 X15.5
N210 Z-1.
N215 Z-4.
N220 G1 Z-7. F60.
N225 G0 Z-6.6
N230 G1 Z-8. F60.
N235 G0 Z-7.6
N240 G1 Z-9. F60.
N245 G0 Z5.
N255 X13. Y6.
N260 Z3.
N265 Z0.
N270 G1 Z-3. F60.
N275 G0 Z-2.6
N280 G1 Z-4. F60.
N285 G0 Z-3.6
N290 G1 Z-5. F60.
N295 G0 Z-4.6
N300 G1 Z-6. F60.
N305 G0 Z-5.6
N310 G1 Z-7. F60.
N315 G0 Z5.
N320 Z-5.
N325 G1 Z-8. F60.
N330 G0 Z-7.6
N335 G1 Z-9. F60.
N340 G0 Z5.
N345 X20.
N350 Z3.
N355 Z0.
N360 G1 Z-3. F60.
N365 G0 Z-2.6
N370 G1 Z-4. F60.
N375 G0 Z-3.6
N380 G1 Z-5. F60.
N385 G0 Z-4.6
N390 G1 Z-6. F60.
N395 G0 Z-5.6
N400 G1 Z-7. F60.
N405 G0 Z5.
N410 Z-5.
N415 G1 Z-8. F60.
N420 G0 Z-7.6
N425 G1 Z-9. F60.
N430 G0 Z5.
N435 X6.
N440 Z3.
N445 Z0.
N450 G1 Z-3. F60.
N455 G0 Z-2.6
N460 G1 Z-4. F60.
N465 G0 Z-3.6
N470 G1 Z-5. F60.
N475 G0 Z-4.6
N480 G1 Z-6. F60.
N485 G0 Z-5.6
N490 G1 Z-7. F60.
N495 G0 Z5.
N500 Z-5.
N505 G1 Z-8. F60.
N510 G0 Z-7.6
N515 G1 Z-9. F60.
N520 G0 Z5.
N525 Z10.
N535 M9
N540 G53 Z0.
N545 M30
%
