%
(C-HEAD-FLANGE-TOP)
(T1  D=6. CR=0. - ZMIN=0. - FLAT END MILL)
(T2  D=4. CR=0. - ZMIN=-6. - FLAT END MILL)
(T3  D=3. CR=0. TAPER=118DEG - ZMIN=-7. - DRILL)
(T4  D=1.6 CR=0. TAPER=118DEG - ZMIN=-6. - DRILL)
(T70  D=10. CR=0. TAPER=90DEG - ZMIN=-5. - SPOT DRILL)
N10 G90 G94 G17 G91.1
N15 G21
N20 G53 G0 Z0.
(FACE1)
N25 M9
N30 T1 M6
N35 T2
N40 S2000 M3
N45 G54
N50 M9
N60 G0 X66.6 Y5.46
N65 G43 Z8. H1
N70 G0 Z3.
N75 G1 Z0.6 F300.
N80 G18 G3 X66. Z0. I-0.6 K0.
N85 G17 G3 X65. Y4.46 I0. J-1. F360.
N90 G2 X62. Y1.46 I-3. J0.
N95 G1 X0.
N100 G18 G3 X-0.6 Z0.6 I0. K0.6 F300.
N105 G0 Z3.
N110 X66.6 Y9.87
N115 G1 Z0.6 F300.
N120 G3 X66. Z0. I-0.6 K0.
N125 G17 G3 X65. Y8.87 I0. J-1. F360.
N130 G2 X62. Y5.87 I-3. J0.
N135 G1 X0.
N140 G18 G3 X-0.6 Z0.6 I0. K0.6 F300.
N145 G0 Z3.
N150 X66.6 Y14.28
N155 G1 Z0.6 F300.
N160 G3 X66. Z0. I-0.6 K0.
N165 G17 G3 X65. Y13.28 I0. J-1. F360.
N170 G2 X62. Y10.28 I-3. J0.
N175 G1 X0.
N180 G18 G3 X-0.6 Z0.6 I0. K0.6 F300.
N185 G0 Z3.
N190 X66.6 Y18.69
N195 G1 Z0.6 F300.
N200 G3 X66. Z0. I-0.6 K0.
N205 G17 G3 X65. Y17.69 I0. J-1. F360.
N210 G2 X62. Y14.69 I-3. J0.
N215 G1 X0.
N220 G18 G3 X-0.6 Z0.6 I0. K0.6 F300.
N225 G0 Z3.
N230 X66.6 Y23.1
N235 G1 Z0.6 F300.
N240 G3 X66. Z0. I-0.6 K0.
N245 G17 G3 X65. Y22.1 I0. J-1. F360.
N250 G2 X62. Y19.1 I-3. J0.
N255 G1 X0.
N260 G18 G3 X-0.6 Z0.6 I0. K0.6 F300.
N265 G0 Z8.
N270 G17
N275 M5
N280 G53 G0 Z0.
(2D ADAPTIVE2)
N285 M9
N290 M1
N295 T2 M6
N300 T70
N305 S3000 M3
N310 M8
N320 G0 X24.125 Y6.33
N325 G43 Z10. H2
N330 G0 Z3.1
N335 G1 Z2.7 F250.
N340 G3 X24.875 Y5.37 Z2.633 I0.375 J-0.48 F150.
N345 X24.125 Y6.33 Z2.566 I-0.375 J0.48
N350 X24.875 Y5.37 Z2.5 I0.375 J-0.48
N355 X24.125 Y6.33 Z2.433 I-0.375 J0.48
N360 X24.875 Y5.37 Z2.366 I0.375 J-0.48
N365 X24.125 Y6.33 Z2.299 I-0.375 J0.48
N370 X24.875 Y5.37 Z2.232 I0.375 J-0.48
N375 X24.125 Y6.33 Z2.166 I-0.375 J0.48
N380 X24.875 Y5.37 Z2.099 I0.375 J-0.48
N385 X24.125 Y6.33 Z2.032 I-0.375 J0.48
N390 X24.875 Y5.37 Z1.965 I0.375 J-0.48
N395 X24.125 Y6.33 Z1.898 I-0.375 J0.48
N400 X24.875 Y5.37 Z1.831 I0.375 J-0.48
N405 X24.125 Y6.33 Z1.765 I-0.375 J0.48
N410 X24.875 Y5.37 Z1.698 I0.375 J-0.48
N415 X24.125 Y6.33 Z1.631 I-0.375 J0.48
N420 X24.875 Y5.37 Z1.564 I0.375 J-0.48
N425 X24.125 Y6.33 Z1.497 I-0.375 J0.48
N430 X24.875 Y5.37 Z1.431 I0.375 J-0.48
N435 X24.125 Y6.33 Z1.364 I-0.375 J0.48
N440 X24.875 Y5.37 Z1.297 I0.375 J-0.48
N445 X24.125 Y6.33 Z1.23 I-0.375 J0.48
N450 X24.875 Y5.37 Z1.163 I0.375 J-0.48
N455 X24.125 Y6.33 Z1.097 I-0.375 J0.48
N460 X24.875 Y5.37 Z1.03 I0.375 J-0.48
N465 X24.125 Y6.33 Z0.963 I-0.375 J0.48
N470 X24.875 Y5.37 Z0.896 I0.375 J-0.48
N475 X24.125 Y6.33 Z0.829 I-0.375 J0.48
N480 X24.875 Y5.37 Z0.762 I0.375 J-0.48
N485 X24.125 Y6.33 Z0.696 I-0.375 J0.48
N490 X24.875 Y5.37 Z0.629 I0.375 J-0.48
N495 X24.125 Y6.33 Z0.562 I-0.375 J0.48
N500 X24.875 Y5.37 Z0.495 I0.375 J-0.48
N505 X24.125 Y6.33 Z0.428 I-0.375 J0.48
N510 X24.875 Y5.37 Z0.362 I0.375 J-0.48
N515 X24.125 Y6.33 Z0.295 I-0.375 J0.48
N520 X24.875 Y5.37 Z0.228 I0.375 J-0.48
N525 X24.125 Y6.33 Z0.161 I-0.375 J0.48
N530 X24.875 Y5.37 Z0.094 I0.375 J-0.48
N535 X24.125 Y6.33 Z0.028 I-0.375 J0.48
N540 X24.875 Y5.37 Z-0.039 I0.375 J-0.48
N545 X24.125 Y6.33 Z-0.106 I-0.375 J0.48
N550 X24.875 Y5.37 Z-0.173 I0.375 J-0.48
N555 X24.125 Y6.33 Z-0.24 I-0.375 J0.48
N560 X24.875 Y5.37 Z-0.307 I0.375 J-0.48
N565 X24.125 Y6.33 Z-0.373 I-0.375 J0.48
N570 X24.875 Y5.37 Z-0.44 I0.375 J-0.48
N575 X24.125 Y6.33 Z-0.507 I-0.375 J0.48
N580 X24.875 Y5.37 Z-0.574 I0.375 J-0.48
N585 X24.125 Y6.33 Z-0.641 I-0.375 J0.48
N590 X24.875 Y5.37 Z-0.707 I0.375 J-0.48
N595 X24.125 Y6.33 Z-0.774 I-0.375 J0.48
N600 X24.875 Y5.37 Z-0.841 I0.375 J-0.48
N605 X24.125 Y6.33 Z-0.908 I-0.375 J0.48
N610 X24.875 Y5.37 Z-0.975 I0.375 J-0.48
N615 X24.125 Y6.33 Z-1.041 I-0.375 J0.48
N620 X24.875 Y5.37 Z-1.108 I0.375 J-0.48
N625 X24.125 Y6.33 Z-1.175 I-0.375 J0.48
N630 X24.875 Y5.37 Z-1.242 I0.375 J-0.48
N635 X24.125 Y6.33 Z-1.309 I-0.375 J0.48
N640 X24.875 Y5.37 Z-1.375 I0.375 J-0.48
N645 X24.125 Y6.33 Z-1.442 I-0.375 J0.48
N650 X24.875 Y5.37 Z-1.509 I0.375 J-0.48
N655 X24.125 Y6.33 Z-1.576 I-0.375 J0.48
N660 X24.875 Y5.37 Z-1.643 I0.375 J-0.48
N665 X24.125 Y6.33 Z-1.71 I-0.375 J0.48
N670 X24.875 Y5.37 Z-1.776 I0.375 J-0.48
N675 X24.125 Y6.33 Z-1.843 I-0.375 J0.48
N680 X24.875 Y5.37 Z-1.91 I0.375 J-0.48
N685 X24.125 Y6.33 Z-1.977 I-0.375 J0.48
N690 X24.875 Y5.37 Z-2.044 I0.375 J-0.48
N695 X24.125 Y6.33 Z-2.11 I-0.375 J0.48
N700 X24.875 Y5.37 Z-2.177 I0.375 J-0.48
N705 X24.125 Y6.33 Z-2.244 I-0.375 J0.48
N710 X24.875 Y5.37 Z-2.311 I0.375 J-0.48
N715 X24.125 Y6.33 Z-2.378 I-0.375 J0.48
N720 X24.875 Y5.37 Z-2.444 I0.375 J-0.48
N725 X24.125 Y6.33 Z-2.511 I-0.375 J0.48
N730 X24.875 Y5.37 Z-2.578 I0.375 J-0.48
N735 X24.125 Y6.33 Z-2.645 I-0.375 J0.48
N740 X24.875 Y5.37 Z-2.712 I0.375 J-0.48
N745 X24.125 Y6.33 Z-2.779 I-0.375 J0.48
N750 X24.875 Y5.37 Z-2.845 I0.375 J-0.48
N755 X24.125 Y6.33 Z-2.912 I-0.375 J0.48
N760 X24.875 Y5.37 Z-2.979 I0.375 J-0.48
N765 X24.125 Y6.33 Z-3.046 I-0.375 J0.48
N770 X24.875 Y5.37 Z-3.113 I0.375 J-0.48
N775 X24.125 Y6.33 Z-3.179 I-0.375 J0.48
N780 X24.875 Y5.37 Z-3.246 I0.375 J-0.48
N785 X24.125 Y6.33 Z-3.313 I-0.375 J0.48
N790 X24.875 Y5.37 Z-3.38 I0.375 J-0.48
N795 X24.125 Y6.33 Z-3.447 I-0.375 J0.48
N800 X24.875 Y5.37 Z-3.513 I0.375 J-0.48
N805 X24.125 Y6.33 Z-3.58 I-0.375 J0.48
N810 X24.875 Y5.37 Z-3.647 I0.375 J-0.48
N815 X24.125 Y6.33 Z-3.714 I-0.375 J0.48
N820 X24.875 Y5.37 Z-3.781 I0.375 J-0.48
N825 X25.109 Y5.85 Z-3.8 I-0.375 J0.48
N830 X23.891 I-0.609 J0.
N835 X25.109 I0.609 J0.
N840 G1 X25.158 Y6.256 F300.
N845 X25.164 Y6.406
N850 X25.125 Y6.551
N855 X25.052 Y6.682
N860 G3 X23.8 Y6.213 I-0.538 J-0.469
N865 X23.828 Y5.22 I7.219 J-0.292
N870 G1 X23.887 Y5.082
N875 X23.973 Y4.959
N880 G3 X25.191 Y5.436 I0.499 J0.519
N885 X25.186 Y5.501 Z-3.789 I-0.345 J0.008 F250.
N890 X24.889 Y5.961 Z-3.7 I-0.682 J-0.115
N895 X24.066 Y5.921 I-0.385 J-0.574
N900 X23.813 Y5.37 Z-3.8 I0.438 J-0.535
N905 G1 X23.836 Y4.991 F300.
N910 G3 X25.161 Y4.992 I0.663 J0.014
N915 G1 X25.195 Y5.507
N920 X25.2 Y5.678
N925 Y6.76
N930 G3 X24.892 Y7.312 I-0.579 J0.038
N935 X23.8 Y6.67 I-0.357 J-0.641
N940 G1 Y6.213
N945 G3 X24.069 Y5.888 Z-3.728 I0.345 J0.012 F250.
N950 X24.242 Y5.866 Z-3.7 I0.205 J0.904
N955 X24.975 Y6.187 I0.032 J0.926
N960 X25.2 Y6.76 Z-3.8 I-0.701 J0.606
N965 G1 Y7.223 F300.
N970 G3 X24.9 Y7.782 I-0.573 J0.052
N975 X23.8 Y7.145 I-0.366 J-0.637
N980 G1 Y6.67
N985 G3 X24.073 Y6.345 Z-3.727 I0.345 J0.012 F250.
N990 X24.242 Y6.324 Z-3.7 I0.196 J0.911
N995 X24.976 Y6.649 I0.027 J0.932
N1000 X25.2 Y7.223 Z-3.8 I-0.708 J0.607
N1005 G1 Y7.703 F300.
N1010 G3 X24.897 Y8.259 I-0.569 J0.05
N1015 X23.8 Y7.619 I-0.361 J-0.641
N1020 G1 Y7.145
N1025 G3 X24.076 Y6.819 Z-3.727 I0.345 J0.012 F250.
N1030 X24.242 Y6.8 Z-3.7 I0.189 J0.917
N1035 X24.977 Y7.129 I0.022 J0.936
N1040 X25.2 Y7.703 Z-3.8 I-0.713 J0.607
N1045 G1 Y8.176 F300.
N1050 G3 X24.898 Y8.733 I-0.57 J0.051
N1055 X23.8 Y8.093 I-0.363 J-0.64
N1060 G1 Y7.619
N1065 G3 X24.075 Y7.292 Z-3.727 I0.345 J0.012 F250.
N1070 X24.242 Y7.273 Z-3.7 I0.19 J0.916
N1075 X24.977 Y7.602 I0.023 J0.935
N1080 X25.2 Y8.176 Z-3.8 I-0.712 J0.607
N1085 G1 Y8.649 F300.
N1090 G3 X24.899 Y9.206 I-0.571 J0.052
N1095 X23.8 Y8.568 I-0.364 J-0.639
N1100 G1 Y8.093
N1105 G3 X24.074 Y7.768 Z-3.727 I0.345 J0.012 F250.
N1110 X24.242 Y7.748 Z-3.7 I0.193 J0.914
N1115 X24.976 Y8.074 I0.025 J0.933
N1120 X25.2 Y8.649 Z-3.8 I-0.71 J0.607
N1125 G1 Y9.14 F300.
N1130 G3 X24.889 Y9.689 I-0.57 J0.04
N1135 X23.8 Y9.042 I-0.353 J-0.647
N1140 G1 Y8.568
N1145 G3 X24.083 Y8.24 Z-3.725 I0.345 J0.012 F250.
N1150 X24.242 Y8.225 Z-3.7 I0.169 J0.933
N1155 X24.979 Y8.564 I0.01 J0.948
N1160 X25.2 Y9.14 Z-3.8 I-0.727 J0.609
N1165 G1 Y9.627 F300.
N1170 G3 X24.884 Y10.171 I-0.565 J0.036
N1175 X23.8 Y9.519 I-0.346 J-0.652
N1180 G1 Y9.042
N1185 G3 X24.09 Y8.713 Z-3.724 I0.345 J0.012 F250.
N1190 X24.242 Y8.701 Z-3.7 I0.151 J0.947
N1195 X24.981 Y9.05 I-0.001 J0.959
N1200 X25.2 Y9.627 Z-3.8 I-0.74 J0.61
N1205 G1 Y10.107 F300.
N1210 G3 X24.883 Y10.65 I-0.564 J0.035
N1215 X23.8 Y9.998 I-0.345 J-0.652
N1220 G1 Y9.519
N1225 G3 X24.092 Y9.19 Z-3.724 I0.345 J0.012 F250.
N1230 X24.242 Y9.179 Z-3.7 I0.147 J0.95
N1235 X24.982 Y9.53 I-0.003 J0.961
N1240 X25.2 Y10.107 Z-3.8 I-0.743 J0.611
N1245 G1 Y10.579 F300.
N1250 G3 X24.887 Y11.126 I-0.566 J0.038
N1255 X23.8 Y10.477 I-0.35 J-0.649
N1260 G1 Y9.998
N1265 G3 X24.089 Y9.669 Z-3.725 I0.345 J0.012 F250.
N1270 X24.242 Y9.657 Z-3.7 I0.156 J0.943
N1275 X24.981 Y10.003 I0.002 J0.956
N1280 X25.2 Y10.579 Z-3.8 I-0.736 J0.61
N1285 G1 Y11.052 F300.
N1290 X25.192 Y11.202
N1295 X25.143 Y11.343
N1300 X25.063 Y11.47
N1305 G3 X23.8 Y10.955 I-0.526 J-0.515
N1310 G1 Y10.477
N1315 G3 X24.085 Y10.149 Z-3.725 I0.345 J0.012 F250.
N1320 X24.242 Y10.135 Z-3.7 I0.165 J0.936
N1325 X24.98 Y10.476 I0.008 J0.95
N1330 X25.2 Y11.052 Z-3.8 I-0.73 J0.609
N1335 G1 Y11.515 F300.
N1340 G3 X24.898 Y12.071 I-0.57 J0.05
N1345 X23.8 Y11.432 I-0.362 J-0.64
N1350 G1 Y10.955
N1355 G3 X24.077 Y10.628 Z-3.727 I0.345 J0.012 F250.
N1360 X24.242 Y10.61 Z-3.7 I0.186 J0.919
N1365 X24.977 Y10.94 I0.021 J0.938
N1370 X25.2 Y11.515 Z-3.8 I-0.715 J0.607
N1375 G1 Y11.995 F300.
N1380 G3 X24.894 Y12.549 I-0.567 J0.048
N1385 X23.8 Y11.906 I-0.358 J-0.643
N1390 G1 Y11.432
N1395 G3 X24.078 Y11.105 Z-3.726 I0.345 J0.012 F250.
N1400 X24.242 Y11.088 Z-3.7 I0.182 J0.923
N1405 X24.978 Y11.42 I0.018 J0.94
N1410 X25.2 Y11.995 Z-3.8 I-0.718 J0.608
N1415 G1 Y12.468 F300.
N1420 G3 X24.896 Y13.023 I-0.568 J0.05
N1425 X23.8 Y12.382 I-0.36 J-0.642
N1430 G1 Y11.906
N1435 G3 X24.077 Y11.58 Z-3.726 I0.345 J0.012 F250.
N1440 X24.242 Y11.562 Z-3.7 I0.184 J0.921
N1445 X24.978 Y11.893 I0.019 J0.939
N1450 X25.2 Y12.468 Z-3.8 I-0.716 J0.608
N1455 G1 Y12.94 F300.
N1460 G3 X24.898 Y13.496 I-0.57 J0.05
N1465 X23.8 Y12.857 I-0.362 J-0.64
N1470 G1 Y12.382
N1475 G3 X24.076 Y12.056 Z-3.727 I0.345 J0.012 F250.
N1480 X24.242 Y12.037 Z-3.7 I0.188 J0.917
N1485 X24.977 Y12.366 I0.022 J0.936
N1490 X25.2 Y12.94 Z-3.8 I-0.713 J0.607
N1495 G1 Y13.432 F300.
N1500 G3 X24.888 Y13.98 I-0.569 J0.038
N1505 X23.8 Y13.331 I-0.351 J-0.648
N1510 G1 Y12.857
N1515 G3 X24.085 Y12.529 Z-3.725 I0.345 J0.012 F250.
N1520 X24.242 Y12.515 Z-3.7 I0.165 J0.936
N1525 X24.98 Y12.856 I0.008 J0.951
N1530 X25.2 Y13.432 Z-3.8 I-0.73 J0.609
N1535 G1 Y13.918 F300.
N1540 G3 X24.883 Y14.462 I-0.565 J0.035
N1545 X23.8 Y13.809 I-0.345 J-0.653
N1550 G1 Y13.331
N1555 G3 X24.092 Y13.003 Z-3.724 I0.345 J0.012 F250.
N1560 X24.242 Y12.991 Z-3.7 I0.148 J0.949
N1565 X24.982 Y13.341 I-0.003 J0.961
N1570 X25.2 Y13.918 Z-3.8 I-0.742 J0.611
N1575 G1 Y14.399 F300.
N1580 G3 X24.882 Y14.941 I-0.563 J0.034
N1585 X23.8 Y14.288 I-0.344 J-0.653
N1590 X23.821 Y14.181 Z-3.783 I0.349 J0.012 F250.
N1595 X24.152 Y13.797 Z-3.7 I0.669 J0.242
N1600 X24.921 Y13.859 I0.337 J0.626
N1605 X25.2 Y14.399 Z-3.8 I-0.432 J0.565
N1610 G1 Y14.871 F300.
N1615 G3 X24.886 Y15.417 I-0.566 J0.038
N1620 X23.8 Y14.767 I-0.349 J-0.65
N1625 X23.818 Y14.667 Z-3.784 I0.349 J0.012 F250.
N1630 X24.149 Y14.274 Z-3.7 I0.672 J0.229
N1635 X24.921 Y14.331 I0.342 J0.622
N1640 X25.2 Y14.871 Z-3.8 I-0.43 J0.565
N1645 G1 Y15.344 F300.
N1650 X25.192 Y15.494
N1655 X25.143 Y15.635
N1660 X25.062 Y15.761
N1665 G3 X23.8 Y15.245 I-0.526 J-0.516
N1670 X23.817 Y15.15 Z-3.785 I0.349 J0.012 F250.
N1675 X24.146 Y14.749 Z-3.7 I0.675 J0.218
N1680 X24.921 Y14.804 I0.346 J0.619
N1685 X25.2 Y15.344 Z-3.8 I-0.429 J0.564
N1690 G1 Y15.807 F300.
N1695 G3 X24.897 Y16.362 I-0.569 J0.05
N1700 X23.8 Y15.723 I-0.362 J-0.64
N1705 G1 X23.804 Y15.681 Z-3.793 F250.
N1710 X23.813 Y15.641 Z-3.787
N1715 G3 X24.138 Y15.22 Z-3.7 I0.681 J0.191
N1720 X24.92 Y15.268 I0.356 J0.611
N1725 X25.2 Y15.807 Z-3.8 I-0.426 J0.564
N1730 G1 Y16.287 F300.
N1735 G3 X24.894 Y16.84 I-0.566 J0.048
N1740 X23.8 Y16.197 I-0.358 J-0.644
N1745 G1 X23.804 Y16.153 Z-3.793 F250.
N1750 X23.814 Y16.11 Z-3.786
N1755 G3 X24.141 Y15.697 Z-3.7 I0.678 J0.202
N1760 X24.92 Y15.748 I0.351 J0.614
N1765 X25.2 Y16.287 Z-3.8 I-0.428 J0.564
N1770 X25.161 Y16.951 I-6.066 J-0.026 F300.
N1775 G1 X25.103 Y17.09
N1780 X25.017 Y17.212
N1785 G3 X23.819 Y16.731 I-0.485 J-0.523
N1790 X23.825 Y16.661 Z-3.789 I0.34 J-0.008 F250.
N1795 X24.127 Y16.211 Z-3.7 I0.67 J0.124
N1800 X24.921 Y16.253 I0.368 J0.574
N1805 X25.177 Y16.802 Z-3.8 I-0.425 J0.533
N1810 X25.001 Y17.433 I-0.945 J0.077 F300.
N1815 X23.838 Y17.008 I-0.499 J-0.44
N1820 G1 X23.805 Y16.493
N1825 X23.8 Y16.322
N1830 Y13.809
N1835 G3 X24.214 Y13.423 I0.4 J0.014 F250.
N1840 X24.6 Y13.837 I-0.014 J0.4
N1845 G1 X24.597 Y13.915 Z-3.792
N1850 X24.594 Y13.99 Z-3.77
N1855 X24.592 Y14.059 Z-3.733
N1860 X24.59 Y14.12 Z-3.683
N1865 X24.588 Y14.169 Z-3.622
N1870 X24.587 Y14.206 Z-3.553
N1875 X24.586 Y14.229 Z-3.478
N1880 Y14.237 Z-3.4
N1885 G0 Z10.
N1890 X37.125 Y6.33
N1895 Z3.1
N1900 G1 Z2.7 F250.
N1905 G3 X37.875 Y5.37 Z2.633 I0.375 J-0.48 F150.
N1910 X37.125 Y6.33 Z2.566 I-0.375 J0.48
N1915 X37.875 Y5.37 Z2.5 I0.375 J-0.48
N1920 X37.125 Y6.33 Z2.433 I-0.375 J0.48
N1925 X37.875 Y5.37 Z2.366 I0.375 J-0.48
N1930 X37.125 Y6.33 Z2.299 I-0.375 J0.48
N1935 X37.875 Y5.37 Z2.232 I0.375 J-0.48
N1940 X37.125 Y6.33 Z2.166 I-0.375 J0.48
N1945 X37.875 Y5.37 Z2.099 I0.375 J-0.48
N1950 X37.125 Y6.33 Z2.032 I-0.375 J0.48
N1955 X37.875 Y5.37 Z1.965 I0.375 J-0.48
N1960 X37.125 Y6.33 Z1.898 I-0.375 J0.48
N1965 X37.875 Y5.37 Z1.831 I0.375 J-0.48
N1970 X37.125 Y6.33 Z1.765 I-0.375 J0.48
N1975 X37.875 Y5.37 Z1.698 I0.375 J-0.48
N1980 X37.125 Y6.33 Z1.631 I-0.375 J0.48
N1985 X37.875 Y5.37 Z1.564 I0.375 J-0.48
N1990 X37.125 Y6.33 Z1.497 I-0.375 J0.48
N1995 X37.875 Y5.37 Z1.431 I0.375 J-0.48
N2000 X37.125 Y6.33 Z1.364 I-0.375 J0.48
N2005 X37.875 Y5.37 Z1.297 I0.375 J-0.48
N2010 X37.125 Y6.33 Z1.23 I-0.375 J0.48
N2015 X37.875 Y5.37 Z1.163 I0.375 J-0.48
N2020 X37.125 Y6.33 Z1.097 I-0.375 J0.48
N2025 X37.875 Y5.37 Z1.03 I0.375 J-0.48
N2030 X37.125 Y6.33 Z0.963 I-0.375 J0.48
N2035 X37.875 Y5.37 Z0.896 I0.375 J-0.48
N2040 X37.125 Y6.33 Z0.829 I-0.375 J0.48
N2045 X37.875 Y5.37 Z0.762 I0.375 J-0.48
N2050 X37.125 Y6.33 Z0.696 I-0.375 J0.48
N2055 X37.875 Y5.37 Z0.629 I0.375 J-0.48
N2060 X37.125 Y6.33 Z0.562 I-0.375 J0.48
N2065 X37.875 Y5.37 Z0.495 I0.375 J-0.48
N2070 X37.125 Y6.33 Z0.428 I-0.375 J0.48
N2075 X37.875 Y5.37 Z0.362 I0.375 J-0.48
N2080 X37.125 Y6.33 Z0.295 I-0.375 J0.48
N2085 X37.875 Y5.37 Z0.228 I0.375 J-0.48
N2090 X37.125 Y6.33 Z0.161 I-0.375 J0.48
N2095 X37.875 Y5.37 Z0.094 I0.375 J-0.48
N2100 X37.125 Y6.33 Z0.028 I-0.375 J0.48
N2105 X37.875 Y5.37 Z-0.039 I0.375 J-0.48
N2110 X37.125 Y6.33 Z-0.106 I-0.375 J0.48
N2115 X37.875 Y5.37 Z-0.173 I0.375 J-0.48
N2120 X37.125 Y6.33 Z-0.24 I-0.375 J0.48
N2125 X37.875 Y5.37 Z-0.307 I0.375 J-0.48
N2130 X37.125 Y6.33 Z-0.373 I-0.375 J0.48
N2135 X37.875 Y5.37 Z-0.44 I0.375 J-0.48
N2140 X37.125 Y6.33 Z-0.507 I-0.375 J0.48
N2145 X37.875 Y5.37 Z-0.574 I0.375 J-0.48
N2150 X37.125 Y6.33 Z-0.641 I-0.375 J0.48
N2155 X37.875 Y5.37 Z-0.707 I0.375 J-0.48
N2160 X37.125 Y6.33 Z-0.774 I-0.375 J0.48
N2165 X37.875 Y5.37 Z-0.841 I0.375 J-0.48
N2170 X37.125 Y6.33 Z-0.908 I-0.375 J0.48
N2175 X37.875 Y5.37 Z-0.975 I0.375 J-0.48
N2180 X37.125 Y6.33 Z-1.041 I-0.375 J0.48
N2185 X37.875 Y5.37 Z-1.108 I0.375 J-0.48
N2190 X37.125 Y6.33 Z-1.175 I-0.375 J0.48
N2195 X37.875 Y5.37 Z-1.242 I0.375 J-0.48
N2200 X37.125 Y6.33 Z-1.309 I-0.375 J0.48
N2205 X37.875 Y5.37 Z-1.375 I0.375 J-0.48
N2210 X37.125 Y6.33 Z-1.442 I-0.375 J0.48
N2215 X37.875 Y5.37 Z-1.509 I0.375 J-0.48
N2220 X37.125 Y6.33 Z-1.576 I-0.375 J0.48
N2225 X37.875 Y5.37 Z-1.643 I0.375 J-0.48
N2230 X37.125 Y6.33 Z-1.71 I-0.375 J0.48
N2235 X37.875 Y5.37 Z-1.776 I0.375 J-0.48
N2240 X37.125 Y6.33 Z-1.843 I-0.375 J0.48
N2245 X37.875 Y5.37 Z-1.91 I0.375 J-0.48
N2250 X37.125 Y6.33 Z-1.977 I-0.375 J0.48
N2255 X37.875 Y5.37 Z-2.044 I0.375 J-0.48
N2260 X37.125 Y6.33 Z-2.11 I-0.375 J0.48
N2265 X37.875 Y5.37 Z-2.177 I0.375 J-0.48
N2270 X37.125 Y6.33 Z-2.244 I-0.375 J0.48
N2275 X37.875 Y5.37 Z-2.311 I0.375 J-0.48
N2280 X37.125 Y6.33 Z-2.378 I-0.375 J0.48
N2285 X37.875 Y5.37 Z-2.444 I0.375 J-0.48
N2290 X37.125 Y6.33 Z-2.511 I-0.375 J0.48
N2295 X37.875 Y5.37 Z-2.578 I0.375 J-0.48
N2300 X37.125 Y6.33 Z-2.645 I-0.375 J0.48
N2305 X37.875 Y5.37 Z-2.712 I0.375 J-0.48
N2310 X37.125 Y6.33 Z-2.779 I-0.375 J0.48
N2315 X37.875 Y5.37 Z-2.845 I0.375 J-0.48
N2320 X37.125 Y6.33 Z-2.912 I-0.375 J0.48
N2325 X37.875 Y5.37 Z-2.979 I0.375 J-0.48
N2330 X37.125 Y6.33 Z-3.046 I-0.375 J0.48
N2335 X37.875 Y5.37 Z-3.113 I0.375 J-0.48
N2340 X37.125 Y6.33 Z-3.179 I-0.375 J0.48
N2345 X37.875 Y5.37 Z-3.246 I0.375 J-0.48
N2350 X37.125 Y6.33 Z-3.313 I-0.375 J0.48
N2355 X37.875 Y5.37 Z-3.38 I0.375 J-0.48
N2360 X37.125 Y6.33 Z-3.447 I-0.375 J0.48
N2365 X37.875 Y5.37 Z-3.513 I0.375 J-0.48
N2370 X37.125 Y6.33 Z-3.58 I-0.375 J0.48
N2375 X37.875 Y5.37 Z-3.647 I0.375 J-0.48
N2380 X37.125 Y6.33 Z-3.714 I-0.375 J0.48
N2385 X37.875 Y5.37 Z-3.781 I0.375 J-0.48
N2390 X38.109 Y5.85 Z-3.8 I-0.375 J0.48
N2395 X36.891 I-0.609 J0.
N2400 X38.109 I0.609 J0.
N2405 G1 X38.158 Y6.256 F300.
N2410 X38.164 Y6.406
N2415 X38.125 Y6.551
N2420 X38.052 Y6.682
N2425 G3 X36.8 Y6.213 I-0.538 J-0.469
N2430 X36.828 Y5.22 I7.219 J-0.292
N2435 G1 X36.887 Y5.082
N2440 X36.973 Y4.959
N2445 G3 X38.191 Y5.436 I0.499 J0.519
N2450 X38.186 Y5.501 Z-3.789 I-0.345 J0.008 F250.
N2455 X37.889 Y5.961 Z-3.7 I-0.682 J-0.115
N2460 X37.066 Y5.921 I-0.385 J-0.574
N2465 X36.813 Y5.37 Z-3.8 I0.438 J-0.535
N2470 X36.879 Y4.777 I2.064 J-0.07 F300.
N2475 X38.161 Y4.992 I0.621 J0.226
N2480 G1 X38.195 Y5.507
N2485 X38.2 Y5.678
N2490 Y6.76
N2495 G3 X37.892 Y7.312 I-0.579 J0.038
N2500 X36.8 Y6.67 I-0.357 J-0.641
N2505 G1 Y6.213
N2510 G3 X37.069 Y5.888 Z-3.728 I0.345 J0.012 F250.
N2515 X37.242 Y5.866 Z-3.7 I0.205 J0.904
N2520 X37.975 Y6.187 I0.032 J0.926
N2525 X38.2 Y6.76 Z-3.8 I-0.701 J0.606
N2530 G1 Y7.223 F300.
N2535 G3 X37.9 Y7.782 I-0.573 J0.052
N2540 X36.8 Y7.145 I-0.366 J-0.637
N2545 G1 Y6.67
N2550 G3 X37.073 Y6.345 Z-3.727 I0.345 J0.012 F250.
N2555 X37.242 Y6.324 Z-3.7 I0.196 J0.911
N2560 X37.976 Y6.649 I0.027 J0.932
N2565 X38.2 Y7.223 Z-3.8 I-0.708 J0.607
N2570 G1 Y7.704 F300.
N2575 G3 X37.897 Y8.259 I-0.569 J0.05
N2580 X36.8 Y7.619 I-0.361 J-0.641
N2585 G1 Y7.145
N2590 G3 X37.076 Y6.819 Z-3.727 I0.345 J0.012 F250.
N2595 X37.242 Y6.8 Z-3.7 I0.189 J0.917
N2600 X37.977 Y7.129 I0.022 J0.936
N2605 X38.2 Y7.703 Z-3.8 I-0.713 J0.607
N2610 G1 Y8.176 F300.
N2615 G3 X37.898 Y8.733 I-0.57 J0.051
N2620 X36.8 Y8.093 I-0.363 J-0.64
N2625 G1 Y7.619
N2630 G3 X37.075 Y7.292 Z-3.727 I0.345 J0.012 F250.
N2635 X37.242 Y7.273 Z-3.7 I0.19 J0.916
N2640 X37.977 Y7.602 I0.023 J0.935
N2645 X38.2 Y8.176 Z-3.8 I-0.712 J0.607
N2650 G1 Y8.649 F300.
N2655 G3 X37.899 Y9.206 I-0.571 J0.052
N2660 X36.8 Y8.568 I-0.364 J-0.639
N2665 G1 Y8.093
N2670 G3 X37.074 Y7.768 Z-3.727 I0.345 J0.012 F250.
N2675 X37.242 Y7.748 Z-3.7 I0.193 J0.914
N2680 X37.976 Y8.074 I0.025 J0.933
N2685 X38.2 Y8.649 Z-3.8 I-0.71 J0.607
N2690 G1 Y9.14 F300.
N2695 G3 X37.889 Y9.689 I-0.57 J0.04
N2700 X36.8 Y9.042 I-0.353 J-0.647
N2705 G1 Y8.568
N2710 G3 X37.083 Y8.24 Z-3.725 I0.345 J0.012 F250.
N2715 X37.242 Y8.225 Z-3.7 I0.169 J0.933
N2720 X37.979 Y8.564 I0.01 J0.948
N2725 X38.2 Y9.14 Z-3.8 I-0.727 J0.609
N2730 G1 Y9.627 F300.
N2735 G3 X37.884 Y10.171 I-0.565 J0.036
N2740 X36.8 Y9.519 I-0.346 J-0.652
N2745 G1 Y9.042
N2750 G3 X37.09 Y8.713 Z-3.724 I0.345 J0.012 F250.
N2755 X37.242 Y8.701 Z-3.7 I0.151 J0.947
N2760 X37.981 Y9.05 I-0.001 J0.959
N2765 X38.2 Y9.627 Z-3.8 I-0.74 J0.61
N2770 G1 Y10.107 F300.
N2775 G3 X37.883 Y10.65 I-0.564 J0.035
N2780 X36.8 Y9.998 I-0.345 J-0.652
N2785 G1 Y9.519
N2790 G3 X37.092 Y9.19 Z-3.724 I0.345 J0.012 F250.
N2795 X37.242 Y9.179 Z-3.7 I0.147 J0.95
N2800 X37.982 Y9.53 I-0.003 J0.961
N2805 X38.2 Y10.107 Z-3.8 I-0.743 J0.611
N2810 G1 Y10.579 F300.
N2815 G3 X37.887 Y11.126 I-0.566 J0.038
N2820 X36.8 Y10.477 I-0.35 J-0.649
N2825 G1 Y9.998
N2830 G3 X37.089 Y9.669 Z-3.725 I0.345 J0.012 F250.
N2835 X37.242 Y9.657 Z-3.7 I0.156 J0.943
N2840 X37.981 Y10.003 I0.002 J0.956
N2845 X38.2 Y10.579 Z-3.8 I-0.736 J0.61
N2850 G1 Y11.052 F300.
N2855 X38.193 Y11.202
N2860 X38.143 Y11.343
N2865 X38.063 Y11.47
N2870 G3 X36.8 Y10.955 I-0.526 J-0.515
N2875 G1 Y10.477
N2880 G3 X37.085 Y10.149 Z-3.725 I0.345 J0.012 F250.
N2885 X37.242 Y10.135 Z-3.7 I0.165 J0.936
N2890 X37.98 Y10.476 I0.008 J0.95
N2895 X38.2 Y11.052 Z-3.8 I-0.73 J0.609
N2900 G1 Y11.515 F300.
N2905 G3 X37.898 Y12.071 I-0.57 J0.05
N2910 X36.8 Y11.432 I-0.362 J-0.64
N2915 G1 Y10.955
N2920 G3 X37.077 Y10.628 Z-3.727 I0.345 J0.012 F250.
N2925 X37.242 Y10.61 Z-3.7 I0.186 J0.919
N2930 X37.977 Y10.94 I0.021 J0.938
N2935 X38.2 Y11.515 Z-3.8 I-0.715 J0.607
N2940 G1 Y11.995 F300.
N2945 G3 X37.894 Y12.549 I-0.567 J0.048
N2950 X36.8 Y11.906 I-0.358 J-0.643
N2955 G1 Y11.432
N2960 G3 X37.078 Y11.105 Z-3.726 I0.345 J0.012 F250.
N2965 X37.242 Y11.088 Z-3.7 I0.182 J0.923
N2970 X37.978 Y11.42 I0.018 J0.94
N2975 X38.2 Y11.995 Z-3.8 I-0.718 J0.608
N2980 G1 Y12.468 F300.
N2985 G3 X37.896 Y13.023 I-0.568 J0.049
N2990 X36.8 Y12.382 I-0.36 J-0.642
N2995 G1 Y11.906
N3000 G3 X37.077 Y11.58 Z-3.726 I0.345 J0.012 F250.
N3005 X37.242 Y11.562 Z-3.7 I0.184 J0.921
N3010 X37.978 Y11.893 I0.019 J0.939
N3015 X38.2 Y12.468 Z-3.8 I-0.716 J0.608
N3020 G1 Y12.94 F300.
N3025 G3 X37.898 Y13.496 I-0.57 J0.05
N3030 X36.8 Y12.857 I-0.362 J-0.64
N3035 G1 Y12.382
N3040 G3 X37.076 Y12.056 Z-3.727 I0.345 J0.012 F250.
N3045 X37.242 Y12.037 Z-3.7 I0.188 J0.917
N3050 X37.977 Y12.366 I0.022 J0.936
N3055 X38.2 Y12.94 Z-3.8 I-0.713 J0.607
N3060 G1 Y13.432 F300.
N3065 G3 X37.888 Y13.98 I-0.569 J0.038
N3070 X36.8 Y13.331 I-0.351 J-0.648
N3075 G1 Y12.857
N3080 G3 X37.085 Y12.529 Z-3.725 I0.345 J0.012 F250.
N3085 X37.242 Y12.515 Z-3.7 I0.165 J0.936
N3090 X37.98 Y12.856 I0.008 J0.951
N3095 X38.2 Y13.432 Z-3.8 I-0.73 J0.609
N3100 G1 Y13.918 F300.
N3105 G3 X37.883 Y14.462 I-0.565 J0.035
N3110 X36.8 Y13.809 I-0.345 J-0.653
N3115 G1 Y13.331
N3120 G3 X37.092 Y13.003 Z-3.724 I0.345 J0.012 F250.
N3125 X37.242 Y12.991 Z-3.7 I0.148 J0.949
N3130 X37.982 Y13.341 I-0.003 J0.961
N3135 X38.2 Y13.918 Z-3.8 I-0.742 J0.611
N3140 G1 Y14.399 F300.
N3145 G3 X37.882 Y14.941 I-0.563 J0.034
N3150 X36.8 Y14.288 I-0.344 J-0.653
N3155 X36.821 Y14.181 Z-3.783 I0.349 J0.012 F250.
N3160 X37.152 Y13.797 Z-3.7 I0.669 J0.242
N3165 X37.921 Y13.859 I0.337 J0.626
N3170 X38.2 Y14.399 Z-3.8 I-0.432 J0.565
N3175 G1 Y14.871 F300.
N3180 G3 X37.886 Y15.417 I-0.566 J0.038
N3185 X36.8 Y14.767 I-0.349 J-0.65
N3190 X36.818 Y14.667 Z-3.784 I0.349 J0.012 F250.
N3195 X37.149 Y14.274 Z-3.7 I0.672 J0.229
N3200 X37.921 Y14.331 I0.342 J0.622
N3205 X38.2 Y14.871 Z-3.8 I-0.43 J0.565
N3210 G1 Y15.344 F300.
N3215 X38.193 Y15.494
N3220 X38.143 Y15.635
N3225 X38.062 Y15.761
N3230 G3 X36.8 Y15.245 I-0.526 J-0.516
N3235 X36.817 Y15.15 Z-3.785 I0.349 J0.012 F250.
N3240 X37.146 Y14.749 Z-3.7 I0.675 J0.218
N3245 X37.921 Y14.804 I0.346 J0.619
N3250 X38.2 Y15.344 Z-3.8 I-0.429 J0.564
N3255 G1 Y15.807 F300.
N3260 G3 X37.897 Y16.362 I-0.569 J0.05
N3265 X36.8 Y15.723 I-0.362 J-0.64
N3270 G1 X36.804 Y15.681 Z-3.793 F250.
N3275 X36.813 Y15.641 Z-3.787
N3280 G3 X37.138 Y15.22 Z-3.7 I0.681 J0.191
N3285 X37.92 Y15.268 I0.356 J0.611
N3290 X38.2 Y15.807 Z-3.8 I-0.426 J0.564
N3295 G1 Y16.287 F300.
N3300 G3 X37.894 Y16.84 I-0.566 J0.048
N3305 X36.8 Y16.197 I-0.358 J-0.644
N3310 G1 X36.804 Y16.153 Z-3.793 F250.
N3315 X36.814 Y16.11 Z-3.786
N3320 G3 X37.141 Y15.697 Z-3.7 I0.678 J0.202
N3325 X37.92 Y15.748 I0.351 J0.614
N3330 X38.2 Y16.287 Z-3.8 I-0.428 J0.564
N3335 X38.161 Y16.951 I-6.066 J-0.026 F300.
N3340 G1 X38.103 Y17.09
N3345 X38.017 Y17.212
N3350 G3 X36.819 Y16.731 I-0.485 J-0.523
N3355 X36.825 Y16.661 Z-3.789 I0.34 J-0.008 F250.
N3360 X37.127 Y16.211 Z-3.7 I0.67 J0.124
N3365 X37.921 Y16.253 I0.368 J0.574
N3370 X38.177 Y16.802 Z-3.8 I-0.425 J0.533
N3375 X38.058 Y17.354 I-1. J0.073 F300.
N3380 X36.84 Y17.008 I-0.557 J-0.357
N3385 G1 X36.805 Y16.493
N3390 X36.8 Y16.322
N3395 Y13.809
N3400 G3 X37.214 Y13.423 I0.4 J0.014 F250.
N3405 X37.6 Y13.837 I-0.014 J0.4
N3410 G1 X37.597 Y13.915 Z-3.792
N3415 X37.594 Y13.99 Z-3.77
N3420 X37.592 Y14.059 Z-3.733
N3425 X37.59 Y14.12 Z-3.683
N3430 X37.588 Y14.169 Z-3.622
N3435 X37.587 Y14.206 Z-3.553
N3440 X37.586 Y14.229 Z-3.478
N3445 Y14.237 Z-3.4
N3450 G0 Z10.
N3455 X52.359 Y16.239
N3460 Z3.1
N3465 G1 Z2.7 F250.
N3470 G3 X49.641 Y14.683 Z2.528 I-1.359 J-0.778 F150.
N3475 X52.359 Y16.239 Z2.356 I1.359 J0.778
N3480 X49.641 Y14.683 Z2.185 I-1.359 J-0.778
N3485 X52.359 Y16.239 Z2.013 I1.359 J0.778
N3490 X49.641 Y14.683 Z1.841 I-1.359 J-0.778
N3495 X52.359 Y16.239 Z1.669 I1.359 J0.778
N3500 X49.641 Y14.683 Z1.497 I-1.359 J-0.778
N3505 X52.359 Y16.239 Z1.326 I1.359 J0.778
N3510 X49.641 Y14.683 Z1.154 I-1.359 J-0.778
N3515 X52.359 Y16.239 Z0.982 I1.359 J0.778
N3520 X49.641 Y14.683 Z0.81 I-1.359 J-0.778
N3525 X52.359 Y16.239 Z0.638 I1.359 J0.778
N3530 X49.641 Y14.683 Z0.467 I-1.359 J-0.778
N3535 X52.359 Y16.239 Z0.295 I1.359 J0.778
N3540 X49.641 Y14.683 Z0.123 I-1.359 J-0.778
N3545 X52.359 Y16.239 Z-0.049 I1.359 J0.778
N3550 X49.641 Y14.683 Z-0.221 I-1.359 J-0.778
N3555 X52.359 Y16.239 Z-0.392 I1.359 J0.778
N3560 X49.641 Y14.683 Z-0.564 I-1.359 J-0.778
N3565 X52.359 Y16.239 Z-0.736 I1.359 J0.778
N3570 X49.641 Y14.683 Z-0.908 I-1.359 J-0.778
N3575 X52.359 Y16.239 Z-1.08 I1.359 J0.778
N3580 X49.641 Y14.683 Z-1.251 I-1.359 J-0.778
N3585 X52.359 Y16.239 Z-1.423 I1.359 J0.778
N3590 X49.641 Y14.683 Z-1.595 I-1.359 J-0.778
N3595 X52.359 Y16.239 Z-1.767 I1.359 J0.778
N3600 X49.641 Y14.683 Z-1.939 I-1.359 J-0.778
N3605 X52.359 Y16.239 Z-2.11 I1.359 J0.778
N3610 X49.641 Y14.683 Z-2.282 I-1.359 J-0.778
N3615 X52.359 Y16.239 Z-2.454 I1.359 J0.778
N3620 X49.641 Y14.683 Z-2.626 I-1.359 J-0.778
N3625 X52.359 Y16.239 Z-2.798 I1.359 J0.778
N3630 X49.641 Y14.683 Z-2.969 I-1.359 J-0.778
N3635 X52.359 Y16.239 Z-3.141 I1.359 J0.778
N3640 X49.641 Y14.683 Z-3.313 I-1.359 J-0.778
N3645 X52.359 Y16.239 Z-3.485 I1.359 J0.778
N3650 X49.641 Y14.683 Z-3.657 I-1.359 J-0.778
N3655 X52.566 Y15.461 Z-3.8 I1.359 J0.778
N3660 X49.434 I-1.566 J0.
N3665 X52.566 I1.566 J0.
N3670 G1 X52.587 Y16.218 F300.
N3675 G3 X52.372 Y17.055 I-0.757 J0.252
N3680 G1 X52.194 Y17.188
N3685 X51.988 Y17.271
N3690 X51.768 Y17.3
N3695 X50.112
N3700 X49.962 Y17.292
N3705 G3 X49.2 Y16.376 I0.17 J-0.916
N3710 X49.613 Y15.991 Z-3.7 I0.4 J0.014 F250.
N3715 X49.886 Y16.111 I-0.014 J0.4
N3720 G1 X50.106 Y16.337
N3725 X50.157 Y16.388 F2000.
N3730 X50.384 Y16.621 F250.
N3735 G3 X50.498 Y16.887 I-0.286 J0.279
N3740 X50.112 Y17.3 Z-3.8 I-0.4 J0.014
N3745 G1 X49.595 Y17.299 F300.
N3750 X49.552 Y17.295
N3755 X49.509 Y17.285
N3760 X49.466 Y17.271
N3765 X49.423 Y17.25
N3770 X49.374 Y17.218
N3775 X49.325 Y17.177
N3780 X49.282 Y17.129
N3785 X49.251 Y17.081
N3790 X49.232 Y17.043
N3795 X49.218 Y17.005
N3800 X49.207 Y16.962
N3805 X49.201 Y16.919
N3810 X49.2 Y16.834
N3815 Y14.603
N3820 G3 X50.17 Y13.168 I1.604 J0.039
N3825 X52.538 Y13.384 I1.014 J1.982
N3830 G1 X52.678 Y13.582
N3835 X52.769 Y13.805
N3840 X52.8 Y14.044
N3845 Y16.834
N3850 X52.799 Y16.919
N3855 X52.793 Y16.962
N3860 X52.782 Y17.005
N3865 X52.768 Y17.043
N3870 X52.749 Y17.081
N3875 X52.725 Y17.119
N3880 X52.694 Y17.157
N3885 X52.675 Y17.177
N3890 X52.636 Y17.209
N3895 X52.598 Y17.237
N3900 X52.56 Y17.258
N3905 X52.522 Y17.275
N3910 X52.479 Y17.288
N3915 X52.436 Y17.296
N3920 X52.35 Y17.3
N3925 X51.768
N3930 G3 X51.491 Y17.175 Z-3.75 I0.014 J-0.4 F250.
N3935 G1 X51.274 Y16.945 Z-3.7
N3940 X50.848 Y16.494
N3945 X49.968 Y15.562 F2000.
N3950 X49.542 Y15.11 F250.
N3955 X49.309 Y14.864 Z-3.754
N3960 G3 X49.2 Y14.603 Z-3.8 I0.291 J-0.275
N3965 G1 Y13.574 F300.
N3970 G3 X49.985 Y12.311 I1.54 J0.082
N3975 X52.331 Y12.045 I1.428 J2.118
N3980 X52.801 Y12.865 I-0.506 J0.835
N3985 G1 X52.8 Y14.044
N3990 G3 X52.387 Y14.43 Z-3.7 I-0.4 J-0.014 F250.
N3995 X52.334 Y14.425 I0.014 J-0.4
N4000 G1 X51.774 Y14.331
N4005 X50.225 Y14.07 F2000.
N4010 X49.613 Y13.967 F250.
N4015 X49.533 Y13.954 Z-3.713
N4020 G3 X49.2 Y13.574 Z-3.8 I0.066 J-0.394
N4025 G1 Y12.621 F300.
N4030 G3 X49.838 Y11.418 I1.568 J0.061
N4035 X52.071 Y10.835 I1.718 J2.012
N4040 X52.8 Y11.747 I-0.209 J0.915
N4045 G1 Y12.865
N4050 G3 X52.387 Y13.25 Z-3.7 I-0.4 J-0.014 F250.
N4055 G1 X52.366 Y13.249
N4060 X51.768 Y13.197
N4065 X50.232 Y13.064 F2000.
N4070 X49.613 Y13.01 F250.
N4075 X49.565 Y13.006 Z-3.708
N4080 G3 X49.2 Y12.621 Z-3.8 I0.035 J-0.399
N4085 G1 Y11.592 F300.
N4090 G3 X49.852 Y10.357 I1.664 J0.089
N4095 X52.055 Y9.731 I1.744 J1.942
N4100 X52.8 Y10.647 I-0.196 J0.92
N4105 G1 Y11.747
N4110 G3 X52.387 Y12.133 Z-3.7 I-0.4 J-0.014 F250.
N4115 G1 X52.378
N4120 X51.767 Y12.099
N4125 X50.233 Y12.014 F2000.
N4130 X49.613 Y11.979 F250.
N4135 X49.578 Y11.977 Z-3.706
N4140 G3 X49.2 Y11.592 Z-3.8 I0.022 J-0.399
N4145 G1 Y10.562 F300.
N4150 G3 X49.973 Y9.18 I1.772 J0.084
N4155 X52.102 Y8.645 I1.632 J1.987
N4160 X52.8 Y9.55 I-0.242 J0.908
N4165 G1 Y10.647
N4170 G3 X52.388 Y11.033 Z-3.7 I-0.4 J-0.014 F250.
N4175 G1 X52.387
N4180 X51.766 Y11.014
N4185 X50.234 Y10.968 F2000.
N4190 X49.613 Y10.949 F250.
N4195 X49.588 Y10.948 Z-3.704
N4200 G3 X49.2 Y10.562 Z-3.8 I0.012 J-0.4
N4205 G1 Y9.456 F300.
N4210 G3 X49.995 Y8.074 I1.792 J0.112
N4215 X52.038 Y7.538 I1.616 J1.997
N4220 X52.8 Y8.458 I-0.178 J0.923
N4225 G1 Y9.55
N4230 G3 X52.387 Y9.936 Z-3.7 I-0.4 J-0.014 F250.
N4235 G1 X51.766 Y9.915
N4240 X50.234 Y9.863 F2000.
N4245 X49.613 Y9.843 F250.
N4250 X49.586 Y9.842 Z-3.704
N4255 G3 X49.2 Y9.456 Z-3.8 I0.013 J-0.4
N4260 G1 Y8.332 F300.
N4265 G3 X49.876 Y7.076 I1.732 J0.122
N4270 X52.056 Y6.448 I1.734 J1.924
N4275 X52.8 Y7.365 I-0.197 J0.921
N4280 G1 Y8.458
N4285 G3 X52.387 Y8.844 Z-3.7 I-0.4 J-0.014 F250.
N4290 G1 X52.382
N4295 X51.767 Y8.816
N4300 X50.233 Y8.747 F2000.
N4305 X49.613 Y8.719 F250.
N4310 X49.582 Y8.718 Z-3.705
N4315 G3 X49.2 Y8.332 Z-3.8 I0.018 J-0.4
N4320 G1 Y7.303 F300.
N4325 G3 X49.966 Y5.912 I1.788 J0.079
N4330 X52.095 Y5.364 I1.642 J1.97
N4335 X52.8 Y6.271 I-0.234 J0.909
N4340 G1 Y7.365
N4345 G3 X52.391 Y7.751 Z-3.701 I-0.4 J-0.014 F250.
N4350 G1 X52.387 Z-3.7
N4355 X51.766 Y7.737
N4360 X50.234 Y7.703 F2000.
N4365 X49.613 Y7.689 F250.
N4370 X49.591 Y7.688 Z-3.704
N4375 G3 X49.2 Y7.303 Z-3.8 I0.009 J-0.4
N4380 G1 Y6.199 F300.
N4385 G3 X50.013 Y4.801 I1.732 J0.072
N4390 G1 X50.22 Y4.726
N4395 X50.439 Y4.7
N4400 G3 X50.825 Y5.113 Z-3.7 I-0.014 J0.4 F250.
N4405 X50.743 Y5.342 I-0.4 J-0.014
N4410 G1 X50.516 Y5.64
N4415 X50.079 Y6.212 F2000.
N4420 X49.918 Y6.424 F250.
N4425 G3 X49.613 Y6.582 I-0.318 J-0.243
N4430 X49.2 Y6.196 Z-3.8 I-0.014 J-0.4
N4435 G1 Y5.166 F300.
N4440 X49.201 Y5.081
N4445 X49.207 Y5.038
N4450 X49.218 Y4.995
N4455 X49.232 Y4.957
N4460 X49.251 Y4.919
N4465 X49.282 Y4.871
N4470 X49.325 Y4.823
N4475 X49.374 Y4.782
N4480 X49.423 Y4.75
N4485 X49.466 Y4.729
N4490 X49.509 Y4.715
N4495 X49.552 Y4.705
N4500 G3 X52.328 I1.415 J159.648
N4505 X52.8 Y5.277 I-0.114 J0.576
N4510 G1 X52.791 Y5.367 Z-3.786 F250.
N4515 X52.768 Y5.455 Z-3.771
N4520 X52.733 Y5.54 Z-3.757
N4525 X52.687 Y5.618 Z-3.742
N4530 X52.63 Y5.689 Z-3.728
N4535 G3 X52.496 Y5.797 Z-3.7 I-0.432 J-0.4
N4540 X51.903 Y5.798 I-0.297 J-0.508
N4545 X51.708 Y5.614 I0.295 J-0.509 F2000.
N4550 X51.673 Y5.022 I0.491 J-0.325 F250.
N4555 X52.178 Y4.7 Z-3.8 I0.525 J0.266
N4560 G1 X52.35 F300.
N4565 X52.436 Y4.704
N4570 X52.479 Y4.712
N4575 X52.522 Y4.725
N4580 X52.56 Y4.742
N4585 X52.598 Y4.763
N4590 X52.636 Y4.791
N4595 X52.675 Y4.823
N4600 X52.694 Y4.843
N4605 X52.725 Y4.881
N4610 X52.749 Y4.919
N4615 X52.768 Y4.957
N4620 X52.782 Y4.995
N4625 X52.793 Y5.038
N4630 X52.799 Y5.081
N4635 X52.8 Y5.166
N4640 Y6.271
N4645 G3 X52.173 Y6.585 I-0.4 J-0.014 F250.
N4650 G1 X52.131 Y6.541 Z-3.795
N4655 X52.091 Y6.497 Z-3.781
N4660 X52.053 Y6.456 Z-3.758
N4665 X52.037 Y6.404 Z-3.726
N4670 X52.023 Y6.358 Z-3.685
N4675 X52.011 Y6.319 Z-3.637
N4680 X52.001 Y6.287 Z-3.583
N4685 Y6.27 Z-3.545
N4690 X52. Y6.257 Z-3.505
N4695 Y6.246 Z-3.453
N4700 Y6.243 Z-3.4
N4705 G0 Z5.
N4710 X10.175 Y6.148
N4715 Z3.1
N4720 G1 Z2.7 F250.
N4725 G3 X11.825 Y6.93 Z2.6 I0.825 J0.391 F150.
N4730 X10.175 Y6.148 Z2.5 I-0.825 J-0.391
N4735 X11.825 Y6.93 Z2.399 I0.825 J0.391
N4740 X10.175 Y6.148 Z2.299 I-0.825 J-0.391
N4745 X11.825 Y6.93 Z2.199 I0.825 J0.391
N4750 X10.175 Y6.148 Z2.099 I-0.825 J-0.391
N4755 X11.825 Y6.93 Z1.998 I0.825 J0.391
N4760 X10.175 Y6.148 Z1.898 I-0.825 J-0.391
N4765 X11.825 Y6.93 Z1.798 I0.825 J0.391
N4770 X10.175 Y6.148 Z1.698 I-0.825 J-0.391
N4775 X11.825 Y6.93 Z1.598 I0.825 J0.391
N4780 X10.175 Y6.148 Z1.497 I-0.825 J-0.391
N4785 X11.825 Y6.93 Z1.397 I0.825 J0.391
N4790 X10.175 Y6.148 Z1.297 I-0.825 J-0.391
N4795 X11.825 Y6.93 Z1.197 I0.825 J0.391
N4800 X10.175 Y6.148 Z1.097 I-0.825 J-0.391
N4805 X11.825 Y6.93 Z0.996 I0.825 J0.391
N4810 X10.175 Y6.148 Z0.896 I-0.825 J-0.391
N4815 X11.825 Y6.93 Z0.796 I0.825 J0.391
N4820 X10.175 Y6.148 Z0.696 I-0.825 J-0.391
N4825 X11.825 Y6.93 Z0.595 I0.825 J0.391
N4830 X10.175 Y6.148 Z0.495 I-0.825 J-0.391
N4835 X11.825 Y6.93 Z0.395 I0.825 J0.391
N4840 X10.175 Y6.148 Z0.295 I-0.825 J-0.391
N4845 X11.825 Y6.93 Z0.195 I0.825 J0.391
N4850 X10.175 Y6.148 Z0.094 I-0.825 J-0.391
N4855 X11.825 Y6.93 Z-0.006 I0.825 J0.391
N4860 X10.175 Y6.148 Z-0.106 I-0.825 J-0.391
N4865 X11.825 Y6.93 Z-0.206 I0.825 J0.391
N4870 X10.175 Y6.148 Z-0.307 I-0.825 J-0.391
N4875 X11.825 Y6.93 Z-0.407 I0.825 J0.391
N4880 X10.175 Y6.148 Z-0.507 I-0.825 J-0.391
N4885 X11.825 Y6.93 Z-0.607 I0.825 J0.391
N4890 X10.175 Y6.148 Z-0.707 I-0.825 J-0.391
N4895 X11.825 Y6.93 Z-0.808 I0.825 J0.391
N4900 X10.175 Y6.148 Z-0.908 I-0.825 J-0.391
N4905 X11.825 Y6.93 Z-1.008 I0.825 J0.391
N4910 X10.175 Y6.148 Z-1.108 I-0.825 J-0.391
N4915 X11.825 Y6.93 Z-1.208 I0.825 J0.391
N4920 X10.175 Y6.148 Z-1.309 I-0.825 J-0.391
N4925 X11.825 Y6.93 Z-1.409 I0.825 J0.391
N4930 X10.175 Y6.148 Z-1.509 I-0.825 J-0.391
N4935 X11.825 Y6.93 Z-1.609 I0.825 J0.391
N4940 X10.175 Y6.148 Z-1.71 I-0.825 J-0.391
N4945 X11.825 Y6.93 Z-1.81 I0.825 J0.391
N4950 X10.175 Y6.148 Z-1.91 I-0.825 J-0.391
N4955 X11.825 Y6.93 Z-2.01 I0.825 J0.391
N4960 X10.175 Y6.148 Z-2.11 I-0.825 J-0.391
N4965 X11.825 Y6.93 Z-2.211 I0.825 J0.391
N4970 X10.175 Y6.148 Z-2.311 I-0.825 J-0.391
N4975 X11.825 Y6.93 Z-2.411 I0.825 J0.391
N4980 X10.175 Y6.148 Z-2.511 I-0.825 J-0.391
N4985 X11.825 Y6.93 Z-2.612 I0.825 J0.391
N4990 X10.175 Y6.148 Z-2.712 I-0.825 J-0.391
N4995 X11.825 Y6.93 Z-2.812 I0.825 J0.391
N5000 X10.175 Y6.148 Z-2.912 I-0.825 J-0.391
N5005 X11.825 Y6.93 Z-3.012 I0.825 J0.391
N5010 X10.175 Y6.148 Z-3.113 I-0.825 J-0.391
N5015 X11.825 Y6.93 Z-3.213 I0.825 J0.391
N5020 X10.175 Y6.148 Z-3.313 I-0.825 J-0.391
N5025 X11.825 Y6.93 Z-3.413 I0.825 J0.391
N5030 X10.175 Y6.148 Z-3.513 I-0.825 J-0.391
N5035 X11.825 Y6.93 Z-3.614 I0.825 J0.391
N5040 X10.175 Y6.148 Z-3.714 I-0.825 J-0.391
N5045 X11.913 Y6.539 Z-3.8 I0.825 J0.391
N5050 X10.087 I-0.913 J0.
N5055 X11.913 I0.913 J0.
N5060 G1 X11.945 Y7.184 F300.
N5065 G3 X11.265 Y8.072 I-0.935 J-0.011
N5070 X9.951 Y7.224 I-0.385 J-0.845
N5075 G1 X9.95 Y6.367
N5080 G3 X10.123 Y5.508 I2.068 J-0.031
N5085 G1 X10.171 Y5.446 Z-3.787 F250.
N5090 X10.231 Y5.394 Z-3.775
N5095 X10.3 Y5.355 Z-3.762
N5100 X10.375 Y5.33 Z-3.75
N5105 X10.454 Y5.32 Z-3.738
N5110 X10.532 Y5.326 Z-3.725
N5115 X10.608 Y5.347 Z-3.713
N5120 X10.678 Y5.382 Z-3.7
N5125 G3 X10.834 Y5.88 I-0.211 J0.34
N5130 G1 X10.827 Y5.897
N5135 X10.791 Y5.981
N5140 G3 X10.359 Y6.217 I-0.367 J-0.159
N5145 X10.029 Y5.758 Z-3.8 I0.064 J-0.395
N5150 X10.326 Y5.262 I0.873 J0.186 F300.
N5155 G1 X10.39 Y5.218 Z-3.787 F250.
N5160 X10.462 Y5.188 Z-3.775
N5165 X10.539 Y5.172 Z-3.762
N5170 X10.617 Y5.171 Z-3.75
N5175 X10.694 Y5.186 Z-3.738
N5180 X10.766 Y5.215 Z-3.725
N5185 X10.832 Y5.258 Z-3.713
N5190 X10.888 Y5.313 Z-3.7
N5195 G3 X10.897 Y5.814 I-0.307 J0.256
N5200 G1 X10.848 Y5.876
N5205 X10.835 Y5.894 F2000.
N5210 X10.797 Y5.942 F250.
N5215 G3 X10.294 Y6.05 I-0.316 J-0.245
N5220 X10.128 Y5.51 Z-3.8 I0.188 J-0.353
N5225 X10.625 Y5.075 I0.809 J0.424 F300.
N5230 G1 X10.701 Y5.057 Z-3.787 F250.
N5235 X10.779 Y5.053 Z-3.775
N5240 X10.856 Y5.065 Z-3.762
N5245 X10.929 Y5.091 Z-3.75
N5250 X10.996 Y5.132 Z-3.738
N5255 X11.054 Y5.184 Z-3.725
N5260 X11.101 Y5.247 Z-3.713
N5265 X11.134 Y5.318 Z-3.7
N5270 G3 X10.966 Y5.792 I-0.377 J0.133
N5275 G1 X10.9 Y5.832
N5280 X10.89 Y5.838 F2000.
N5285 X10.824 Y5.879 F250.
N5290 G3 X10.326 Y5.814 I-0.209 J-0.341
N5295 X10.339 Y5.249 Z-3.8 I0.289 J-0.276
N5300 X11.992 Y5.852 I0.666 J0.742 F300.
N5305 G1 X12.02 Y6.024
N5310 X12.048 Y6.196
N5315 X12.05 Y6.367
N5320 Y7.792
N5325 G3 X11.157 Y8.861 I-1.137 J-0.043
N5330 G1 X11.008 Y8.905
N5335 G3 X9.95 Y7.98 I-0.125 J-0.925
N5340 G1 Y7.224
N5345 G3 X10.363 Y6.838 Z-3.7 I0.4 J0.014 F250.
N5350 X10.51 Y6.871 I-0.014 J0.4
N5355 G1 X10.94 Y7.059
N5360 X11.078 Y7.119 F2000.
N5365 X11.647 Y7.368 F250.
N5370 X11.81 Y7.439 Z-3.728
N5375 G3 X12.05 Y7.792 Z-3.8 I-0.16 J0.367
N5380 G1 Y8.521 F300.
N5385 G3 X11.035 Y9.644 I-1.164 J-0.032
N5390 G1 X11.025 Y9.656
N5395 G3 X9.95 Y8.733 I-0.142 J-0.923
N5400 G1 Y7.98
N5405 G3 X10.363 Y7.594 Z-3.7 I0.4 J0.014 F250.
N5410 X10.503 Y7.625 I-0.014 J0.4
N5415 G1 X10.944 Y7.808
N5420 X11.072 Y7.861 F2000.
N5425 X11.646 Y8.1 F250.
N5430 X11.804 Y8.165 Z-3.727
N5435 G3 X12.05 Y8.521 Z-3.8 I-0.154 J0.369
N5440 G1 Y9.284 F300.
N5445 G3 X11.17 Y10.365 I-1.14 J-0.03
N5450 G1 X11.027 Y10.409
N5455 G3 X9.95 Y9.487 I-0.143 J-0.922
N5460 G1 Y8.733
N5465 G3 X10.363 Y8.348 Z-3.7 I0.4 J0.014 F250.
N5470 X10.506 Y8.379 I-0.014 J0.4
N5475 G1 X10.942 Y8.564
N5480 X11.075 Y8.62 F2000.
N5485 X11.646 Y8.862 F250.
N5490 X11.806 Y8.93 Z-3.728
N5495 G3 X12.05 Y9.284 Z-3.8 I-0.156 J0.368
N5500 G1 Y10.065 F300.
N5505 G3 X11.148 Y11.126 I-1.139 J-0.055
N5510 X9.952 Y10.239 I-0.275 J-0.879
N5515 G1 X9.95 Y9.487
N5520 G3 X10.363 Y9.101 Z-3.7 I0.4 J0.014 F250.
N5525 X10.512 Y9.136 I-0.014 J0.4
N5530 G1 X10.939 Y9.325
N5535 X11.08 Y9.388 F2000.
N5540 X11.647 Y9.64 F250.
N5545 X11.813 Y9.713 Z-3.729
N5550 G3 X12.05 Y10.065 Z-3.8 I-0.162 J0.366
N5555 G1 Y10.828 F300.
N5560 G3 X11.281 Y11.835 I-1.107 J-0.049
N5565 X9.95 Y10.992 I-0.399 J-0.842
N5570 G1 Y10.239
N5575 G3 X10.363 Y9.853 Z-3.7 I0.4 J0.014 F250.
N5580 X10.515 Y9.888 I-0.014 J0.4
N5585 G1 X10.938 Y10.08
N5590 X11.083 Y10.146 F2000.
N5595 X11.648 Y10.402 F250.
N5600 X11.815 Y10.478 Z-3.729
N5605 G3 X12.05 Y10.828 Z-3.8 I-0.165 J0.364
N5610 G1 Y11.567 F300.
N5615 G3 X11.152 Y12.631 I-1.136 J-0.048
N5620 G1 X11.004 Y12.675
N5625 G3 X9.95 Y11.749 I-0.121 J-0.925
N5630 G1 Y10.992
N5635 G3 X10.363 Y10.606 Z-3.7 I0.4 J0.014 F250.
N5640 X10.511 Y10.64 I-0.014 J0.4
N5645 G1 X10.939 Y10.829
N5650 X11.079 Y10.891 F2000.
N5655 X11.647 Y11.142 F250.
N5660 X11.812 Y11.215 Z-3.729
N5665 G3 X12.05 Y11.567 Z-3.8 I-0.162 J0.366
N5670 G1 Y12.295 F300.
N5675 G3 X11.174 Y13.38 I-1.141 J-0.025
N5680 G1 X11.031 Y13.425
N5685 G3 X9.95 Y12.503 I-0.148 J-0.922
N5690 G1 Y11.749
N5695 G3 X10.363 Y11.364 Z-3.7 I0.4 J0.014 F250.
N5700 X10.505 Y11.395 I-0.014 J0.4
N5705 G1 X10.943 Y11.579
N5710 X11.074 Y11.633 F2000.
N5715 X11.646 Y11.874 F250.
N5720 X11.805 Y11.941 Z-3.727
N5725 G3 X12.05 Y12.295 Z-3.8 I-0.155 J0.369
N5730 G1 Y13.059 F300.
N5735 G3 X11.166 Y14.136 I-1.14 J-0.034
N5740 G1 X11.018 Y14.181
N5745 G3 X9.95 Y13.257 I-0.134 J-0.924
N5750 G1 Y12.503
N5755 G3 X10.363 Y12.117 Z-3.7 I0.4 J0.014 F250.
N5760 X10.507 Y12.149 I-0.014 J0.4
N5765 G1 X10.942 Y12.335
N5770 X11.076 Y12.392 F2000.
N5775 X11.646 Y12.636 F250.
N5780 X11.807 Y12.705 Z-3.728
N5785 G3 X12.05 Y13.059 Z-3.8 I-0.157 J0.368
N5790 G1 Y13.84 F300.
N5795 G3 X11.285 Y14.851 I-1.11 J-0.045
N5800 X9.95 Y14.009 I-0.403 J-0.841
N5805 G1 X9.959 Y13.939 Z-3.789 F250.
N5810 X9.979 Y13.872 Z-3.778
N5815 X10.011 Y13.81 Z-3.766
N5820 X10.054 Y13.754 Z-3.755
N5825 X10.106 Y13.706 Z-3.744
N5830 X10.165 Y13.668 Z-3.733
N5835 X10.23 Y13.641 Z-3.722
N5840 X10.298 Y13.626 Z-3.71
N5845 X10.363 Y13.618 Z-3.7
N5850 X10.979 Y13.538
N5855 X11.021 Y13.532 F2000.
N5860 G3 X11.637 Y13.454 I1.048 J5.769 F250.
N5865 X12.05 Y13.84 Z-3.8 I0.014 J0.4
N5870 G1 Y14.603 F300.
N5875 G3 X11.277 Y15.607 I-1.107 J-0.052
N5880 X9.95 Y14.763 I-0.396 J-0.843
N5885 G1 X9.959 Y14.693 Z-3.789 F250.
N5890 X9.98 Y14.625 Z-3.777
N5895 X10.012 Y14.563 Z-3.766
N5900 X10.055 Y14.507 Z-3.755
N5905 X10.107 Y14.459 Z-3.744
N5910 X10.167 Y14.421 Z-3.732
N5915 X10.232 Y14.394 Z-3.721
N5920 X10.301 Y14.38 Z-3.71
N5925 X10.363 Y14.372 Z-3.7
N5930 X10.979 Y14.296
N5935 X11.02 Y14.291 F2000.
N5940 X11.602 Y14.22 F250.
N5945 X11.619 Y14.218
N5950 X11.637 Y14.217
N5955 G3 X12.05 Y14.603 Z-3.8 I0.014 J0.4
N5960 G1 Y15.289 F300.
N5965 G3 X11.25 Y16.37 I-1.112 J0.013
N5970 X9.959 Y15.544 I-0.368 J-0.847
N5975 G1 X9.966 Y15.472 Z-3.788 F250.
N5980 X9.985 Y15.403 Z-3.777
N5985 X10.016 Y15.338 Z-3.765
N5990 X10.059 Y15.28 Z-3.754
N5995 X10.111 Y15.231 Z-3.742
N6000 X10.172 Y15.192 Z-3.731
N6005 X10.238 Y15.164 Z-3.719
N6010 X10.308 Y15.148 Z-3.708
N6015 X10.358 Y15.142 Z-3.7
N6020 X10.974 Y15.066
N6025 X11.029 Y15.06 F2000.
N6030 G3 X11.645 Y14.986 I0.867 J4.667 F250.
N6035 G1 X11.723 Y14.994 Z-3.713
N6040 X11.798 Y15.016 Z-3.725
N6045 X11.867 Y15.052 Z-3.738
N6050 X11.928 Y15.102 Z-3.75
N6055 X11.979 Y15.162 Z-3.762
N6060 X12.016 Y15.231 Z-3.775
N6065 X12.039 Y15.306 Z-3.787
N6070 X12.047 Y15.384 Z-3.8
N6075 G3 X11.947 Y16.335 I-3.238 J0.137 F300.
N6080 G1 X11.912 Y16.414
N6085 X11.872 Y16.491
N6090 G3 X11.321 Y16.618 Z-3.7 I-0.339 J-0.212 F250.
N6095 X11.166 Y16.12 I0.212 J-0.339
N6100 G1 X11.173 Y16.103
N6105 X11.209 Y16.019
N6110 G3 X11.641 Y15.783 I0.367 J0.159
N6115 X11.971 Y16.242 Z-3.8 I-0.064 J0.395
N6120 X10.008 Y16.148 I-0.973 J-0.235 F300.
N6125 G1 X9.98 Y15.976
N6130 X9.965 Y15.804
N6135 X9.95 Y15.289
N6140 Y13.257
N6145 G3 X10.364 Y12.871 I0.4 J0.014 F250.
N6150 X10.75 Y13.285 I-0.014 J0.4
N6155 G1 X10.747 Y13.363 Z-3.792
N6160 X10.744 Y13.438 Z-3.77
N6165 X10.742 Y13.507 Z-3.733
N6170 X10.74 Y13.568 Z-3.683
N6175 X10.738 Y13.617 Z-3.622
N6180 X10.737 Y13.654 Z-3.553
N6185 X10.736 Y13.677 Z-3.478
N6190 Y13.685 Z-3.4
N6195 G0 Z10.
(2D POCKET2)
N6205 M9
N6210 G0 X37.846 Y17.361
N6215 Z10.
N6220 Z5.
N6225 G1 Z2.9 F250.
N6230 G3 X37.835 Y17.371 Z2.79 I-0.346 J-0.361 F150.
N6235 X37.8 Y17.4 Z2.688 I-0.335 J-0.371
N6240 X37.749 Y17.434 Z2.612 I-0.3 J-0.4
N6245 X37.678 Y17.467 Z2.553 I-0.249 J-0.434
N6250 X37.592 Y17.491 Z2.515 I-0.178 J-0.467
N6255 X37.496 Y17.5 Z2.5 I-0.092 J-0.491
N6260 X37.504 Y16.5 Z2.445 I0.004 J-0.5
N6265 X37.496 Y17.5 Z2.39 I-0.004 J0.5
N6270 X37.504 Y16.5 Z2.335 I0.004 J-0.5
N6275 X37.496 Y17.5 Z2.281 I-0.004 J0.5
N6280 X37.504 Y16.5 Z2.226 I0.004 J-0.5
N6285 X37.496 Y17.5 Z2.171 I-0.004 J0.5
N6290 X37.504 Y16.5 Z2.116 I0.004 J-0.5
N6295 X37.496 Y17.5 Z2.061 I-0.004 J0.5
N6300 X37.504 Y16.5 Z2.006 I0.004 J-0.5
N6305 X37.496 Y17.5 Z1.951 I-0.004 J0.5
N6310 X37.504 Y16.5 Z1.897 I0.004 J-0.5
N6315 X37.496 Y17.5 Z1.842 I-0.004 J0.5
N6320 X37.504 Y16.5 Z1.787 I0.004 J-0.5
N6325 X37.496 Y17.5 Z1.732 I-0.004 J0.5
N6330 X37.504 Y16.5 Z1.677 I0.004 J-0.5
N6335 X37.496 Y17.5 Z1.622 I-0.004 J0.5
N6340 X37.504 Y16.5 Z1.567 I0.004 J-0.5
N6345 X37.496 Y17.5 Z1.513 I-0.004 J0.5
N6350 X37.504 Y16.5 Z1.458 I0.004 J-0.5
N6355 X37.496 Y17.5 Z1.403 I-0.004 J0.5
N6360 X37.504 Y16.5 Z1.348 I0.004 J-0.5
N6365 X37.496 Y17.5 Z1.293 I-0.004 J0.5
N6370 X37.504 Y16.5 Z1.238 I0.004 J-0.5
N6375 X37.496 Y17.5 Z1.184 I-0.004 J0.5
N6380 X37.504 Y16.5 Z1.129 I0.004 J-0.5
N6385 X37.496 Y17.5 Z1.074 I-0.004 J0.5
N6390 X37.504 Y16.5 Z1.019 I0.004 J-0.5
N6395 X37.496 Y17.5 Z0.964 I-0.004 J0.5
N6400 X37.504 Y16.5 Z0.909 I0.004 J-0.5
N6405 X37.496 Y17.5 Z0.854 I-0.004 J0.5
N6410 X37.504 Y16.5 Z0.8 I0.004 J-0.5
N6415 X37.496 Y17.5 Z0.745 I-0.004 J0.5
N6420 X37.504 Y16.5 Z0.69 I0.004 J-0.5
N6425 X37.496 Y17.5 Z0.635 I-0.004 J0.5
N6430 X37.504 Y16.5 Z0.58 I0.004 J-0.5
N6435 X37.496 Y17.5 Z0.525 I-0.004 J0.5
N6440 X37.504 Y16.5 Z0.47 I0.004 J-0.5
N6445 X37.496 Y17.5 Z0.416 I-0.004 J0.5
N6450 X37.504 Y16.5 Z0.361 I0.004 J-0.5
N6455 X37.496 Y17.5 Z0.306 I-0.004 J0.5
N6460 X37.504 Y16.5 Z0.251 I0.004 J-0.5
N6465 X37.496 Y17.5 Z0.196 I-0.004 J0.5
N6470 X37.504 Y16.5 Z0.141 I0.004 J-0.5
N6475 X37.496 Y17.5 Z0.086 I-0.004 J0.5
N6480 X37.504 Y16.5 Z0.032 I0.004 J-0.5
N6485 X37.496 Y17.5 Z-0.023 I-0.004 J0.5
N6490 X37.504 Y16.5 Z-0.078 I0.004 J-0.5
N6495 X37.496 Y17.5 Z-0.133 I-0.004 J0.5
N6500 X37.504 Y16.5 Z-0.188 I0.004 J-0.5
N6505 X37.496 Y17.5 Z-0.243 I-0.004 J0.5
N6510 X37.504 Y16.5 Z-0.298 I0.004 J-0.5
N6515 X37.496 Y17.5 Z-0.352 I-0.004 J0.5
N6520 X37.504 Y16.5 Z-0.407 I0.004 J-0.5
N6525 X37.496 Y17.5 Z-0.462 I-0.004 J0.5
N6530 X37.504 Y16.5 Z-0.517 I0.004 J-0.5
N6535 X37.496 Y17.5 Z-0.572 I-0.004 J0.5
N6540 X37.504 Y16.5 Z-0.627 I0.004 J-0.5
N6545 X37.496 Y17.5 Z-0.681 I-0.004 J0.5
N6550 X37.504 Y16.5 Z-0.736 I0.004 J-0.5
N6555 X37.496 Y17.5 Z-0.791 I-0.004 J0.5
N6560 X37.504 Y16.5 Z-0.846 I0.004 J-0.5
N6565 X37.496 Y17.5 Z-0.901 I-0.004 J0.5
N6570 X37.504 Y16.5 Z-0.956 I0.004 J-0.5
N6575 X37.496 Y17.5 Z-1.011 I-0.004 J0.5
N6580 X37.504 Y16.5 Z-1.065 I0.004 J-0.5
N6585 X37.496 Y17.5 Z-1.12 I-0.004 J0.5
N6590 X37.504 Y16.5 Z-1.175 I0.004 J-0.5
N6595 X37.496 Y17.5 Z-1.23 I-0.004 J0.5
N6600 X37.504 Y16.5 Z-1.285 I0.004 J-0.5
N6605 X37.496 Y17.5 Z-1.34 I-0.004 J0.5
N6610 X37.504 Y16.5 Z-1.395 I0.004 J-0.5
N6615 X37.496 Y17.5 Z-1.449 I-0.004 J0.5
N6620 X37.504 Y16.5 Z-1.504 I0.004 J-0.5
N6625 X37.496 Y17.5 Z-1.559 I-0.004 J0.5
N6630 X37.504 Y16.5 Z-1.614 I0.004 J-0.5
N6635 X37.496 Y17.5 Z-1.669 I-0.004 J0.5
N6640 X37.504 Y16.5 Z-1.724 I0.004 J-0.5
N6645 X37.496 Y17.5 Z-1.779 I-0.004 J0.5
N6650 X37.504 Y16.5 Z-1.833 I0.004 J-0.5
N6655 X37.496 Y17.5 Z-1.888 I-0.004 J0.5
N6660 X37.504 Y16.5 Z-1.943 I0.004 J-0.5
N6665 X37.496 Y17.5 Z-1.998 I-0.004 J0.5
N6670 X37.504 Y16.5 Z-2.053 I0.004 J-0.5
N6675 X37.496 Y17.5 Z-2.108 I-0.004 J0.5
N6680 X37.504 Y16.5 Z-2.163 I0.004 J-0.5
N6685 X37.496 Y17.5 Z-2.217 I-0.004 J0.5
N6690 X37.504 Y16.5 Z-2.272 I0.004 J-0.5
N6695 X37.496 Y17.5 Z-2.327 I-0.004 J0.5
N6700 X37.504 Y16.5 Z-2.382 I0.004 J-0.5
N6705 X37.496 Y17.5 Z-2.437 I-0.004 J0.5
N6710 X37.504 Y16.5 Z-2.492 I0.004 J-0.5
N6715 X37.496 Y17.5 Z-2.547 I-0.004 J0.5
N6720 X37.504 Y16.5 Z-2.601 I0.004 J-0.5
N6725 X37.496 Y17.5 Z-2.656 I-0.004 J0.5
N6730 X37.504 Y16.5 Z-2.711 I0.004 J-0.5
N6735 X37.496 Y17.5 Z-2.766 I-0.004 J0.5
N6740 X37.504 Y16.5 Z-2.821 I0.004 J-0.5
N6745 X37.496 Y17.5 Z-2.876 I-0.004 J0.5
N6750 X37.504 Y16.5 Z-2.93 I0.004 J-0.5
N6755 X37.496 Y17.5 Z-2.985 I-0.004 J0.5
N6760 X37.504 Y16.5 Z-3.04 I0.004 J-0.5
N6765 X37.496 Y17.5 Z-3.095 I-0.004 J0.5
N6770 X37.504 Y16.5 Z-3.15 I0.004 J-0.5
N6775 X37.496 Y17.5 Z-3.205 I-0.004 J0.5
N6780 X37.504 Y16.5 Z-3.26 I0.004 J-0.5
N6785 X37.496 Y17.5 Z-3.314 I-0.004 J0.5
N6790 X37.504 Y16.5 Z-3.369 I0.004 J-0.5
N6795 X37.496 Y17.5 Z-3.424 I-0.004 J0.5
N6800 X37.504 Y16.5 Z-3.479 I0.004 J-0.5
N6805 X37.496 Y17.5 Z-3.534 I-0.004 J0.5
N6810 X37.504 Y16.5 Z-3.589 I0.004 J-0.5
N6815 X37.496 Y17.5 Z-3.644 I-0.004 J0.5
N6820 X37.504 Y16.5 Z-3.698 I0.004 J-0.5
N6825 X37.496 Y17.5 Z-3.753 I-0.004 J0.5
N6830 X37.504 Y16.5 Z-3.808 I0.004 J-0.5
N6835 X37.496 Y17.5 Z-3.863 I-0.004 J0.5
N6840 X37.504 Y16.5 Z-3.918 I0.004 J-0.5
N6845 X37.496 Y17.5 Z-3.973 I-0.004 J0.5
N6850 X37. Y17. Z-4. I0.004 J-0.5
N6855 G1 Y5. F300.
N6860 G3 X38. I0.5 J0.
N6865 G1 Y17.
N6870 G3 X37. I-0.5 J0.
N6875 G2 X36.8 Y16.7 I-0.325 J0.
N6880 G3 X36.6 Y16.4 I0.125 J-0.3
N6885 G1 Y5.
N6890 G3 X38.4 I0.9 J0.
N6895 G1 Y17.
N6900 G3 X36.6 I-0.9 J0.
N6905 G1 Y16.4
N6910 G3 X36.619 Y16.278 Z-3.98 I0.4 J0. F250.
N6915 X36.667 Y16.178 Z-3.924 I0.381 J0.122
N6920 X36.724 Y16.111 Z-3.835 I0.333 J0.222
N6925 X36.768 Y16.074 Z-3.724 I0.276 J0.289
N6930 X36.784 Y16.063 Z-3.6 I0.232 J0.326
N6935 G0 Z5.
N6940 X24.861 Y16.654
N6945 G1 Z2.9 F250.
N6950 G3 X24.871 Y16.665 Z2.79 I-0.361 J0.346 F150.
N6955 X24.9 Y16.7 Z2.688 I-0.371 J0.335
N6960 X24.934 Y16.751 Z2.612 I-0.4 J0.3
N6965 X24.967 Y16.822 Z2.553 I-0.434 J0.249
N6970 X24.991 Y16.908 Z2.515 I-0.467 J0.178
N6975 X25. Y17.004 Z2.5 I-0.491 J0.092
N6980 X24. Y16.996 Z2.445 I-0.5 J-0.004
N6985 X25. Y17.004 Z2.39 I0.5 J0.004
N6990 X24. Y16.996 Z2.335 I-0.5 J-0.004
N6995 X25. Y17.004 Z2.281 I0.5 J0.004
N7000 X24. Y16.996 Z2.226 I-0.5 J-0.004
N7005 X25. Y17.004 Z2.171 I0.5 J0.004
N7010 X24. Y16.996 Z2.116 I-0.5 J-0.004
N7015 X25. Y17.004 Z2.061 I0.5 J0.004
N7020 X24. Y16.996 Z2.006 I-0.5 J-0.004
N7025 X25. Y17.004 Z1.951 I0.5 J0.004
N7030 X24. Y16.996 Z1.897 I-0.5 J-0.004
N7035 X25. Y17.004 Z1.842 I0.5 J0.004
N7040 X24. Y16.996 Z1.787 I-0.5 J-0.004
N7045 X25. Y17.004 Z1.732 I0.5 J0.004
N7050 X24. Y16.996 Z1.677 I-0.5 J-0.004
N7055 X25. Y17.004 Z1.622 I0.5 J0.004
N7060 X24. Y16.996 Z1.567 I-0.5 J-0.004
N7065 X25. Y17.004 Z1.513 I0.5 J0.004
N7070 X24. Y16.996 Z1.458 I-0.5 J-0.004
N7075 X25. Y17.004 Z1.403 I0.5 J0.004
N7080 X24. Y16.996 Z1.348 I-0.5 J-0.004
N7085 X25. Y17.004 Z1.293 I0.5 J0.004
N7090 X24. Y16.996 Z1.238 I-0.5 J-0.004
N7095 X25. Y17.004 Z1.184 I0.5 J0.004
N7100 X24. Y16.996 Z1.129 I-0.5 J-0.004
N7105 X25. Y17.004 Z1.074 I0.5 J0.004
N7110 X24. Y16.996 Z1.019 I-0.5 J-0.004
N7115 X25. Y17.004 Z0.964 I0.5 J0.004
N7120 X24. Y16.996 Z0.909 I-0.5 J-0.004
N7125 X25. Y17.004 Z0.854 I0.5 J0.004
N7130 X24. Y16.996 Z0.8 I-0.5 J-0.004
N7135 X25. Y17.004 Z0.745 I0.5 J0.004
N7140 X24. Y16.996 Z0.69 I-0.5 J-0.004
N7145 X25. Y17.004 Z0.635 I0.5 J0.004
N7150 X24. Y16.996 Z0.58 I-0.5 J-0.004
N7155 X25. Y17.004 Z0.525 I0.5 J0.004
N7160 X24. Y16.996 Z0.47 I-0.5 J-0.004
N7165 X25. Y17.004 Z0.416 I0.5 J0.004
N7170 X24. Y16.996 Z0.361 I-0.5 J-0.004
N7175 X25. Y17.004 Z0.306 I0.5 J0.004
N7180 X24. Y16.996 Z0.251 I-0.5 J-0.004
N7185 X25. Y17.004 Z0.196 I0.5 J0.004
N7190 X24. Y16.996 Z0.141 I-0.5 J-0.004
N7195 X25. Y17.004 Z0.086 I0.5 J0.004
N7200 X24. Y16.996 Z0.032 I-0.5 J-0.004
N7205 X25. Y17.004 Z-0.023 I0.5 J0.004
N7210 X24. Y16.996 Z-0.078 I-0.5 J-0.004
N7215 X25. Y17.004 Z-0.133 I0.5 J0.004
N7220 X24. Y16.996 Z-0.188 I-0.5 J-0.004
N7225 X25. Y17.004 Z-0.243 I0.5 J0.004
N7230 X24. Y16.996 Z-0.298 I-0.5 J-0.004
N7235 X25. Y17.004 Z-0.352 I0.5 J0.004
N7240 X24. Y16.996 Z-0.407 I-0.5 J-0.004
N7245 X25. Y17.004 Z-0.462 I0.5 J0.004
N7250 X24. Y16.996 Z-0.517 I-0.5 J-0.004
N7255 X25. Y17.004 Z-0.572 I0.5 J0.004
N7260 X24. Y16.996 Z-0.627 I-0.5 J-0.004
N7265 X25. Y17.004 Z-0.681 I0.5 J0.004
N7270 X24. Y16.996 Z-0.736 I-0.5 J-0.004
N7275 X25. Y17.004 Z-0.791 I0.5 J0.004
N7280 X24. Y16.996 Z-0.846 I-0.5 J-0.004
N7285 X25. Y17.004 Z-0.901 I0.5 J0.004
N7290 X24. Y16.996 Z-0.956 I-0.5 J-0.004
N7295 X25. Y17.004 Z-1.011 I0.5 J0.004
N7300 X24. Y16.996 Z-1.065 I-0.5 J-0.004
N7305 X25. Y17.004 Z-1.12 I0.5 J0.004
N7310 X24. Y16.996 Z-1.175 I-0.5 J-0.004
N7315 X25. Y17.004 Z-1.23 I0.5 J0.004
N7320 X24. Y16.996 Z-1.285 I-0.5 J-0.004
N7325 X25. Y17.004 Z-1.34 I0.5 J0.004
N7330 X24. Y16.996 Z-1.395 I-0.5 J-0.004
N7335 X25. Y17.004 Z-1.449 I0.5 J0.004
N7340 X24. Y16.996 Z-1.504 I-0.5 J-0.004
N7345 X25. Y17.004 Z-1.559 I0.5 J0.004
N7350 X24. Y16.996 Z-1.614 I-0.5 J-0.004
N7355 X25. Y17.004 Z-1.669 I0.5 J0.004
N7360 X24. Y16.996 Z-1.724 I-0.5 J-0.004
N7365 X25. Y17.004 Z-1.779 I0.5 J0.004
N7370 X24. Y16.996 Z-1.833 I-0.5 J-0.004
N7375 X25. Y17.004 Z-1.888 I0.5 J0.004
N7380 X24. Y16.996 Z-1.943 I-0.5 J-0.004
N7385 X25. Y17.004 Z-1.998 I0.5 J0.004
N7390 X24. Y16.996 Z-2.053 I-0.5 J-0.004
N7395 X25. Y17.004 Z-2.108 I0.5 J0.004
N7400 X24. Y16.996 Z-2.163 I-0.5 J-0.004
N7405 X25. Y17.004 Z-2.217 I0.5 J0.004
N7410 X24. Y16.996 Z-2.272 I-0.5 J-0.004
N7415 X25. Y17.004 Z-2.327 I0.5 J0.004
N7420 X24. Y16.996 Z-2.382 I-0.5 J-0.004
N7425 X25. Y17.004 Z-2.437 I0.5 J0.004
N7430 X24. Y16.996 Z-2.492 I-0.5 J-0.004
N7435 X25. Y17.004 Z-2.547 I0.5 J0.004
N7440 X24. Y16.996 Z-2.601 I-0.5 J-0.004
N7445 X25. Y17.004 Z-2.656 I0.5 J0.004
N7450 X24. Y16.996 Z-2.711 I-0.5 J-0.004
N7455 X25. Y17.004 Z-2.766 I0.5 J0.004
N7460 X24. Y16.996 Z-2.821 I-0.5 J-0.004
N7465 X25. Y17.004 Z-2.876 I0.5 J0.004
N7470 X24. Y16.996 Z-2.93 I-0.5 J-0.004
N7475 X25. Y17.004 Z-2.985 I0.5 J0.004
N7480 X24. Y16.996 Z-3.04 I-0.5 J-0.004
N7485 X25. Y17.004 Z-3.095 I0.5 J0.004
N7490 X24. Y16.996 Z-3.15 I-0.5 J-0.004
N7495 X25. Y17.004 Z-3.205 I0.5 J0.004
N7500 X24. Y16.996 Z-3.26 I-0.5 J-0.004
N7505 X25. Y17.004 Z-3.314 I0.5 J0.004
N7510 X24. Y16.996 Z-3.369 I-0.5 J-0.004
N7515 X25. Y17.004 Z-3.424 I0.5 J0.004
N7520 X24. Y16.996 Z-3.479 I-0.5 J-0.004
N7525 X25. Y17.004 Z-3.534 I0.5 J0.004
N7530 X24. Y16.996 Z-3.589 I-0.5 J-0.004
N7535 X25. Y17.004 Z-3.644 I0.5 J0.004
N7540 X24. Y16.996 Z-3.698 I-0.5 J-0.004
N7545 X25. Y17.004 Z-3.753 I0.5 J0.004
N7550 X24. Y16.996 Z-3.808 I-0.5 J-0.004
N7555 X25. Y17.004 Z-3.863 I0.5 J0.004
N7560 X24. Y16.996 Z-3.918 I-0.5 J-0.004
N7565 X25. Y17.004 Z-3.973 I0.5 J0.004
N7570 X24.5 Y17.5 Z-4. I-0.5 J-0.004
N7575 X24. Y17. I0. J-0.5 F300.
N7580 G1 Y5.
N7585 G3 X25. I0.5 J0.
N7590 G1 Y17.
N7595 G3 X24.5 Y17.5 I-0.5 J0.
N7600 G2 X24.239 Y17.65 I0. J0.301
N7605 G3 X23.943 Y17.707 I-0.172 J-0.1
N7610 X23.6 Y17. I0.557 J-0.707
N7615 G1 Y5.
N7620 G3 X25.4 I0.9 J0.
N7625 G1 Y17.
N7630 G3 X23.943 Y17.707 I-0.9 J0.
N7635 X23.86 Y17.617 Z-3.98 I0.247 J-0.314 F250.
N7640 X23.811 Y17.517 Z-3.924 I0.331 J-0.224
N7645 X23.793 Y17.431 Z-3.835 I0.38 J-0.124
N7650 X23.791 Y17.374 Z-3.724 I0.398 J-0.038
N7655 X23.793 Y17.355 Z-3.6 I0.4 J0.019
N7660 G0 Z5.
N7665 X10.612 Y16.756
N7670 G1 Z2.9 F250.
N7675 G3 X10.595 Y16.747 Z2.779 I0.388 J-0.756 F150.
N7680 X10.548 Y16.72 Z2.669 I0.405 J-0.747
N7685 X10.479 Y16.671 Z2.581 I0.452 J-0.72
N7690 X10.398 Y16.6 Z2.523 I0.521 J-0.671
N7695 X10.319 Y16.509 Z2.5 I0.602 J-0.6
N7700 X11.681 Y15.491 Z2.407 I0.681 J-0.509
N7705 X10.319 Y16.509 Z2.313 I-0.681 J0.509
N7710 X11.681 Y15.491 Z2.22 I0.681 J-0.509
N7715 X10.319 Y16.509 Z2.127 I-0.681 J0.509
N7720 X11.681 Y15.491 Z2.034 I0.681 J-0.509
N7725 X10.319 Y16.509 Z1.94 I-0.681 J0.509
N7730 X11.681 Y15.491 Z1.847 I0.681 J-0.509
N7735 X10.319 Y16.509 Z1.754 I-0.681 J0.509
N7740 X11.681 Y15.491 Z1.661 I0.681 J-0.509
N7745 X10.319 Y16.509 Z1.567 I-0.681 J0.509
N7750 X11.681 Y15.491 Z1.474 I0.681 J-0.509
N7755 X10.319 Y16.509 Z1.381 I-0.681 J0.509
N7760 X11.681 Y15.491 Z1.288 I0.681 J-0.509
N7765 X10.319 Y16.509 Z1.194 I-0.681 J0.509
N7770 X11.681 Y15.491 Z1.101 I0.681 J-0.509
N7775 X10.319 Y16.509 Z1.008 I-0.681 J0.509
N7780 X11.681 Y15.491 Z0.915 I0.681 J-0.509
N7785 X10.319 Y16.509 Z0.821 I-0.681 J0.509
N7790 X11.681 Y15.491 Z0.728 I0.681 J-0.509
N7795 X10.319 Y16.509 Z0.635 I-0.681 J0.509
N7800 X11.681 Y15.491 Z0.542 I0.681 J-0.509
N7805 X10.319 Y16.509 Z0.448 I-0.681 J0.509
N7810 X11.681 Y15.491 Z0.355 I0.681 J-0.509
N7815 X10.319 Y16.509 Z0.262 I-0.681 J0.509
N7820 X11.681 Y15.491 Z0.169 I0.681 J-0.509
N7825 X10.319 Y16.509 Z0.075 I-0.681 J0.509
N7830 X11.681 Y15.491 Z-0.018 I0.681 J-0.509
N7835 X10.319 Y16.509 Z-0.111 I-0.681 J0.509
N7840 X11.681 Y15.491 Z-0.204 I0.681 J-0.509
N7845 X10.319 Y16.509 Z-0.298 I-0.681 J0.509
N7850 X11.681 Y15.491 Z-0.391 I0.681 J-0.509
N7855 X10.319 Y16.509 Z-0.484 I-0.681 J0.509
N7860 X11.681 Y15.491 Z-0.577 I0.681 J-0.509
N7865 X10.319 Y16.509 Z-0.671 I-0.681 J0.509
N7870 X11.681 Y15.491 Z-0.764 I0.681 J-0.509
N7875 X10.319 Y16.509 Z-0.857 I-0.681 J0.509
N7880 X11.681 Y15.491 Z-0.95 I0.681 J-0.509
N7885 X10.319 Y16.509 Z-1.044 I-0.681 J0.509
N7890 X11.681 Y15.491 Z-1.137 I0.681 J-0.509
N7895 X10.319 Y16.509 Z-1.23 I-0.681 J0.509
N7900 X11.681 Y15.491 Z-1.323 I0.681 J-0.509
N7905 X10.319 Y16.509 Z-1.417 I-0.681 J0.509
N7910 X11.681 Y15.491 Z-1.51 I0.681 J-0.509
N7915 X10.319 Y16.509 Z-1.603 I-0.681 J0.509
N7920 X11.681 Y15.491 Z-1.696 I0.681 J-0.509
N7925 X10.319 Y16.509 Z-1.79 I-0.681 J0.509
N7930 X11.681 Y15.491 Z-1.883 I0.681 J-0.509
N7935 X10.319 Y16.509 Z-1.976 I-0.681 J0.509
N7940 X11.681 Y15.491 Z-2.069 I0.681 J-0.509
N7945 X10.319 Y16.509 Z-2.163 I-0.681 J0.509
N7950 X11.681 Y15.491 Z-2.256 I0.681 J-0.509
N7955 X10.319 Y16.509 Z-2.349 I-0.681 J0.509
N7960 X11.681 Y15.491 Z-2.442 I0.681 J-0.509
N7965 X10.319 Y16.509 Z-2.536 I-0.681 J0.509
N7970 X11.681 Y15.491 Z-2.629 I0.681 J-0.509
N7975 X10.319 Y16.509 Z-2.722 I-0.681 J0.509
N7980 X11.681 Y15.491 Z-2.815 I0.681 J-0.509
N7985 X10.319 Y16.509 Z-2.909 I-0.681 J0.509
N7990 X11.681 Y15.491 Z-3.002 I0.681 J-0.509
N7995 X10.319 Y16.509 Z-3.095 I-0.681 J0.509
N8000 X11.681 Y15.491 Z-3.188 I0.681 J-0.509
N8005 X10.319 Y16.509 Z-3.282 I-0.681 J0.509
N8010 X11.681 Y15.491 Z-3.375 I0.681 J-0.509
N8015 X10.319 Y16.509 Z-3.468 I-0.681 J0.509
N8020 X11.681 Y15.491 Z-3.561 I0.681 J-0.509
N8025 X10.319 Y16.509 Z-3.655 I-0.681 J0.509
N8030 X11.681 Y15.491 Z-3.748 I0.681 J-0.509
N8035 X10.319 Y16.509 Z-3.841 I-0.681 J0.509
N8040 X11.681 Y15.491 Z-3.934 I0.681 J-0.509
N8045 X11. Y16.85 Z-4. I-0.681 J0.509
N8050 X10.15 Y16. I0. J-0.85 F300.
N8055 G1 Y6.
N8060 G3 X11.85 I0.85 J0.
N8065 G1 Y16.
N8070 G3 X11. Y16.85 I-0.85 J0.
N8075 G2 X10.727 Y17.014 I0. J0.309
N8080 G3 X10.423 Y17.109 I-0.2 J-0.106
N8085 X9.75 Y16. I0.577 J-1.109
N8090 G1 Y6.
N8095 G3 X12.25 I1.25 J0.
N8100 G1 Y16.
N8105 G3 X10.423 Y17.109 I-1.25 J0.
N8110 X10.324 Y17.036 Z-3.98 I0.185 J-0.355 F250.
N8115 X10.257 Y16.947 Z-3.924 I0.284 J-0.282
N8120 X10.223 Y16.865 Z-3.835 I0.35 J-0.193
N8125 X10.211 Y16.81 Z-3.724 I0.384 J-0.111
N8130 X10.209 Y16.79 Z-3.6 I0.396 J-0.056
N8135 G0 Z5.
N8140 X49.49 Y16.029
N8145 G1 Z2.9 F250.
N8150 G3 X49.484 Y16.012 Z2.779 I1.51 J-0.529 F150.
N8155 X49.467 Y15.96 Z2.669 I1.516 J-0.512
N8160 X49.445 Y15.878 Z2.581 I1.533 J-0.46
N8165 X49.423 Y15.772 Z2.523 I1.555 J-0.378
N8170 X49.407 Y15.653 Z2.5 I1.577 J-0.272
N8175 X52.593 Y15.347 Z2.324 I1.593 J-0.153
N8180 X49.407 Y15.653 Z2.149 I-1.593 J0.153
N8185 X52.593 Y15.347 Z1.973 I1.593 J-0.153
N8190 X49.407 Y15.653 Z1.798 I-1.593 J0.153
N8195 X52.593 Y15.347 Z1.622 I1.593 J-0.153
N8200 X49.407 Y15.653 Z1.447 I-1.593 J0.153
N8205 X52.593 Y15.347 Z1.271 I1.593 J-0.153
N8210 X49.407 Y15.653 Z1.096 I-1.593 J0.153
N8215 X52.593 Y15.347 Z0.92 I1.593 J-0.153
N8220 X49.407 Y15.653 Z0.745 I-1.593 J0.153
N8225 X52.593 Y15.347 Z0.569 I1.593 J-0.153
N8230 X49.407 Y15.653 Z0.394 I-1.593 J0.153
N8235 X52.593 Y15.347 Z0.218 I1.593 J-0.153
N8240 X49.407 Y15.653 Z0.043 I-1.593 J0.153
N8245 X52.593 Y15.347 Z-0.133 I1.593 J-0.153
N8250 X49.407 Y15.653 Z-0.308 I-1.593 J0.153
N8255 X52.593 Y15.347 Z-0.484 I1.593 J-0.153
N8260 X49.407 Y15.653 Z-0.66 I-1.593 J0.153
N8265 X52.593 Y15.347 Z-0.835 I1.593 J-0.153
N8270 X49.407 Y15.653 Z-1.011 I-1.593 J0.153
N8275 X52.593 Y15.347 Z-1.186 I1.593 J-0.153
N8280 X49.407 Y15.653 Z-1.362 I-1.593 J0.153
N8285 X52.593 Y15.347 Z-1.537 I1.593 J-0.153
N8290 X49.407 Y15.653 Z-1.713 I-1.593 J0.153
N8295 X52.593 Y15.347 Z-1.888 I1.593 J-0.153
N8300 X49.407 Y15.653 Z-2.064 I-1.593 J0.153
N8305 X52.593 Y15.347 Z-2.239 I1.593 J-0.153
N8310 X49.407 Y15.653 Z-2.415 I-1.593 J0.153
N8315 X52.593 Y15.347 Z-2.59 I1.593 J-0.153
N8320 X49.407 Y15.653 Z-2.766 I-1.593 J0.153
N8325 X52.593 Y15.347 Z-2.941 I1.593 J-0.153
N8330 X49.407 Y15.653 Z-3.117 I-1.593 J0.153
N8335 X52.593 Y15.347 Z-3.293 I1.593 J-0.153
N8340 X49.407 Y15.653 Z-3.468 I-1.593 J0.153
N8345 X52.593 Y15.347 Z-3.644 I1.593 J-0.153
N8350 X49.407 Y15.653 Z-3.819 I-1.593 J0.153
N8355 X50.923 Y13.902 Z-3.91 I1.593 J-0.153
N8360 X52.6 Y15.5 Z-4. I0.077 J1.598
N8365 G1 Y17.1 F300.
N8370 X49.4
N8375 Y4.9
N8380 X52.6
N8385 Y15.5
N8390 G2 X52.8 Y15.8 I0.325 J0.
N8395 G3 X53. Y16.1 I-0.125 J0.3
N8400 G1 Y17.5
N8405 X49.
N8410 Y4.5
N8415 X53.
N8420 Y16.1
N8425 G3 X52.981 Y16.222 Z-3.98 I-0.4 J0. F250.
N8430 X52.933 Y16.322 Z-3.924 I-0.381 J-0.122
N8435 X52.876 Y16.389 Z-3.835 I-0.333 J-0.222
N8440 X52.832 Y16.426 Z-3.724 I-0.276 J-0.289
N8445 X52.816 Y16.437 Z-3.6 I-0.232 J-0.326
N8450 G0 Z10.
N8460 M5
N8465 G53 Z0.
(DRILL1)
N8470 M9
N8475 M1
N8480 T70 M6
N8485 T3
N8490 S5000 M3
N8495 M9
N8505 G0 X4. Y4.
N8510 G43 Z10. H70
N8520 G0 Z5.
N8525 G98 G81 X4. Y4. Z-1. R5. F500.
N8530 G80
N8540 G0 X11. Y13.5 Z5.
N8545 G81 X11. Y13.5 Z-5. R1. F500.
N8550 Y8.5
N8555 G80
N8565 G0 X4. Y11. Z5.
N8570 G81 X4. Y11. Z-1. R5. F500.
N8575 Y18.
N8580 X58. Y14.25
N8585 G80
N8595 G0 X51. Y13.5 Z5.
N8600 G81 X51. Y13.5 Z-5. R1. F500.
N8605 Y8.5
N8610 G80
N8620 G0 X58. Y7.75 Z5.
N8625 G81 X58. Y7.75 Z-1. R5. F500.
N8630 G80
N8635 G0 Z10.
N8645 M5
N8650 G53 Z0.
(DRILL1 2)
N8655 M9
N8660 M1
N8665 T3 M6
N8670 T4
N8675 S2000 M3
N8680 M9
N8690 G0 X11. Y13.5
N8695 G43 Z10. H3
N8705 G0 Z5.
N8710 Z1.
N8715 Z-2.
N8720 G1 Z-5. F60.
N8725 G0 Z-4.6
N8730 G1 Z-6. F60.
N8735 G0 Z-5.6
N8740 G1 Z-7. F60.
N8745 G0 Z5.
N8750 Y8.5
N8755 Z1.
N8760 Z-2.
N8765 G1 Z-5. F60.
N8770 G0 Z-4.6
N8775 G1 Z-6. F60.
N8780 G0 Z-5.6
N8785 G1 Z-7. F60.
N8790 G0 Z5.
N8795 X51.
N8800 Z1.
N8805 Z-2.
N8810 G1 Z-5. F60.
N8815 G0 Z-4.6
N8820 G1 Z-6. F60.
N8825 G0 Z-5.6
N8830 G1 Z-7. F60.
N8835 G0 Z5.
N8840 Y13.5
N8845 Z1.
N8850 Z-2.
N8855 G1 Z-5. F60.
N8860 G0 Z-4.6
N8865 G1 Z-6. F60.
N8870 G0 Z-5.6
N8875 G1 Z-7. F60.
N8880 G0 Z5.
N8890 X4. Y11.
N8895 Z2.
N8900 G1 Z-1. F60.
N8905 G0 Z-0.6
N8910 G1 Z-2. F60.
N8915 G0 Z-1.6
N8920 G1 Z-3. F60.
N8925 G0 Z-2.6
N8930 G1 Z-4. F60.
N8935 G0 Z-3.6
N8940 G1 Z-5. F60.
N8945 G0 Z5.
N8950 Z-3.
N8955 G1 Z-6. F60.
N8960 G0 Z-5.6
N8965 G1 Z-7. F60.
N8970 G0 Z5.
N8975 Y4.
N8980 Z2.
N8985 G1 Z-1. F60.
N8990 G0 Z-0.6
N8995 G1 Z-2. F60.
N9000 G0 Z-1.6
N9005 G1 Z-3. F60.
N9010 G0 Z-2.6
N9015 G1 Z-4. F60.
N9020 G0 Z-3.6
N9025 G1 Z-5. F60.
N9030 G0 Z5.
N9035 Z-3.
N9040 G1 Z-6. F60.
N9045 G0 Z-5.6
N9050 G1 Z-7. F60.
N9055 G0 Z5.
N9060 Y18.
N9065 Z2.
N9070 G1 Z-1. F60.
N9075 G0 Z-0.6
N9080 G1 Z-2. F60.
N9085 G0 Z-1.6
N9090 G1 Z-3. F60.
N9095 G0 Z-2.6
N9100 G1 Z-4. F60.
N9105 G0 Z-3.6
N9110 G1 Z-5. F60.
N9115 G0 Z5.
N9120 Z-3.
N9125 G1 Z-6. F60.
N9130 G0 Z-5.6
N9135 G1 Z-7. F60.
N9140 G0 Z5.
N9145 Z10.
N9155 M5
N9160 G53 Z0.
(DRILL2)
N9165 M9
N9170 M1
N9175 T4 M6
N9180 T2
N9185 S2000 M3
N9190 M9
N9200 G0 X58. Y14.25
N9205 G43 Z10. H4
N9215 G0 Z5.
N9220 Z2.
N9225 G1 Z-0.4 F100.
N9230 G0 Z-0.3
N9235 G1 Z-0.8 F100.
N9240 G0 Z-0.7
N9245 G1 Z-1.2 F100.
N9250 G0 Z-1.1
N9255 G1 Z-1.6 F100.
N9260 G0 Z-1.5
N9265 G1 Z-2. F100.
N9270 G0 Z-1.9
N9275 G1 Z-2.4 F100.
N9280 G0 Z-2.3
N9285 G1 Z-2.8 F100.
N9290 G0 Z-2.7
N9295 G1 Z-3.2 F100.
N9300 G0 Z-3.1
N9305 G1 Z-3.6 F100.
N9310 G0 Z-3.5
N9315 G1 Z-4. F100.
N9320 G0 Z-3.9
N9325 G1 Z-4.4 F100.
N9330 G0 Z5.
N9335 Z-2.4
N9340 G1 Z-4.8 F100.
N9345 G0 Z-4.7
N9350 G1 Z-5.2 F100.
N9355 G0 Z-5.1
N9360 G1 Z-5.6 F100.
N9365 G0 Z-5.5
N9370 G1 Z-6. F100.
N9375 G0 Z5.
N9380 Y7.75
N9385 Z2.
N9390 G1 Z-0.4 F100.
N9395 G0 Z-0.3
N9400 G1 Z-0.8 F100.
N9405 G0 Z-0.7
N9410 G1 Z-1.2 F100.
N9415 G0 Z-1.1
N9420 G1 Z-1.6 F100.
N9425 G0 Z-1.5
N9430 G1 Z-2. F100.
N9435 G0 Z-1.9
N9440 G1 Z-2.4 F100.
N9445 G0 Z-2.3
N9450 G1 Z-2.8 F100.
N9455 G0 Z-2.7
N9460 G1 Z-3.2 F100.
N9465 G0 Z-3.1
N9470 G1 Z-3.6 F100.
N9475 G0 Z-3.5
N9480 G1 Z-4. F100.
N9485 G0 Z-3.9
N9490 G1 Z-4.4 F100.
N9495 G0 Z5.
N9500 Z-2.4
N9505 G1 Z-4.8 F100.
N9510 G0 Z-4.7
N9515 G1 Z-5.2 F100.
N9520 G0 Z-5.1
N9525 G1 Z-5.6 F100.
N9530 G0 Z-5.5
N9535 G1 Z-6. F100.
N9540 G0 Z5.
N9545 Z10.
N9555 M5
N9560 G53 Z0.
(2D CONTOUR1)
N9565 M9
N9570 M1
N9575 T2 M6
N9580 T1
N9585 S3000 M3
N9590 M8
N9600 G0 X0.85 Y24.2
N9605 G43 Z10. H2
N9610 G0 Z5.
N9615 G1 Z2. F250.
N9620 Z-0.6 F200.
N9625 G19 G2 Y23.8 Z-1. J-0.4 K0.
N9630 G1 Y23.4 F250.
N9635 G17 G3 X1.25 Y23. I0.4 J0.
N9640 G1 X60.75 F300.
N9645 G2 X63. Y20.75 I0. J-2.25
N9650 G1 Y1.25
N9655 G2 X60.75 Y-1. I-2.25 J0.
N9660 G1 X1.25
N9665 G2 X-1. Y1.25 I0. J2.25
N9670 G1 Y20.75
N9675 G2 X1.25 Y23. I2.25 J0.
N9680 G3 X1.65 Y23.4 I0. J0.4 F250.
N9685 G1 Y23.8
N9690 G19 G3 Y24.2 Z-0.6 J0. K0.4
N9695 G1 X0.85
N9700 Z-1.6 F200.
N9705 G2 Y23.8 Z-2. J-0.4 K0.
N9710 G1 Y23.4 F250.
N9715 G17 G3 X1.25 Y23. I0.4 J0.
N9720 G1 X60.75 F300.
N9725 G2 X63. Y20.75 I0. J-2.25
N9730 G1 Y1.25
N9735 G2 X60.75 Y-1. I-2.25 J0.
N9740 G1 X1.25
N9745 G2 X-1. Y1.25 I0. J2.25
N9750 G1 Y20.75
N9755 G2 X1.25 Y23. I2.25 J0.
N9760 G3 X1.65 Y23.4 I0. J0.4 F250.
N9765 G1 Y23.8
N9770 G19 G3 Y24.2 Z-1.6 J0. K0.4
N9775 G1 X0.85
N9780 Z-2.6 F200.
N9785 G2 Y23.8 Z-3. J-0.4 K0.
N9790 G1 Y23.4 F250.
N9795 G17 G3 X1.25 Y23. I0.4 J0.
N9800 G1 X60.75 F300.
N9805 G2 X63. Y20.75 I0. J-2.25
N9810 G1 Y1.25
N9815 G2 X60.75 Y-1. I-2.25 J0.
N9820 G1 X1.25
N9825 G2 X-1. Y1.25 I0. J2.25
N9830 G1 Y20.75
N9835 G2 X1.25 Y23. I2.25 J0.
N9840 G3 X1.65 Y23.4 I0. J0.4 F250.
N9845 G1 Y23.8
N9850 G19 G3 Y24.2 Z-2.6 J0. K0.4
N9855 G1 X0.85
N9860 Z-3.6 F200.
N9865 G2 Y23.8 Z-4. J-0.4 K0.
N9870 G1 Y23.4 F250.
N9875 G17 G3 X1.25 Y23. I0.4 J0.
N9880 G1 X60.75 F300.
N9885 G2 X63. Y20.75 I0. J-2.25
N9890 G1 Y1.25
N9895 G2 X60.75 Y-1. I-2.25 J0.
N9900 G1 X1.25
N9905 G2 X-1. Y1.25 I0. J2.25
N9910 G1 Y20.75
N9915 G2 X1.25 Y23. I2.25 J0.
N9920 G3 X1.65 Y23.4 I0. J0.4 F250.
N9925 G1 Y23.8
N9930 G19 G3 Y24.2 Z-3.6 J0. K0.4
N9935 G1 X0.85
N9940 Z-4.6 F200.
N9945 G2 Y23.8 Z-5. J-0.4 K0.
N9950 G1 Y23.4 F250.
N9955 G17 G3 X1.25 Y23. I0.4 J0.
N9960 G1 X60.75 F300.
N9965 G2 X63. Y20.75 I0. J-2.25
N9970 G1 Y1.25
N9975 G2 X60.75 Y-1. I-2.25 J0.
N9980 G1 X1.25
N9985 G2 X-1. Y1.25 I0. J2.25
N9990 G1 Y20.75
N9995 G2 X1.25 Y23. I2.25 J0.
N10000 G3 X1.65 Y23.4 I0. J0.4 F250.
N10005 G1 Y23.8
N10010 G19 G3 Y24.2 Z-4.6 J0. K0.4
N10015 G1 X0.85
N10020 Z-5.6 F200.
N10025 G2 Y23.8 Z-6. J-0.4 K0.
N10030 G1 Y23.4 F250.
N10035 G17 G3 X1.25 Y23. I0.4 J0.
N10040 G1 X60.75 F300.
N10045 G2 X63. Y20.75 I0. J-2.25
N10050 G1 Y1.25
N10055 G2 X60.75 Y-1. I-2.25 J0.
N10060 G1 X1.25
N10065 G2 X-1. Y1.25 I0. J2.25
N10070 G1 Y20.75
N10075 G2 X1.25 Y23. I2.25 J0.
N10080 G3 X1.65 Y23.4 I0. J0.4 F250.
N10085 G1 Y23.8
N10090 G19 G3 Y24.2 Z-5.6 J0. K0.4
N10095 G0 Z10.
N10100 G17
N10105 M9
N10110 G53 G0 Z0.
N10115 M30
%
