%
(1001)
(T2  D=4. CR=0. - ZMIN=-5.8 - FLAT END MILL)
N10 G90 G94 G17 G91.1
N15 G21
N20 G53 G0 Z0.
(2D ADAPTIVE2)
N25 M9
N30 T2 M6
N35 S5500 M3
N40 G54
N45 M8
N55 G0 X18.936 Y26.826
N60 G43 Z4. H2
N65 G0 Z1.7
N70 G1 Z1.2 F150.
N75 S5000
N80 G3 X17.908 Y26.174 Z1.1 I-0.514 J-0.326 F220.
N85 X18.936 Y26.826 Z0.999 I0.514 J0.326
N90 X17.908 Y26.174 Z0.899 I-0.514 J-0.326
N95 X18.936 Y26.826 Z0.799 I0.514 J0.326
N100 X17.908 Y26.174 Z0.699 I-0.514 J-0.326
N105 X18.936 Y26.826 Z0.598 I0.514 J0.326
N110 X17.908 Y26.174 Z0.498 I-0.514 J-0.326
N115 X18.936 Y26.826 Z0.398 I0.514 J0.326
N120 X17.908 Y26.174 Z0.298 I-0.514 J-0.326
N125 X18.936 Y26.826 Z0.197 I0.514 J0.326
N130 X17.908 Y26.174 Z0.097 I-0.514 J-0.326
N135 X18.936 Y26.826 Z-0.003 I0.514 J0.326
N140 X17.908 Y26.174 Z-0.103 I-0.514 J-0.326
N145 X18.936 Y26.826 Z-0.204 I0.514 J0.326
N150 X17.908 Y26.174 Z-0.304 I-0.514 J-0.326
N155 X18.936 Y26.826 Z-0.404 I0.514 J0.326
N160 X17.908 Y26.174 Z-0.505 I-0.514 J-0.326
N165 X18.936 Y26.826 Z-0.605 I0.514 J0.326
N170 X17.908 Y26.174 Z-0.705 I-0.514 J-0.326
N175 X18.936 Y26.826 Z-0.805 I0.514 J0.326
N180 X17.908 Y26.174 Z-0.906 I-0.514 J-0.326
N185 X18.936 Y26.826 Z-1.006 I0.514 J0.326
N190 X17.908 Y26.174 Z-1.106 I-0.514 J-0.326
N195 X18.936 Y26.826 Z-1.206 I0.514 J0.326
N200 X17.908 Y26.174 Z-1.307 I-0.514 J-0.326
N205 X18.936 Y26.826 Z-1.407 I0.514 J0.326
N210 X17.908 Y26.174 Z-1.507 I-0.514 J-0.326
N215 X18.936 Y26.826 Z-1.608 I0.514 J0.326
N220 X17.908 Y26.174 Z-1.708 I-0.514 J-0.326
N225 X19.031 Y26.5 Z-1.79 I0.514 J0.326
N230 X17.813 I-0.609 J0.
N235 X19.031 I0.609 J0.
N240 S5500
N245 G1 X19.066 Y26.792 F275.
N250 X19.045 Y26.943
N255 X18.967 Y27.073
N260 X18.843 Y27.163
N265 X18.695 Y27.197
N270 X18.594 Y27.2
N275 X18.113
N280 G3 X17.504 Y26.738 I-0.02 J-0.605
N285 X18.225 Y25.8 I0.721 J-0.192
N290 X18.832 Y25.813 I0.2 J4.98
N295 G1 X18.845 Y25.823 Z-1.788 F150.
N300 G3 X18.958 Y26.509 Z-1.69 I-0.298 J0.402
N305 X18.82 Y26.643 I-0.411 J-0.285
N310 G1 X18.489 Y26.86
N315 G3 X18.314 Y26.931 I-0.273 J-0.419
N320 X17.772 Y26.672 I-0.098 J-0.49 F3000.
N325 X17.972 Y26.004 I0.444 J-0.231 F150.
N330 G1 X17.98 Y26.
N335 G3 X18.731 Y25.804 Z-1.79 I0.764 J1.386
N340 G1 X18.766 Y25.805 F275.
N345 X18.855 Y25.816
N350 X19.002 Y25.844
N355 G3 X19.311 Y26.724 I-0.355 J0.619
N360 X18.642 Y27.199 I-0.689 J-0.263
N365 X18.506 Y27.17 Z-1.772 I0.003 J-0.35 F150.
N370 X18.18 Y26.885 Z-1.69 I0.28 J-0.65
N375 X18.186 Y26.146 I0.606 J-0.365
N380 X18.855 Y25.816 Z-1.79 I0.6 J0.375
N385 X19.363 Y25.948 I-0.012 J1.099 F275.
N390 G1 X19.44 Y26.01
N395 G3 X19.344 Y26.672 Z-1.69 I-0.277 J0.298 F150.
N400 X18.76 Y26.248 I-0.181 J-0.364
N405 X19.219 Y25.905 Z-1.771 I0.402 J0.06
N410 X19.361 Y25.951 Z-1.79 I-0.061 J0.432
N415 X19.623 Y26.295 I-0.427 J0.597 F275.
N420 X19.372 Y26.978 Z-1.69 I-0.56 J0.182 F150.
N425 X18.653 Y26.899 I-0.309 J-0.501
N430 X18.514 Y26.689 I0.411 J-0.422 F3000.
N435 X18.724 Y25.996 I0.549 J-0.212 F150.
N440 X18.907 Y25.909 Z-1.716 I0.34 J0.481
N445 X19.455 Y26.023 Z-1.79 I0.162 J0.591
N450 X19.065 Y27.155 I-0.455 J0.476 F275.
N455 G1 X18.938 Y27.175
N460 X18.766 Y27.195
N465 X18.695 Y27.197
N470 X18.113 Y27.2 F150.
N475 X17.733 F275.
N480 G3 X17.236 Y26.922 I-0.028 J-0.533
N485 X17.901 Y25.801 I0.662 J-0.365
N490 G1 X18.225 Y25.8
N495 G3 X18.541 Y26.036 Z-1.737 I-0.012 J0.346 F150.
N500 X18.563 Y26.114 Z-1.69 I-0.839 J0.28
N505 X18.408 Y26.85 I-0.861 J0.202
N510 X17.733 Y27.2 Z-1.79 I-0.705 J-0.534
N515 G1 X17.389 F275.
N520 G3 X16.895 Y26.918 I-0.027 J-0.527
N525 X17.569 Y25.801 I0.671 J-0.357
N530 G1 X17.901 Y25.8
N535 G3 X18.221 Y26.048 Z-1.735 I-0.012 J0.346 F150.
N540 G1 X18.239 Y26.121 Z-1.69
N545 G3 X18.067 Y26.855 I-0.881 J0.18
N550 X17.389 Y27.2 Z-1.79 I-0.709 J-0.553
N555 G1 X17.044 F275.
N560 G3 X16.554 Y26.913 I-0.024 J-0.52
N565 X17.234 Y25.801 I0.676 J-0.351
N570 G1 X17.569 Y25.8
N575 G3 X17.891 Y26.056 Z-1.734 I-0.012 J0.345 F150.
N580 G1 X17.907 Y26.126 Z-1.69
N585 G3 X17.724 Y26.858 I-0.894 J0.166
N590 X17.045 Y27.2 Z-1.79 I-0.711 J-0.566
N595 G1 X16.701 F275.
N600 G3 X16.21 Y26.911 I-0.017 J-0.532
N605 X16.896 Y25.8 I0.686 J-0.344
N610 G1 X17.234
N615 G3 X17.557 Y26.061 Z-1.733 I-0.012 J0.345 F150.
N620 G1 X17.571 Y26.13 Z-1.69
N625 G3 X17.382 Y26.86 I-0.902 J0.155
N630 X16.701 Y27.2 Z-1.79 I-0.713 J-0.575
N635 G1 X16.356 F275.
N640 G3 X15.869 Y26.908 I-0.014 J-0.529
N645 X16.558 Y25.8 I0.689 J-0.34
N650 G1 X16.896
N655 G3 X17.22 Y26.065 Z-1.733 I-0.012 J0.345 F150.
N660 G1 X17.234 Y26.133 Z-1.69
N665 G3 X17.038 Y26.861 I-0.909 J0.147
N670 X16.356 Y27.2 Z-1.79 I-0.714 J-0.582
N675 G1 X16.047 F275.
N680 G3 X15.471 Y26.714 I-0.009 J-0.574
N685 X16.224 Y25.8 I0.753 J-0.147
N690 G1 X16.558
N695 G3 X16.877 Y26.047 Z-1.735 I-0.012 J0.346 F150.
N700 G1 X16.896 Y26.121 Z-1.69
N705 G3 X16.724 Y26.854 I-0.88 J0.181
N710 X16.047 Y27.2 Z-1.79 I-0.709 J-0.552
N715 G1 X15.703 F275.
N720 G3 X15.209 Y26.917 I-0.027 J-0.524
N725 X15.887 Y25.801 I0.674 J-0.355
N730 G1 X16.224 Y25.8
N735 G3 X16.545 Y26.054 Z-1.734 I-0.012 J0.345 F150.
N740 G1 X16.561 Y26.125 Z-1.69
N745 G3 X16.382 Y26.857 I-0.89 J0.169
N750 X15.703 Y27.2 Z-1.79 I-0.711 J-0.562
N755 G1 X15.358 F275.
N760 G3 X14.869 Y26.912 I-0.024 J-0.518
N765 X15.55 Y25.801 I0.677 J-0.349
N770 G1 X15.887 Y25.8
N775 G3 X16.209 Y26.058 Z-1.734 I-0.012 J0.345 F150.
N780 G1 X16.225 Y26.128 Z-1.69
N785 G3 X16.039 Y26.859 I-0.898 J0.16
N790 X15.359 Y27.2 Z-1.79 I-0.712 J-0.57
N795 G1 X15.014 F275.
N800 G3 X14.525 Y26.91 I-0.016 J-0.531
N805 X15.212 Y25.8 I0.687 J-0.342
N810 G1 X15.55
N815 G3 X15.873 Y26.062 Z-1.733 I-0.012 J0.345 F150.
N820 G1 X15.888 Y26.131 Z-1.69
N825 G3 X15.696 Y26.86 I-0.905 J0.152
N830 X15.014 Y27.2 Z-1.79 I-0.713 J-0.578
N835 G1 X14.67 F275.
N840 G3 X14.183 Y26.907 I-0.014 J-0.528
N845 X14.873 Y25.8 I0.69 J-0.338
N850 G1 X15.212
N855 G3 X15.536 Y26.066 Z-1.733 I-0.012 J0.345 F150.
N860 G1 X15.55 Y26.133 Z-1.69
N865 G3 X15.352 Y26.862 I-0.912 J0.144
N870 X14.67 Y27.2 Z-1.79 I-0.715 J-0.584
N875 G1 X14.326 F275.
N880 X14.176 Y27.192
N885 G3 X13.774 Y26.693 I0.228 J-0.595
N890 X14.533 Y25.8 I0.759 J-0.124
N895 G1 X14.873
N900 G3 X15.198 Y26.069 Z-1.732 I-0.012 J0.345 F150.
N905 G1 X15.21 Y26.136 Z-1.69
N910 G3 X15.009 Y26.863 I-0.917 J0.138
N915 X14.326 Y27.2 Z-1.79 I-0.716 J-0.59
N920 G1 X13.982 F275.
N925 X13.832 Y27.192
N930 G3 X13.432 Y26.691 I0.234 J-0.596
N935 X14.192 Y25.8 I0.76 J-0.121
N940 G1 X14.533
N945 G3 X14.858 Y26.072 Z-1.732 I-0.012 J0.345 F150.
N950 G1 X14.87 Y26.137 Z-1.69
N955 G3 X14.665 Y26.864 I-0.921 J0.132
N960 X13.982 Y27.2 Z-1.79 I-0.716 J-0.594
N965 G1 X13.68 F275.
N970 G3 X13.104 Y26.713 I-0.009 J-0.573
N975 X13.858 Y25.8 I0.753 J-0.146
N980 G1 X14.192
N985 G3 X14.512 Y26.049 Z-1.735 I-0.012 J0.346 F150.
N990 G1 X14.53 Y26.122 Z-1.69
N995 G3 X14.357 Y26.855 I-0.882 J0.179
N1000 X13.68 Y27.2 Z-1.79 I-0.709 J-0.554
N1005 G1 X13.336 F275.
N1010 G3 X12.843 Y26.917 I-0.027 J-0.524
N1015 X13.521 Y25.801 I0.675 J-0.354
N1020 G1 X13.858 Y25.8
N1025 G3 X14.179 Y26.054 Z-1.734 I-0.012 J0.345 F150.
N1030 G1 X14.195 Y26.125 Z-1.69
N1035 G3 X14.015 Y26.857 I-0.891 J0.168
N1040 X13.336 Y27.2 Z-1.79 I-0.711 J-0.564
N1045 G1 X12.991 F275.
N1050 G3 X12.502 Y26.912 I-0.024 J-0.518
N1055 X13.183 Y25.801 I0.678 J-0.349
N1060 G1 X13.521 Y25.8
N1065 G3 X13.843 Y26.059 Z-1.734 I-0.012 J0.345 F150.
N1070 G1 X13.858 Y26.128 Z-1.69
N1075 G3 X13.672 Y26.859 I-0.899 J0.16
N1080 X12.991 Y27.2 Z-1.79 I-0.712 J-0.571
N1085 G1 X12.653 F275.
N1090 G3 X12.161 Y26.913 I-0.018 J-0.533
N1095 X12.846 Y25.8 I0.685 J-0.346
N1100 G1 X13.183
N1105 G3 X13.506 Y26.059 Z-1.733 I-0.012 J0.345 F150.
N1110 G1 X13.521 Y26.129 Z-1.69
N1115 G3 X13.334 Y26.859 I-0.9 J0.159
N1120 X12.653 Y27.2 Z-1.79 I-0.712 J-0.572
N1125 G1 X12.309 F275.
N1130 G3 X11.82 Y26.909 I-0.016 J-0.53
N1135 X12.508 Y25.8 I0.688 J-0.341
N1140 G1 X12.846
N1145 G3 X13.17 Y26.063 Z-1.733 I-0.012 J0.345 F150.
N1150 G1 X13.184 Y26.131 Z-1.69
N1155 G3 X12.991 Y26.861 I-0.907 J0.15
N1160 X12.309 Y27.2 Z-1.79 I-0.714 J-0.579
N1165 G1 X11.965 F275.
N1170 G3 X11.478 Y26.906 I-0.013 J-0.528
N1175 X12.169 Y25.8 I0.69 J-0.338
N1180 G1 X12.508
N1185 G3 X12.832 Y26.067 Z-1.732 I-0.012 J0.345 F150.
N1190 G1 X12.845 Y26.134 Z-1.69
N1195 G3 X12.647 Y26.862 I-0.913 J0.143
N1200 X11.965 Y27.2 Z-1.79 I-0.715 J-0.585
N1205 G1 X11.657 F275.
N1210 G3 X11.082 Y26.713 I-0.008 J-0.574
N1215 X11.834 Y25.8 I0.753 J-0.146
N1220 G1 X12.169
N1225 G3 X12.488 Y26.048 Z-1.735 I-0.012 J0.346 F150.
N1230 G1 X12.507 Y26.121 Z-1.69
N1235 G3 X12.334 Y26.855 I-0.881 J0.18
N1240 X11.657 Y27.2 Z-1.79 I-0.709 J-0.553
N1245 G1 X11.313 F275.
N1250 G3 X10.82 Y26.917 I-0.027 J-0.524
N1255 X11.498 Y25.801 I0.675 J-0.354
N1260 G1 X11.834 Y25.8
N1265 G3 X12.156 Y26.054 Z-1.734 I-0.012 J0.345 F150.
N1270 G1 X12.172 Y26.125 Z-1.69
N1275 G3 X11.992 Y26.857 I-0.891 J0.168
N1280 X11.313 Y27.2 Z-1.79 I-0.711 J-0.563
N1285 G1 X10.968 F275.
N1290 G3 X10.479 Y26.912 I-0.024 J-0.518
N1295 X11.161 Y25.801 I0.678 J-0.349
N1300 G1 X11.498 Y25.8
N1305 G3 X11.82 Y26.059 Z-1.734 I-0.012 J0.345 F150.
N1310 G1 X11.835 Y26.128 Z-1.69
N1315 G3 X11.649 Y26.859 I-0.899 J0.16
N1320 X10.968 Y27.2 Z-1.79 I-0.712 J-0.571
N1325 G1 X10.648 F275.
N1330 G3 X10.15 Y26.922 I-0.029 J-0.532
N1335 X10.826 Y25.801 I0.673 J-0.359
N1340 G1 X11.161 Y25.8
N1345 G3 X11.48 Y26.049 Z-1.735 I-0.012 J0.346 F150.
N1350 G1 X11.498 Y26.122 Z-1.69
N1355 G3 X11.325 Y26.855 I-0.882 J0.179
N1360 X10.648 Y27.2 Z-1.79 I-0.709 J-0.555
N1365 G1 X10.303 F275.
N1370 G3 X9.811 Y26.916 I-0.026 J-0.522
N1375 X10.49 Y25.801 I0.675 J-0.353
N1380 G1 X10.826 Y25.8
N1385 G3 X11.148 Y26.055 Z-1.734 I-0.012 J0.345 F150.
N1390 G1 X11.164 Y26.126 Z-1.69
N1395 G3 X10.983 Y26.857 I-0.892 J0.167
N1400 X10.303 Y27.2 Z-1.79 I-0.711 J-0.565
N1405 G1 X9.959 F275.
N1410 G3 X9.468 Y26.912 I-0.018 J-0.533
N1415 X10.153 Y25.8 I0.685 J-0.345
N1420 G1 X10.49
N1425 G3 X10.813 Y26.059 Z-1.733 I-0.012 J0.345 F150.
N1430 G1 X10.827 Y26.129 Z-1.69
N1435 G3 X10.64 Y26.859 I-0.9 J0.158
N1440 X9.959 Y27.2 Z-1.79 I-0.712 J-0.573
N1445 G1 X9.644 F275.
N1450 G3 X9.067 Y26.714 I-0.008 J-0.575
N1455 X9.819 Y25.8 I0.752 J-0.148
N1460 G1 X10.153
N1465 G3 X10.472 Y26.047 Z-1.735 I-0.012 J0.346 F150.
N1470 G1 X10.49 Y26.12 Z-1.69
N1475 G3 X10.32 Y26.854 I-0.878 J0.183
N1480 X9.644 Y27.2 Z-1.79 I-0.708 J-0.551
N1485 G1 X9.299 F275.
N1490 G3 X8.806 Y26.917 I-0.027 J-0.525
N1495 X9.483 Y25.801 I0.674 J-0.355
N1500 G1 X9.542 Y25.808 Z-1.782 F150.
N1505 X9.598 Y25.824 Z-1.775
N1510 X9.652 Y25.85 Z-1.767
N1515 G3 X9.87 Y26.056 Z-1.69 I-0.378 J0.622
N1520 X9.927 Y26.794 I-0.597 J0.417
N1525 X9.299 Y27.2 Z-1.79 I-0.653 J-0.321
N1530 G1 X8.954 F275.
N1535 G3 X8.465 Y26.912 I-0.024 J-0.519
N1540 X9.146 Y25.801 I0.677 J-0.35
N1545 G1 X9.207 Y25.808 Z-1.782 F150.
N1550 X9.266 Y25.826 Z-1.774
N1555 X9.321 Y25.854 Z-1.766
N1560 G3 X9.53 Y26.056 Z-1.69 I-0.391 J0.616
N1565 X9.583 Y26.795 I-0.601 J0.414
N1570 X8.955 Y27.2 Z-1.79 I-0.654 J-0.324
N1575 G1 X8.611 F275.
N1580 G3 X8.121 Y26.91 I-0.016 J-0.531
N1585 X8.808 Y25.8 I0.687 J-0.342
N1590 X8.987 Y25.857 Z-1.766 I-0.012 J0.348 F150.
N1595 X9.19 Y26.056 Z-1.69 I-0.402 J0.611
N1600 X9.24 Y26.796 I-0.605 J0.412
N1605 X8.611 Y27.2 Z-1.79 I-0.655 J-0.327
N1610 G1 X8.267 F275.
N1615 G3 X7.779 Y26.907 I-0.014 J-0.528
N1620 X8.469 Y25.8 I0.69 J-0.338
N1625 X8.652 Y25.86 Z-1.765 I-0.012 J0.348 F150.
N1630 X8.849 Y26.057 Z-1.69 I-0.412 J0.607
N1635 X8.896 Y26.796 I-0.608 J0.41
N1640 X8.267 Y27.2 Z-1.79 I-0.655 J-0.329
N1645 G1 X7.957 F275.
N1650 G3 X7.459 Y26.923 I-0.029 J-0.535
N1655 X8.135 Y25.801 I0.674 J-0.359
N1660 G1 X8.192 Y25.807 Z-1.783 F150.
N1665 X8.247 Y25.823 Z-1.775
N1670 X8.299 Y25.848 Z-1.768
N1675 G3 X8.525 Y26.055 Z-1.69 I-0.367 J0.627
N1680 X8.584 Y26.793 I-0.593 J0.419
N1685 X7.957 Y27.2 Z-1.79 I-0.652 J-0.319
N1690 G1 X7.613 F275.
N1695 G3 X7.12 Y26.917 I-0.027 J-0.523
N1700 X7.798 Y25.801 I0.675 J-0.354
N1705 G1 X7.857 Y25.808 Z-1.782 F150.
N1710 X7.915 Y25.825 Z-1.775
N1715 X7.968 Y25.851 Z-1.767
N1720 G3 X8.185 Y26.056 Z-1.69 I-0.381 J0.621
N1725 X8.241 Y26.794 I-0.598 J0.416
N1730 X7.613 Y27.2 Z-1.79 I-0.653 J-0.322
N1735 X7.166 Y27.188 I-0.119 J-3.863 F275.
N1740 G1 X7.154 Y27.178 Z-1.788 F150.
N1745 G3 X7.032 Y26.493 Z-1.69 I0.293 J-0.405
N1750 X7.269 Y26.305 I0.415 J0.279
N1755 G1 X7.71 Y26.138
N1760 X8.366 Y25.89 F3000.
N1765 G3 X8.787 Y26.794 I0.177 J0.468
N1770 G1 X8.767 Y26.805
N1775 G3 X8.045 Y27.093 I-1.525 J-2.774 F150.
N1780 X7.269 Y27.196 Z-1.79 I-0.803 J-3.062
N1785 G1 X7.234 Y27.195 F275.
N1790 X7.145 Y27.185
N1795 X6.998 Y27.16
N1800 X6.881 Y27.065
N1805 X6.785 Y26.949
N1810 G3 X7.472 Y25.8 I0.687 J-0.369
N1815 X7.689 Y25.884 Z-1.76 I-0.012 J0.352 F150.
N1820 X7.873 Y26.122 Z-1.69 I-0.482 J0.563
N1825 X7.821 Y26.862 I-0.665 J0.325
N1830 X7.145 Y27.185 Z-1.79 I-0.613 J-0.415
N1835 X6.626 Y27.045 I0.043 J-1.193 F275.
N1840 G1 X6.621 Y27.028 Z-1.788 F150.
N1845 G3 X6.818 Y26.361 Z-1.69 I0.443 J-0.232
N1850 X6.954 Y26.309 I0.246 J0.435
N1855 G1 X7.572 Y26.17
N1860 X8.133 Y26.044 F3000.
N1865 G3 X8.407 Y27.004 I0.11 J0.488
N1870 G1 X8.386 Y27.011
N1875 G3 X7.624 Y27.17 I-1.021 J-2.996 F150.
N1880 X6.842 Y27.137 Z-1.79 I-0.26 J-3.154
N1885 X6.488 Y26.91 I0.145 J-0.616 F275.
N1890 G1 X6.592 Y27.019 F150.
N1895 G3 X6.418 Y26.807 I0.503 J-0.593 F275.
N1900 X6.409 Y26.779 I0.258 J-0.093 F150.
N1905 X6.526 Y26.484 I0.267 J-0.065
N1910 X6.822 Y26.938 I0.148 J0.227
N1915 X6.474 Y26.894 I-0.148 J-0.227
N1920 X6.345 Y26.483 I0.514 J-0.388 F275.
N1925 G1 X6.353 Y26.432 F150.
N1930 X6.375 Y26.384
N1935 X6.408 Y26.343
N1940 X6.451 Y26.313
N1945 X6.5 Y26.295
N1950 X6.552 Y26.29
N1955 X6.604 Y26.299
N1960 X6.652 Y26.321
N1965 X6.692 Y26.355
N1970 X6.722 Y26.398
N1975 X6.739 Y26.448
N1980 X6.784 Y26.653
N1985 G3 X6.405 Y26.776 I-0.196 J0.042
N1990 X6.889 Y25.853 I0.589 J-0.28 F275.
N1995 G1 X7.062 Y25.828
N2000 X7.234 Y25.805
N2005 X7.406 Y25.8
N2010 X9.819
N2015 G3 X10.213 Y26.584 I-0.017 J0.5 F150.
N2020 G1 X10.164 Y26.631 Z-1.785
N2025 X10.116 Y26.677 Z-1.771
N2030 X10.07 Y26.721 Z-1.749
N2035 X10.001 Y26.748 Z-1.708
N2040 X9.939 Y26.772 Z-1.656
N2045 X9.886 Y26.793 Z-1.593
N2050 X9.85 Y26.796 Z-1.539
N2055 X9.822 Y26.798 Z-1.482
N2060 X9.802 Y26.8 Z-1.421
N2065 X9.795 Z-1.393
N2070 X9.787 Y26.799 Z-1.342
N2075 X9.784 Z-1.29
N2080 G0 Z2.2
N2085 X18.936 Y26.826
N2090 Z-0.29
N2095 G1 Z-0.79 F150.
N2100 S5000
N2105 G3 X17.908 Y26.174 Z-0.89 I-0.514 J-0.326 F220.
N2110 X18.936 Y26.826 Z-0.991 I0.514 J0.326
N2115 X17.908 Y26.174 Z-1.091 I-0.514 J-0.326
N2120 X18.936 Y26.826 Z-1.191 I0.514 J0.326
N2125 X17.908 Y26.174 Z-1.291 I-0.514 J-0.326
N2130 X18.936 Y26.826 Z-1.392 I0.514 J0.326
N2135 X17.908 Y26.174 Z-1.492 I-0.514 J-0.326
N2140 X18.936 Y26.826 Z-1.592 I0.514 J0.326
N2145 X17.908 Y26.174 Z-1.692 I-0.514 J-0.326
N2150 X18.936 Y26.826 Z-1.793 I0.514 J0.326
N2155 X17.908 Y26.174 Z-1.893 I-0.514 J-0.326
N2160 X18.936 Y26.826 Z-1.993 I0.514 J0.326
N2165 X17.908 Y26.174 Z-2.093 I-0.514 J-0.326
N2170 X18.936 Y26.826 Z-2.194 I0.514 J0.326
N2175 X17.908 Y26.174 Z-2.294 I-0.514 J-0.326
N2180 X18.936 Y26.826 Z-2.394 I0.514 J0.326
N2185 X17.908 Y26.174 Z-2.495 I-0.514 J-0.326
N2190 X18.936 Y26.826 Z-2.595 I0.514 J0.326
N2195 X17.908 Y26.174 Z-2.695 I-0.514 J-0.326
N2200 X18.936 Y26.826 Z-2.795 I0.514 J0.326
N2205 X17.908 Y26.174 Z-2.896 I-0.514 J-0.326
N2210 X18.936 Y26.826 Z-2.996 I0.514 J0.326
N2215 X17.908 Y26.174 Z-3.096 I-0.514 J-0.326
N2220 X18.936 Y26.826 Z-3.196 I0.514 J0.326
N2225 X17.908 Y26.174 Z-3.297 I-0.514 J-0.326
N2230 X18.936 Y26.826 Z-3.397 I0.514 J0.326
N2235 X17.908 Y26.174 Z-3.497 I-0.514 J-0.326
N2240 X18.936 Y26.826 Z-3.598 I0.514 J0.326
N2245 X17.908 Y26.174 Z-3.698 I-0.514 J-0.326
N2250 X19.031 Y26.5 Z-3.78 I0.514 J0.326
N2255 X17.813 I-0.609 J0.
N2260 X19.031 I0.609 J0.
N2265 S5500
N2270 G1 X19.066 Y26.792 F275.
N2275 X19.045 Y26.943
N2280 X18.967 Y27.073
N2285 X18.843 Y27.163
N2290 X18.695 Y27.197
N2295 X18.594 Y27.2
N2300 X18.113
N2305 G3 X17.504 Y26.738 I-0.02 J-0.605
N2310 X18.225 Y25.8 I0.721 J-0.192
N2315 X18.832 Y25.813 I0.2 J4.98
N2320 G1 X18.845 Y25.823 Z-3.778 F150.
N2325 G3 X18.958 Y26.509 Z-3.68 I-0.298 J0.402
N2330 X18.82 Y26.643 I-0.411 J-0.285
N2335 G1 X18.489 Y26.86
N2340 G3 X18.314 Y26.931 I-0.273 J-0.419
N2345 X17.772 Y26.672 I-0.098 J-0.49 F3000.
N2350 X17.972 Y26.004 I0.444 J-0.231 F150.
N2355 G1 X17.98 Y26.
N2360 G3 X18.731 Y25.804 Z-3.78 I0.764 J1.386
N2365 G1 X18.766 Y25.805 F275.
N2370 X18.855 Y25.816
N2375 X19.002 Y25.844
N2380 G3 X19.311 Y26.724 I-0.355 J0.619
N2385 X18.642 Y27.199 I-0.689 J-0.263
N2390 X18.506 Y27.17 Z-3.762 I0.003 J-0.35 F150.
N2395 X18.18 Y26.885 Z-3.68 I0.28 J-0.65
N2400 X18.186 Y26.146 I0.606 J-0.365
N2405 X18.855 Y25.816 Z-3.78 I0.6 J0.375
N2410 X19.363 Y25.948 I-0.012 J1.099 F275.
N2415 G1 X19.44 Y26.01
N2420 G3 X19.344 Y26.672 Z-3.68 I-0.277 J0.298 F150.
N2425 X18.76 Y26.248 I-0.181 J-0.364
N2430 X19.219 Y25.905 Z-3.761 I0.402 J0.06
N2435 X19.361 Y25.951 Z-3.78 I-0.061 J0.432
N2440 X19.623 Y26.295 I-0.427 J0.597 F275.
N2445 X19.372 Y26.978 Z-3.68 I-0.56 J0.182 F150.
N2450 X18.653 Y26.899 I-0.309 J-0.501
N2455 X18.514 Y26.689 I0.411 J-0.422 F3000.
N2460 X18.724 Y25.996 I0.549 J-0.212 F150.
N2465 X18.907 Y25.909 Z-3.706 I0.34 J0.481
N2470 X19.455 Y26.023 Z-3.78 I0.162 J0.591
N2475 X19.065 Y27.155 I-0.455 J0.476 F275.
N2480 G1 X18.938 Y27.175
N2485 X18.766 Y27.195
N2490 X18.695 Y27.197
N2495 X18.113 Y27.2 F150.
N2500 X17.733 F275.
N2505 G3 X17.236 Y26.922 I-0.028 J-0.533
N2510 X17.901 Y25.801 I0.662 J-0.365
N2515 G1 X18.225 Y25.8
N2520 G3 X18.541 Y26.036 Z-3.727 I-0.012 J0.346 F150.
N2525 X18.563 Y26.114 Z-3.68 I-0.839 J0.28
N2530 X18.408 Y26.85 I-0.861 J0.202
N2535 X17.733 Y27.2 Z-3.78 I-0.705 J-0.534
N2540 G1 X17.389 F275.
N2545 G3 X16.895 Y26.918 I-0.027 J-0.527
N2550 X17.569 Y25.801 I0.671 J-0.357
N2555 G1 X17.901 Y25.8
N2560 G3 X18.221 Y26.048 Z-3.725 I-0.012 J0.346 F150.
N2565 G1 X18.239 Y26.121 Z-3.68
N2570 G3 X18.067 Y26.855 I-0.881 J0.18
N2575 X17.389 Y27.2 Z-3.78 I-0.709 J-0.553
N2580 G1 X17.044 F275.
N2585 G3 X16.554 Y26.913 I-0.024 J-0.52
N2590 X17.234 Y25.801 I0.676 J-0.351
N2595 G1 X17.569 Y25.8
N2600 G3 X17.891 Y26.056 Z-3.724 I-0.012 J0.345 F150.
N2605 G1 X17.907 Y26.126 Z-3.68
N2610 G3 X17.724 Y26.858 I-0.894 J0.166
N2615 X17.045 Y27.2 Z-3.78 I-0.711 J-0.566
N2620 G1 X16.701 F275.
N2625 G3 X16.21 Y26.911 I-0.017 J-0.532
N2630 X16.896 Y25.8 I0.686 J-0.344
N2635 G1 X17.234
N2640 G3 X17.557 Y26.061 Z-3.723 I-0.012 J0.345 F150.
N2645 G1 X17.571 Y26.13 Z-3.68
N2650 G3 X17.382 Y26.86 I-0.902 J0.155
N2655 X16.701 Y27.2 Z-3.78 I-0.713 J-0.575
N2660 G1 X16.356 F275.
N2665 G3 X15.869 Y26.908 I-0.014 J-0.529
N2670 X16.558 Y25.8 I0.689 J-0.34
N2675 G1 X16.896
N2680 G3 X17.22 Y26.065 Z-3.723 I-0.012 J0.345 F150.
N2685 G1 X17.234 Y26.133 Z-3.68
N2690 G3 X17.038 Y26.861 I-0.909 J0.147
N2695 X16.356 Y27.2 Z-3.78 I-0.714 J-0.582
N2700 G1 X16.047 F275.
N2705 G3 X15.471 Y26.714 I-0.009 J-0.574
N2710 X16.224 Y25.8 I0.753 J-0.147
N2715 G1 X16.558
N2720 G3 X16.877 Y26.047 Z-3.725 I-0.012 J0.346 F150.
N2725 G1 X16.896 Y26.121 Z-3.68
N2730 G3 X16.724 Y26.854 I-0.88 J0.181
N2735 X16.047 Y27.2 Z-3.78 I-0.709 J-0.552
N2740 G1 X15.703 F275.
N2745 G3 X15.209 Y26.917 I-0.027 J-0.524
N2750 X15.887 Y25.801 I0.674 J-0.355
N2755 G1 X16.224 Y25.8
N2760 G3 X16.545 Y26.054 Z-3.724 I-0.012 J0.345 F150.
N2765 G1 X16.561 Y26.125 Z-3.68
N2770 G3 X16.382 Y26.857 I-0.89 J0.169
N2775 X15.703 Y27.2 Z-3.78 I-0.711 J-0.562
N2780 G1 X15.358 F275.
N2785 G3 X14.869 Y26.912 I-0.024 J-0.518
N2790 X15.55 Y25.801 I0.677 J-0.349
N2795 G1 X15.887 Y25.8
N2800 G3 X16.209 Y26.058 Z-3.724 I-0.012 J0.345 F150.
N2805 G1 X16.225 Y26.128 Z-3.68
N2810 G3 X16.039 Y26.859 I-0.898 J0.16
N2815 X15.359 Y27.2 Z-3.78 I-0.712 J-0.57
N2820 G1 X15.014 F275.
N2825 G3 X14.525 Y26.91 I-0.016 J-0.531
N2830 X15.212 Y25.8 I0.687 J-0.342
N2835 G1 X15.55
N2840 G3 X15.873 Y26.062 Z-3.723 I-0.012 J0.345 F150.
N2845 G1 X15.888 Y26.131 Z-3.68
N2850 G3 X15.696 Y26.86 I-0.905 J0.152
N2855 X15.014 Y27.2 Z-3.78 I-0.713 J-0.578
N2860 G1 X14.67 F275.
N2865 G3 X14.183 Y26.907 I-0.014 J-0.528
N2870 X14.873 Y25.8 I0.69 J-0.338
N2875 G1 X15.212
N2880 G3 X15.536 Y26.066 Z-3.723 I-0.012 J0.345 F150.
N2885 G1 X15.55 Y26.133 Z-3.68
N2890 G3 X15.352 Y26.862 I-0.912 J0.144
N2895 X14.67 Y27.2 Z-3.78 I-0.715 J-0.584
N2900 G1 X14.326 F275.
N2905 X14.176 Y27.192
N2910 G3 X13.774 Y26.693 I0.228 J-0.595
N2915 X14.533 Y25.8 I0.759 J-0.124
N2920 G1 X14.873
N2925 G3 X15.198 Y26.069 Z-3.722 I-0.012 J0.345 F150.
N2930 G1 X15.21 Y26.136 Z-3.68
N2935 G3 X15.009 Y26.863 I-0.917 J0.138
N2940 X14.326 Y27.2 Z-3.78 I-0.716 J-0.59
N2945 G1 X13.982 F275.
N2950 X13.832 Y27.192
N2955 G3 X13.432 Y26.691 I0.234 J-0.596
N2960 X14.192 Y25.8 I0.76 J-0.121
N2965 G1 X14.533
N2970 G3 X14.858 Y26.072 Z-3.722 I-0.012 J0.345 F150.
N2975 G1 X14.87 Y26.137 Z-3.68
N2980 G3 X14.665 Y26.864 I-0.921 J0.132
N2985 X13.982 Y27.2 Z-3.78 I-0.716 J-0.594
N2990 G1 X13.68 F275.
N2995 G3 X13.104 Y26.713 I-0.009 J-0.573
N3000 X13.858 Y25.8 I0.753 J-0.146
N3005 G1 X14.192
N3010 G3 X14.512 Y26.049 Z-3.725 I-0.012 J0.346 F150.
N3015 G1 X14.53 Y26.122 Z-3.68
N3020 G3 X14.357 Y26.855 I-0.882 J0.179
N3025 X13.68 Y27.2 Z-3.78 I-0.709 J-0.554
N3030 G1 X13.336 F275.
N3035 G3 X12.843 Y26.917 I-0.027 J-0.524
N3040 X13.521 Y25.801 I0.675 J-0.354
N3045 G1 X13.858 Y25.8
N3050 G3 X14.179 Y26.054 Z-3.724 I-0.012 J0.345 F150.
N3055 G1 X14.195 Y26.125 Z-3.68
N3060 G3 X14.015 Y26.857 I-0.891 J0.168
N3065 X13.336 Y27.2 Z-3.78 I-0.711 J-0.564
N3070 G1 X12.991 F275.
N3075 G3 X12.502 Y26.912 I-0.024 J-0.518
N3080 X13.183 Y25.801 I0.678 J-0.349
N3085 G1 X13.521 Y25.8
N3090 G3 X13.843 Y26.059 Z-3.724 I-0.012 J0.345 F150.
N3095 G1 X13.858 Y26.128 Z-3.68
N3100 G3 X13.672 Y26.859 I-0.899 J0.16
N3105 X12.991 Y27.2 Z-3.78 I-0.712 J-0.571
N3110 G1 X12.653 F275.
N3115 G3 X12.161 Y26.913 I-0.018 J-0.533
N3120 X12.846 Y25.8 I0.685 J-0.346
N3125 G1 X13.183
N3130 G3 X13.506 Y26.059 Z-3.723 I-0.012 J0.345 F150.
N3135 G1 X13.521 Y26.129 Z-3.68
N3140 G3 X13.334 Y26.859 I-0.9 J0.159
N3145 X12.653 Y27.2 Z-3.78 I-0.712 J-0.572
N3150 G1 X12.309 F275.
N3155 G3 X11.82 Y26.909 I-0.016 J-0.53
N3160 X12.508 Y25.8 I0.688 J-0.341
N3165 G1 X12.846
N3170 G3 X13.17 Y26.063 Z-3.723 I-0.012 J0.345 F150.
N3175 G1 X13.184 Y26.131 Z-3.68
N3180 G3 X12.991 Y26.861 I-0.907 J0.15
N3185 X12.309 Y27.2 Z-3.78 I-0.714 J-0.579
N3190 G1 X11.965 F275.
N3195 G3 X11.478 Y26.906 I-0.013 J-0.528
N3200 X12.169 Y25.8 I0.69 J-0.338
N3205 G1 X12.508
N3210 G3 X12.832 Y26.067 Z-3.722 I-0.012 J0.345 F150.
N3215 G1 X12.845 Y26.134 Z-3.68
N3220 G3 X12.647 Y26.862 I-0.913 J0.143
N3225 X11.965 Y27.2 Z-3.78 I-0.715 J-0.585
N3230 G1 X11.657 F275.
N3235 G3 X11.082 Y26.713 I-0.008 J-0.574
N3240 X11.834 Y25.8 I0.753 J-0.146
N3245 G1 X12.169
N3250 G3 X12.488 Y26.048 Z-3.725 I-0.012 J0.346 F150.
N3255 G1 X12.507 Y26.121 Z-3.68
N3260 G3 X12.334 Y26.855 I-0.881 J0.18
N3265 X11.657 Y27.2 Z-3.78 I-0.709 J-0.553
N3270 G1 X11.313 F275.
N3275 G3 X10.82 Y26.917 I-0.027 J-0.524
N3280 X11.498 Y25.801 I0.675 J-0.354
N3285 G1 X11.834 Y25.8
N3290 G3 X12.156 Y26.054 Z-3.724 I-0.012 J0.345 F150.
N3295 G1 X12.172 Y26.125 Z-3.68
N3300 G3 X11.992 Y26.857 I-0.891 J0.168
N3305 X11.313 Y27.2 Z-3.78 I-0.711 J-0.563
N3310 G1 X10.968 F275.
N3315 G3 X10.479 Y26.912 I-0.024 J-0.518
N3320 X11.161 Y25.801 I0.678 J-0.349
N3325 G1 X11.498 Y25.8
N3330 G3 X11.82 Y26.059 Z-3.724 I-0.012 J0.345 F150.
N3335 G1 X11.835 Y26.128 Z-3.68
N3340 G3 X11.649 Y26.859 I-0.899 J0.16
N3345 X10.968 Y27.2 Z-3.78 I-0.712 J-0.571
N3350 G1 X10.648 F275.
N3355 G3 X10.15 Y26.922 I-0.029 J-0.532
N3360 X10.826 Y25.801 I0.673 J-0.359
N3365 G1 X11.161 Y25.8
N3370 G3 X11.48 Y26.049 Z-3.725 I-0.012 J0.346 F150.
N3375 G1 X11.498 Y26.122 Z-3.68
N3380 G3 X11.325 Y26.855 I-0.882 J0.179
N3385 X10.648 Y27.2 Z-3.78 I-0.709 J-0.555
N3390 G1 X10.303 F275.
N3395 G3 X9.811 Y26.916 I-0.026 J-0.522
N3400 X10.49 Y25.801 I0.675 J-0.353
N3405 G1 X10.826 Y25.8
N3410 G3 X11.148 Y26.055 Z-3.724 I-0.012 J0.345 F150.
N3415 G1 X11.164 Y26.126 Z-3.68
N3420 G3 X10.983 Y26.857 I-0.892 J0.167
N3425 X10.303 Y27.2 Z-3.78 I-0.711 J-0.565
N3430 G1 X9.959 F275.
N3435 G3 X9.468 Y26.912 I-0.018 J-0.533
N3440 X10.153 Y25.8 I0.685 J-0.345
N3445 G1 X10.49
N3450 G3 X10.813 Y26.059 Z-3.723 I-0.012 J0.345 F150.
N3455 G1 X10.827 Y26.129 Z-3.68
N3460 G3 X10.64 Y26.859 I-0.9 J0.158
N3465 X9.959 Y27.2 Z-3.78 I-0.712 J-0.573
N3470 G1 X9.644 F275.
N3475 G3 X9.067 Y26.714 I-0.008 J-0.575
N3480 X9.819 Y25.8 I0.752 J-0.148
N3485 G1 X10.153
N3490 G3 X10.472 Y26.047 Z-3.725 I-0.012 J0.346 F150.
N3495 G1 X10.49 Y26.12 Z-3.68
N3500 G3 X10.32 Y26.854 I-0.878 J0.183
N3505 X9.644 Y27.2 Z-3.78 I-0.708 J-0.551
N3510 G1 X9.299 F275.
N3515 G3 X8.806 Y26.917 I-0.027 J-0.525
N3520 X9.483 Y25.801 I0.674 J-0.355
N3525 G1 X9.542 Y25.808 Z-3.772 F150.
N3530 X9.598 Y25.824 Z-3.765
N3535 X9.652 Y25.85 Z-3.757
N3540 G3 X9.87 Y26.056 Z-3.68 I-0.378 J0.622
N3545 X9.927 Y26.794 I-0.597 J0.417
N3550 X9.299 Y27.2 Z-3.78 I-0.653 J-0.321
N3555 G1 X8.954 F275.
N3560 G3 X8.465 Y26.912 I-0.024 J-0.519
N3565 X9.146 Y25.801 I0.677 J-0.35
N3570 G1 X9.207 Y25.808 Z-3.772 F150.
N3575 X9.266 Y25.826 Z-3.764
N3580 X9.321 Y25.854 Z-3.756
N3585 G3 X9.53 Y26.056 Z-3.68 I-0.391 J0.616
N3590 X9.583 Y26.795 I-0.601 J0.414
N3595 X8.955 Y27.2 Z-3.78 I-0.654 J-0.324
N3600 G1 X8.611 F275.
N3605 G3 X8.121 Y26.91 I-0.016 J-0.531
N3610 X8.808 Y25.8 I0.687 J-0.342
N3615 X8.987 Y25.857 Z-3.756 I-0.012 J0.348 F150.
N3620 X9.19 Y26.056 Z-3.68 I-0.402 J0.611
N3625 X9.24 Y26.796 I-0.605 J0.412
N3630 X8.611 Y27.2 Z-3.78 I-0.655 J-0.327
N3635 G1 X8.267 F275.
N3640 G3 X7.779 Y26.907 I-0.014 J-0.528
N3645 X8.469 Y25.8 I0.69 J-0.338
N3650 X8.652 Y25.86 Z-3.755 I-0.012 J0.348 F150.
N3655 X8.849 Y26.057 Z-3.68 I-0.412 J0.607
N3660 X8.896 Y26.796 I-0.608 J0.41
N3665 X8.267 Y27.2 Z-3.78 I-0.655 J-0.329
N3670 G1 X7.957 F275.
N3675 G3 X7.459 Y26.923 I-0.029 J-0.535
N3680 X8.135 Y25.801 I0.674 J-0.359
N3685 G1 X8.192 Y25.807 Z-3.773 F150.
N3690 X8.247 Y25.823 Z-3.765
N3695 X8.299 Y25.848 Z-3.758
N3700 G3 X8.525 Y26.055 Z-3.68 I-0.367 J0.627
N3705 X8.584 Y26.793 I-0.593 J0.419
N3710 X7.957 Y27.2 Z-3.78 I-0.652 J-0.319
N3715 G1 X7.613 F275.
N3720 G3 X7.12 Y26.917 I-0.027 J-0.523
N3725 X7.798 Y25.801 I0.675 J-0.354
N3730 G1 X7.857 Y25.808 Z-3.772 F150.
N3735 X7.915 Y25.825 Z-3.765
N3740 X7.968 Y25.851 Z-3.757
N3745 G3 X8.185 Y26.056 Z-3.68 I-0.381 J0.621
N3750 X8.241 Y26.794 I-0.598 J0.416
N3755 X7.613 Y27.2 Z-3.78 I-0.653 J-0.322
N3760 X7.166 Y27.188 I-0.119 J-3.863 F275.
N3765 G1 X7.154 Y27.178 Z-3.778 F150.
N3770 G3 X7.032 Y26.493 Z-3.68 I0.293 J-0.405
N3775 X7.269 Y26.305 I0.415 J0.279
N3780 G1 X7.71 Y26.138
N3785 X8.366 Y25.89 F3000.
N3790 G3 X8.787 Y26.794 I0.177 J0.468
N3795 G1 X8.767 Y26.805
N3800 G3 X8.045 Y27.093 I-1.525 J-2.774 F150.
N3805 X7.269 Y27.196 Z-3.78 I-0.803 J-3.062
N3810 G1 X7.234 Y27.195 F275.
N3815 X7.145 Y27.185
N3820 X6.998 Y27.16
N3825 X6.881 Y27.065
N3830 X6.785 Y26.949
N3835 G3 X7.472 Y25.8 I0.687 J-0.369
N3840 X7.689 Y25.884 Z-3.75 I-0.012 J0.352 F150.
N3845 X7.873 Y26.122 Z-3.68 I-0.482 J0.563
N3850 X7.821 Y26.862 I-0.665 J0.325
N3855 X7.145 Y27.185 Z-3.78 I-0.613 J-0.415
N3860 X6.626 Y27.045 I0.043 J-1.193 F275.
N3865 G1 X6.621 Y27.028 Z-3.778 F150.
N3870 G3 X6.818 Y26.361 Z-3.68 I0.443 J-0.232
N3875 X6.954 Y26.309 I0.246 J0.435
N3880 G1 X7.572 Y26.17
N3885 X8.133 Y26.044 F3000.
N3890 G3 X8.407 Y27.004 I0.11 J0.488
N3895 G1 X8.386 Y27.011
N3900 G3 X7.624 Y27.17 I-1.021 J-2.996 F150.
N3905 X6.842 Y27.137 Z-3.78 I-0.26 J-3.154
N3910 X6.488 Y26.91 I0.145 J-0.616 F275.
N3915 G1 X6.592 Y27.019 F150.
N3920 G3 X6.418 Y26.807 I0.503 J-0.593 F275.
N3925 X6.409 Y26.779 I0.258 J-0.093 F150.
N3930 X6.526 Y26.484 I0.267 J-0.065
N3935 X6.822 Y26.938 I0.148 J0.227
N3940 X6.474 Y26.894 I-0.148 J-0.227
N3945 X6.345 Y26.483 I0.514 J-0.388 F275.
N3950 G1 X6.353 Y26.432 F150.
N3955 X6.375 Y26.384
N3960 X6.408 Y26.343
N3965 X6.451 Y26.313
N3970 X6.5 Y26.295
N3975 X6.552 Y26.29
N3980 X6.604 Y26.299
N3985 X6.652 Y26.321
N3990 X6.692 Y26.355
N3995 X6.722 Y26.398
N4000 X6.739 Y26.448
N4005 X6.784 Y26.653
N4010 G3 X6.405 Y26.776 I-0.196 J0.042
N4015 X6.889 Y25.853 I0.589 J-0.28 F275.
N4020 G1 X7.062 Y25.828
N4025 X7.234 Y25.805
N4030 X7.406 Y25.8
N4035 X9.819
N4040 G3 X10.213 Y26.584 I-0.017 J0.5 F150.
N4045 G1 X10.164 Y26.631 Z-3.775
N4050 X10.116 Y26.677 Z-3.761
N4055 X10.07 Y26.721 Z-3.739
N4060 X10.001 Y26.748 Z-3.698
N4065 X9.939 Y26.772 Z-3.646
N4070 X9.886 Y26.793 Z-3.583
N4075 X9.85 Y26.796 Z-3.529
N4080 X9.822 Y26.798 Z-3.472
N4085 X9.802 Y26.8 Z-3.411
N4090 X9.795 Z-3.383
N4095 X9.787 Y26.799 Z-3.332
N4100 X9.784 Z-3.28
N4105 G0 Z-2.28
N4110 X18.989 Y26.277
N4115 G1 Z-2.78 F150.
N4120 S5000
N4125 G3 X17.855 Y26.723 Z-2.88 I-0.567 J0.223 F220.
N4130 X18.989 Y26.277 Z-2.981 I0.567 J-0.223
N4135 X17.855 Y26.723 Z-3.081 I-0.567 J0.223
N4140 X18.989 Y26.277 Z-3.181 I0.567 J-0.223
N4145 X17.855 Y26.723 Z-3.281 I-0.567 J0.223
N4150 X18.989 Y26.277 Z-3.382 I0.567 J-0.223
N4155 X17.855 Y26.723 Z-3.482 I-0.567 J0.223
N4160 X18.989 Y26.277 Z-3.582 I0.567 J-0.223
N4165 X17.855 Y26.723 Z-3.682 I-0.567 J0.223
N4170 X18.989 Y26.277 Z-3.783 I0.567 J-0.223
N4175 X17.855 Y26.723 Z-3.883 I-0.567 J0.223
N4180 X18.989 Y26.277 Z-3.983 I0.567 J-0.223
N4185 X17.855 Y26.723 Z-4.083 I-0.567 J0.223
N4190 X18.989 Y26.277 Z-4.184 I0.567 J-0.223
N4195 X17.855 Y26.723 Z-4.284 I-0.567 J0.223
N4200 X18.989 Y26.277 Z-4.384 I0.567 J-0.223
N4205 X17.855 Y26.723 Z-4.485 I-0.567 J0.223
N4210 X18.989 Y26.277 Z-4.585 I0.567 J-0.223
N4215 X17.855 Y26.723 Z-4.685 I-0.567 J0.223
N4220 X18.989 Y26.277 Z-4.785 I0.567 J-0.223
N4225 X17.855 Y26.723 Z-4.886 I-0.567 J0.223
N4230 X18.989 Y26.277 Z-4.986 I0.567 J-0.223
N4235 X17.855 Y26.723 Z-5.086 I-0.567 J0.223
N4240 X18.989 Y26.277 Z-5.186 I0.567 J-0.223
N4245 X17.855 Y26.723 Z-5.287 I-0.567 J0.223
N4250 X18.989 Y26.277 Z-5.387 I0.567 J-0.223
N4255 X17.855 Y26.723 Z-5.487 I-0.567 J0.223
N4260 X18.989 Y26.277 Z-5.588 I0.567 J-0.223
N4265 X17.855 Y26.723 Z-5.688 I-0.567 J0.223
N4270 X18.989 Y26.277 Z-5.788 I0.567 J-0.223
N4275 X19.031 Y26.5 Z-5.8 I-0.567 J0.223
N4280 X17.813 I-0.609 J0.
N4285 X19.031 I0.609 J0.
N4290 S5500
N4295 G1 X19.066 Y26.792 F275.
N4300 X19.045 Y26.943
N4305 X18.967 Y27.073
N4310 X18.843 Y27.163
N4315 X18.695 Y27.197
N4320 X18.594 Y27.2
N4325 X18.113
N4330 G3 X17.504 Y26.738 I-0.02 J-0.605
N4335 X18.225 Y25.8 I0.721 J-0.192
N4340 X18.832 Y25.813 I0.2 J4.98
N4345 G1 X18.845 Y25.823 Z-5.798 F150.
N4350 G3 X18.958 Y26.509 Z-5.7 I-0.298 J0.402
N4355 X18.82 Y26.643 I-0.411 J-0.285
N4360 G1 X18.489 Y26.86
N4365 G3 X18.314 Y26.931 I-0.273 J-0.419
N4370 X17.772 Y26.672 I-0.098 J-0.49 F3000.
N4375 X17.972 Y26.004 I0.444 J-0.231 F150.
N4380 G1 X17.98 Y26.
N4385 G3 X18.731 Y25.804 Z-5.8 I0.764 J1.386
N4390 G1 X18.766 Y25.805 F275.
N4395 X18.855 Y25.816
N4400 X19.002 Y25.844
N4405 G3 X19.311 Y26.724 I-0.355 J0.619
N4410 X18.642 Y27.199 I-0.689 J-0.263
N4415 X18.506 Y27.17 Z-5.782 I0.003 J-0.35 F150.
N4420 X18.18 Y26.885 Z-5.7 I0.28 J-0.65
N4425 X18.186 Y26.146 I0.606 J-0.365
N4430 X18.855 Y25.816 Z-5.8 I0.6 J0.375
N4435 X19.363 Y25.948 I-0.012 J1.099 F275.
N4440 G1 X19.44 Y26.01
N4445 G3 X19.344 Y26.672 Z-5.7 I-0.277 J0.298 F150.
N4450 X18.76 Y26.248 I-0.181 J-0.364
N4455 X19.219 Y25.905 Z-5.781 I0.402 J0.06
N4460 X19.361 Y25.951 Z-5.8 I-0.061 J0.432
N4465 X19.623 Y26.295 I-0.427 J0.597 F275.
N4470 X19.372 Y26.978 Z-5.7 I-0.56 J0.182 F150.
N4475 X18.653 Y26.899 I-0.309 J-0.501
N4480 X18.514 Y26.689 I0.411 J-0.422 F3000.
N4485 X18.724 Y25.996 I0.549 J-0.212 F150.
N4490 X18.907 Y25.909 Z-5.726 I0.34 J0.481
N4495 X19.455 Y26.023 Z-5.8 I0.162 J0.591
N4500 X19.065 Y27.155 I-0.455 J0.476 F275.
N4505 G1 X18.938 Y27.175
N4510 X18.766 Y27.195
N4515 X18.695 Y27.197
N4520 X18.113 Y27.2 F150.
N4525 X17.733 F275.
N4530 G3 X17.236 Y26.922 I-0.028 J-0.533
N4535 X17.901 Y25.801 I0.662 J-0.365
N4540 G1 X18.225 Y25.8
N4545 G3 X18.541 Y26.036 Z-5.747 I-0.012 J0.346 F150.
N4550 X18.563 Y26.114 Z-5.7 I-0.839 J0.28
N4555 X18.408 Y26.85 I-0.861 J0.202
N4560 X17.733 Y27.2 Z-5.8 I-0.705 J-0.534
N4565 G1 X17.389 F275.
N4570 G3 X16.895 Y26.918 I-0.027 J-0.527
N4575 X17.569 Y25.801 I0.671 J-0.357
N4580 G1 X17.901 Y25.8
N4585 G3 X18.221 Y26.048 Z-5.745 I-0.012 J0.346 F150.
N4590 G1 X18.239 Y26.121 Z-5.7
N4595 G3 X18.067 Y26.855 I-0.881 J0.18
N4600 X17.389 Y27.2 Z-5.8 I-0.709 J-0.553
N4605 G1 X17.044 F275.
N4610 G3 X16.554 Y26.913 I-0.024 J-0.52
N4615 X17.234 Y25.801 I0.676 J-0.351
N4620 G1 X17.569 Y25.8
N4625 G3 X17.891 Y26.056 Z-5.744 I-0.012 J0.345 F150.
N4630 G1 X17.907 Y26.126 Z-5.7
N4635 G3 X17.724 Y26.858 I-0.894 J0.166
N4640 X17.045 Y27.2 Z-5.8 I-0.711 J-0.566
N4645 G1 X16.701 F275.
N4650 G3 X16.21 Y26.911 I-0.017 J-0.532
N4655 X16.896 Y25.8 I0.686 J-0.344
N4660 G1 X17.234
N4665 G3 X17.557 Y26.061 Z-5.743 I-0.012 J0.345 F150.
N4670 G1 X17.571 Y26.13 Z-5.7
N4675 G3 X17.382 Y26.86 I-0.902 J0.155
N4680 X16.701 Y27.2 Z-5.8 I-0.713 J-0.575
N4685 G1 X16.356 F275.
N4690 G3 X15.869 Y26.908 I-0.014 J-0.529
N4695 X16.558 Y25.8 I0.689 J-0.34
N4700 G1 X16.896
N4705 G3 X17.22 Y26.065 Z-5.743 I-0.012 J0.345 F150.
N4710 G1 X17.234 Y26.133 Z-5.7
N4715 G3 X17.038 Y26.861 I-0.909 J0.147
N4720 X16.356 Y27.2 Z-5.8 I-0.714 J-0.582
N4725 G1 X16.047 F275.
N4730 G3 X15.471 Y26.714 I-0.009 J-0.574
N4735 X16.224 Y25.8 I0.753 J-0.147
N4740 G1 X16.558
N4745 G3 X16.877 Y26.047 Z-5.745 I-0.012 J0.346 F150.
N4750 G1 X16.896 Y26.121 Z-5.7
N4755 G3 X16.724 Y26.854 I-0.88 J0.181
N4760 X16.047 Y27.2 Z-5.8 I-0.709 J-0.552
N4765 G1 X15.703 F275.
N4770 G3 X15.209 Y26.917 I-0.027 J-0.524
N4775 X15.887 Y25.801 I0.674 J-0.355
N4780 G1 X16.224 Y25.8
N4785 G3 X16.545 Y26.054 Z-5.744 I-0.012 J0.345 F150.
N4790 G1 X16.561 Y26.125 Z-5.7
N4795 G3 X16.382 Y26.857 I-0.89 J0.169
N4800 X15.703 Y27.2 Z-5.8 I-0.711 J-0.562
N4805 G1 X15.358 F275.
N4810 G3 X14.869 Y26.912 I-0.024 J-0.518
N4815 X15.55 Y25.801 I0.677 J-0.349
N4820 G1 X15.887 Y25.8
N4825 G3 X16.209 Y26.058 Z-5.744 I-0.012 J0.345 F150.
N4830 G1 X16.225 Y26.128 Z-5.7
N4835 G3 X16.039 Y26.859 I-0.898 J0.16
N4840 X15.359 Y27.2 Z-5.8 I-0.712 J-0.57
N4845 G1 X15.014 F275.
N4850 G3 X14.525 Y26.91 I-0.016 J-0.531
N4855 X15.212 Y25.8 I0.687 J-0.342
N4860 G1 X15.55
N4865 G3 X15.873 Y26.062 Z-5.743 I-0.012 J0.345 F150.
N4870 G1 X15.888 Y26.131 Z-5.7
N4875 G3 X15.696 Y26.86 I-0.905 J0.152
N4880 X15.014 Y27.2 Z-5.8 I-0.713 J-0.578
N4885 G1 X14.67 F275.
N4890 G3 X14.183 Y26.907 I-0.014 J-0.528
N4895 X14.873 Y25.8 I0.69 J-0.338
N4900 G1 X15.212
N4905 G3 X15.536 Y26.066 Z-5.743 I-0.012 J0.345 F150.
N4910 G1 X15.55 Y26.133 Z-5.7
N4915 G3 X15.352 Y26.862 I-0.912 J0.144
N4920 X14.67 Y27.2 Z-5.8 I-0.715 J-0.584
N4925 G1 X14.326 F275.
N4930 X14.176 Y27.192
N4935 G3 X13.774 Y26.693 I0.228 J-0.595
N4940 X14.533 Y25.8 I0.759 J-0.124
N4945 G1 X14.873
N4950 G3 X15.198 Y26.069 Z-5.742 I-0.012 J0.345 F150.
N4955 G1 X15.21 Y26.136 Z-5.7
N4960 G3 X15.009 Y26.863 I-0.917 J0.138
N4965 X14.326 Y27.2 Z-5.8 I-0.716 J-0.59
N4970 G1 X13.982 F275.
N4975 X13.832 Y27.192
N4980 G3 X13.432 Y26.691 I0.234 J-0.596
N4985 X14.192 Y25.8 I0.76 J-0.121
N4990 G1 X14.533
N4995 G3 X14.858 Y26.072 Z-5.742 I-0.012 J0.345 F150.
N5000 G1 X14.87 Y26.137 Z-5.7
N5005 G3 X14.665 Y26.864 I-0.921 J0.132
N5010 X13.982 Y27.2 Z-5.8 I-0.716 J-0.594
N5015 G1 X13.68 F275.
N5020 G3 X13.104 Y26.713 I-0.009 J-0.573
N5025 X13.858 Y25.8 I0.753 J-0.146
N5030 G1 X14.192
N5035 G3 X14.512 Y26.049 Z-5.745 I-0.012 J0.346 F150.
N5040 G1 X14.53 Y26.122 Z-5.7
N5045 G3 X14.357 Y26.855 I-0.882 J0.179
N5050 X13.68 Y27.2 Z-5.8 I-0.709 J-0.554
N5055 G1 X13.336 F275.
N5060 G3 X12.843 Y26.917 I-0.027 J-0.524
N5065 X13.521 Y25.801 I0.675 J-0.354
N5070 G1 X13.858 Y25.8
N5075 G3 X14.179 Y26.054 Z-5.744 I-0.012 J0.345 F150.
N5080 G1 X14.195 Y26.125 Z-5.7
N5085 G3 X14.015 Y26.857 I-0.891 J0.168
N5090 X13.336 Y27.2 Z-5.8 I-0.711 J-0.564
N5095 G1 X12.991 F275.
N5100 G3 X12.502 Y26.912 I-0.024 J-0.518
N5105 X13.183 Y25.801 I0.678 J-0.349
N5110 G1 X13.521 Y25.8
N5115 G3 X13.843 Y26.059 Z-5.744 I-0.012 J0.345 F150.
N5120 G1 X13.858 Y26.128 Z-5.7
N5125 G3 X13.672 Y26.859 I-0.899 J0.16
N5130 X12.991 Y27.2 Z-5.8 I-0.712 J-0.571
N5135 G1 X12.653 F275.
N5140 G3 X12.161 Y26.913 I-0.018 J-0.533
N5145 X12.846 Y25.8 I0.685 J-0.346
N5150 G1 X13.183
N5155 G3 X13.506 Y26.059 Z-5.743 I-0.012 J0.345 F150.
N5160 G1 X13.521 Y26.129 Z-5.7
N5165 G3 X13.334 Y26.859 I-0.9 J0.159
N5170 X12.653 Y27.2 Z-5.8 I-0.712 J-0.572
N5175 G1 X12.309 F275.
N5180 G3 X11.82 Y26.909 I-0.016 J-0.53
N5185 X12.508 Y25.8 I0.688 J-0.341
N5190 G1 X12.846
N5195 G3 X13.17 Y26.063 Z-5.743 I-0.012 J0.345 F150.
N5200 G1 X13.184 Y26.131 Z-5.7
N5205 G3 X12.991 Y26.861 I-0.907 J0.15
N5210 X12.309 Y27.2 Z-5.8 I-0.714 J-0.579
N5215 G1 X11.965 F275.
N5220 G3 X11.478 Y26.906 I-0.013 J-0.528
N5225 X12.169 Y25.8 I0.69 J-0.338
N5230 G1 X12.508
N5235 G3 X12.832 Y26.067 Z-5.742 I-0.012 J0.345 F150.
N5240 G1 X12.845 Y26.134 Z-5.7
N5245 G3 X12.647 Y26.862 I-0.913 J0.143
N5250 X11.965 Y27.2 Z-5.8 I-0.715 J-0.585
N5255 G1 X11.657 F275.
N5260 G3 X11.082 Y26.713 I-0.008 J-0.574
N5265 X11.834 Y25.8 I0.753 J-0.146
N5270 G1 X12.169
N5275 G3 X12.488 Y26.048 Z-5.745 I-0.012 J0.346 F150.
N5280 G1 X12.507 Y26.121 Z-5.7
N5285 G3 X12.334 Y26.855 I-0.881 J0.18
N5290 X11.657 Y27.2 Z-5.8 I-0.709 J-0.553
N5295 G1 X11.313 F275.
N5300 G3 X10.82 Y26.917 I-0.027 J-0.524
N5305 X11.498 Y25.801 I0.675 J-0.354
N5310 G1 X11.834 Y25.8
N5315 G3 X12.156 Y26.054 Z-5.744 I-0.012 J0.345 F150.
N5320 G1 X12.172 Y26.125 Z-5.7
N5325 G3 X11.992 Y26.857 I-0.891 J0.168
N5330 X11.313 Y27.2 Z-5.8 I-0.711 J-0.563
N5335 G1 X10.968 F275.
N5340 G3 X10.479 Y26.912 I-0.024 J-0.518
N5345 X11.161 Y25.801 I0.678 J-0.349
N5350 G1 X11.498 Y25.8
N5355 G3 X11.82 Y26.059 Z-5.744 I-0.012 J0.345 F150.
N5360 G1 X11.835 Y26.128 Z-5.7
N5365 G3 X11.649 Y26.859 I-0.899 J0.16
N5370 X10.968 Y27.2 Z-5.8 I-0.712 J-0.571
N5375 G1 X10.648 F275.
N5380 G3 X10.15 Y26.922 I-0.029 J-0.532
N5385 X10.826 Y25.801 I0.673 J-0.359
N5390 G1 X11.161 Y25.8
N5395 G3 X11.48 Y26.049 Z-5.745 I-0.012 J0.346 F150.
N5400 G1 X11.498 Y26.122 Z-5.7
N5405 G3 X11.325 Y26.855 I-0.882 J0.179
N5410 X10.648 Y27.2 Z-5.8 I-0.709 J-0.555
N5415 G1 X10.303 F275.
N5420 G3 X9.811 Y26.916 I-0.026 J-0.522
N5425 X10.49 Y25.801 I0.675 J-0.353
N5430 G1 X10.826 Y25.8
N5435 G3 X11.148 Y26.055 Z-5.744 I-0.012 J0.345 F150.
N5440 G1 X11.164 Y26.126 Z-5.7
N5445 G3 X10.983 Y26.857 I-0.892 J0.167
N5450 X10.303 Y27.2 Z-5.8 I-0.711 J-0.565
N5455 G1 X9.959 F275.
N5460 G3 X9.468 Y26.912 I-0.018 J-0.533
N5465 X10.153 Y25.8 I0.685 J-0.345
N5470 G1 X10.49
N5475 G3 X10.813 Y26.059 Z-5.743 I-0.012 J0.345 F150.
N5480 G1 X10.827 Y26.129 Z-5.7
N5485 G3 X10.64 Y26.859 I-0.9 J0.158
N5490 X9.959 Y27.2 Z-5.8 I-0.712 J-0.573
N5495 G1 X9.644 F275.
N5500 G3 X9.067 Y26.714 I-0.008 J-0.575
N5505 X9.819 Y25.8 I0.752 J-0.148
N5510 G1 X10.153
N5515 G3 X10.472 Y26.047 Z-5.745 I-0.012 J0.346 F150.
N5520 G1 X10.49 Y26.12 Z-5.7
N5525 G3 X10.32 Y26.854 I-0.878 J0.183
N5530 X9.644 Y27.2 Z-5.8 I-0.708 J-0.551
N5535 G1 X9.299 F275.
N5540 G3 X8.806 Y26.917 I-0.027 J-0.525
N5545 X9.483 Y25.801 I0.674 J-0.355
N5550 G1 X9.542 Y25.808 Z-5.792 F150.
N5555 X9.598 Y25.824 Z-5.785
N5560 X9.652 Y25.85 Z-5.777
N5565 G3 X9.87 Y26.056 Z-5.7 I-0.378 J0.622
N5570 X9.927 Y26.794 I-0.597 J0.417
N5575 X9.299 Y27.2 Z-5.8 I-0.653 J-0.321
N5580 G1 X8.954 F275.
N5585 G3 X8.465 Y26.912 I-0.024 J-0.519
N5590 X9.146 Y25.801 I0.677 J-0.35
N5595 G1 X9.207 Y25.808 Z-5.792 F150.
N5600 X9.266 Y25.826 Z-5.784
N5605 X9.321 Y25.854 Z-5.776
N5610 G3 X9.53 Y26.056 Z-5.7 I-0.391 J0.616
N5615 X9.583 Y26.795 I-0.601 J0.414
N5620 X8.955 Y27.2 Z-5.8 I-0.654 J-0.324
N5625 G1 X8.611 F275.
N5630 G3 X8.121 Y26.91 I-0.016 J-0.531
N5635 X8.808 Y25.8 I0.687 J-0.342
N5640 X8.987 Y25.857 Z-5.776 I-0.012 J0.348 F150.
N5645 X9.19 Y26.056 Z-5.7 I-0.402 J0.611
N5650 X9.24 Y26.796 I-0.605 J0.412
N5655 X8.611 Y27.2 Z-5.8 I-0.655 J-0.327
N5660 G1 X8.267 F275.
N5665 G3 X7.779 Y26.907 I-0.014 J-0.528
N5670 X8.469 Y25.8 I0.69 J-0.338
N5675 X8.652 Y25.86 Z-5.775 I-0.012 J0.348 F150.
N5680 X8.849 Y26.057 Z-5.7 I-0.412 J0.607
N5685 X8.896 Y26.796 I-0.608 J0.41
N5690 X8.267 Y27.2 Z-5.8 I-0.655 J-0.329
N5695 G1 X7.957 F275.
N5700 G3 X7.459 Y26.923 I-0.029 J-0.535
N5705 X8.135 Y25.801 I0.674 J-0.359
N5710 G1 X8.192 Y25.807 Z-5.793 F150.
N5715 X8.247 Y25.823 Z-5.785
N5720 X8.299 Y25.848 Z-5.778
N5725 G3 X8.525 Y26.055 Z-5.7 I-0.367 J0.627
N5730 X8.584 Y26.793 I-0.593 J0.419
N5735 X7.957 Y27.2 Z-5.8 I-0.652 J-0.319
N5740 G1 X7.613 F275.
N5745 G3 X7.12 Y26.917 I-0.027 J-0.523
N5750 X7.798 Y25.801 I0.675 J-0.354
N5755 G1 X7.857 Y25.808 Z-5.792 F150.
N5760 X7.915 Y25.825 Z-5.785
N5765 X7.968 Y25.851 Z-5.777
N5770 G3 X8.185 Y26.056 Z-5.7 I-0.381 J0.621
N5775 X8.241 Y26.794 I-0.598 J0.416
N5780 X7.613 Y27.2 Z-5.8 I-0.653 J-0.322
N5785 X7.166 Y27.188 I-0.119 J-3.863 F275.
N5790 G1 X7.154 Y27.178 Z-5.798 F150.
N5795 G3 X7.032 Y26.493 Z-5.7 I0.293 J-0.405
N5800 X7.269 Y26.305 I0.415 J0.279
N5805 G1 X7.71 Y26.138
N5810 X8.366 Y25.89 F3000.
N5815 G3 X8.787 Y26.794 I0.177 J0.468
N5820 G1 X8.767 Y26.805
N5825 G3 X8.045 Y27.093 I-1.525 J-2.774 F150.
N5830 X7.269 Y27.196 Z-5.8 I-0.803 J-3.062
N5835 G1 X7.234 Y27.195 F275.
N5840 X7.145 Y27.185
N5845 X6.998 Y27.16
N5850 X6.881 Y27.065
N5855 X6.785 Y26.949
N5860 G3 X7.472 Y25.8 I0.687 J-0.369
N5865 X7.689 Y25.884 Z-5.77 I-0.012 J0.352 F150.
N5870 X7.873 Y26.122 Z-5.7 I-0.482 J0.563
N5875 X7.821 Y26.862 I-0.665 J0.325
N5880 X7.145 Y27.185 Z-5.8 I-0.613 J-0.415
N5885 X6.626 Y27.045 I0.043 J-1.193 F275.
N5890 G1 X6.621 Y27.028 Z-5.798 F150.
N5895 G3 X6.818 Y26.361 Z-5.7 I0.443 J-0.232
N5900 X6.954 Y26.309 I0.246 J0.435
N5905 G1 X7.572 Y26.17
N5910 X8.133 Y26.044 F3000.
N5915 G3 X8.407 Y27.004 I0.11 J0.488
N5920 G1 X8.386 Y27.011
N5925 G3 X7.624 Y27.17 I-1.021 J-2.996 F150.
N5930 X6.842 Y27.137 Z-5.8 I-0.26 J-3.154
N5935 X6.488 Y26.91 I0.145 J-0.616 F275.
N5940 G1 X6.592 Y27.019 F150.
N5945 G3 X6.418 Y26.807 I0.503 J-0.593 F275.
N5950 X6.409 Y26.779 I0.258 J-0.093 F150.
N5955 X6.526 Y26.484 I0.267 J-0.065
N5960 X6.822 Y26.938 I0.148 J0.227
N5965 X6.474 Y26.894 I-0.148 J-0.227
N5970 X6.345 Y26.483 I0.514 J-0.388 F275.
N5975 G1 X6.353 Y26.432 F150.
N5980 X6.375 Y26.384
N5985 X6.408 Y26.343
N5990 X6.451 Y26.313
N5995 X6.5 Y26.295
N6000 X6.552 Y26.29
N6005 X6.604 Y26.299
N6010 X6.652 Y26.321
N6015 X6.692 Y26.355
N6020 X6.722 Y26.398
N6025 X6.739 Y26.448
N6030 X6.784 Y26.653
N6035 G3 X6.405 Y26.776 I-0.196 J0.042
N6040 X6.889 Y25.853 I0.589 J-0.28 F275.
N6045 G1 X7.062 Y25.828
N6050 X7.234 Y25.805
N6055 X7.406 Y25.8
N6060 X9.819
N6065 G3 X9.795 Y26.8 I-0.017 J0.5 F150.
N6070 G1 X9.784 Y26.799
N6075 X9.697 Y26.796 Z-5.792
N6080 X9.613 Y26.793 Z-5.77
N6085 X9.534 Y26.791 Z-5.733
N6090 X9.463 Y26.788 Z-5.683
N6095 X9.401 Y26.786 Z-5.621
N6100 X9.351 Y26.784 Z-5.55
N6105 X9.315 Y26.783 Z-5.471
N6110 X9.292 Y26.782 Z-5.387
N6115 X9.284 Z-5.3
N6120 G0 Z4.
N6125 X18.936 Y39.826
N6130 Z1.7
N6135 G1 Z1.2 F150.
N6140 S5000
N6145 G3 X17.908 Y39.174 Z1.1 I-0.514 J-0.326 F220.
N6150 X18.936 Y39.826 Z0.999 I0.514 J0.326
N6155 X17.908 Y39.174 Z0.899 I-0.514 J-0.326
N6160 X18.936 Y39.826 Z0.799 I0.514 J0.326
N6165 X17.908 Y39.174 Z0.699 I-0.514 J-0.326
N6170 X18.936 Y39.826 Z0.598 I0.514 J0.326
N6175 X17.908 Y39.174 Z0.498 I-0.514 J-0.326
N6180 X18.936 Y39.826 Z0.398 I0.514 J0.326
N6185 X17.908 Y39.174 Z0.298 I-0.514 J-0.326
N6190 X18.936 Y39.826 Z0.197 I0.514 J0.326
N6195 X17.908 Y39.174 Z0.097 I-0.514 J-0.326
N6200 X18.936 Y39.826 Z-0.003 I0.514 J0.326
N6205 X17.908 Y39.174 Z-0.103 I-0.514 J-0.326
N6210 X18.936 Y39.826 Z-0.204 I0.514 J0.326
N6215 X17.908 Y39.174 Z-0.304 I-0.514 J-0.326
N6220 X18.936 Y39.826 Z-0.404 I0.514 J0.326
N6225 X17.908 Y39.174 Z-0.505 I-0.514 J-0.326
N6230 X18.936 Y39.826 Z-0.605 I0.514 J0.326
N6235 X17.908 Y39.174 Z-0.705 I-0.514 J-0.326
N6240 X18.936 Y39.826 Z-0.805 I0.514 J0.326
N6245 X17.908 Y39.174 Z-0.906 I-0.514 J-0.326
N6250 X18.936 Y39.826 Z-1.006 I0.514 J0.326
N6255 X17.908 Y39.174 Z-1.106 I-0.514 J-0.326
N6260 X18.936 Y39.826 Z-1.206 I0.514 J0.326
N6265 X17.908 Y39.174 Z-1.307 I-0.514 J-0.326
N6270 X18.936 Y39.826 Z-1.407 I0.514 J0.326
N6275 X17.908 Y39.174 Z-1.507 I-0.514 J-0.326
N6280 X18.936 Y39.826 Z-1.608 I0.514 J0.326
N6285 X17.908 Y39.174 Z-1.708 I-0.514 J-0.326
N6290 X19.031 Y39.5 Z-1.79 I0.514 J0.326
N6295 X17.813 I-0.609 J0.
N6300 X19.031 I0.609 J0.
N6305 S5500
N6310 G1 X19.066 Y39.792 F275.
N6315 X19.045 Y39.943
N6320 X18.967 Y40.073
N6325 X18.844 Y40.163
N6330 X18.695 Y40.197
N6335 X18.594 Y40.2
N6340 X18.113
N6345 G3 X17.504 Y39.738 I-0.02 J-0.605
N6350 X18.225 Y38.8 I0.721 J-0.192
N6355 X18.834 Y38.812 I0.203 J5.077
N6360 G1 X18.846 Y38.822 Z-1.788 F150.
N6365 G3 X18.968 Y39.507 Z-1.69 I-0.293 J0.405
N6370 X18.822 Y39.649 I-0.415 J-0.279
N6375 G1 X18.484 Y39.864
N6380 G3 X18.324 Y39.929 I-0.268 J-0.422
N6385 X17.773 Y39.672 I-0.108 J-0.488 F3000.
N6390 X17.972 Y39.005 I0.443 J-0.231 F150.
N6395 G1 X17.98 Y39.001
N6400 G3 X18.731 Y38.804 Z-1.79 I0.765 J1.386
N6405 G1 X18.766 Y38.805 F275.
N6410 X18.855 Y38.815
N6415 X19.002 Y38.84
N6420 G3 X19.312 Y39.723 I-0.357 J0.621
N6425 X18.641 Y40.199 I-0.691 J-0.264
N6430 X18.496 Y40.166 Z-1.771 I0.003 J-0.35 F150.
N6435 X18.189 Y39.891 Z-1.69 I0.299 J-0.644
N6440 Y39.152 I0.606 J-0.369
N6445 X18.855 Y38.815 Z-1.79 I0.606 J0.37
N6450 X19.368 Y38.949 I-0.032 J1.176 F275.
N6455 G1 X19.431 Y39.001
N6460 G3 X18.99 Y39.475 I-0.22 J0.237 F150.
N6465 X19.259 Y38.918 I0.22 J-0.237
N6470 X19.366 Y38.954 I-0.051 J0.331
N6475 X19.56 Y39.154 I-0.313 J0.497 F275.
N6480 X19.434 Y39.762 Z-1.704 I-0.417 J0.231 F150.
N6485 X19.341 Y39.818 Z-1.69 I-0.289 J-0.374
N6490 X18.796 Y39.07 I-0.195 J-0.43
N6495 G1 X18.819 Y39.046 Z-1.694
N6500 G3 X19.494 Y39.069 Z-1.79 I0.326 J0.342
N6505 X19.111 Y40.148 I-0.49 J0.434 F275.
N6510 G1 X18.938 Y40.172
N6515 X18.766 Y40.195
N6520 X18.695 Y40.197
N6525 X18.113 Y40.2 F150.
N6530 X17.733 F275.
N6535 G3 X17.236 Y39.922 I-0.028 J-0.533
N6540 X17.901 Y38.801 I0.662 J-0.365
N6545 G1 X18.225 Y38.8
N6550 G3 X18.541 Y39.036 Z-1.737 I-0.012 J0.346 F150.
N6555 X18.563 Y39.114 Z-1.69 I-0.839 J0.28
N6560 X18.408 Y39.85 I-0.861 J0.202
N6565 X17.733 Y40.2 Z-1.79 I-0.705 J-0.534
N6570 G1 X17.389 F275.
N6575 G3 X16.895 Y39.918 I-0.027 J-0.527
N6580 X17.569 Y38.801 I0.671 J-0.357
N6585 G1 X17.901 Y38.8
N6590 G3 X18.221 Y39.048 Z-1.735 I-0.012 J0.346 F150.
N6595 G1 X18.239 Y39.121 Z-1.69
N6600 G3 X18.067 Y39.855 I-0.881 J0.18
N6605 X17.389 Y40.2 Z-1.79 I-0.709 J-0.553
N6610 G1 X17.044 F275.
N6615 G3 X16.554 Y39.913 I-0.024 J-0.52
N6620 X17.234 Y38.801 I0.676 J-0.351
N6625 G1 X17.569 Y38.8
N6630 G3 X17.891 Y39.056 Z-1.734 I-0.012 J0.345 F150.
N6635 G1 X17.907 Y39.126 Z-1.69
N6640 G3 X17.724 Y39.858 I-0.894 J0.166
N6645 X17.045 Y40.2 Z-1.79 I-0.711 J-0.566
N6650 G1 X16.701 F275.
N6655 G3 X16.21 Y39.911 I-0.017 J-0.532
N6660 X16.896 Y38.8 I0.686 J-0.344
N6665 G1 X17.234
N6670 G3 X17.557 Y39.061 Z-1.733 I-0.012 J0.345 F150.
N6675 G1 X17.571 Y39.13 Z-1.69
N6680 G3 X17.382 Y39.86 I-0.902 J0.155
N6685 X16.701 Y40.2 Z-1.79 I-0.713 J-0.575
N6690 G1 X16.356 F275.
N6695 G3 X15.869 Y39.908 I-0.014 J-0.529
N6700 X16.558 Y38.8 I0.689 J-0.34
N6705 G1 X16.896
N6710 G3 X17.22 Y39.065 Z-1.733 I-0.012 J0.345 F150.
N6715 G1 X17.234 Y39.133 Z-1.69
N6720 G3 X17.038 Y39.861 I-0.909 J0.147
N6725 X16.356 Y40.2 Z-1.79 I-0.714 J-0.582
N6730 G1 X16.047 F275.
N6735 G3 X15.471 Y39.714 I-0.009 J-0.574
N6740 X16.224 Y38.8 I0.753 J-0.147
N6745 G1 X16.558
N6750 G3 X16.877 Y39.047 Z-1.735 I-0.012 J0.346 F150.
N6755 G1 X16.896 Y39.121 Z-1.69
N6760 G3 X16.724 Y39.854 I-0.88 J0.181
N6765 X16.047 Y40.2 Z-1.79 I-0.709 J-0.552
N6770 G1 X15.703 F275.
N6775 G3 X15.209 Y39.917 I-0.027 J-0.524
N6780 X15.887 Y38.801 I0.674 J-0.355
N6785 G1 X16.224 Y38.8
N6790 G3 X16.545 Y39.054 Z-1.734 I-0.012 J0.345 F150.
N6795 G1 X16.561 Y39.125 Z-1.69
N6800 G3 X16.382 Y39.857 I-0.89 J0.169
N6805 X15.703 Y40.2 Z-1.79 I-0.711 J-0.562
N6810 G1 X15.358 F275.
N6815 G3 X14.869 Y39.912 I-0.024 J-0.518
N6820 X15.55 Y38.801 I0.677 J-0.349
N6825 G1 X15.887 Y38.8
N6830 G3 X16.209 Y39.058 Z-1.734 I-0.012 J0.345 F150.
N6835 G1 X16.225 Y39.128 Z-1.69
N6840 G3 X16.039 Y39.859 I-0.898 J0.16
N6845 X15.359 Y40.2 Z-1.79 I-0.712 J-0.57
N6850 G1 X15.014 F275.
N6855 G3 X14.525 Y39.91 I-0.016 J-0.531
N6860 X15.212 Y38.8 I0.687 J-0.342
N6865 G1 X15.55
N6870 G3 X15.873 Y39.062 Z-1.733 I-0.012 J0.345 F150.
N6875 G1 X15.888 Y39.131 Z-1.69
N6880 G3 X15.696 Y39.86 I-0.905 J0.152
N6885 X15.014 Y40.2 Z-1.79 I-0.713 J-0.578
N6890 G1 X14.67 F275.
N6895 G3 X14.183 Y39.907 I-0.014 J-0.528
N6900 X14.873 Y38.8 I0.69 J-0.338
N6905 G1 X15.212
N6910 G3 X15.536 Y39.066 Z-1.733 I-0.012 J0.345 F150.
N6915 G1 X15.55 Y39.133 Z-1.69
N6920 G3 X15.352 Y39.862 I-0.912 J0.144
N6925 X14.67 Y40.2 Z-1.79 I-0.715 J-0.584
N6930 G1 X14.326 F275.
N6935 X14.176 Y40.193
N6940 G3 X13.774 Y39.693 I0.228 J-0.595
N6945 X14.533 Y38.8 I0.759 J-0.124
N6950 G1 X14.873
N6955 G3 X15.198 Y39.069 Z-1.732 I-0.012 J0.345 F150.
N6960 G1 X15.21 Y39.136 Z-1.69
N6965 G3 X15.009 Y39.863 I-0.917 J0.138
N6970 X14.326 Y40.2 Z-1.79 I-0.716 J-0.59
N6975 G1 X13.982 F275.
N6980 X13.832 Y40.193
N6985 G3 X13.432 Y39.691 I0.234 J-0.596
N6990 X14.192 Y38.8 I0.76 J-0.121
N6995 G1 X14.533
N7000 G3 X14.858 Y39.072 Z-1.732 I-0.012 J0.345 F150.
N7005 G1 X14.87 Y39.137 Z-1.69
N7010 G3 X14.665 Y39.864 I-0.921 J0.132
N7015 X13.982 Y40.2 Z-1.79 I-0.716 J-0.594
N7020 G1 X13.68 F275.
N7025 G3 X13.104 Y39.713 I-0.009 J-0.573
N7030 X13.858 Y38.8 I0.753 J-0.146
N7035 G1 X14.192
N7040 G3 X14.512 Y39.049 Z-1.735 I-0.012 J0.346 F150.
N7045 G1 X14.53 Y39.122 Z-1.69
N7050 G3 X14.357 Y39.855 I-0.882 J0.179
N7055 X13.68 Y40.2 Z-1.79 I-0.709 J-0.554
N7060 G1 X13.336 F275.
N7065 G3 X12.843 Y39.917 I-0.027 J-0.524
N7070 X13.521 Y38.801 I0.675 J-0.354
N7075 G1 X13.858 Y38.8
N7080 G3 X14.179 Y39.054 Z-1.734 I-0.012 J0.345 F150.
N7085 G1 X14.195 Y39.125 Z-1.69
N7090 G3 X14.015 Y39.857 I-0.891 J0.168
N7095 X13.336 Y40.2 Z-1.79 I-0.711 J-0.564
N7100 G1 X12.991 F275.
N7105 G3 X12.502 Y39.912 I-0.024 J-0.518
N7110 X13.183 Y38.801 I0.678 J-0.349
N7115 G1 X13.521 Y38.8
N7120 G3 X13.843 Y39.059 Z-1.734 I-0.012 J0.345 F150.
N7125 G1 X13.858 Y39.128 Z-1.69
N7130 G3 X13.672 Y39.859 I-0.899 J0.16
N7135 X12.991 Y40.2 Z-1.79 I-0.712 J-0.571
N7140 G1 X12.653 F275.
N7145 G3 X12.161 Y39.913 I-0.018 J-0.533
N7150 X12.846 Y38.8 I0.685 J-0.346
N7155 G1 X13.183
N7160 G3 X13.506 Y39.059 Z-1.733 I-0.012 J0.345 F150.
N7165 G1 X13.521 Y39.129 Z-1.69
N7170 G3 X13.334 Y39.859 I-0.9 J0.159
N7175 X12.653 Y40.2 Z-1.79 I-0.712 J-0.572
N7180 G1 X12.309 F275.
N7185 G3 X11.82 Y39.909 I-0.016 J-0.53
N7190 X12.508 Y38.8 I0.688 J-0.341
N7195 G1 X12.846
N7200 G3 X13.17 Y39.063 Z-1.733 I-0.012 J0.345 F150.
N7205 G1 X13.184 Y39.131 Z-1.69
N7210 G3 X12.991 Y39.861 I-0.907 J0.15
N7215 X12.309 Y40.2 Z-1.79 I-0.714 J-0.579
N7220 G1 X11.965 F275.
N7225 G3 X11.478 Y39.906 I-0.013 J-0.528
N7230 X12.169 Y38.8 I0.69 J-0.338
N7235 G1 X12.508
N7240 G3 X12.832 Y39.067 Z-1.732 I-0.012 J0.345 F150.
N7245 G1 X12.845 Y39.134 Z-1.69
N7250 G3 X12.647 Y39.862 I-0.913 J0.143
N7255 X11.965 Y40.2 Z-1.79 I-0.715 J-0.585
N7260 G1 X11.657 F275.
N7265 G3 X11.082 Y39.713 I-0.008 J-0.574
N7270 X11.834 Y38.8 I0.753 J-0.146
N7275 G1 X12.169
N7280 G3 X12.488 Y39.048 Z-1.735 I-0.012 J0.346 F150.
N7285 G1 X12.507 Y39.121 Z-1.69
N7290 G3 X12.334 Y39.855 I-0.881 J0.18
N7295 X11.657 Y40.2 Z-1.79 I-0.709 J-0.553
N7300 G1 X11.313 F275.
N7305 G3 X10.82 Y39.917 I-0.027 J-0.524
N7310 X11.498 Y38.801 I0.675 J-0.354
N7315 G1 X11.834 Y38.8
N7320 G3 X12.156 Y39.054 Z-1.734 I-0.012 J0.345 F150.
N7325 G1 X12.172 Y39.125 Z-1.69
N7330 G3 X11.992 Y39.857 I-0.891 J0.168
N7335 X11.313 Y40.2 Z-1.79 I-0.711 J-0.563
N7340 G1 X10.968 F275.
N7345 G3 X10.479 Y39.912 I-0.024 J-0.518
N7350 X11.161 Y38.801 I0.678 J-0.349
N7355 G1 X11.498 Y38.8
N7360 G3 X11.82 Y39.059 Z-1.734 I-0.012 J0.345 F150.
N7365 G1 X11.835 Y39.128 Z-1.69
N7370 G3 X11.649 Y39.859 I-0.899 J0.16
N7375 X10.968 Y40.2 Z-1.79 I-0.712 J-0.571
N7380 G1 X10.648 F275.
N7385 G3 X10.15 Y39.922 I-0.029 J-0.532
N7390 X10.826 Y38.801 I0.673 J-0.359
N7395 G1 X11.161 Y38.8
N7400 G3 X11.48 Y39.049 Z-1.735 I-0.012 J0.346 F150.
N7405 G1 X11.498 Y39.122 Z-1.69
N7410 G3 X11.325 Y39.855 I-0.882 J0.179
N7415 X10.648 Y40.2 Z-1.79 I-0.709 J-0.555
N7420 G1 X10.303 F275.
N7425 G3 X9.811 Y39.916 I-0.026 J-0.522
N7430 X10.49 Y38.801 I0.675 J-0.353
N7435 G1 X10.826 Y38.8
N7440 G3 X11.148 Y39.055 Z-1.734 I-0.012 J0.345 F150.
N7445 G1 X11.164 Y39.126 Z-1.69
N7450 G3 X10.983 Y39.857 I-0.892 J0.167
N7455 X10.303 Y40.2 Z-1.79 I-0.711 J-0.565
N7460 G1 X9.959 F275.
N7465 G3 X9.468 Y39.912 I-0.018 J-0.533
N7470 X10.153 Y38.8 I0.685 J-0.345
N7475 G1 X10.49
N7480 G3 X10.813 Y39.059 Z-1.733 I-0.012 J0.345 F150.
N7485 G1 X10.827 Y39.129 Z-1.69
N7490 G3 X10.64 Y39.859 I-0.9 J0.158
N7495 X9.959 Y40.2 Z-1.79 I-0.712 J-0.573
N7500 G1 X9.644 F275.
N7505 G3 X9.067 Y39.714 I-0.008 J-0.575
N7510 X9.819 Y38.8 I0.752 J-0.148
N7515 X9.981 Y38.847 Z-1.768 I-0.012 J0.348 F150.
N7520 X10.21 Y39.055 Z-1.69 I-0.363 J0.628
N7525 X10.27 Y39.793 I-0.592 J0.42
N7530 X9.644 Y40.2 Z-1.79 I-0.652 J-0.318
N7535 G1 X9.299 F275.
N7540 G3 X8.806 Y39.917 I-0.027 J-0.525
N7545 X9.483 Y38.801 I0.674 J-0.355
N7550 G1 X10.153 Y38.8
N7555 G3 X10.476 Y39.214 Z-1.714 I-0.012 J0.343 F150.
N7560 G1 X10.454 Y39.301 Z-1.69
N7565 G3 X10.025 Y39.936 I-1.198 J-0.348
N7570 X9.299 Y40.2 Z-1.79 I-0.769 J-0.983
N7575 G1 X8.954 F275.
N7580 G3 X8.465 Y39.912 I-0.024 J-0.519
N7585 X9.146 Y38.801 I0.677 J-0.35
N7590 G1 X9.207 Y38.808 Z-1.782 F150.
N7595 X9.266 Y38.826 Z-1.774
N7600 X9.321 Y38.854 Z-1.766
N7605 G3 X9.53 Y39.056 Z-1.69 I-0.391 J0.616
N7610 X9.583 Y39.795 I-0.601 J0.414
N7615 X8.955 Y40.2 Z-1.79 I-0.654 J-0.324
N7620 G1 X8.611 F275.
N7625 G3 X8.121 Y39.91 I-0.016 J-0.531
N7630 X8.808 Y38.8 I0.687 J-0.342
N7635 X8.987 Y38.857 Z-1.766 I-0.012 J0.348 F150.
N7640 X9.19 Y39.056 Z-1.69 I-0.402 J0.611
N7645 X9.24 Y39.796 I-0.605 J0.412
N7650 X8.611 Y40.2 Z-1.79 I-0.655 J-0.327
N7655 G1 X8.267 F275.
N7660 G3 X7.779 Y39.907 I-0.014 J-0.528
N7665 X8.469 Y38.8 I0.69 J-0.338
N7670 X8.652 Y38.86 Z-1.765 I-0.012 J0.348 F150.
N7675 X8.849 Y39.057 Z-1.69 I-0.412 J0.607
N7680 X8.896 Y39.796 I-0.608 J0.41
N7685 X8.267 Y40.2 Z-1.79 I-0.655 J-0.329
N7690 G1 X7.957 F275.
N7695 G3 X7.459 Y39.923 I-0.029 J-0.535
N7700 X8.135 Y38.801 I0.674 J-0.359
N7705 G1 X8.192 Y38.807 Z-1.783 F150.
N7710 X8.247 Y38.823 Z-1.775
N7715 X8.299 Y38.848 Z-1.768
N7720 G3 X8.525 Y39.055 Z-1.69 I-0.367 J0.627
N7725 X8.584 Y39.793 I-0.593 J0.419
N7730 X7.957 Y40.2 Z-1.79 I-0.652 J-0.319
N7735 G1 X7.613 F275.
N7740 G3 X7.12 Y39.917 I-0.027 J-0.523
N7745 X7.798 Y38.801 I0.675 J-0.354
N7750 G1 X7.857 Y38.808 Z-1.782 F150.
N7755 X7.915 Y38.825 Z-1.775
N7760 X7.968 Y38.851 Z-1.767
N7765 G3 X8.185 Y39.056 Z-1.69 I-0.381 J0.621
N7770 X8.241 Y39.794 I-0.598 J0.416
N7775 X7.613 Y40.2 Z-1.79 I-0.653 J-0.322
N7780 X7.168 Y40.187 I-0.12 J-3.593 F275.
N7785 G1 X7.155 Y40.177 Z-1.788 F150.
N7790 G3 X7.042 Y39.491 Z-1.69 I0.298 J-0.402
N7795 X7.274 Y39.309 I0.411 J0.285
N7800 G1 X7.722 Y39.137
N7805 X8.365 Y38.891 F3000.
N7810 G3 X8.787 Y39.795 I0.179 J0.467
N7815 G1 X8.767 Y39.806
N7820 G3 X8.045 Y40.094 I-1.522 J-2.775 F150.
N7825 X7.269 Y40.196 Z-1.79 I-0.8 J-3.062
N7830 G1 X7.234 Y40.195 F275.
N7835 X7.145 Y40.184
N7840 X6.998 Y40.156
N7845 X6.881 Y40.062
N7850 X6.786 Y39.946
N7855 G3 X7.471 Y38.8 I0.686 J-0.368
N7860 X7.682 Y38.879 Z-1.761 I-0.012 J0.352 F150.
N7865 X7.879 Y39.128 Z-1.69 I-0.465 J0.571
N7870 X7.824 Y39.868 I-0.662 J0.323
N7875 X7.145 Y40.184 Z-1.79 I-0.607 J-0.417
N7880 X6.783 Y40.122 I0.257 J-2.628 F275.
N7885 G1 X6.731 Y40.095 F150.
N7890 X6.685 Y40.058
N7895 X6.647 Y40.013
N7900 X6.619 Y39.962
N7905 G3 X6.604 Y39.77 I0.274 J-0.118
N7910 X7.179 Y39.918 I0.288 J0.074
N7915 X6.842 Y40.137 I-0.288 J-0.074
N7920 G1 X6.803 Y40.129 F275.
N7925 X6.76 Y40.114
N7930 X6.655 Y40.058
N7935 X6.641 Y40.05
N7940 X6.633 Y40.037 Z-1.788 F150.
N7945 G3 X6.777 Y39.365 Z-1.692 I0.427 J-0.26
N7950 G1 X6.787 Y39.358 Z-1.69
N7955 X7.029 Y39.191
N7960 G3 X7.492 Y39.136 I0.284 J0.412
N7965 X7.768 Y39.397 I-0.179 J0.467 F3000.
N7970 X7.543 Y40.047 I-0.456 J0.206 F150.
N7975 G1 X7.524 Y40.056
N7980 G3 X6.76 Y40.114 Z-1.79 I-0.453 J-0.918
N7985 G1 X6.717 Y40.094 F275.
N7990 X6.639 Y40.049
N7995 X6.56 Y39.99
N8000 G3 X6.559 Y39.944 I0.044 J-0.024 F150.
N8005 G1 X6.595 Y39.866 Z-1.782
N8010 X6.631 Y39.789 Z-1.76
N8015 X6.664 Y39.718 Z-1.723
N8020 X6.694 Y39.653 Z-1.673
N8025 X6.72 Y39.597 Z-1.611
N8030 X6.741 Y39.552 Z-1.54
N8035 X6.757 Y39.518 Z-1.461
N8040 X6.766 Y39.498 Z-1.377
N8045 X6.77 Y39.491 Z-1.29
N8050 G0 Z2.2
N8055 X7.898 Y39.969
N8060 Z-0.79
N8065 G1 Z-1.29 F150.
N8070 X7.891 Y39.972 Z-1.377
N8075 X7.869 Y39.978 Z-1.461
N8080 X7.834 Y39.989 Z-1.54
N8085 X7.786 Y40.004 Z-1.611
N8090 X7.728 Y40.023 Z-1.673
N8095 X7.659 Y40.044 Z-1.723
N8100 X7.584 Y40.068 Z-1.76
N8105 X7.504 Y40.093 Z-1.782
N8110 X7.421 Y40.119 Z-1.79
N8115 G3 X6.639 Y40.049 I-0.307 J-0.977
N8120 X6.347 Y39.447 I0.389 J-0.56 F275.
N8125 G1 X6.363 Y39.362 Z-1.779 F150.
N8130 X6.392 Y39.28 Z-1.768
N8135 X6.432 Y39.203 Z-1.757
N8140 X6.484 Y39.133 Z-1.746
N8145 X6.545 Y39.072 Z-1.734
N8150 X6.615 Y39.02 Z-1.723
N8155 X6.692 Y38.979 Z-1.712
N8160 X6.774 Y38.949 Z-1.701
N8165 X6.859 Y38.933 Z-1.69
N8170 G3 X7.492 Y39.679 I0.068 J0.583
N8175 X7.274 Y39.992 I-0.572 J-0.165
N8180 X6.545 Y39.977 Z-1.79 I-0.355 J-0.478
N8185 X6.935 Y38.845 I0.455 J-0.476 F275.
N8190 G1 X7.062 Y38.825
N8195 X7.234 Y38.805
N8200 X7.406 Y38.8
N8205 X9.483
N8210 G3 X9.876 Y39.584 I-0.017 J0.5 F150.
N8215 G1 X9.828 Y39.631 Z-1.785
N8220 X9.78 Y39.677 Z-1.771
N8225 X9.734 Y39.721 Z-1.749
N8230 X9.665 Y39.748 Z-1.708
N8235 X9.602 Y39.772 Z-1.656
N8240 X9.55 Y39.793 Z-1.593
N8245 X9.514 Y39.796 Z-1.539
N8250 X9.486 Y39.798 Z-1.482
N8255 X9.465 Y39.8 Z-1.421
N8260 X9.459 Z-1.393
N8265 X9.451 Y39.799 Z-1.342
N8270 X9.448 Z-1.29
N8275 G0 Z2.2
N8280 X18.936 Y39.826
N8285 Z-0.29
N8290 G1 Z-0.79 F150.
N8295 S5000
N8300 G3 X17.908 Y39.174 Z-0.89 I-0.514 J-0.326 F220.
N8305 X18.936 Y39.826 Z-0.991 I0.514 J0.326
N8310 X17.908 Y39.174 Z-1.091 I-0.514 J-0.326
N8315 X18.936 Y39.826 Z-1.191 I0.514 J0.326
N8320 X17.908 Y39.174 Z-1.291 I-0.514 J-0.326
N8325 X18.936 Y39.826 Z-1.392 I0.514 J0.326
N8330 X17.908 Y39.174 Z-1.492 I-0.514 J-0.326
N8335 X18.936 Y39.826 Z-1.592 I0.514 J0.326
N8340 X17.908 Y39.174 Z-1.692 I-0.514 J-0.326
N8345 X18.936 Y39.826 Z-1.793 I0.514 J0.326
N8350 X17.908 Y39.174 Z-1.893 I-0.514 J-0.326
N8355 X18.936 Y39.826 Z-1.993 I0.514 J0.326
N8360 X17.908 Y39.174 Z-2.093 I-0.514 J-0.326
N8365 X18.936 Y39.826 Z-2.194 I0.514 J0.326
N8370 X17.908 Y39.174 Z-2.294 I-0.514 J-0.326
N8375 X18.936 Y39.826 Z-2.394 I0.514 J0.326
N8380 X17.908 Y39.174 Z-2.495 I-0.514 J-0.326
N8385 X18.936 Y39.826 Z-2.595 I0.514 J0.326
N8390 X17.908 Y39.174 Z-2.695 I-0.514 J-0.326
N8395 X18.936 Y39.826 Z-2.795 I0.514 J0.326
N8400 X17.908 Y39.174 Z-2.896 I-0.514 J-0.326
N8405 X18.936 Y39.826 Z-2.996 I0.514 J0.326
N8410 X17.908 Y39.174 Z-3.096 I-0.514 J-0.326
N8415 X18.936 Y39.826 Z-3.196 I0.514 J0.326
N8420 X17.908 Y39.174 Z-3.297 I-0.514 J-0.326
N8425 X18.936 Y39.826 Z-3.397 I0.514 J0.326
N8430 X17.908 Y39.174 Z-3.497 I-0.514 J-0.326
N8435 X18.936 Y39.826 Z-3.598 I0.514 J0.326
N8440 X17.908 Y39.174 Z-3.698 I-0.514 J-0.326
N8445 X19.031 Y39.5 Z-3.78 I0.514 J0.326
N8450 X17.813 I-0.609 J0.
N8455 X19.031 I0.609 J0.
N8460 S5500
N8465 G1 X19.066 Y39.792 F275.
N8470 X19.045 Y39.943
N8475 X18.967 Y40.073
N8480 X18.844 Y40.163
N8485 X18.695 Y40.197
N8490 X18.594 Y40.2
N8495 X18.113
N8500 G3 X17.504 Y39.738 I-0.02 J-0.605
N8505 X18.225 Y38.8 I0.721 J-0.192
N8510 X18.834 Y38.812 I0.203 J5.077
N8515 G1 X18.846 Y38.822 Z-3.778 F150.
N8520 G3 X18.968 Y39.507 Z-3.68 I-0.293 J0.405
N8525 X18.822 Y39.649 I-0.415 J-0.279
N8530 G1 X18.484 Y39.864
N8535 G3 X18.324 Y39.929 I-0.268 J-0.422
N8540 X17.773 Y39.672 I-0.108 J-0.488 F3000.
N8545 X17.972 Y39.005 I0.443 J-0.231 F150.
N8550 G1 X17.98 Y39.001
N8555 G3 X18.731 Y38.804 Z-3.78 I0.765 J1.386
N8560 G1 X18.766 Y38.805 F275.
N8565 X18.855 Y38.815
N8570 X19.002 Y38.84
N8575 G3 X19.312 Y39.723 I-0.357 J0.621
N8580 X18.641 Y40.199 I-0.691 J-0.264
N8585 X18.496 Y40.166 Z-3.761 I0.003 J-0.35 F150.
N8590 X18.189 Y39.891 Z-3.68 I0.299 J-0.644
N8595 Y39.152 I0.606 J-0.369
N8600 X18.855 Y38.815 Z-3.78 I0.606 J0.37
N8605 X19.368 Y38.949 I-0.032 J1.176 F275.
N8610 G1 X19.431 Y39.001
N8615 G3 X18.99 Y39.475 I-0.22 J0.237 F150.
N8620 X19.259 Y38.918 I0.22 J-0.237
N8625 X19.366 Y38.954 I-0.051 J0.331
N8630 X19.56 Y39.154 I-0.313 J0.497 F275.
N8635 X19.434 Y39.762 Z-3.694 I-0.417 J0.231 F150.
N8640 X19.341 Y39.818 Z-3.68 I-0.289 J-0.374
N8645 X18.796 Y39.07 I-0.195 J-0.43
N8650 G1 X18.819 Y39.046 Z-3.684
N8655 G3 X19.494 Y39.069 Z-3.78 I0.326 J0.342
N8660 X19.111 Y40.148 I-0.49 J0.434 F275.
N8665 G1 X18.938 Y40.172
N8670 X18.766 Y40.195
N8675 X18.695 Y40.197
N8680 X18.113 Y40.2 F150.
N8685 X17.733 F275.
N8690 G3 X17.236 Y39.922 I-0.028 J-0.533
N8695 X17.901 Y38.801 I0.662 J-0.365
N8700 G1 X18.225 Y38.8
N8705 G3 X18.541 Y39.036 Z-3.727 I-0.012 J0.346 F150.
N8710 X18.563 Y39.114 Z-3.68 I-0.839 J0.28
N8715 X18.408 Y39.85 I-0.861 J0.202
N8720 X17.733 Y40.2 Z-3.78 I-0.705 J-0.534
N8725 G1 X17.389 F275.
N8730 G3 X16.895 Y39.918 I-0.027 J-0.527
N8735 X17.569 Y38.801 I0.671 J-0.357
N8740 G1 X17.901 Y38.8
N8745 G3 X18.221 Y39.048 Z-3.725 I-0.012 J0.346 F150.
N8750 G1 X18.239 Y39.121 Z-3.68
N8755 G3 X18.067 Y39.855 I-0.881 J0.18
N8760 X17.389 Y40.2 Z-3.78 I-0.709 J-0.553
N8765 G1 X17.044 F275.
N8770 G3 X16.554 Y39.913 I-0.024 J-0.52
N8775 X17.234 Y38.801 I0.676 J-0.351
N8780 G1 X17.569 Y38.8
N8785 G3 X17.891 Y39.056 Z-3.724 I-0.012 J0.345 F150.
N8790 G1 X17.907 Y39.126 Z-3.68
N8795 G3 X17.724 Y39.858 I-0.894 J0.166
N8800 X17.045 Y40.2 Z-3.78 I-0.711 J-0.566
N8805 G1 X16.701 F275.
N8810 G3 X16.21 Y39.911 I-0.017 J-0.532
N8815 X16.896 Y38.8 I0.686 J-0.344
N8820 G1 X17.234
N8825 G3 X17.557 Y39.061 Z-3.723 I-0.012 J0.345 F150.
N8830 G1 X17.571 Y39.13 Z-3.68
N8835 G3 X17.382 Y39.86 I-0.902 J0.155
N8840 X16.701 Y40.2 Z-3.78 I-0.713 J-0.575
N8845 G1 X16.356 F275.
N8850 G3 X15.869 Y39.908 I-0.014 J-0.529
N8855 X16.558 Y38.8 I0.689 J-0.34
N8860 G1 X16.896
N8865 G3 X17.22 Y39.065 Z-3.723 I-0.012 J0.345 F150.
N8870 G1 X17.234 Y39.133 Z-3.68
N8875 G3 X17.038 Y39.861 I-0.909 J0.147
N8880 X16.356 Y40.2 Z-3.78 I-0.714 J-0.582
N8885 G1 X16.047 F275.
N8890 G3 X15.471 Y39.714 I-0.009 J-0.574
N8895 X16.224 Y38.8 I0.753 J-0.147
N8900 G1 X16.558
N8905 G3 X16.877 Y39.047 Z-3.725 I-0.012 J0.346 F150.
N8910 G1 X16.896 Y39.121 Z-3.68
N8915 G3 X16.724 Y39.854 I-0.88 J0.181
N8920 X16.047 Y40.2 Z-3.78 I-0.709 J-0.552
N8925 G1 X15.703 F275.
N8930 G3 X15.209 Y39.917 I-0.027 J-0.524
N8935 X15.887 Y38.801 I0.674 J-0.355
N8940 G1 X16.224 Y38.8
N8945 G3 X16.545 Y39.054 Z-3.724 I-0.012 J0.345 F150.
N8950 G1 X16.561 Y39.125 Z-3.68
N8955 G3 X16.382 Y39.857 I-0.89 J0.169
N8960 X15.703 Y40.2 Z-3.78 I-0.711 J-0.562
N8965 G1 X15.358 F275.
N8970 G3 X14.869 Y39.912 I-0.024 J-0.518
N8975 X15.55 Y38.801 I0.677 J-0.349
N8980 G1 X15.887 Y38.8
N8985 G3 X16.209 Y39.058 Z-3.724 I-0.012 J0.345 F150.
N8990 G1 X16.225 Y39.128 Z-3.68
N8995 G3 X16.039 Y39.859 I-0.898 J0.16
N9000 X15.359 Y40.2 Z-3.78 I-0.712 J-0.57
N9005 G1 X15.014 F275.
N9010 G3 X14.525 Y39.91 I-0.016 J-0.531
N9015 X15.212 Y38.8 I0.687 J-0.342
N9020 G1 X15.55
N9025 G3 X15.873 Y39.062 Z-3.723 I-0.012 J0.345 F150.
N9030 G1 X15.888 Y39.131 Z-3.68
N9035 G3 X15.696 Y39.86 I-0.905 J0.152
N9040 X15.014 Y40.2 Z-3.78 I-0.713 J-0.578
N9045 G1 X14.67 F275.
N9050 G3 X14.183 Y39.907 I-0.014 J-0.528
N9055 X14.873 Y38.8 I0.69 J-0.338
N9060 G1 X15.212
N9065 G3 X15.536 Y39.066 Z-3.723 I-0.012 J0.345 F150.
N9070 G1 X15.55 Y39.133 Z-3.68
N9075 G3 X15.352 Y39.862 I-0.912 J0.144
N9080 X14.67 Y40.2 Z-3.78 I-0.715 J-0.584
N9085 G1 X14.326 F275.
N9090 X14.176 Y40.193
N9095 G3 X13.774 Y39.693 I0.228 J-0.595
N9100 X14.533 Y38.8 I0.759 J-0.124
N9105 G1 X14.873
N9110 G3 X15.198 Y39.069 Z-3.722 I-0.012 J0.345 F150.
N9115 G1 X15.21 Y39.136 Z-3.68
N9120 G3 X15.009 Y39.863 I-0.917 J0.138
N9125 X14.326 Y40.2 Z-3.78 I-0.716 J-0.59
N9130 G1 X13.982 F275.
N9135 X13.832 Y40.193
N9140 G3 X13.432 Y39.691 I0.234 J-0.596
N9145 X14.192 Y38.8 I0.76 J-0.121
N9150 G1 X14.533
N9155 G3 X14.858 Y39.072 Z-3.722 I-0.012 J0.345 F150.
N9160 G1 X14.87 Y39.137 Z-3.68
N9165 G3 X14.665 Y39.864 I-0.921 J0.132
N9170 X13.982 Y40.2 Z-3.78 I-0.716 J-0.594
N9175 G1 X13.68 F275.
N9180 G3 X13.104 Y39.713 I-0.009 J-0.573
N9185 X13.858 Y38.8 I0.753 J-0.146
N9190 G1 X14.192
N9195 G3 X14.512 Y39.049 Z-3.725 I-0.012 J0.346 F150.
N9200 G1 X14.53 Y39.122 Z-3.68
N9205 G3 X14.357 Y39.855 I-0.882 J0.179
N9210 X13.68 Y40.2 Z-3.78 I-0.709 J-0.554
N9215 G1 X13.336 F275.
N9220 G3 X12.843 Y39.917 I-0.027 J-0.524
N9225 X13.521 Y38.801 I0.675 J-0.354
N9230 G1 X13.858 Y38.8
N9235 G3 X14.179 Y39.054 Z-3.724 I-0.012 J0.345 F150.
N9240 G1 X14.195 Y39.125 Z-3.68
N9245 G3 X14.015 Y39.857 I-0.891 J0.168
N9250 X13.336 Y40.2 Z-3.78 I-0.711 J-0.564
N9255 G1 X12.991 F275.
N9260 G3 X12.502 Y39.912 I-0.024 J-0.518
N9265 X13.183 Y38.801 I0.678 J-0.349
N9270 G1 X13.521 Y38.8
N9275 G3 X13.843 Y39.059 Z-3.724 I-0.012 J0.345 F150.
N9280 G1 X13.858 Y39.128 Z-3.68
N9285 G3 X13.672 Y39.859 I-0.899 J0.16
N9290 X12.991 Y40.2 Z-3.78 I-0.712 J-0.571
N9295 G1 X12.653 F275.
N9300 G3 X12.161 Y39.913 I-0.018 J-0.533
N9305 X12.846 Y38.8 I0.685 J-0.346
N9310 G1 X13.183
N9315 G3 X13.506 Y39.059 Z-3.723 I-0.012 J0.345 F150.
N9320 G1 X13.521 Y39.129 Z-3.68
N9325 G3 X13.334 Y39.859 I-0.9 J0.159
N9330 X12.653 Y40.2 Z-3.78 I-0.712 J-0.572
N9335 G1 X12.309 F275.
N9340 G3 X11.82 Y39.909 I-0.016 J-0.53
N9345 X12.508 Y38.8 I0.688 J-0.341
N9350 G1 X12.846
N9355 G3 X13.17 Y39.063 Z-3.723 I-0.012 J0.345 F150.
N9360 G1 X13.184 Y39.131 Z-3.68
N9365 G3 X12.991 Y39.861 I-0.907 J0.15
N9370 X12.309 Y40.2 Z-3.78 I-0.714 J-0.579
N9375 G1 X11.965 F275.
N9380 G3 X11.478 Y39.906 I-0.013 J-0.528
N9385 X12.169 Y38.8 I0.69 J-0.338
N9390 G1 X12.508
N9395 G3 X12.832 Y39.067 Z-3.722 I-0.012 J0.345 F150.
N9400 G1 X12.845 Y39.134 Z-3.68
N9405 G3 X12.647 Y39.862 I-0.913 J0.143
N9410 X11.965 Y40.2 Z-3.78 I-0.715 J-0.585
N9415 G1 X11.657 F275.
N9420 G3 X11.082 Y39.713 I-0.008 J-0.574
N9425 X11.834 Y38.8 I0.753 J-0.146
N9430 G1 X12.169
N9435 G3 X12.488 Y39.048 Z-3.725 I-0.012 J0.346 F150.
N9440 G1 X12.507 Y39.121 Z-3.68
N9445 G3 X12.334 Y39.855 I-0.881 J0.18
N9450 X11.657 Y40.2 Z-3.78 I-0.709 J-0.553
N9455 G1 X11.313 F275.
N9460 G3 X10.82 Y39.917 I-0.027 J-0.524
N9465 X11.498 Y38.801 I0.675 J-0.354
N9470 G1 X11.834 Y38.8
N9475 G3 X12.156 Y39.054 Z-3.724 I-0.012 J0.345 F150.
N9480 G1 X12.172 Y39.125 Z-3.68
N9485 G3 X11.992 Y39.857 I-0.891 J0.168
N9490 X11.313 Y40.2 Z-3.78 I-0.711 J-0.563
N9495 G1 X10.968 F275.
N9500 G3 X10.479 Y39.912 I-0.024 J-0.518
N9505 X11.161 Y38.801 I0.678 J-0.349
N9510 G1 X11.498 Y38.8
N9515 G3 X11.82 Y39.059 Z-3.724 I-0.012 J0.345 F150.
N9520 G1 X11.835 Y39.128 Z-3.68
N9525 G3 X11.649 Y39.859 I-0.899 J0.16
N9530 X10.968 Y40.2 Z-3.78 I-0.712 J-0.571
N9535 G1 X10.648 F275.
N9540 G3 X10.15 Y39.922 I-0.029 J-0.532
N9545 X10.826 Y38.801 I0.673 J-0.359
N9550 G1 X11.161 Y38.8
N9555 G3 X11.48 Y39.049 Z-3.725 I-0.012 J0.346 F150.
N9560 G1 X11.498 Y39.122 Z-3.68
N9565 G3 X11.325 Y39.855 I-0.882 J0.179
N9570 X10.648 Y40.2 Z-3.78 I-0.709 J-0.555
N9575 G1 X10.303 F275.
N9580 G3 X9.811 Y39.916 I-0.026 J-0.522
N9585 X10.49 Y38.801 I0.675 J-0.353
N9590 G1 X10.826 Y38.8
N9595 G3 X11.148 Y39.055 Z-3.724 I-0.012 J0.345 F150.
N9600 G1 X11.164 Y39.126 Z-3.68
N9605 G3 X10.983 Y39.857 I-0.892 J0.167
N9610 X10.303 Y40.2 Z-3.78 I-0.711 J-0.565
N9615 G1 X9.959 F275.
N9620 G3 X9.468 Y39.912 I-0.018 J-0.533
N9625 X10.153 Y38.8 I0.685 J-0.345
N9630 G1 X10.49
N9635 G3 X10.813 Y39.059 Z-3.723 I-0.012 J0.345 F150.
N9640 G1 X10.827 Y39.129 Z-3.68
N9645 G3 X10.64 Y39.859 I-0.9 J0.158
N9650 X9.959 Y40.2 Z-3.78 I-0.712 J-0.573
N9655 G1 X9.644 F275.
N9660 G3 X9.067 Y39.714 I-0.008 J-0.575
N9665 X9.819 Y38.8 I0.752 J-0.148
N9670 X9.981 Y38.847 Z-3.758 I-0.012 J0.348 F150.
N9675 X10.21 Y39.055 Z-3.68 I-0.363 J0.628
N9680 X10.27 Y39.793 I-0.592 J0.42
N9685 X9.644 Y40.2 Z-3.78 I-0.652 J-0.318
N9690 G1 X9.299 F275.
N9695 G3 X8.806 Y39.917 I-0.027 J-0.525
N9700 X9.483 Y38.801 I0.674 J-0.355
N9705 G1 X10.153 Y38.8
N9710 G3 X10.476 Y39.214 Z-3.704 I-0.012 J0.343 F150.
N9715 G1 X10.454 Y39.301 Z-3.68
N9720 G3 X10.025 Y39.936 I-1.198 J-0.348
N9725 X9.299 Y40.2 Z-3.78 I-0.769 J-0.983
N9730 G1 X8.954 F275.
N9735 G3 X8.465 Y39.912 I-0.024 J-0.519
N9740 X9.146 Y38.801 I0.677 J-0.35
N9745 G1 X9.207 Y38.808 Z-3.772 F150.
N9750 X9.266 Y38.826 Z-3.764
N9755 X9.321 Y38.854 Z-3.756
N9760 G3 X9.53 Y39.056 Z-3.68 I-0.391 J0.616
N9765 X9.583 Y39.795 I-0.601 J0.414
N9770 X8.955 Y40.2 Z-3.78 I-0.654 J-0.324
N9775 G1 X8.611 F275.
N9780 G3 X8.121 Y39.91 I-0.016 J-0.531
N9785 X8.808 Y38.8 I0.687 J-0.342
N9790 X8.987 Y38.857 Z-3.756 I-0.012 J0.348 F150.
N9795 X9.19 Y39.056 Z-3.68 I-0.402 J0.611
N9800 X9.24 Y39.796 I-0.605 J0.412
N9805 X8.611 Y40.2 Z-3.78 I-0.655 J-0.327
N9810 G1 X8.267 F275.
N9815 G3 X7.779 Y39.907 I-0.014 J-0.528
N9820 X8.469 Y38.8 I0.69 J-0.338
N9825 X8.652 Y38.86 Z-3.755 I-0.012 J0.348 F150.
N9830 X8.849 Y39.057 Z-3.68 I-0.412 J0.607
N9835 X8.896 Y39.796 I-0.608 J0.41
N9840 X8.267 Y40.2 Z-3.78 I-0.655 J-0.329
N9845 G1 X7.957 F275.
N9850 G3 X7.459 Y39.923 I-0.029 J-0.535
N9855 X8.135 Y38.801 I0.674 J-0.359
N9860 G1 X8.192 Y38.807 Z-3.773 F150.
N9865 X8.247 Y38.823 Z-3.765
N9870 X8.299 Y38.848 Z-3.758
N9875 G3 X8.525 Y39.055 Z-3.68 I-0.367 J0.627
N9880 X8.584 Y39.793 I-0.593 J0.419
N9885 X7.957 Y40.2 Z-3.78 I-0.652 J-0.319
N9890 G1 X7.613 F275.
N9895 G3 X7.12 Y39.917 I-0.027 J-0.523
N9900 X7.798 Y38.801 I0.675 J-0.354
N9905 G1 X7.857 Y38.808 Z-3.772 F150.
N9910 X7.915 Y38.825 Z-3.765
N9915 X7.968 Y38.851 Z-3.757
N9920 G3 X8.185 Y39.056 Z-3.68 I-0.381 J0.621
N9925 X8.241 Y39.794 I-0.598 J0.416
N9930 X7.613 Y40.2 Z-3.78 I-0.653 J-0.322
N9935 X7.168 Y40.187 I-0.12 J-3.593 F275.
N9940 G1 X7.155 Y40.177 Z-3.778 F150.
N9945 G3 X7.042 Y39.491 Z-3.68 I0.298 J-0.402
N9950 X7.274 Y39.309 I0.411 J0.285
N9955 G1 X7.722 Y39.137
N9960 X8.365 Y38.891 F3000.
N9965 G3 X8.787 Y39.795 I0.179 J0.467
N9970 G1 X8.767 Y39.806
N9975 G3 X8.045 Y40.094 I-1.522 J-2.775 F150.
N9980 X7.269 Y40.196 Z-3.78 I-0.8 J-3.062
N9985 G1 X7.234 Y40.195 F275.
N9990 X7.145 Y40.184
N9995 X6.998 Y40.156
N10000 X6.881 Y40.062
N10005 X6.786 Y39.946
N10010 G3 X7.471 Y38.8 I0.686 J-0.368
N10015 X7.682 Y38.879 Z-3.751 I-0.012 J0.352 F150.
N10020 X7.879 Y39.128 Z-3.68 I-0.465 J0.571
N10025 X7.824 Y39.868 I-0.662 J0.323
N10030 X7.145 Y40.184 Z-3.78 I-0.607 J-0.417
N10035 X6.783 Y40.122 I0.257 J-2.628 F275.
N10040 G1 X6.731 Y40.095 F150.
N10045 X6.685 Y40.058
N10050 X6.647 Y40.013
N10055 X6.619 Y39.962
N10060 G3 X6.604 Y39.77 I0.274 J-0.118
N10065 X7.179 Y39.918 I0.288 J0.074
N10070 X6.842 Y40.137 I-0.288 J-0.074
N10075 G1 X6.803 Y40.129 F275.
N10080 X6.76 Y40.114
N10085 X6.655 Y40.058
N10090 X6.641 Y40.05
N10095 X6.633 Y40.037 Z-3.778 F150.
N10100 G3 X6.777 Y39.365 Z-3.682 I0.427 J-0.26
N10105 G1 X6.787 Y39.358 Z-3.68
N10110 X7.029 Y39.191
N10115 G3 X7.492 Y39.136 I0.284 J0.412
N10120 X7.768 Y39.397 I-0.179 J0.467 F3000.
N10125 X7.543 Y40.047 I-0.456 J0.206 F150.
N10130 G1 X7.524 Y40.056
N10135 G3 X6.76 Y40.114 Z-3.78 I-0.453 J-0.918
N10140 G1 X6.717 Y40.094 F275.
N10145 X6.639 Y40.049
N10150 X6.56 Y39.99
N10155 G3 X6.559 Y39.944 I0.044 J-0.024 F150.
N10160 G1 X6.595 Y39.866 Z-3.772
N10165 X6.631 Y39.789 Z-3.75
N10170 X6.664 Y39.718 Z-3.713
N10175 X6.694 Y39.653 Z-3.663
N10180 X6.72 Y39.597 Z-3.601
N10185 X6.741 Y39.552 Z-3.53
N10190 X6.757 Y39.518 Z-3.451
N10195 X6.766 Y39.498 Z-3.367
N10200 X6.77 Y39.491 Z-3.28
N10205 G0 Z2.2
N10210 X7.898 Y39.969
N10215 Z-2.78
N10220 G1 Z-3.28 F150.
N10225 X7.891 Y39.972 Z-3.367
N10230 X7.869 Y39.978 Z-3.451
N10235 X7.834 Y39.989 Z-3.53
N10240 X7.786 Y40.004 Z-3.601
N10245 X7.728 Y40.023 Z-3.663
N10250 X7.659 Y40.044 Z-3.713
N10255 X7.584 Y40.068 Z-3.75
N10260 X7.504 Y40.093 Z-3.772
N10265 X7.421 Y40.119 Z-3.78
N10270 G3 X6.639 Y40.049 I-0.307 J-0.977
N10275 X6.347 Y39.447 I0.389 J-0.56 F275.
N10280 G1 X6.363 Y39.362 Z-3.769 F150.
N10285 X6.392 Y39.28 Z-3.758
N10290 X6.432 Y39.203 Z-3.747
N10295 X6.484 Y39.133 Z-3.736
N10300 X6.545 Y39.072 Z-3.724
N10305 X6.615 Y39.02 Z-3.713
N10310 X6.692 Y38.979 Z-3.702
N10315 X6.774 Y38.949 Z-3.691
N10320 X6.859 Y38.933 Z-3.68
N10325 G3 X7.492 Y39.679 I0.068 J0.583
N10330 X7.274 Y39.992 I-0.572 J-0.165
N10335 X6.545 Y39.977 Z-3.78 I-0.355 J-0.478
N10340 X6.935 Y38.845 I0.455 J-0.476 F275.
N10345 G1 X7.062 Y38.825
N10350 X7.234 Y38.805
N10355 X7.406 Y38.8
N10360 X9.483
N10365 G3 X9.876 Y39.584 I-0.017 J0.5 F150.
N10370 G1 X9.828 Y39.631 Z-3.775
N10375 X9.78 Y39.677 Z-3.761
N10380 X9.734 Y39.721 Z-3.739
N10385 X9.665 Y39.748 Z-3.698
N10390 X9.602 Y39.772 Z-3.646
N10395 X9.55 Y39.793 Z-3.583
N10400 X9.514 Y39.796 Z-3.529
N10405 X9.486 Y39.798 Z-3.472
N10410 X9.465 Y39.8 Z-3.411
N10415 X9.459 Z-3.383
N10420 X9.451 Y39.799 Z-3.332
N10425 X9.448 Z-3.28
N10430 G0 Z-2.28
N10435 X18.989 Y39.277
N10440 G1 Z-2.78 F150.
N10445 S5000
N10450 G3 X17.855 Y39.723 Z-2.88 I-0.567 J0.223 F220.
N10455 X18.989 Y39.277 Z-2.981 I0.567 J-0.223
N10460 X17.855 Y39.723 Z-3.081 I-0.567 J0.223
N10465 X18.989 Y39.277 Z-3.181 I0.567 J-0.223
N10470 X17.855 Y39.723 Z-3.281 I-0.567 J0.223
N10475 X18.989 Y39.277 Z-3.382 I0.567 J-0.223
N10480 X17.855 Y39.723 Z-3.482 I-0.567 J0.223
N10485 X18.989 Y39.277 Z-3.582 I0.567 J-0.223
N10490 X17.855 Y39.723 Z-3.682 I-0.567 J0.223
N10495 X18.989 Y39.277 Z-3.783 I0.567 J-0.223
N10500 X17.855 Y39.723 Z-3.883 I-0.567 J0.223
N10505 X18.989 Y39.277 Z-3.983 I0.567 J-0.223
N10510 X17.855 Y39.723 Z-4.083 I-0.567 J0.223
N10515 X18.989 Y39.277 Z-4.184 I0.567 J-0.223
N10520 X17.855 Y39.723 Z-4.284 I-0.567 J0.223
N10525 X18.989 Y39.277 Z-4.384 I0.567 J-0.223
N10530 X17.855 Y39.723 Z-4.485 I-0.567 J0.223
N10535 X18.989 Y39.277 Z-4.585 I0.567 J-0.223
N10540 X17.855 Y39.723 Z-4.685 I-0.567 J0.223
N10545 X18.989 Y39.277 Z-4.785 I0.567 J-0.223
N10550 X17.855 Y39.723 Z-4.886 I-0.567 J0.223
N10555 X18.989 Y39.277 Z-4.986 I0.567 J-0.223
N10560 X17.855 Y39.723 Z-5.086 I-0.567 J0.223
N10565 X18.989 Y39.277 Z-5.186 I0.567 J-0.223
N10570 X17.855 Y39.723 Z-5.287 I-0.567 J0.223
N10575 X18.989 Y39.277 Z-5.387 I0.567 J-0.223
N10580 X17.855 Y39.723 Z-5.487 I-0.567 J0.223
N10585 X18.989 Y39.277 Z-5.588 I0.567 J-0.223
N10590 X17.855 Y39.723 Z-5.688 I-0.567 J0.223
N10595 X18.989 Y39.277 Z-5.788 I0.567 J-0.223
N10600 X19.031 Y39.5 Z-5.8 I-0.567 J0.223
N10605 X17.813 I-0.609 J0.
N10610 X19.031 I0.609 J0.
N10615 S5500
N10620 G1 X19.066 Y39.792 F275.
N10625 X19.045 Y39.943
N10630 X18.967 Y40.073
N10635 X18.844 Y40.163
N10640 X18.695 Y40.197
N10645 X18.594 Y40.2
N10650 X18.113
N10655 G3 X17.504 Y39.738 I-0.02 J-0.605
N10660 X18.225 Y38.8 I0.721 J-0.192
N10665 X18.834 Y38.812 I0.203 J5.077
N10670 G1 X18.846 Y38.822 Z-5.798 F150.
N10675 G3 X18.968 Y39.507 Z-5.7 I-0.293 J0.405
N10680 X18.822 Y39.649 I-0.415 J-0.279
N10685 G1 X18.484 Y39.864
N10690 G3 X18.324 Y39.929 I-0.268 J-0.422
N10695 X17.773 Y39.672 I-0.108 J-0.488 F3000.
N10700 X17.972 Y39.005 I0.443 J-0.231 F150.
N10705 G1 X17.98 Y39.001
N10710 G3 X18.731 Y38.804 Z-5.8 I0.765 J1.386
N10715 G1 X18.766 Y38.805 F275.
N10720 X18.855 Y38.815
N10725 X19.002 Y38.84
N10730 G3 X19.312 Y39.723 I-0.357 J0.621
N10735 X18.641 Y40.199 I-0.691 J-0.264
N10740 X18.496 Y40.166 Z-5.781 I0.003 J-0.35 F150.
N10745 X18.189 Y39.891 Z-5.7 I0.299 J-0.644
N10750 Y39.152 I0.606 J-0.369
N10755 X18.855 Y38.815 Z-5.8 I0.606 J0.37
N10760 X19.368 Y38.949 I-0.032 J1.176 F275.
N10765 G1 X19.431 Y39.001
N10770 G3 X18.99 Y39.475 I-0.22 J0.237 F150.
N10775 X19.259 Y38.918 I0.22 J-0.237
N10780 X19.366 Y38.954 I-0.051 J0.331
N10785 X19.56 Y39.154 I-0.313 J0.497 F275.
N10790 X19.434 Y39.762 Z-5.714 I-0.417 J0.231 F150.
N10795 X19.341 Y39.818 Z-5.7 I-0.289 J-0.374
N10800 X18.796 Y39.07 I-0.195 J-0.43
N10805 G1 X18.819 Y39.046 Z-5.704
N10810 G3 X19.494 Y39.069 Z-5.8 I0.326 J0.342
N10815 X19.111 Y40.148 I-0.49 J0.434 F275.
N10820 G1 X18.938 Y40.172
N10825 X18.766 Y40.195
N10830 X18.695 Y40.197
N10835 X18.113 Y40.2 F150.
N10840 X17.733 F275.
N10845 G3 X17.236 Y39.922 I-0.028 J-0.533
N10850 X17.901 Y38.801 I0.662 J-0.365
N10855 G1 X18.225 Y38.8
N10860 G3 X18.541 Y39.036 Z-5.747 I-0.012 J0.346 F150.
N10865 X18.563 Y39.114 Z-5.7 I-0.839 J0.28
N10870 X18.408 Y39.85 I-0.861 J0.202
N10875 X17.733 Y40.2 Z-5.8 I-0.705 J-0.534
N10880 G1 X17.389 F275.
N10885 G3 X16.895 Y39.918 I-0.027 J-0.527
N10890 X17.569 Y38.801 I0.671 J-0.357
N10895 G1 X17.901 Y38.8
N10900 G3 X18.221 Y39.048 Z-5.745 I-0.012 J0.346 F150.
N10905 G1 X18.239 Y39.121 Z-5.7
N10910 G3 X18.067 Y39.855 I-0.881 J0.18
N10915 X17.389 Y40.2 Z-5.8 I-0.709 J-0.553
N10920 G1 X17.044 F275.
N10925 G3 X16.554 Y39.913 I-0.024 J-0.52
N10930 X17.234 Y38.801 I0.676 J-0.351
N10935 G1 X17.569 Y38.8
N10940 G3 X17.891 Y39.056 Z-5.744 I-0.012 J0.345 F150.
N10945 G1 X17.907 Y39.126 Z-5.7
N10950 G3 X17.724 Y39.858 I-0.894 J0.166
N10955 X17.045 Y40.2 Z-5.8 I-0.711 J-0.566
N10960 G1 X16.701 F275.
N10965 G3 X16.21 Y39.911 I-0.017 J-0.532
N10970 X16.896 Y38.8 I0.686 J-0.344
N10975 G1 X17.234
N10980 G3 X17.557 Y39.061 Z-5.743 I-0.012 J0.345 F150.
N10985 G1 X17.571 Y39.13 Z-5.7
N10990 G3 X17.382 Y39.86 I-0.902 J0.155
N10995 X16.701 Y40.2 Z-5.8 I-0.713 J-0.575
N11000 G1 X16.356 F275.
N11005 G3 X15.869 Y39.908 I-0.014 J-0.529
N11010 X16.558 Y38.8 I0.689 J-0.34
N11015 G1 X16.896
N11020 G3 X17.22 Y39.065 Z-5.743 I-0.012 J0.345 F150.
N11025 G1 X17.234 Y39.133 Z-5.7
N11030 G3 X17.038 Y39.861 I-0.909 J0.147
N11035 X16.356 Y40.2 Z-5.8 I-0.714 J-0.582
N11040 G1 X16.047 F275.
N11045 G3 X15.471 Y39.714 I-0.009 J-0.574
N11050 X16.224 Y38.8 I0.753 J-0.147
N11055 G1 X16.558
N11060 G3 X16.877 Y39.047 Z-5.745 I-0.012 J0.346 F150.
N11065 G1 X16.896 Y39.121 Z-5.7
N11070 G3 X16.724 Y39.854 I-0.88 J0.181
N11075 X16.047 Y40.2 Z-5.8 I-0.709 J-0.552
N11080 G1 X15.703 F275.
N11085 G3 X15.209 Y39.917 I-0.027 J-0.524
N11090 X15.887 Y38.801 I0.674 J-0.355
N11095 G1 X16.224 Y38.8
N11100 G3 X16.545 Y39.054 Z-5.744 I-0.012 J0.345 F150.
N11105 G1 X16.561 Y39.125 Z-5.7
N11110 G3 X16.382 Y39.857 I-0.89 J0.169
N11115 X15.703 Y40.2 Z-5.8 I-0.711 J-0.562
N11120 G1 X15.358 F275.
N11125 G3 X14.869 Y39.912 I-0.024 J-0.518
N11130 X15.55 Y38.801 I0.677 J-0.349
N11135 G1 X15.887 Y38.8
N11140 G3 X16.209 Y39.058 Z-5.744 I-0.012 J0.345 F150.
N11145 G1 X16.225 Y39.128 Z-5.7
N11150 G3 X16.039 Y39.859 I-0.898 J0.16
N11155 X15.359 Y40.2 Z-5.8 I-0.712 J-0.57
N11160 G1 X15.014 F275.
N11165 G3 X14.525 Y39.91 I-0.016 J-0.531
N11170 X15.212 Y38.8 I0.687 J-0.342
N11175 G1 X15.55
N11180 G3 X15.873 Y39.062 Z-5.743 I-0.012 J0.345 F150.
N11185 G1 X15.888 Y39.131 Z-5.7
N11190 G3 X15.696 Y39.86 I-0.905 J0.152
N11195 X15.014 Y40.2 Z-5.8 I-0.713 J-0.578
N11200 G1 X14.67 F275.
N11205 G3 X14.183 Y39.907 I-0.014 J-0.528
N11210 X14.873 Y38.8 I0.69 J-0.338
N11215 G1 X15.212
N11220 G3 X15.536 Y39.066 Z-5.743 I-0.012 J0.345 F150.
N11225 G1 X15.55 Y39.133 Z-5.7
N11230 G3 X15.352 Y39.862 I-0.912 J0.144
N11235 X14.67 Y40.2 Z-5.8 I-0.715 J-0.584
N11240 G1 X14.326 F275.
N11245 X14.176 Y40.193
N11250 G3 X13.774 Y39.693 I0.228 J-0.595
N11255 X14.533 Y38.8 I0.759 J-0.124
N11260 G1 X14.873
N11265 G3 X15.198 Y39.069 Z-5.742 I-0.012 J0.345 F150.
N11270 G1 X15.21 Y39.136 Z-5.7
N11275 G3 X15.009 Y39.863 I-0.917 J0.138
N11280 X14.326 Y40.2 Z-5.8 I-0.716 J-0.59
N11285 G1 X13.982 F275.
N11290 X13.832 Y40.193
N11295 G3 X13.432 Y39.691 I0.234 J-0.596
N11300 X14.192 Y38.8 I0.76 J-0.121
N11305 G1 X14.533
N11310 G3 X14.858 Y39.072 Z-5.742 I-0.012 J0.345 F150.
N11315 G1 X14.87 Y39.137 Z-5.7
N11320 G3 X14.665 Y39.864 I-0.921 J0.132
N11325 X13.982 Y40.2 Z-5.8 I-0.716 J-0.594
N11330 G1 X13.68 F275.
N11335 G3 X13.104 Y39.713 I-0.009 J-0.573
N11340 X13.858 Y38.8 I0.753 J-0.146
N11345 G1 X14.192
N11350 G3 X14.512 Y39.049 Z-5.745 I-0.012 J0.346 F150.
N11355 G1 X14.53 Y39.122 Z-5.7
N11360 G3 X14.357 Y39.855 I-0.882 J0.179
N11365 X13.68 Y40.2 Z-5.8 I-0.709 J-0.554
N11370 G1 X13.336 F275.
N11375 G3 X12.843 Y39.917 I-0.027 J-0.524
N11380 X13.521 Y38.801 I0.675 J-0.354
N11385 G1 X13.858 Y38.8
N11390 G3 X14.179 Y39.054 Z-5.744 I-0.012 J0.345 F150.
N11395 G1 X14.195 Y39.125 Z-5.7
N11400 G3 X14.015 Y39.857 I-0.891 J0.168
N11405 X13.336 Y40.2 Z-5.8 I-0.711 J-0.564
N11410 G1 X12.991 F275.
N11415 G3 X12.502 Y39.912 I-0.024 J-0.518
N11420 X13.183 Y38.801 I0.678 J-0.349
N11425 G1 X13.521 Y38.8
N11430 G3 X13.843 Y39.059 Z-5.744 I-0.012 J0.345 F150.
N11435 G1 X13.858 Y39.128 Z-5.7
N11440 G3 X13.672 Y39.859 I-0.899 J0.16
N11445 X12.991 Y40.2 Z-5.8 I-0.712 J-0.571
N11450 G1 X12.653 F275.
N11455 G3 X12.161 Y39.913 I-0.018 J-0.533
N11460 X12.846 Y38.8 I0.685 J-0.346
N11465 G1 X13.183
N11470 G3 X13.506 Y39.059 Z-5.743 I-0.012 J0.345 F150.
N11475 G1 X13.521 Y39.129 Z-5.7
N11480 G3 X13.334 Y39.859 I-0.9 J0.159
N11485 X12.653 Y40.2 Z-5.8 I-0.712 J-0.572
N11490 G1 X12.309 F275.
N11495 G3 X11.82 Y39.909 I-0.016 J-0.53
N11500 X12.508 Y38.8 I0.688 J-0.341
N11505 G1 X12.846
N11510 G3 X13.17 Y39.063 Z-5.743 I-0.012 J0.345 F150.
N11515 G1 X13.184 Y39.131 Z-5.7
N11520 G3 X12.991 Y39.861 I-0.907 J0.15
N11525 X12.309 Y40.2 Z-5.8 I-0.714 J-0.579
N11530 G1 X11.965 F275.
N11535 G3 X11.478 Y39.906 I-0.013 J-0.528
N11540 X12.169 Y38.8 I0.69 J-0.338
N11545 G1 X12.508
N11550 G3 X12.832 Y39.067 Z-5.742 I-0.012 J0.345 F150.
N11555 G1 X12.845 Y39.134 Z-5.7
N11560 G3 X12.647 Y39.862 I-0.913 J0.143
N11565 X11.965 Y40.2 Z-5.8 I-0.715 J-0.585
N11570 G1 X11.657 F275.
N11575 G3 X11.082 Y39.713 I-0.008 J-0.574
N11580 X11.834 Y38.8 I0.753 J-0.146
N11585 G1 X12.169
N11590 G3 X12.488 Y39.048 Z-5.745 I-0.012 J0.346 F150.
N11595 G1 X12.507 Y39.121 Z-5.7
N11600 G3 X12.334 Y39.855 I-0.881 J0.18
N11605 X11.657 Y40.2 Z-5.8 I-0.709 J-0.553
N11610 G1 X11.313 F275.
N11615 G3 X10.82 Y39.917 I-0.027 J-0.524
N11620 X11.498 Y38.801 I0.675 J-0.354
N11625 G1 X11.834 Y38.8
N11630 G3 X12.156 Y39.054 Z-5.744 I-0.012 J0.345 F150.
N11635 G1 X12.172 Y39.125 Z-5.7
N11640 G3 X11.992 Y39.857 I-0.891 J0.168
N11645 X11.313 Y40.2 Z-5.8 I-0.711 J-0.563
N11650 G1 X10.968 F275.
N11655 G3 X10.479 Y39.912 I-0.024 J-0.518
N11660 X11.161 Y38.801 I0.678 J-0.349
N11665 G1 X11.498 Y38.8
N11670 G3 X11.82 Y39.059 Z-5.744 I-0.012 J0.345 F150.
N11675 G1 X11.835 Y39.128 Z-5.7
N11680 G3 X11.649 Y39.859 I-0.899 J0.16
N11685 X10.968 Y40.2 Z-5.8 I-0.712 J-0.571
N11690 G1 X10.648 F275.
N11695 G3 X10.15 Y39.922 I-0.029 J-0.532
N11700 X10.826 Y38.801 I0.673 J-0.359
N11705 G1 X11.161 Y38.8
N11710 G3 X11.48 Y39.049 Z-5.745 I-0.012 J0.346 F150.
N11715 G1 X11.498 Y39.122 Z-5.7
N11720 G3 X11.325 Y39.855 I-0.882 J0.179
N11725 X10.648 Y40.2 Z-5.8 I-0.709 J-0.555
N11730 G1 X10.303 F275.
N11735 G3 X9.811 Y39.916 I-0.026 J-0.522
N11740 X10.49 Y38.801 I0.675 J-0.353
N11745 G1 X10.826 Y38.8
N11750 G3 X11.148 Y39.055 Z-5.744 I-0.012 J0.345 F150.
N11755 G1 X11.164 Y39.126 Z-5.7
N11760 G3 X10.983 Y39.857 I-0.892 J0.167
N11765 X10.303 Y40.2 Z-5.8 I-0.711 J-0.565
N11770 G1 X9.959 F275.
N11775 G3 X9.468 Y39.912 I-0.018 J-0.533
N11780 X10.153 Y38.8 I0.685 J-0.345
N11785 G1 X10.49
N11790 G3 X10.813 Y39.059 Z-5.743 I-0.012 J0.345 F150.
N11795 G1 X10.827 Y39.129 Z-5.7
N11800 G3 X10.64 Y39.859 I-0.9 J0.158
N11805 X9.959 Y40.2 Z-5.8 I-0.712 J-0.573
N11810 G1 X9.644 F275.
N11815 G3 X9.067 Y39.714 I-0.008 J-0.575
N11820 X9.819 Y38.8 I0.752 J-0.148
N11825 X9.981 Y38.847 Z-5.778 I-0.012 J0.348 F150.
N11830 X10.21 Y39.055 Z-5.7 I-0.363 J0.628
N11835 X10.27 Y39.793 I-0.592 J0.42
N11840 X9.644 Y40.2 Z-5.8 I-0.652 J-0.318
N11845 G1 X9.299 F275.
N11850 G3 X8.806 Y39.917 I-0.027 J-0.525
N11855 X9.483 Y38.801 I0.674 J-0.355
N11860 G1 X10.153 Y38.8
N11865 G3 X10.476 Y39.214 Z-5.724 I-0.012 J0.343 F150.
N11870 G1 X10.454 Y39.301 Z-5.7
N11875 G3 X10.025 Y39.936 I-1.198 J-0.348
N11880 X9.299 Y40.2 Z-5.8 I-0.769 J-0.983
N11885 G1 X8.954 F275.
N11890 G3 X8.465 Y39.912 I-0.024 J-0.519
N11895 X9.146 Y38.801 I0.677 J-0.35
N11900 G1 X9.207 Y38.808 Z-5.792 F150.
N11905 X9.266 Y38.826 Z-5.784
N11910 X9.321 Y38.854 Z-5.776
N11915 G3 X9.53 Y39.056 Z-5.7 I-0.391 J0.616
N11920 X9.583 Y39.795 I-0.601 J0.414
N11925 X8.955 Y40.2 Z-5.8 I-0.654 J-0.324
N11930 G1 X8.611 F275.
N11935 G3 X8.121 Y39.91 I-0.016 J-0.531
N11940 X8.808 Y38.8 I0.687 J-0.342
N11945 X8.987 Y38.857 Z-5.776 I-0.012 J0.348 F150.
N11950 X9.19 Y39.056 Z-5.7 I-0.402 J0.611
N11955 X9.24 Y39.796 I-0.605 J0.412
N11960 X8.611 Y40.2 Z-5.8 I-0.655 J-0.327
N11965 G1 X8.267 F275.
N11970 G3 X7.779 Y39.907 I-0.014 J-0.528
N11975 X8.469 Y38.8 I0.69 J-0.338
N11980 X8.652 Y38.86 Z-5.775 I-0.012 J0.348 F150.
N11985 X8.849 Y39.057 Z-5.7 I-0.412 J0.607
N11990 X8.896 Y39.796 I-0.608 J0.41
N11995 X8.267 Y40.2 Z-5.8 I-0.655 J-0.329
N12000 G1 X7.957 F275.
N12005 G3 X7.459 Y39.923 I-0.029 J-0.535
N12010 X8.135 Y38.801 I0.674 J-0.359
N12015 G1 X8.192 Y38.807 Z-5.793 F150.
N12020 X8.247 Y38.823 Z-5.785
N12025 X8.299 Y38.848 Z-5.778
N12030 G3 X8.525 Y39.055 Z-5.7 I-0.367 J0.627
N12035 X8.584 Y39.793 I-0.593 J0.419
N12040 X7.957 Y40.2 Z-5.8 I-0.652 J-0.319
N12045 G1 X7.613 F275.
N12050 G3 X7.12 Y39.917 I-0.027 J-0.523
N12055 X7.798 Y38.801 I0.675 J-0.354
N12060 G1 X7.857 Y38.808 Z-5.792 F150.
N12065 X7.915 Y38.825 Z-5.785
N12070 X7.968 Y38.851 Z-5.777
N12075 G3 X8.185 Y39.056 Z-5.7 I-0.381 J0.621
N12080 X8.241 Y39.794 I-0.598 J0.416
N12085 X7.613 Y40.2 Z-5.8 I-0.653 J-0.322
N12090 X7.168 Y40.187 I-0.12 J-3.593 F275.
N12095 G1 X7.155 Y40.177 Z-5.798 F150.
N12100 G3 X7.042 Y39.491 Z-5.7 I0.298 J-0.402
N12105 X7.274 Y39.309 I0.411 J0.285
N12110 G1 X7.722 Y39.137
N12115 X8.365 Y38.891 F3000.
N12120 G3 X8.787 Y39.795 I0.179 J0.467
N12125 G1 X8.767 Y39.806
N12130 G3 X8.045 Y40.094 I-1.522 J-2.775 F150.
N12135 X7.269 Y40.196 Z-5.8 I-0.8 J-3.062
N12140 G1 X7.234 Y40.195 F275.
N12145 X7.145 Y40.184
N12150 X6.998 Y40.156
N12155 X6.881 Y40.062
N12160 X6.786 Y39.946
N12165 G3 X7.471 Y38.8 I0.686 J-0.368
N12170 X7.682 Y38.879 Z-5.771 I-0.012 J0.352 F150.
N12175 X7.879 Y39.128 Z-5.7 I-0.465 J0.571
N12180 X7.824 Y39.868 I-0.662 J0.323
N12185 X7.145 Y40.184 Z-5.8 I-0.607 J-0.417
N12190 X6.783 Y40.122 I0.257 J-2.628 F275.
N12195 G1 X6.731 Y40.095 F150.
N12200 X6.685 Y40.058
N12205 X6.647 Y40.013
N12210 X6.619 Y39.962
N12215 G3 X6.604 Y39.77 I0.274 J-0.118
N12220 X7.179 Y39.918 I0.288 J0.074
N12225 X6.842 Y40.137 I-0.288 J-0.074
N12230 G1 X6.803 Y40.129 F275.
N12235 X6.76 Y40.114
N12240 X6.655 Y40.058
N12245 X6.641 Y40.05
N12250 X6.633 Y40.037 Z-5.798 F150.
N12255 G3 X6.777 Y39.365 Z-5.702 I0.427 J-0.26
N12260 G1 X6.787 Y39.358 Z-5.7
N12265 X7.029 Y39.191
N12270 G3 X7.492 Y39.136 I0.284 J0.412
N12275 X7.768 Y39.397 I-0.179 J0.467 F3000.
N12280 X7.543 Y40.047 I-0.456 J0.206 F150.
N12285 G1 X7.524 Y40.056
N12290 G3 X6.76 Y40.114 Z-5.8 I-0.453 J-0.918
N12295 G1 X6.717 Y40.094 F275.
N12300 X6.639 Y40.049
N12305 X6.56 Y39.99
N12310 G3 X6.559 Y39.944 I0.044 J-0.024 F150.
N12315 G1 X6.595 Y39.866 Z-5.792
N12320 X6.631 Y39.789 Z-5.77
N12325 X6.664 Y39.718 Z-5.733
N12330 X6.694 Y39.653 Z-5.683
N12335 X6.72 Y39.597 Z-5.621
N12340 X6.741 Y39.552 Z-5.55
N12345 X6.757 Y39.518 Z-5.471
N12350 X6.766 Y39.498 Z-5.387
N12355 X6.77 Y39.491 Z-5.3
N12360 G0 Z2.2
N12365 X7.898 Y39.969
N12370 Z-4.8
N12375 G1 Z-5.3 F150.
N12380 X7.891 Y39.972 Z-5.387
N12385 X7.869 Y39.978 Z-5.471
N12390 X7.834 Y39.989 Z-5.55
N12395 X7.786 Y40.004 Z-5.621
N12400 X7.728 Y40.023 Z-5.683
N12405 X7.659 Y40.044 Z-5.733
N12410 X7.584 Y40.068 Z-5.77
N12415 X7.504 Y40.093 Z-5.792
N12420 X7.421 Y40.119 Z-5.8
N12425 G3 X6.639 Y40.049 I-0.307 J-0.977
N12430 X6.347 Y39.447 I0.389 J-0.56 F275.
N12435 G1 X6.363 Y39.362 Z-5.789 F150.
N12440 X6.392 Y39.28 Z-5.778
N12445 X6.432 Y39.203 Z-5.767
N12450 X6.484 Y39.133 Z-5.756
N12455 X6.545 Y39.072 Z-5.744
N12460 X6.615 Y39.02 Z-5.733
N12465 X6.692 Y38.979 Z-5.722
N12470 X6.774 Y38.949 Z-5.711
N12475 X6.859 Y38.933 Z-5.7
N12480 G3 X7.492 Y39.679 I0.068 J0.583
N12485 X7.274 Y39.992 I-0.572 J-0.165
N12490 X6.545 Y39.977 Z-5.8 I-0.355 J-0.478
N12495 X6.935 Y38.845 I0.455 J-0.476 F275.
N12500 G1 X7.062 Y38.825
N12505 X7.234 Y38.805
N12510 X7.406 Y38.8
N12515 X9.483
N12520 G3 X9.459 Y39.8 I-0.017 J0.5 F150.
N12525 G1 X9.448 Y39.799
N12530 X9.361 Y39.796 Z-5.792
N12535 X9.277 Y39.793 Z-5.77
N12540 X9.198 Y39.791 Z-5.733
N12545 X9.127 Y39.788 Z-5.683
N12550 X9.065 Y39.786 Z-5.621
N12555 X9.015 Y39.784 Z-5.55
N12560 X8.978 Y39.783 Z-5.471
N12565 X8.956 Y39.782 Z-5.387
N12570 X8.948 Z-5.3
N12575 G0 Z4.
N12580 X18.239 Y13.336
N12585 Z1.7
N12590 G1 Z1.2 F150.
N12595 S5000
N12600 G3 X16.54 Y12.664 Z1.05 I-0.849 J-0.336 F220.
N12605 X18.239 Y13.336 Z0.899 I0.849 J0.336
N12610 X16.54 Y12.664 Z0.749 I-0.849 J-0.336
N12615 X18.239 Y13.336 Z0.598 I0.849 J0.336
N12620 X16.54 Y12.664 Z0.448 I-0.849 J-0.336
N12625 X18.239 Y13.336 Z0.298 I0.849 J0.336
N12630 X16.54 Y12.664 Z0.147 I-0.849 J-0.336
N12635 X18.239 Y13.336 Z-0.003 I0.849 J0.336
N12640 X16.54 Y12.664 Z-0.154 I-0.849 J-0.336
N12645 X18.239 Y13.336 Z-0.304 I0.849 J0.336
N12650 X16.54 Y12.664 Z-0.454 I-0.849 J-0.336
N12655 X18.239 Y13.336 Z-0.605 I0.849 J0.336
N12660 X16.54 Y12.664 Z-0.755 I-0.849 J-0.336
N12665 X18.239 Y13.336 Z-0.906 I0.849 J0.336
N12670 X16.54 Y12.664 Z-1.056 I-0.849 J-0.336
N12675 X18.239 Y13.336 Z-1.206 I0.849 J0.336
N12680 X16.54 Y12.664 Z-1.357 I-0.849 J-0.336
N12685 X18.239 Y13.336 Z-1.507 I0.849 J0.336
N12690 X16.54 Y12.664 Z-1.658 I-0.849 J-0.336
N12695 X18.303 Y13. Z-1.79 I0.849 J0.336
N12700 X16.476 I-0.913 J0.
N12705 X18.303 I0.913 J0.
N12710 S5500
N12715 G1 X18.326 Y13.482 F275.
N12720 G3 X17.835 Y14.023 I-0.55 J-0.007
N12725 X16.843 Y14.041 I-0.584 J-4.717
N12730 X16.055 Y13.265 I0.161 J-0.952
N12735 X17.137 Y11.95 I1.082 J-0.212
N12740 X18.196 Y12.056 I0.235 J2.994
N12745 X18.737 Y12.858 I-0.475 J0.903
N12750 X17.795 Y14.027 I-1.057 J0.112
N12755 X17.26 Y13.566 Z-1.69 I-0.037 J-0.499 F150.
N12760 X17.261 Y13.476 I0.499 J-0.037
N12765 G1 X17.288 Y13.221
N12770 X17.369 Y12.446
N12775 X17.37 Y12.432 Z-1.692
N12780 G3 X17.906 Y11.986 Z-1.79 I0.497 J0.052
N12785 X18.424 Y12.084 I-0.024 J1.549 F275.
N12790 X18.078 Y14.003 I-0.426 J0.914
N12795 G1 X17.835 Y14.023
N12800 X16.993 Y14.05 F150.
N12805 X16.476 F275.
N12810 G3 X15.671 Y13.481 I0.006 J-0.863
N12815 X16.703 Y11.951 I1.025 J-0.422
N12820 G1 X17.137 Y11.95
N12825 G3 X17.619 Y12.467 Z-1.69 I-0.017 J0.5 F150.
N12830 X17.548 Y12.707 I-0.5 J-0.017
N12835 G1 X17.437 Y12.893
N12840 X17.036 Y13.561
N12845 X16.888 Y13.808 Z-1.727
N12850 G3 X16.477 Y14.05 Z-1.79 I-0.429 J-0.257
N12855 G1 X16.012 F275.
N12860 G3 X15.216 Y13.471 I0.012 J-0.854
N12865 X16.259 Y11.951 I1.036 J-0.406
N12870 G1 X16.703 Y11.95
N12875 G3 X17.185 Y12.467 Z-1.69 I-0.017 J0.5 F150.
N12880 X17.109 Y12.715 I-0.5 J-0.017
N12885 G1 X16.991 Y12.904
N12890 X16.576 Y13.564
N12895 X16.418 Y13.816 Z-1.728
N12900 G3 X16.012 Y14.05 Z-1.79 I-0.424 J-0.266
N12905 G1 X15.531 F275.
N12910 G3 X14.818 Y13.582 I0.015 J-0.799
N12915 G1 X14.722 Y13.312
N12920 G3 X15.838 Y11.95 I1.116 J-0.224
N12925 G1 X16.26
N12930 G3 X16.742 Y12.467 Z-1.69 I-0.017 J0.5 F150.
N12935 X16.659 Y12.726 I-0.5 J-0.017
N12940 G1 X16.531 Y12.918
N12945 X16.101 Y13.568
N12950 X15.93 Y13.826 Z-1.729
N12955 G3 X15.531 Y14.05 Z-1.79 I-0.417 J-0.276
N12960 G1 X15.099 F275.
N12965 G3 X14.32 Y13.454 I0.02 J-0.835
N12970 X15.378 Y11.952 I1.049 J-0.385
N12975 G1 X15.838 Y11.95
N12980 G3 X16.32 Y12.467 Z-1.69 I-0.017 J0.5 F150.
N12985 X16.236 Y12.728 I-0.5 J-0.017
N12990 G1 X16.106 Y12.922
N12995 X15.671 Y13.569
N13000 X15.497 Y13.829 Z-1.73
N13005 G3 X15.1 Y14.05 Z-1.79 I-0.415 J-0.279
N13010 G1 X14.67 F275.
N13015 G3 X13.876 Y13.469 I0.01 J-0.847
N13020 X14.929 Y11.951 I1.045 J-0.399
N13025 G1 X15.378 Y11.95
N13030 G3 X15.86 Y12.467 Z-1.69 I-0.017 J0.5 F150.
N13035 X15.781 Y12.72 I-0.5 J-0.017
N13040 G1 X15.659 Y12.911
N13045 X15.237 Y13.566
N13050 X15.073 Y13.821 Z-1.729
N13055 G3 X14.67 Y14.05 Z-1.79 I-0.421 J-0.27
N13060 G1 X14.202 F275.
N13065 G3 X13.485 Y13.588 I0.007 J-0.799
N13070 G1 X13.414 Y13.456
N13075 G3 X14.476 Y11.95 I1.062 J-0.379
N13080 G1 X14.929
N13085 G3 X15.411 Y12.467 Z-1.69 I-0.017 J0.5 F150.
N13090 X15.329 Y12.725 I-0.5 J-0.017
N13095 G1 X15.202 Y12.918
N13100 X14.773 Y13.568
N13105 X14.602 Y13.826 Z-1.729
N13110 G3 X14.203 Y14.05 Z-1.79 I-0.417 J-0.275
N13115 G1 X13.774 F275.
N13120 G3 X12.978 Y13.472 I0.009 J-0.849
N13125 X14.029 Y11.951 I1.044 J-0.402
N13130 G1 X14.476 Y11.95
N13135 G3 X14.958 Y12.467 Z-1.69 I-0.017 J0.5 F150.
N13140 X14.88 Y12.718 I-0.5 J-0.017
N13145 G1 X14.759 Y12.908
N13150 X14.34 Y13.565
N13155 X14.179 Y13.819 Z-1.728
N13160 G3 X13.775 Y14.05 Z-1.79 I-0.422 J-0.269
N13165 G1 X13.293 F275.
N13170 G3 X12.581 Y13.58 I0.014 J-0.796
N13175 G1 X12.485 Y13.31
N13180 G3 X13.602 Y11.95 I1.117 J-0.221
N13185 G1 X14.029
N13190 G3 X14.512 Y12.467 Z-1.69 I-0.017 J0.5 F150.
N13195 X14.427 Y12.728 I-0.5 J-0.017
N13200 G1 X14.298 Y12.921
N13205 X13.865 Y13.569
N13210 X13.691 Y13.828 Z-1.73
N13215 G3 X13.293 Y14.05 Z-1.79 I-0.416 J-0.278
N13220 G1 X12.862 F275.
N13225 G3 X12.146 Y13.588 I0.003 J-0.789
N13230 G1 X12.076 Y13.455
N13235 G3 X13.142 Y11.95 I1.066 J-0.375
N13240 G1 X13.602
N13245 G3 X14.085 Y12.467 Z-1.69 I-0.017 J0.5 F150.
N13250 X14. Y12.729 I-0.5 J-0.017
N13255 G1 X13.869 Y12.923
N13260 X13.434 Y13.57
N13265 X13.259 Y13.829 Z-1.73
N13270 G3 X12.862 Y14.05 Z-1.79 I-0.415 J-0.279
N13275 G1 X12.432 F275.
N13280 G3 X11.639 Y13.468 I0.011 J-0.847
N13285 X12.693 Y11.952 I1.046 J-0.398
N13290 G1 X13.142 Y11.95
N13295 G3 X13.624 Y12.467 Z-1.69 I-0.017 J0.5 F150.
N13300 X13.545 Y12.721 I-0.5 J-0.017
N13305 G1 X13.422 Y12.911
N13310 X13. Y13.566
N13315 X12.835 Y13.821 Z-1.729
N13320 G3 X12.432 Y14.05 Z-1.79 I-0.42 J-0.271
N13325 G1 X11.965 F275.
N13330 G3 X11.248 Y13.588 I0.008 J-0.799
N13335 G1 X11.177 Y13.455
N13340 G3 X12.239 Y11.95 I1.062 J-0.378
N13345 G1 X12.693
N13350 G3 X13.175 Y12.467 Z-1.69 I-0.017 J0.5 F150.
N13355 X13.092 Y12.726 I-0.5 J-0.017
N13360 G1 X12.965 Y12.918
N13365 X12.535 Y13.568
N13370 X12.365 Y13.826 Z-1.729
N13375 G3 X11.965 Y14.05 Z-1.79 I-0.417 J-0.276
N13380 G1 X11.537 F275.
N13385 G3 X10.741 Y13.471 I0.01 J-0.849
N13390 X11.793 Y11.951 I1.044 J-0.401
N13395 G1 X12.239 Y11.95
N13400 G3 X12.722 Y12.467 Z-1.69 I-0.017 J0.5 F150.
N13405 X12.643 Y12.719 I-0.5 J-0.017
N13410 G1 X12.522 Y12.908
N13415 X12.103 Y13.566
N13420 X11.941 Y13.819 Z-1.728
N13425 G3 X11.537 Y14.05 Z-1.79 I-0.421 J-0.269
N13430 G1 X11.055 F275.
N13435 G3 X10.343 Y13.578 I0.015 J-0.796
N13440 G1 X10.248 Y13.309
N13445 G3 X11.365 Y11.95 I1.117 J-0.22
N13450 G1 X11.793
N13455 G3 X12.275 Y12.467 Z-1.69 I-0.017 J0.5 F150.
N13460 X12.191 Y12.728 I-0.5 J-0.017
N13465 G1 X12.061 Y12.922
N13470 X11.627 Y13.569
N13475 X11.453 Y13.829 Z-1.73
N13480 G3 X11.055 Y14.05 Z-1.79 I-0.415 J-0.278
N13485 G1 X10.624 F275.
N13490 G3 X9.909 Y13.587 I0.003 J-0.789
N13495 G1 X9.838 Y13.455
N13500 G3 X10.905 Y11.95 I1.066 J-0.375
N13505 G1 X11.365
N13510 G3 X11.847 Y12.467 Z-1.69 I-0.017 J0.5 F150.
N13515 X11.762 Y12.729 I-0.5 J-0.017
N13520 G1 X11.632 Y12.923
N13525 X11.196 Y13.57
N13530 X11.022 Y13.829 Z-1.73
N13535 G3 X10.624 Y14.05 Z-1.79 I-0.415 J-0.279
N13540 G1 X10.195 F275.
N13545 G3 X9.402 Y13.468 I0.012 J-0.847
N13550 X10.455 Y11.952 I1.046 J-0.398
N13555 G1 X10.542 Y11.962 Z-1.779 F150.
N13560 X10.625 Y11.987 Z-1.768
N13565 X10.702 Y12.026 Z-1.757
N13570 X10.772 Y12.079 Z-1.746
N13575 X10.831 Y12.142 Z-1.734
N13580 X10.879 Y12.215 Z-1.723
N13585 X10.913 Y12.295 Z-1.712
N13590 X10.933 Y12.38 Z-1.701
N13595 X10.938 Y12.467 Z-1.69
N13600 G3 X10.925 Y12.565 I-0.5 J-0.017
N13605 G1 X10.874 Y12.777
N13610 X10.695 Y13.536
N13615 X10.664 Y13.666 Z-1.707
N13620 G3 X10.195 Y14.05 Z-1.79 I-0.487 J-0.115
N13625 G1 X9.727 F275.
N13630 G3 X9.011 Y13.587 I0.008 J-0.799
N13635 G1 X8.94 Y13.455
N13640 G3 X10.002 Y11.95 I1.062 J-0.378
N13645 X10.484 Y12.467 Z-1.69 I-0.017 J0.5 F150.
N13650 X10.47 Y12.571 I-0.5 J-0.017
N13655 G1 X10.417 Y12.78
N13660 X10.229 Y13.536
N13665 X10.195 Y13.671 Z-1.708
N13670 G3 X9.727 Y14.05 Z-1.79 I-0.485 J-0.121
N13675 G1 X9.299 F275.
N13680 G3 X8.504 Y13.471 I0.01 J-0.849
N13685 X9.555 Y11.951 I1.044 J-0.401
N13690 G1 X9.641 Y11.962 Z-1.779 F150.
N13695 X9.725 Y11.987 Z-1.768
N13700 X9.802 Y12.026 Z-1.757
N13705 X9.872 Y12.079 Z-1.746
N13710 X9.931 Y12.142 Z-1.734
N13715 X9.979 Y12.215 Z-1.723
N13720 X10.013 Y12.295 Z-1.712
N13725 X10.033 Y12.38 Z-1.701
N13730 X10.037 Y12.467 Z-1.69
N13735 G3 X10.025 Y12.563 I-0.5 J-0.017
N13740 G1 X9.975 Y12.776
N13745 X9.799 Y13.536
N13750 X9.769 Y13.664 Z-1.707
N13755 G3 X9.299 Y14.05 Z-1.79 I-0.487 J-0.113
N13760 G1 X8.818 F275.
N13765 G3 X8.106 Y13.578 I0.015 J-0.796
N13770 G1 X8.01 Y13.308
N13775 G3 X9.127 Y11.95 I1.117 J-0.22
N13780 X9.609 Y12.467 Z-1.69 I-0.017 J0.5 F150.
N13785 X9.591 Y12.585 I-0.5 J-0.017
N13790 G1 X9.534 Y12.787
N13795 X9.323 Y13.537
N13800 X9.282 Y13.686 Z-1.71
N13805 G3 X8.818 Y14.05 Z-1.79 I-0.481 J-0.135
N13810 G1 X8.386 F275.
N13815 G3 X7.671 Y13.587 I0.003 J-0.789
N13820 G1 X7.601 Y13.455
N13825 G3 X8.667 Y11.95 I1.066 J-0.375
N13830 X9.149 Y12.467 Z-1.69 I-0.017 J0.5 F150.
N13835 X9.134 Y12.573 I-0.5 J-0.017
N13840 G1 X9.081 Y12.781
N13845 X8.889 Y13.536
N13850 X8.854 Y13.674 Z-1.708
N13855 G3 X8.387 Y14.05 Z-1.79 I-0.485 J-0.123
N13860 X7.544 Y13.893 I-0.055 J-2.045 F275.
N13865 X7.115 Y13.072 I0.516 J-0.792
N13870 X8.026 Y11.98 I1.101 J-0.009
N13875 G1 X8.113 Y11.975 Z-1.779 F150.
N13880 X8.2 Y11.986 Z-1.768
N13885 X8.283 Y12.011 Z-1.757
N13890 X8.36 Y12.05 Z-1.746
N13895 X8.43 Y12.103 Z-1.734
N13900 X8.49 Y12.166 Z-1.723
N13905 X8.537 Y12.239 Z-1.712
N13910 X8.571 Y12.32 Z-1.701
N13915 X8.591 Y12.404 Z-1.69
N13920 G3 X8.586 Y12.57 I-0.495 J0.07
N13925 G1 X8.542 Y12.796
N13930 X8.393 Y13.561
N13935 X8.388 Y13.586 Z-1.693
N13940 G3 X7.828 Y13.986 Z-1.79 I-0.491 J-0.096
N13945 X7.75 Y12.027 I0.166 J-0.987 F275.
N13950 G1 X8.094 Y11.967
N13955 X8.18 Y11.953
N13960 X8.267 Y11.95
N13965 X10.905
N13970 G3 X11.298 Y12.734 I-0.017 J0.5 F150.
N13975 G1 X11.249 Y12.781 Z-1.785
N13980 X11.202 Y12.827 Z-1.771
N13985 X11.156 Y12.871 Z-1.749
N13990 X11.086 Y12.898 Z-1.708
N13995 X11.024 Y12.922 Z-1.656
N14000 X10.971 Y12.943 Z-1.593
N14005 X10.936 Y12.946 Z-1.539
N14010 X10.908 Y12.948 Z-1.482
N14015 X10.887 Y12.95 Z-1.421
N14020 X10.88 Z-1.393
N14025 X10.872 Y12.949 Z-1.342
N14030 X10.87 Z-1.29
N14035 G0 Z-0.29
N14040 X18.239 Y13.336
N14045 G1 Z-0.79 F150.
N14050 S5000
N14055 G3 X16.54 Y12.664 Z-0.94 I-0.849 J-0.336 F220.
N14060 X18.239 Y13.336 Z-1.091 I0.849 J0.336
N14065 X16.54 Y12.664 Z-1.241 I-0.849 J-0.336
N14070 X18.239 Y13.336 Z-1.392 I0.849 J0.336
N14075 X16.54 Y12.664 Z-1.542 I-0.849 J-0.336
N14080 X18.239 Y13.336 Z-1.692 I0.849 J0.336
N14085 X16.54 Y12.664 Z-1.843 I-0.849 J-0.336
N14090 X18.239 Y13.336 Z-1.993 I0.849 J0.336
N14095 X16.54 Y12.664 Z-2.144 I-0.849 J-0.336
N14100 X18.239 Y13.336 Z-2.294 I0.849 J0.336
N14105 X16.54 Y12.664 Z-2.444 I-0.849 J-0.336
N14110 X18.239 Y13.336 Z-2.595 I0.849 J0.336
N14115 X16.54 Y12.664 Z-2.745 I-0.849 J-0.336
N14120 X18.239 Y13.336 Z-2.896 I0.849 J0.336
N14125 X16.54 Y12.664 Z-3.046 I-0.849 J-0.336
N14130 X18.239 Y13.336 Z-3.196 I0.849 J0.336
N14135 X16.54 Y12.664 Z-3.347 I-0.849 J-0.336
N14140 X18.239 Y13.336 Z-3.497 I0.849 J0.336
N14145 X16.54 Y12.664 Z-3.648 I-0.849 J-0.336
N14150 X18.303 Y13. Z-3.78 I0.849 J0.336
N14155 X16.476 I-0.913 J0.
N14160 X18.303 I0.913 J0.
N14165 S5500
N14170 G1 X18.326 Y13.482 F275.
N14175 G3 X17.835 Y14.023 I-0.55 J-0.007
N14180 X16.843 Y14.041 I-0.584 J-4.717
N14185 X16.055 Y13.265 I0.161 J-0.952
N14190 X17.137 Y11.95 I1.082 J-0.212
N14195 X18.196 Y12.056 I0.235 J2.994
N14200 X18.737 Y12.858 I-0.475 J0.903
N14205 X17.795 Y14.027 I-1.057 J0.112
N14210 X17.26 Y13.566 Z-3.68 I-0.037 J-0.499 F150.
N14215 X17.261 Y13.476 I0.499 J-0.037
N14220 G1 X17.288 Y13.221
N14225 X17.369 Y12.446
N14230 X17.37 Y12.432 Z-3.682
N14235 G3 X17.906 Y11.986 Z-3.78 I0.497 J0.052
N14240 X18.424 Y12.084 I-0.024 J1.549 F275.
N14245 X18.078 Y14.003 I-0.426 J0.914
N14250 G1 X17.835 Y14.023
N14255 X16.993 Y14.05 F150.
N14260 X16.476 F275.
N14265 G3 X15.671 Y13.481 I0.006 J-0.863
N14270 X16.703 Y11.951 I1.025 J-0.422
N14275 G1 X17.137 Y11.95
N14280 G3 X17.619 Y12.467 Z-3.68 I-0.017 J0.5 F150.
N14285 X17.548 Y12.707 I-0.5 J-0.017
N14290 G1 X17.437 Y12.893
N14295 X17.036 Y13.561
N14300 X16.888 Y13.808 Z-3.717
N14305 G3 X16.477 Y14.05 Z-3.78 I-0.429 J-0.257
N14310 G1 X16.012 F275.
N14315 G3 X15.216 Y13.471 I0.012 J-0.854
N14320 X16.259 Y11.951 I1.036 J-0.406
N14325 G1 X16.703 Y11.95
N14330 G3 X17.185 Y12.467 Z-3.68 I-0.017 J0.5 F150.
