%
(1001)
(T1  D=6. CR=0. - ZMIN=-2. - FLAT END MILL)
(T2  D=4. CR=0. - ZMIN=-8. - FLAT END MILL)
(T3  D=3. CR=0. TAPER=118DEG - ZMIN=-9. - DRILL)
(T4  D=1.6 CR=0. TAPER=118DEG - ZMIN=-8. - DRILL)
(T70  D=10. CR=0. TAPER=90DEG - ZMIN=-7. - SPOT DRILL)
N10 G90 G94 G17 G91.1
N15 G21
N20 G53 G0 Z0.
(FACE1)
N25 M9
N30 T1 M6
N35 T2
N40 S2000 M3
N45 G54
N50 M9
N60 G0 X5.392 Y-4.6
N65 G43 Z8. H1
N70 G0 Z3.
N75 G1 Z-1.4 F300.
N80 G19 G3 Y-4. Z-2. J0.6 K0.
N85 G17 G3 X4.392 Y-3. I-1. J0. F360.
N90 G2 X1.392 Y0. I0. J3.
N95 G1 Y66.
N100 G19 G3 Y66.6 Z-1.4 J0. K0.6 F300.
N105 G0 Z3.
N110 X9.733 Y-4.6
N115 G1 Z-1.4 F300.
N120 G3 Y-4. Z-2. J0.6 K0.
N125 G17 G3 X8.733 Y-3. I-1. J0. F360.
N130 G2 X5.733 Y0. I0. J3.
N135 G1 Y66.
N140 G19 G3 Y66.6 Z-1.4 J0. K0.6 F300.
N145 G0 Z3.
N150 X14.075 Y-4.6
N155 G1 Z-1.4 F300.
N160 G3 Y-4. Z-2. J0.6 K0.
N165 G17 G3 X13.075 Y-3. I-1. J0. F360.
N170 G2 X10.075 Y0. I0. J3.
N175 G1 Y66.
N180 G19 G3 Y66.6 Z-1.4 J0. K0.6 F300.
N185 G0 Z3.
N190 X18.417 Y-4.6
N195 G1 Z-1.4 F300.
N200 G3 Y-4. Z-2. J0.6 K0.
N205 G17 G3 X17.417 Y-3. I-1. J0. F360.
N210 G2 X14.417 Y0. I0. J3.
N215 G1 Y66.
N220 G19 G3 Y66.6 Z-1.4 J0. K0.6 F300.
N225 G0 Z3.
N230 X22.758 Y-4.6
N235 G1 Z-1.4 F300.
N240 G3 Y-4. Z-2. J0.6 K0.
N245 G17 G3 X21.758 Y-3. I-1. J0. F360.
N250 G2 X18.758 Y0. I0. J3.
N255 G1 Y66.
N260 G19 G3 Y66.6 Z-1.4 J0. K0.6 F300.
N265 G0 Z3.
N270 X27.1 Y-4.6
N275 G1 Z-1.4 F300.
N280 G3 Y-4. Z-2. J0.6 K0.
N285 G17 G3 X26.1 Y-3. I-1. J0. F360.
N290 G2 X23.1 Y0. I0. J3.
N295 G1 Y66.
N300 G19 G3 Y66.6 Z-1.4 J0. K0.6 F300.
N305 G0 Z8.
N310 G17
N315 M5
N320 G53 G0 Z0.
(2D ADAPTIVE2)
N325 M9
N330 M1
N335 T2 M6
N340 T70
N345 S3000 M3
N350 M8
N360 G0 X18.746 Y25.985
N365 G43 Z10. H2
N370 G0 Z3.1
N375 G1 Z2.7 F250.
N380 G3 X18.098 Y27.015 Z2.633 I-0.324 J0.515 F150.
N385 X18.746 Y25.985 Z2.566 I0.324 J-0.515
N390 X18.098 Y27.015 Z2.5 I-0.324 J0.515
N395 X18.746 Y25.985 Z2.433 I0.324 J-0.515
N400 X18.098 Y27.015 Z2.366 I-0.324 J0.515
N405 X18.746 Y25.985 Z2.299 I0.324 J-0.515
N410 X18.098 Y27.015 Z2.232 I-0.324 J0.515
N415 X18.746 Y25.985 Z2.166 I0.324 J-0.515
N420 X18.098 Y27.015 Z2.099 I-0.324 J0.515
N425 X18.746 Y25.985 Z2.032 I0.324 J-0.515
N430 X18.098 Y27.015 Z1.965 I-0.324 J0.515
N435 X18.746 Y25.985 Z1.898 I0.324 J-0.515
N440 X18.098 Y27.015 Z1.831 I-0.324 J0.515
N445 X18.746 Y25.985 Z1.765 I0.324 J-0.515
N450 X18.098 Y27.015 Z1.698 I-0.324 J0.515
N455 X18.746 Y25.985 Z1.631 I0.324 J-0.515
N460 X18.098 Y27.015 Z1.564 I-0.324 J0.515
N465 X18.746 Y25.985 Z1.497 I0.324 J-0.515
N470 X18.098 Y27.015 Z1.431 I-0.324 J0.515
N475 X18.746 Y25.985 Z1.364 I0.324 J-0.515
N480 X18.098 Y27.015 Z1.297 I-0.324 J0.515
N485 X18.746 Y25.985 Z1.23 I0.324 J-0.515
N490 X18.098 Y27.015 Z1.163 I-0.324 J0.515
N495 X18.746 Y25.985 Z1.097 I0.324 J-0.515
N500 X18.098 Y27.015 Z1.03 I-0.324 J0.515
N505 X18.746 Y25.985 Z0.963 I0.324 J-0.515
N510 X18.098 Y27.015 Z0.896 I-0.324 J0.515
N515 X18.746 Y25.985 Z0.829 I0.324 J-0.515
N520 X18.098 Y27.015 Z0.762 I-0.324 J0.515
N525 X18.746 Y25.985 Z0.696 I0.324 J-0.515
N530 X18.098 Y27.015 Z0.629 I-0.324 J0.515
N535 X18.746 Y25.985 Z0.562 I0.324 J-0.515
N540 X18.098 Y27.015 Z0.495 I-0.324 J0.515
N545 X18.746 Y25.985 Z0.428 I0.324 J-0.515
N550 X18.098 Y27.015 Z0.362 I-0.324 J0.515
N555 X18.746 Y25.985 Z0.295 I0.324 J-0.515
N560 X18.098 Y27.015 Z0.228 I-0.324 J0.515
N565 X18.746 Y25.985 Z0.161 I0.324 J-0.515
N570 X18.098 Y27.015 Z0.094 I-0.324 J0.515
N575 X18.746 Y25.985 Z0.028 I0.324 J-0.515
N580 X18.098 Y27.015 Z-0.039 I-0.324 J0.515
N585 X18.746 Y25.985 Z-0.106 I0.324 J-0.515
N590 X18.098 Y27.015 Z-0.173 I-0.324 J0.515
N595 X18.746 Y25.985 Z-0.24 I0.324 J-0.515
N600 X18.098 Y27.015 Z-0.307 I-0.324 J0.515
N605 X18.746 Y25.985 Z-0.373 I0.324 J-0.515
N610 X18.098 Y27.015 Z-0.44 I-0.324 J0.515
N615 X18.746 Y25.985 Z-0.507 I0.324 J-0.515
N620 X18.098 Y27.015 Z-0.574 I-0.324 J0.515
N625 X18.746 Y25.985 Z-0.641 I0.324 J-0.515
N630 X18.098 Y27.015 Z-0.707 I-0.324 J0.515
N635 X18.746 Y25.985 Z-0.774 I0.324 J-0.515
N640 X18.098 Y27.015 Z-0.841 I-0.324 J0.515
N645 X18.746 Y25.985 Z-0.908 I0.324 J-0.515
N650 X18.098 Y27.015 Z-0.975 I-0.324 J0.515
N655 X18.746 Y25.985 Z-1.041 I0.324 J-0.515
N660 X18.098 Y27.015 Z-1.108 I-0.324 J0.515
N665 X18.746 Y25.985 Z-1.175 I0.324 J-0.515
N670 X18.098 Y27.015 Z-1.242 I-0.324 J0.515
N675 X18.746 Y25.985 Z-1.309 I0.324 J-0.515
N680 X18.098 Y27.015 Z-1.375 I-0.324 J0.515
N685 X18.746 Y25.985 Z-1.442 I0.324 J-0.515
N690 X18.098 Y27.015 Z-1.509 I-0.324 J0.515
N695 X18.746 Y25.985 Z-1.576 I0.324 J-0.515
N700 X18.098 Y27.015 Z-1.643 I-0.324 J0.515
N705 X18.746 Y25.985 Z-1.71 I0.324 J-0.515
N710 X18.098 Y27.015 Z-1.776 I-0.324 J0.515
N715 X18.746 Y25.985 Z-1.843 I0.324 J-0.515
N720 X18.098 Y27.015 Z-1.91 I-0.324 J0.515
N725 X18.746 Y25.985 Z-1.977 I0.324 J-0.515
N730 X18.098 Y27.015 Z-2.044 I-0.324 J0.515
N735 X18.746 Y25.985 Z-2.11 I0.324 J-0.515
N740 X18.098 Y27.015 Z-2.177 I-0.324 J0.515
N745 X18.746 Y25.985 Z-2.244 I0.324 J-0.515
N750 X18.098 Y27.015 Z-2.311 I-0.324 J0.515
N755 X18.746 Y25.985 Z-2.378 I0.324 J-0.515
N760 X18.098 Y27.015 Z-2.444 I-0.324 J0.515
N765 X18.746 Y25.985 Z-2.511 I0.324 J-0.515
N770 X18.098 Y27.015 Z-2.578 I-0.324 J0.515
N775 X18.746 Y25.985 Z-2.645 I0.324 J-0.515
N780 X18.098 Y27.015 Z-2.712 I-0.324 J0.515
N785 X18.746 Y25.985 Z-2.779 I0.324 J-0.515
N790 X19.031 Y26.5 Z-2.8 I-0.324 J0.515
N795 X17.813 I-0.609 J0.
N800 X19.031 I0.609 J0.
N805 G1 X19.08 Y26.906 F300.
N810 X19.053 Y27.037
N815 X18.966 Y27.138
N820 X18.842 Y27.186
N825 G3 X17.833 Y27.192 I-0.545 J-7.089
N830 G1 X17.691 Y27.144
N835 G3 X17.382 Y26.263 I0.343 J-0.615
N840 X18.062 Y25.8 I0.68 J0.268
N845 G1 X18.594
N850 X18.766 Y25.805
N855 X18.938 Y25.828
N860 X19.085 Y25.857
N865 G3 X18.867 Y27.183 I-0.301 J0.631
N870 X18.744 Y27.177 Z-2.78 I-0.038 J-0.451 F250.
N875 X18.326 Y26.916 Z-2.7 I0.129 J-0.67
N880 X18.372 Y26.043 I0.546 J-0.409
N885 X18.938 Y25.828 Z-2.8 I0.501 J0.464
N890 X19.542 Y26.121 I0.007 J0.752 F300.
N895 X19.065 Y27.156 I-0.546 J0.376
N900 G1 X18.938 Y27.175
N905 X18.842 Y27.186
N910 X17.983 Y27.2 F250.
N915 X17.509 F300.
N920 G3 X16.952 Y26.899 I-0.051 J-0.572
N925 X17.591 Y25.8 I0.639 J-0.363
N930 G1 X18.062
N935 G3 X18.387 Y26.072 Z-2.727 I-0.012 J0.345 F250.
N940 X18.408 Y26.242 Z-2.7 I-0.91 J0.197
N945 X18.083 Y26.976 I-0.931 J0.027
N950 X17.509 Y27.2 Z-2.8 I-0.607 J-0.707
N955 G1 X17.016 F300.
N960 G3 X16.469 Y26.888 I-0.038 J-0.569
N965 X17.116 Y25.8 I0.648 J-0.351
N970 G1 X17.591
N975 G3 X17.918 Y26.085 Z-2.725 I-0.012 J0.345 F250.
N980 X17.933 Y26.242 Z-2.7 I-0.935 J0.166
N985 X17.592 Y26.98 I-0.95 J0.008
N990 X17.016 Y27.2 Z-2.8 I-0.609 J-0.729
N995 G1 X16.529 F300.
N1000 G3 X15.986 Y26.882 I-0.034 J-0.564
N1005 X16.639 Y25.8 I0.653 J-0.344
N1010 G1 X17.116
N1015 G3 X17.445 Y26.092 Z-2.724 I-0.012 J0.345 F250.
N1020 X17.457 Y26.242 Z-2.7 I-0.95 J0.147
N1025 X17.106 Y26.982 I-0.962 J-0.004
N1030 X16.529 Y27.2 Z-2.8 I-0.611 J-0.743
N1035 G1 X16.047 F300.
N1040 G3 X15.505 Y26.881 I-0.033 J-0.563
N1045 X16.16 Y25.8 I0.654 J-0.343
N1050 G1 X16.639
N1055 G3 X16.968 Y26.094 Z-2.724 I-0.012 J0.345 F250.
N1060 X16.979 Y26.243 Z-2.7 I-0.955 J0.141
N1065 X16.624 Y26.983 I-0.965 J-0.007
N1070 X16.047 Y27.2 Z-2.8 I-0.611 J-0.747
N1075 G1 X15.573 F300.
N1080 G3 X15.029 Y26.884 I-0.036 J-0.564
N1085 X15.68 Y25.8 I0.651 J-0.347
N1090 G1 X16.16
N1095 G3 X16.489 Y26.091 Z-2.724 I-0.012 J0.345 F250.
N1100 X16.5 Y26.242 Z-2.7 I-0.949 J0.149
N1105 X16.15 Y26.982 I-0.96 J-0.002
N1110 X15.573 Y27.2 Z-2.8 I-0.61 J-0.741
N1115 G1 X15.1 F300.
N1120 G3 X14.553 Y26.887 I-0.039 J-0.566
N1125 X15.201 Y25.8 I0.649 J-0.35
N1130 G1 X15.68
N1135 G3 X16.008 Y26.088 Z-2.725 I-0.012 J0.345 F250.
N1140 X16.021 Y26.242 Z-2.7 I-0.942 J0.157
N1145 X15.676 Y26.981 I-0.955 J0.003
N1150 X15.1 Y27.2 Z-2.8 I-0.61 J-0.735
N1155 G1 X14.635 F300.
N1160 G3 X14.082 Y26.895 I-0.049 J-0.566
N1165 X14.723 Y25.8 I0.642 J-0.359
N1170 G1 X15.201
N1175 G3 X15.529 Y26.08 Z-2.726 I-0.012 J0.345 F250.
N1180 X15.545 Y26.242 Z-2.7 I-0.926 J0.177
N1185 X15.21 Y26.978 I-0.943 J0.015
N1190 X14.635 Y27.2 Z-2.8 I-0.608 J-0.721
N1195 G1 X14.153 F300.
N1200 G3 X13.603 Y26.891 I-0.046 J-0.563
N1205 X14.248 Y25.8 I0.646 J-0.355
N1210 G1 X14.723
N1215 G3 X15.051 Y26.082 Z-2.726 I-0.012 J0.345 F250.
N1220 X15.067 Y26.242 Z-2.7 I-0.93 J0.172
N1225 X14.729 Y26.979 I-0.946 J0.012
N1230 X14.154 Y27.2 Z-2.8 I-0.609 J-0.724
N1235 G1 X13.68 F300.
N1240 G3 X13.128 Y26.893 I-0.047 J-0.565
N1245 X13.772 Y25.8 I0.644 J-0.356
N1250 G1 X14.248
N1255 G3 X14.576 Y26.081 Z-2.726 I-0.012 J0.345 F250.
N1260 X14.592 Y26.242 Z-2.7 I-0.929 J0.174
N1265 X14.255 Y26.979 I-0.945 J0.014
N1270 X13.68 Y27.2 Z-2.8 I-0.608 J-0.723
N1275 G1 X13.206 F300.
N1280 G3 X12.653 Y26.894 I-0.048 J-0.566
N1285 X13.296 Y25.8 I0.643 J-0.358
N1290 G1 X13.772
N1295 G3 X14.099 Y26.08 Z-2.726 I-0.012 J0.345 F250.
N1300 X14.116 Y26.242 Z-2.7 I-0.926 J0.178
N1305 X13.781 Y26.978 I-0.942 J0.016
N1310 X13.206 Y27.2 Z-2.8 I-0.608 J-0.72
N1315 G1 X12.742 F300.
N1320 G3 X12.183 Y26.901 I-0.053 J-0.573
N1325 X12.82 Y25.8 I0.638 J-0.366
N1330 G1 X13.296
N1335 G3 X13.622 Y26.073 Z-2.727 I-0.012 J0.345 F250.
N1340 X13.642 Y26.242 Z-2.7 I-0.912 J0.195
N1345 X13.316 Y26.976 I-0.933 J0.026
N1350 X12.742 Y27.2 Z-2.8 I-0.607 J-0.709
N1355 G1 X12.26 F300.
N1360 G3 X11.705 Y26.896 I-0.049 J-0.568
N1365 X12.346 Y25.8 I0.642 J-0.36
N1370 G1 X12.82
N1375 G3 X13.146 Y26.076 Z-2.727 I-0.012 J0.345 F250.
N1380 X13.165 Y26.242 Z-2.7 I-0.919 J0.187
N1385 X12.835 Y26.977 I-0.937 J0.021
N1390 X12.26 Y27.2 Z-2.8 I-0.607 J-0.714
N1395 G1 X11.786 F300.
N1400 G3 X11.231 Y26.897 I-0.05 J-0.569
N1405 X11.871 Y25.8 I0.641 J-0.361
N1410 G1 X12.346
N1415 G3 X12.673 Y26.077 Z-2.727 I-0.012 J0.345 F250.
N1420 X12.691 Y26.242 Z-2.7 I-0.919 J0.186
N1425 X12.361 Y26.977 I-0.938 J0.021
N1430 X11.787 Y27.2 Z-2.8 I-0.607 J-0.714
N1435 G1 X11.313 F300.
N1440 G3 X10.757 Y26.897 I-0.05 J-0.57
N1445 X11.397 Y25.8 I0.641 J-0.362
N1450 G1 X11.871
N1455 G3 X12.198 Y26.076 Z-2.727 I-0.012 J0.345 F250.
N1460 X12.216 Y26.242 Z-2.7 I-0.918 J0.188
N1465 X11.887 Y26.977 I-0.936 J0.022
N1470 X11.313 Y27.2 Z-2.8 I-0.607 J-0.713
N1475 G1 X10.82 F300.
N1480 G3 X10.273 Y26.887 I-0.038 J-0.568
N1485 X10.922 Y25.8 I0.649 J-0.35
N1490 G1 X11.397
N1495 G3 X11.725 Y26.086 Z-2.725 I-0.012 J0.345 F250.
N1500 X11.739 Y26.242 Z-2.7 I-0.938 J0.163
N1505 X11.396 Y26.98 I-0.952 J0.006
N1510 X10.82 Y27.2 Z-2.8 I-0.609 J-0.731
N1515 G1 X10.332 F300.
N1520 G3 X9.79 Y26.882 I-0.033 J-0.564
N1525 X10.444 Y25.8 I0.654 J-0.343
N1530 G1 X10.922
N1535 G3 X11.251 Y26.093 Z-2.724 I-0.012 J0.345 F250.
N1540 X11.262 Y26.243 Z-2.7 I-0.953 J0.144
N1545 X10.909 Y26.982 I-0.963 J-0.005
N1550 X10.332 Y27.2 Z-2.8 I-0.611 J-0.745
N1555 G1 X9.851 F300.
N1560 G3 X9.309 Y26.881 I-0.033 J-0.562
N1565 X9.964 Y25.8 I0.655 J-0.342
N1570 X10.074 Y25.822 Z-2.782 I-0.012 J0.349 F250.
N1575 X10.454 Y26.154 Z-2.7 I-0.248 J0.667
N1580 X10.391 Y26.921 I-0.628 J0.335
N1585 X9.851 Y27.2 Z-2.8 I-0.565 J-0.433
N1590 G1 X9.377 F300.
N1595 G3 X8.833 Y26.884 I-0.036 J-0.564
N1600 X9.484 Y25.8 I0.652 J-0.346
N1605 X9.589 Y25.82 Z-2.783 I-0.012 J0.349 F250.
N1610 X9.976 Y26.151 Z-2.7 I-0.237 J0.67
N1615 X9.917 Y26.921 I-0.625 J0.339
N1620 X9.377 Y27.2 Z-2.8 I-0.565 J-0.431
N1625 G1 X8.903 F300.
N1630 G3 X8.357 Y26.887 I-0.038 J-0.566
N1635 X9.006 Y25.8 I0.649 J-0.349
N1640 X9.105 Y25.818 Z-2.784 I-0.012 J0.349 F250.
N1645 X9.5 Y26.148 Z-2.7 I-0.227 J0.672
N1650 X9.443 Y26.921 I-0.622 J0.342
N1655 X8.903 Y27.2 Z-2.8 I-0.565 J-0.43
N1660 G1 X8.439 F300.
N1665 G3 X7.885 Y26.894 I-0.048 J-0.566
N1670 X8.528 Y25.8 I0.643 J-0.358
N1675 G1 X8.571 Y25.804 Z-2.793 F250.
N1680 X8.614 Y25.814 Z-2.786
N1685 G3 X9.028 Y26.141 Z-2.7 I-0.2 J0.679
N1690 X8.978 Y26.92 I-0.614 J0.352
N1695 X8.439 Y27.2 Z-2.8 I-0.564 J-0.427
N1700 G1 X7.957 F300.
N1705 G3 X7.407 Y26.891 I-0.046 J-0.563
N1710 X8.052 Y25.8 I0.646 J-0.354
N1715 X8.145 Y25.816 Z-2.785 I-0.012 J0.349 F250.
N1720 X8.55 Y26.144 Z-2.7 I-0.213 J0.676
N1725 X8.497 Y26.92 I-0.617 J0.348
N1730 X7.957 Y27.2 Z-2.8 I-0.564 J-0.429
N1735 G1 X7.483 F300.
N1740 G3 X6.932 Y26.892 I-0.047 J-0.564
N1745 X7.576 Y25.8 I0.645 J-0.356
N1750 G1 X7.621 Y25.805 Z-2.793 F250.
N1755 X7.666 Y25.815 Z-2.785
N1760 G3 X8.074 Y26.143 Z-2.7 I-0.207 J0.677
N1765 X8.023 Y26.92 I-0.616 J0.35
N1770 X7.483 Y27.2 Z-2.8 I-0.564 J-0.428
N1775 X6.632 Y27.052 I-0.126 J-1.799 F300.
N1780 G1 X6.628 Y27.035 Z-2.798 F250.
N1785 G3 X6.786 Y26.501 Z-2.7 I0.354 J-0.185
N1790 X6.899 Y26.459 I0.197 J0.348
N1795 G1 X7.387 Y26.354
N1800 X7.913 Y26.242 F2000.
N1805 G3 X8.138 Y27.007 I0.084 J0.391
N1810 G1 X8.119 Y27.015
N1815 G3 X7.516 Y27.156 I-0.877 J-2.375 F250.
N1820 X6.89 Y27.147 Z-2.8 I-0.274 J-2.517
N1825 X6.499 Y26.922 I0.097 J-0.622 F300.
N1830 X6.513 Y26.344 Z-2.7 I0.352 J-0.28 F250.
N1835 X7.079 Y26.254 I0.338 J0.298
N1840 X7.223 Y26.388 I-0.228 J0.388 F2000.
N1845 X7.171 Y26.959 I-0.372 J0.254 F250.
N1850 X6.82 Y27.091 Z-2.762 I-0.32 J-0.317
N1855 X6.592 Y27.019 Z-2.8 I0.034 J-0.502
N1860 X6.384 Y26.722 I0.425 J-0.521 F300.
N1865 X6.624 Y26.21 Z-2.7 I0.376 J-0.136 F250.
N1870 X7.148 Y26.491 I0.136 J0.376
N1875 G1 X7.158 Y26.528
N1880 G3 X7.039 Y26.919 I-0.388 J0.095
N1885 X6.474 Y26.894 Z-2.8 I-0.27 J-0.295
N1890 X6.889 Y25.852 I0.523 J-0.395 F300.
N1895 G1 X7.062 Y25.828
N1900 X7.234 Y25.805
N1905 X7.406 Y25.8
N1910 X10.444
N1915 G3 X10.759 Y26.427 I-0.014 J0.4 F250.
N1920 G1 X10.714 Y26.469 Z-2.795
N1925 X10.67 Y26.509 Z-2.781
N1930 X10.629 Y26.547 Z-2.758
N1935 X10.577 Y26.563 Z-2.726
N1940 X10.531 Y26.577 Z-2.685
N1945 X10.492 Y26.589 Z-2.637
N1950 X10.46 Y26.599 Z-2.583
N1955 X10.443 Z-2.545
N1960 X10.43 Y26.6 Z-2.505
N1965 X10.419 Z-2.453
N1970 X10.416 Z-2.4
N1975 G0 Z5.
N1980 X18.746 Y25.985
N1985 Z0.1
N1990 G1 Z-0.3 F250.
N1995 G3 X18.098 Y27.015 Z-0.367 I-0.324 J0.515 F150.
N2000 X18.746 Y25.985 Z-0.434 I0.324 J-0.515
N2005 X18.098 Y27.015 Z-0.5 I-0.324 J0.515
N2010 X18.746 Y25.985 Z-0.567 I0.324 J-0.515
N2015 X18.098 Y27.015 Z-0.634 I-0.324 J0.515
N2020 X18.746 Y25.985 Z-0.701 I0.324 J-0.515
N2025 X18.098 Y27.015 Z-0.768 I-0.324 J0.515
N2030 X18.746 Y25.985 Z-0.834 I0.324 J-0.515
N2035 X18.098 Y27.015 Z-0.901 I-0.324 J0.515
N2040 X18.746 Y25.985 Z-0.968 I0.324 J-0.515
N2045 X18.098 Y27.015 Z-1.035 I-0.324 J0.515
N2050 X18.746 Y25.985 Z-1.102 I0.324 J-0.515
N2055 X18.098 Y27.015 Z-1.169 I-0.324 J0.515
N2060 X18.746 Y25.985 Z-1.235 I0.324 J-0.515
N2065 X18.098 Y27.015 Z-1.302 I-0.324 J0.515
N2070 X18.746 Y25.985 Z-1.369 I0.324 J-0.515
N2075 X18.098 Y27.015 Z-1.436 I-0.324 J0.515
N2080 X18.746 Y25.985 Z-1.503 I0.324 J-0.515
N2085 X18.098 Y27.015 Z-1.569 I-0.324 J0.515
N2090 X18.746 Y25.985 Z-1.636 I0.324 J-0.515
N2095 X18.098 Y27.015 Z-1.703 I-0.324 J0.515
N2100 X18.746 Y25.985 Z-1.77 I0.324 J-0.515
N2105 X18.098 Y27.015 Z-1.837 I-0.324 J0.515
N2110 X18.746 Y25.985 Z-1.903 I0.324 J-0.515
N2115 X18.098 Y27.015 Z-1.97 I-0.324 J0.515
N2120 X18.746 Y25.985 Z-2.037 I0.324 J-0.515
N2125 X18.098 Y27.015 Z-2.104 I-0.324 J0.515
N2130 X18.746 Y25.985 Z-2.171 I0.324 J-0.515
N2135 X18.098 Y27.015 Z-2.238 I-0.324 J0.515
N2140 X18.746 Y25.985 Z-2.304 I0.324 J-0.515
N2145 X18.098 Y27.015 Z-2.371 I-0.324 J0.515
N2150 X18.746 Y25.985 Z-2.438 I0.324 J-0.515
N2155 X18.098 Y27.015 Z-2.505 I-0.324 J0.515
N2160 X18.746 Y25.985 Z-2.572 I0.324 J-0.515
N2165 X18.098 Y27.015 Z-2.638 I-0.324 J0.515
N2170 X18.746 Y25.985 Z-2.705 I0.324 J-0.515
N2175 X18.098 Y27.015 Z-2.772 I-0.324 J0.515
N2180 X18.746 Y25.985 Z-2.839 I0.324 J-0.515
N2185 X18.098 Y27.015 Z-2.906 I-0.324 J0.515
N2190 X18.746 Y25.985 Z-2.972 I0.324 J-0.515
N2195 X18.098 Y27.015 Z-3.039 I-0.324 J0.515
N2200 X18.746 Y25.985 Z-3.106 I0.324 J-0.515
N2205 X18.098 Y27.015 Z-3.173 I-0.324 J0.515
N2210 X18.746 Y25.985 Z-3.24 I0.324 J-0.515
N2215 X18.098 Y27.015 Z-3.307 I-0.324 J0.515
N2220 X18.746 Y25.985 Z-3.373 I0.324 J-0.515
N2225 X18.098 Y27.015 Z-3.44 I-0.324 J0.515
N2230 X18.746 Y25.985 Z-3.507 I0.324 J-0.515
N2235 X18.098 Y27.015 Z-3.574 I-0.324 J0.515
N2240 X18.746 Y25.985 Z-3.641 I0.324 J-0.515
N2245 X18.098 Y27.015 Z-3.707 I-0.324 J0.515
N2250 X18.746 Y25.985 Z-3.774 I0.324 J-0.515
N2255 X18.098 Y27.015 Z-3.841 I-0.324 J0.515
N2260 X18.746 Y25.985 Z-3.908 I0.324 J-0.515
N2265 X18.098 Y27.015 Z-3.975 I-0.324 J0.515
N2270 X18.746 Y25.985 Z-4.041 I0.324 J-0.515
N2275 X18.098 Y27.015 Z-4.108 I-0.324 J0.515
N2280 X18.746 Y25.985 Z-4.175 I0.324 J-0.515
N2285 X18.098 Y27.015 Z-4.242 I-0.324 J0.515
N2290 X18.746 Y25.985 Z-4.309 I0.324 J-0.515
N2295 X18.098 Y27.015 Z-4.375 I-0.324 J0.515
N2300 X18.746 Y25.985 Z-4.442 I0.324 J-0.515
N2305 X18.098 Y27.015 Z-4.509 I-0.324 J0.515
N2310 X18.746 Y25.985 Z-4.576 I0.324 J-0.515
N2315 X18.098 Y27.015 Z-4.643 I-0.324 J0.515
N2320 X18.746 Y25.985 Z-4.71 I0.324 J-0.515
N2325 X18.098 Y27.015 Z-4.776 I-0.324 J0.515
N2330 X18.746 Y25.985 Z-4.843 I0.324 J-0.515
N2335 X18.098 Y27.015 Z-4.91 I-0.324 J0.515
N2340 X18.746 Y25.985 Z-4.977 I0.324 J-0.515
N2345 X18.098 Y27.015 Z-5.044 I-0.324 J0.515
N2350 X18.746 Y25.985 Z-5.11 I0.324 J-0.515
N2355 X18.098 Y27.015 Z-5.177 I-0.324 J0.515
N2360 X18.746 Y25.985 Z-5.244 I0.324 J-0.515
N2365 X18.098 Y27.015 Z-5.311 I-0.324 J0.515
N2370 X18.746 Y25.985 Z-5.378 I0.324 J-0.515
N2375 X18.098 Y27.015 Z-5.444 I-0.324 J0.515
N2380 X18.746 Y25.985 Z-5.511 I0.324 J-0.515
N2385 X18.098 Y27.015 Z-5.578 I-0.324 J0.515
N2390 X18.746 Y25.985 Z-5.645 I0.324 J-0.515
N2395 X18.098 Y27.015 Z-5.712 I-0.324 J0.515
N2400 X18.746 Y25.985 Z-5.779 I0.324 J-0.515
N2405 X19.031 Y26.5 Z-5.8 I-0.324 J0.515
N2410 X17.813 I-0.609 J0.
N2415 X19.031 I0.609 J0.
N2420 G1 X19.08 Y26.906 F300.
N2425 X19.053 Y27.037
N2430 X18.966 Y27.138
N2435 X18.842 Y27.186
N2440 G3 X17.833 Y27.192 I-0.545 J-7.089
N2445 G1 X17.691 Y27.144
N2450 G3 X17.382 Y26.263 I0.343 J-0.615
N2455 X18.062 Y25.8 I0.68 J0.268
N2460 G1 X18.594
N2465 X18.766 Y25.805
N2470 X18.938 Y25.828
N2475 X19.085 Y25.857
N2480 G3 X18.867 Y27.183 I-0.301 J0.631
N2485 X18.744 Y27.177 Z-5.78 I-0.038 J-0.451 F250.
N2490 X18.326 Y26.916 Z-5.7 I0.129 J-0.67
N2495 X18.372 Y26.043 I0.546 J-0.409
N2500 X18.938 Y25.828 Z-5.8 I0.501 J0.464
N2505 X19.542 Y26.121 I0.007 J0.752 F300.
N2510 X19.065 Y27.156 I-0.546 J0.376
N2515 G1 X18.938 Y27.175
N2520 X18.842 Y27.186
N2525 X17.983 Y27.2 F250.
N2530 X17.509 F300.
N2535 G3 X16.952 Y26.899 I-0.051 J-0.572
N2540 X17.591 Y25.8 I0.639 J-0.363
N2545 G1 X18.062
N2550 G3 X18.387 Y26.072 Z-5.727 I-0.012 J0.345 F250.
N2555 X18.408 Y26.242 Z-5.7 I-0.91 J0.197
N2560 X18.083 Y26.976 I-0.931 J0.027
N2565 X17.509 Y27.2 Z-5.8 I-0.607 J-0.707
N2570 G1 X17.016 F300.
N2575 G3 X16.469 Y26.888 I-0.038 J-0.569
N2580 X17.116 Y25.8 I0.648 J-0.351
N2585 G1 X17.591
N2590 G3 X17.918 Y26.085 Z-5.725 I-0.012 J0.345 F250.
N2595 X17.933 Y26.242 Z-5.7 I-0.935 J0.166
N2600 X17.592 Y26.98 I-0.95 J0.008
N2605 X17.016 Y27.2 Z-5.8 I-0.609 J-0.729
N2610 G1 X16.529 F300.
N2615 G3 X15.986 Y26.882 I-0.034 J-0.564
N2620 X16.639 Y25.8 I0.653 J-0.344
N2625 G1 X17.116
N2630 G3 X17.445 Y26.092 Z-5.724 I-0.012 J0.345 F250.
N2635 X17.457 Y26.242 Z-5.7 I-0.95 J0.147
N2640 X17.106 Y26.982 I-0.962 J-0.004
N2645 X16.529 Y27.2 Z-5.8 I-0.611 J-0.743
N2650 G1 X16.047 F300.
N2655 G3 X15.505 Y26.881 I-0.033 J-0.563
N2660 X16.16 Y25.8 I0.654 J-0.343
N2665 G1 X16.639
N2670 G3 X16.968 Y26.094 Z-5.724 I-0.012 J0.345 F250.
N2675 X16.979 Y26.243 Z-5.7 I-0.955 J0.141
N2680 X16.624 Y26.983 I-0.965 J-0.007
N2685 X16.047 Y27.2 Z-5.8 I-0.611 J-0.747
N2690 G1 X15.573 F300.
N2695 G3 X15.029 Y26.884 I-0.036 J-0.564
N2700 X15.68 Y25.8 I0.651 J-0.347
N2705 G1 X16.16
N2710 G3 X16.489 Y26.091 Z-5.724 I-0.012 J0.345 F250.
N2715 X16.5 Y26.242 Z-5.7 I-0.949 J0.149
N2720 X16.15 Y26.982 I-0.96 J-0.002
N2725 X15.573 Y27.2 Z-5.8 I-0.61 J-0.741
N2730 G1 X15.1 F300.
N2735 G3 X14.553 Y26.887 I-0.039 J-0.566
N2740 X15.201 Y25.8 I0.649 J-0.35
N2745 G1 X15.68
N2750 G3 X16.008 Y26.088 Z-5.725 I-0.012 J0.345 F250.
N2755 X16.021 Y26.242 Z-5.7 I-0.942 J0.157
N2760 X15.676 Y26.981 I-0.955 J0.003
N2765 X15.1 Y27.2 Z-5.8 I-0.61 J-0.735
N2770 G1 X14.635 F300.
N2775 G3 X14.082 Y26.895 I-0.049 J-0.566
N2780 X14.723 Y25.8 I0.642 J-0.359
N2785 G1 X15.201
N2790 G3 X15.529 Y26.08 Z-5.726 I-0.012 J0.345 F250.
N2795 X15.545 Y26.242 Z-5.7 I-0.926 J0.177
N2800 X15.21 Y26.978 I-0.943 J0.015
N2805 X14.635 Y27.2 Z-5.8 I-0.608 J-0.721
N2810 G1 X14.153 F300.
N2815 G3 X13.603 Y26.891 I-0.046 J-0.563
N2820 X14.248 Y25.8 I0.646 J-0.355
N2825 G1 X14.723
N2830 G3 X15.051 Y26.082 Z-5.726 I-0.012 J0.345 F250.
N2835 X15.067 Y26.242 Z-5.7 I-0.93 J0.172
N2840 X14.729 Y26.979 I-0.946 J0.012
N2845 X14.154 Y27.2 Z-5.8 I-0.609 J-0.724
N2850 G1 X13.68 F300.
N2855 G3 X13.128 Y26.893 I-0.047 J-0.565
N2860 X13.772 Y25.8 I0.644 J-0.356
N2865 G1 X14.248
N2870 G3 X14.576 Y26.081 Z-5.726 I-0.012 J0.345 F250.
N2875 X14.592 Y26.242 Z-5.7 I-0.929 J0.174
N2880 X14.255 Y26.979 I-0.945 J0.014
N2885 X13.68 Y27.2 Z-5.8 I-0.608 J-0.723
N2890 G1 X13.206 F300.
N2895 G3 X12.653 Y26.894 I-0.048 J-0.566
N2900 X13.296 Y25.8 I0.643 J-0.358
N2905 G1 X13.772
N2910 G3 X14.099 Y26.08 Z-5.726 I-0.012 J0.345 F250.
N2915 X14.116 Y26.242 Z-5.7 I-0.926 J0.178
N2920 X13.781 Y26.978 I-0.942 J0.016
N2925 X13.206 Y27.2 Z-5.8 I-0.608 J-0.72
N2930 G1 X12.742 F300.
N2935 G3 X12.183 Y26.901 I-0.053 J-0.573
N2940 X12.82 Y25.8 I0.638 J-0.366
N2945 G1 X13.296
N2950 G3 X13.622 Y26.073 Z-5.727 I-0.012 J0.345 F250.
N2955 X13.642 Y26.242 Z-5.7 I-0.912 J0.195
N2960 X13.316 Y26.976 I-0.933 J0.026
N2965 X12.742 Y27.2 Z-5.8 I-0.607 J-0.709
N2970 G1 X12.26 F300.
N2975 G3 X11.705 Y26.896 I-0.049 J-0.568
N2980 X12.346 Y25.8 I0.642 J-0.36
N2985 G1 X12.82
N2990 G3 X13.146 Y26.076 Z-5.727 I-0.012 J0.345 F250.
N2995 X13.165 Y26.242 Z-5.7 I-0.919 J0.187
N3000 X12.835 Y26.977 I-0.937 J0.021
N3005 X12.26 Y27.2 Z-5.8 I-0.607 J-0.714
N3010 G1 X11.786 F300.
N3015 G3 X11.231 Y26.897 I-0.05 J-0.569
N3020 X11.871 Y25.8 I0.641 J-0.361
N3025 G1 X12.346
N3030 G3 X12.673 Y26.077 Z-5.727 I-0.012 J0.345 F250.
N3035 X12.691 Y26.242 Z-5.7 I-0.919 J0.186
N3040 X12.361 Y26.977 I-0.938 J0.021
N3045 X11.787 Y27.2 Z-5.8 I-0.607 J-0.714
N3050 G1 X11.313 F300.
N3055 G3 X10.757 Y26.897 I-0.05 J-0.57
N3060 X11.397 Y25.8 I0.641 J-0.362
N3065 G1 X11.871
N3070 G3 X12.198 Y26.076 Z-5.727 I-0.012 J0.345 F250.
N3075 X12.216 Y26.242 Z-5.7 I-0.918 J0.188
N3080 X11.887 Y26.977 I-0.936 J0.022
N3085 X11.313 Y27.2 Z-5.8 I-0.607 J-0.713
N3090 G1 X10.82 F300.
N3095 G3 X10.273 Y26.887 I-0.038 J-0.568
N3100 X10.922 Y25.8 I0.649 J-0.35
N3105 G1 X11.397
N3110 G3 X11.725 Y26.086 Z-5.725 I-0.012 J0.345 F250.
N3115 X11.739 Y26.242 Z-5.7 I-0.938 J0.163
N3120 X11.396 Y26.98 I-0.952 J0.006
N3125 X10.82 Y27.2 Z-5.8 I-0.609 J-0.731
N3130 G1 X10.332 F300.
N3135 G3 X9.79 Y26.882 I-0.033 J-0.564
N3140 X10.444 Y25.8 I0.654 J-0.343
N3145 G1 X10.922
N3150 G3 X11.251 Y26.093 Z-5.724 I-0.012 J0.345 F250.
N3155 X11.262 Y26.243 Z-5.7 I-0.953 J0.144
N3160 X10.909 Y26.982 I-0.963 J-0.005
N3165 X10.332 Y27.2 Z-5.8 I-0.611 J-0.745
N3170 G1 X9.851 F300.
N3175 G3 X9.309 Y26.881 I-0.033 J-0.562
N3180 X9.964 Y25.8 I0.655 J-0.342
N3185 X10.074 Y25.822 Z-5.782 I-0.012 J0.349 F250.
N3190 X10.454 Y26.154 Z-5.7 I-0.248 J0.667
N3195 X10.391 Y26.921 I-0.628 J0.335
N3200 X9.851 Y27.2 Z-5.8 I-0.565 J-0.433
N3205 G1 X9.377 F300.
N3210 G3 X8.833 Y26.884 I-0.036 J-0.564
N3215 X9.484 Y25.8 I0.652 J-0.346
N3220 X9.589 Y25.82 Z-5.783 I-0.012 J0.349 F250.
N3225 X9.976 Y26.151 Z-5.7 I-0.237 J0.67
N3230 X9.917 Y26.921 I-0.625 J0.339
N3235 X9.377 Y27.2 Z-5.8 I-0.565 J-0.431
N3240 G1 X8.903 F300.
N3245 G3 X8.357 Y26.887 I-0.038 J-0.566
N3250 X9.006 Y25.8 I0.649 J-0.349
N3255 X9.105 Y25.818 Z-5.784 I-0.012 J0.349 F250.
N3260 X9.5 Y26.148 Z-5.7 I-0.227 J0.672
N3265 X9.443 Y26.921 I-0.622 J0.342
N3270 X8.903 Y27.2 Z-5.8 I-0.565 J-0.43
N3275 G1 X8.439 F300.
N3280 G3 X7.885 Y26.894 I-0.048 J-0.566
N3285 X8.528 Y25.8 I0.643 J-0.358
N3290 G1 X8.571 Y25.804 Z-5.793 F250.
N3295 X8.614 Y25.814 Z-5.786
N3300 G3 X9.028 Y26.141 Z-5.7 I-0.2 J0.679
N3305 X8.978 Y26.92 I-0.614 J0.352
N3310 X8.439 Y27.2 Z-5.8 I-0.564 J-0.427
N3315 G1 X7.957 F300.
N3320 G3 X7.407 Y26.891 I-0.046 J-0.563
N3325 X8.052 Y25.8 I0.646 J-0.354
N3330 X8.145 Y25.816 Z-5.785 I-0.012 J0.349 F250.
N3335 X8.55 Y26.144 Z-5.7 I-0.213 J0.676
N3340 X8.497 Y26.92 I-0.617 J0.348
N3345 X7.957 Y27.2 Z-5.8 I-0.564 J-0.429
N3350 G1 X7.483 F300.
N3355 G3 X6.932 Y26.892 I-0.047 J-0.564
N3360 X7.576 Y25.8 I0.645 J-0.356
N3365 G1 X7.621 Y25.805 Z-5.793 F250.
N3370 X7.666 Y25.815 Z-5.785
N3375 G3 X8.074 Y26.143 Z-5.7 I-0.207 J0.677
N3380 X8.023 Y26.92 I-0.616 J0.35
N3385 X7.483 Y27.2 Z-5.8 I-0.564 J-0.428
N3390 X6.632 Y27.052 I-0.126 J-1.799 F300.
N3395 G1 X6.628 Y27.035 Z-5.798 F250.
N3400 G3 X6.786 Y26.501 Z-5.7 I0.354 J-0.185
N3405 X6.899 Y26.459 I0.197 J0.348
N3410 G1 X7.387 Y26.354
N3415 X7.913 Y26.242 F2000.
N3420 G3 X8.138 Y27.007 I0.084 J0.391
N3425 G1 X8.119 Y27.015
N3430 G3 X7.516 Y27.156 I-0.877 J-2.375 F250.
N3435 X6.89 Y27.147 Z-5.8 I-0.274 J-2.517
N3440 X6.499 Y26.922 I0.097 J-0.622 F300.
N3445 X6.513 Y26.344 Z-5.7 I0.352 J-0.28 F250.
N3450 X7.079 Y26.254 I0.338 J0.298
N3455 X7.223 Y26.388 I-0.228 J0.388 F2000.
N3460 X7.171 Y26.959 I-0.372 J0.254 F250.
N3465 X6.82 Y27.091 Z-5.762 I-0.32 J-0.317
N3470 X6.592 Y27.019 Z-5.8 I0.034 J-0.502
N3475 X6.384 Y26.722 I0.425 J-0.521 F300.
N3480 X6.624 Y26.21 Z-5.7 I0.376 J-0.136 F250.
N3485 X7.148 Y26.491 I0.136 J0.376
N3490 G1 X7.158 Y26.528
N3495 G3 X7.039 Y26.919 I-0.388 J0.095
N3500 X6.474 Y26.894 Z-5.8 I-0.27 J-0.295
N3505 X6.889 Y25.852 I0.523 J-0.395 F300.
N3510 G1 X7.062 Y25.828
N3515 X7.234 Y25.805
N3520 X7.406 Y25.8
N3525 X10.444
N3530 G3 X10.83 Y26.214 I-0.014 J0.4 F250.
N3535 X10.416 Y26.6 I-0.4 J-0.014
N3540 G1 X10.338 Y26.597 Z-5.792
N3545 X10.263 Y26.594 Z-5.77
N3550 X10.194 Y26.592 Z-5.733
N3555 X10.133 Y26.59 Z-5.683
N3560 X10.084 Y26.588 Z-5.622
N3565 X10.047 Y26.587 Z-5.553
N3570 X10.024 Y26.586 Z-5.478
N3575 X10.016 Z-5.4
N3580 G0 Z10.
N3585 X18.746 Y38.985
N3590 Z3.1
N3595 G1 Z2.7 F250.
N3600 G3 X18.098 Y40.015 Z2.633 I-0.324 J0.515 F150.
N3605 X18.746 Y38.985 Z2.566 I0.324 J-0.515
N3610 X18.098 Y40.015 Z2.5 I-0.324 J0.515
N3615 X18.746 Y38.985 Z2.433 I0.324 J-0.515
N3620 X18.098 Y40.015 Z2.366 I-0.324 J0.515
N3625 X18.746 Y38.985 Z2.299 I0.324 J-0.515
N3630 X18.098 Y40.015 Z2.232 I-0.324 J0.515
N3635 X18.746 Y38.985 Z2.166 I0.324 J-0.515
N3640 X18.098 Y40.015 Z2.099 I-0.324 J0.515
N3645 X18.746 Y38.985 Z2.032 I0.324 J-0.515
N3650 X18.098 Y40.015 Z1.965 I-0.324 J0.515
N3655 X18.746 Y38.985 Z1.898 I0.324 J-0.515
N3660 X18.098 Y40.015 Z1.831 I-0.324 J0.515
N3665 X18.746 Y38.985 Z1.765 I0.324 J-0.515
N3670 X18.098 Y40.015 Z1.698 I-0.324 J0.515
N3675 X18.746 Y38.985 Z1.631 I0.324 J-0.515
N3680 X18.098 Y40.015 Z1.564 I-0.324 J0.515
N3685 X18.746 Y38.985 Z1.497 I0.324 J-0.515
N3690 X18.098 Y40.015 Z1.431 I-0.324 J0.515
N3695 X18.746 Y38.985 Z1.364 I0.324 J-0.515
N3700 X18.098 Y40.015 Z1.297 I-0.324 J0.515
N3705 X18.746 Y38.985 Z1.23 I0.324 J-0.515
N3710 X18.098 Y40.015 Z1.163 I-0.324 J0.515
N3715 X18.746 Y38.985 Z1.097 I0.324 J-0.515
N3720 X18.098 Y40.015 Z1.03 I-0.324 J0.515
N3725 X18.746 Y38.985 Z0.963 I0.324 J-0.515
N3730 X18.098 Y40.015 Z0.896 I-0.324 J0.515
N3735 X18.746 Y38.985 Z0.829 I0.324 J-0.515
N3740 X18.098 Y40.015 Z0.762 I-0.324 J0.515
N3745 X18.746 Y38.985 Z0.696 I0.324 J-0.515
N3750 X18.098 Y40.015 Z0.629 I-0.324 J0.515
N3755 X18.746 Y38.985 Z0.562 I0.324 J-0.515
N3760 X18.098 Y40.015 Z0.495 I-0.324 J0.515
N3765 X18.746 Y38.985 Z0.428 I0.324 J-0.515
N3770 X18.098 Y40.015 Z0.362 I-0.324 J0.515
N3775 X18.746 Y38.985 Z0.295 I0.324 J-0.515
N3780 X18.098 Y40.015 Z0.228 I-0.324 J0.515
N3785 X18.746 Y38.985 Z0.161 I0.324 J-0.515
N3790 X18.098 Y40.015 Z0.094 I-0.324 J0.515
N3795 X18.746 Y38.985 Z0.028 I0.324 J-0.515
N3800 X18.098 Y40.015 Z-0.039 I-0.324 J0.515
N3805 X18.746 Y38.985 Z-0.106 I0.324 J-0.515
N3810 X18.098 Y40.015 Z-0.173 I-0.324 J0.515
N3815 X18.746 Y38.985 Z-0.24 I0.324 J-0.515
N3820 X18.098 Y40.015 Z-0.307 I-0.324 J0.515
N3825 X18.746 Y38.985 Z-0.373 I0.324 J-0.515
N3830 X18.098 Y40.015 Z-0.44 I-0.324 J0.515
N3835 X18.746 Y38.985 Z-0.507 I0.324 J-0.515
N3840 X18.098 Y40.015 Z-0.574 I-0.324 J0.515
N3845 X18.746 Y38.985 Z-0.641 I0.324 J-0.515
N3850 X18.098 Y40.015 Z-0.707 I-0.324 J0.515
N3855 X18.746 Y38.985 Z-0.774 I0.324 J-0.515
N3860 X18.098 Y40.015 Z-0.841 I-0.324 J0.515
N3865 X18.746 Y38.985 Z-0.908 I0.324 J-0.515
N3870 X18.098 Y40.015 Z-0.975 I-0.324 J0.515
N3875 X18.746 Y38.985 Z-1.041 I0.324 J-0.515
N3880 X18.098 Y40.015 Z-1.108 I-0.324 J0.515
N3885 X18.746 Y38.985 Z-1.175 I0.324 J-0.515
N3890 X18.098 Y40.015 Z-1.242 I-0.324 J0.515
N3895 X18.746 Y38.985 Z-1.309 I0.324 J-0.515
N3900 X18.098 Y40.015 Z-1.375 I-0.324 J0.515
N3905 X18.746 Y38.985 Z-1.442 I0.324 J-0.515
N3910 X18.098 Y40.015 Z-1.509 I-0.324 J0.515
N3915 X18.746 Y38.985 Z-1.576 I0.324 J-0.515
N3920 X18.098 Y40.015 Z-1.643 I-0.324 J0.515
N3925 X18.746 Y38.985 Z-1.71 I0.324 J-0.515
N3930 X18.098 Y40.015 Z-1.776 I-0.324 J0.515
N3935 X18.746 Y38.985 Z-1.843 I0.324 J-0.515
N3940 X18.098 Y40.015 Z-1.91 I-0.324 J0.515
N3945 X18.746 Y38.985 Z-1.977 I0.324 J-0.515
N3950 X18.098 Y40.015 Z-2.044 I-0.324 J0.515
N3955 X18.746 Y38.985 Z-2.11 I0.324 J-0.515
N3960 X18.098 Y40.015 Z-2.177 I-0.324 J0.515
N3965 X18.746 Y38.985 Z-2.244 I0.324 J-0.515
N3970 X18.098 Y40.015 Z-2.311 I-0.324 J0.515
N3975 X18.746 Y38.985 Z-2.378 I0.324 J-0.515
N3980 X18.098 Y40.015 Z-2.444 I-0.324 J0.515
N3985 X18.746 Y38.985 Z-2.511 I0.324 J-0.515
N3990 X18.098 Y40.015 Z-2.578 I-0.324 J0.515
N3995 X18.746 Y38.985 Z-2.645 I0.324 J-0.515
N4000 X18.098 Y40.015 Z-2.712 I-0.324 J0.515
N4005 X18.746 Y38.985 Z-2.779 I0.324 J-0.515
N4010 X19.031 Y39.5 Z-2.8 I-0.324 J0.515
N4015 X17.813 I-0.609 J0.
N4020 X19.031 I0.609 J0.
N4025 G1 X19.08 Y39.906 F300.
N4030 X19.053 Y40.035
N4035 X18.968 Y40.136
N4040 X18.846 Y40.185
N4045 G3 X17.833 Y40.192 I-0.553 J-6.519
N4050 G1 X17.691 Y40.144
N4055 G3 X17.382 Y39.263 I0.343 J-0.615
N4060 X18.062 Y38.8 I0.68 J0.268
N4065 G1 X18.594
N4070 X18.766 Y38.805
N4075 X18.938 Y38.825
N4080 X19.085 Y38.856
N4085 G3 X18.876 Y40.181 I-0.301 J0.631
N4090 X18.753 Y40.175 Z-2.78 I-0.042 J-0.431 F250.
N4095 X18.335 Y39.914 Z-2.7 I0.128 J-0.67
N4100 X18.375 Y39.048 I0.546 J-0.409
N4105 X18.938 Y38.825 Z-2.8 I0.506 J0.457
N4110 X19.455 Y39.023 I0.001 J0.769 F300.
N4115 X19.111 Y40.149 I-0.455 J0.476
N4120 G1 X18.938 Y40.172
N4125 X18.846 Y40.185
N4130 X18.814 Y40.187 F250.
N4135 X17.983 Y40.2
N4140 X17.509 F300.
N4145 G3 X16.952 Y39.899 I-0.051 J-0.572
N4150 X17.591 Y38.8 I0.639 J-0.363
N4155 G1 X18.062
N4160 G3 X18.387 Y39.072 Z-2.727 I-0.012 J0.345 F250.
N4165 X18.408 Y39.242 Z-2.7 I-0.91 J0.197
N4170 X18.083 Y39.976 I-0.931 J0.027
N4175 X17.509 Y40.2 Z-2.8 I-0.607 J-0.707
N4180 G1 X17.016 F300.
N4185 G3 X16.469 Y39.888 I-0.038 J-0.569
N4190 X17.116 Y38.8 I0.648 J-0.351
N4195 G1 X17.591
N4200 G3 X17.918 Y39.085 Z-2.725 I-0.012 J0.345 F250.
N4205 X17.933 Y39.242 Z-2.7 I-0.935 J0.166
N4210 X17.592 Y39.98 I-0.95 J0.008
N4215 X17.016 Y40.2 Z-2.8 I-0.609 J-0.729
N4220 G1 X16.529 F300.
N4225 G3 X15.986 Y39.882 I-0.034 J-0.564
N4230 X16.639 Y38.8 I0.653 J-0.344
N4235 X16.745 Y38.821 Z-2.783 I-0.012 J0.349 F250.
N4240 X17.13 Y39.152 Z-2.7 I-0.242 J0.669
N4245 X17.069 Y39.921 I-0.626 J0.337
N4250 X16.529 Y40.2 Z-2.8 I-0.565 J-0.432
N4255 G1 X16.047 F300.
N4260 G3 X15.505 Y39.881 I-0.033 J-0.563
N4265 X16.16 Y38.8 I0.654 J-0.343
N4270 X16.268 Y38.821 Z-2.782 I-0.012 J0.349 F250.
N4275 X16.65 Y39.153 Z-2.7 I-0.246 J0.668
N4280 X16.587 Y39.921 I-0.627 J0.336
N4285 X16.047 Y40.2 Z-2.8 I-0.565 J-0.432
N4290 G1 X15.573 F300.
N4295 G3 X15.029 Y39.884 I-0.036 J-0.564
N4300 X15.68 Y38.8 I0.651 J-0.347
N4305 G1 X17.116
N4310 G3 X17.502 Y39.213 Z-2.7 I-0.014 J0.4 F250.
N4315 X17.248 Y39.573 I-0.4 J-0.014
N4320 G1 X17.104 Y39.629
N4325 X16.743 Y39.769 F2000.
N4330 X16.164 Y39.994 F250.
N4335 X15.704 Y40.173 Z-2.779
N4340 G3 X15.573 Y40.2 Z-2.8 I-0.145 J-0.373
N4345 G1 X15.1 F300.
N4350 G3 X14.553 Y39.887 I-0.039 J-0.566
N4355 X15.201 Y38.8 I0.649 J-0.35
N4360 G1 X15.68
N4365 G3 X16.008 Y39.088 Z-2.725 I-0.012 J0.345 F250.
N4370 X16.021 Y39.242 Z-2.7 I-0.942 J0.157
N4375 X15.676 Y39.981 I-0.955 J0.003
N4380 X15.1 Y40.2 Z-2.8 I-0.61 J-0.735
N4385 G1 X14.635 F300.
N4390 G3 X14.082 Y39.895 I-0.048 J-0.566
N4395 X14.723 Y38.8 I0.642 J-0.359
N4400 G1 X15.201
N4405 G3 X15.529 Y39.08 Z-2.726 I-0.012 J0.345 F250.
N4410 X15.545 Y39.242 Z-2.7 I-0.926 J0.177
N4415 X15.21 Y39.978 I-0.943 J0.015
N4420 X14.635 Y40.2 Z-2.8 I-0.608 J-0.721
N4425 G1 X14.153 F300.
N4430 G3 X13.603 Y39.891 I-0.046 J-0.563
N4435 X14.248 Y38.8 I0.646 J-0.355
N4440 G1 X14.723
N4445 G3 X15.051 Y39.082 Z-2.726 I-0.012 J0.345 F250.
N4450 X15.067 Y39.242 Z-2.7 I-0.93 J0.172
N4455 X14.729 Y39.979 I-0.946 J0.012
N4460 X14.154 Y40.2 Z-2.8 I-0.609 J-0.724
N4465 G1 X13.68 F300.
N4470 G3 X13.128 Y39.893 I-0.047 J-0.564
N4475 X13.772 Y38.8 I0.644 J-0.356
N4480 G1 X14.248
N4485 G3 X14.576 Y39.081 Z-2.726 I-0.012 J0.345 F250.
N4490 X14.592 Y39.242 Z-2.7 I-0.929 J0.174
N4495 X14.255 Y39.979 I-0.945 J0.014
N4500 X13.68 Y40.2 Z-2.8 I-0.608 J-0.723
N4505 G1 X13.206 F300.
N4510 G3 X12.653 Y39.894 I-0.048 J-0.566
N4515 X13.296 Y38.8 I0.643 J-0.358
N4520 G1 X13.772
N4525 G3 X14.099 Y39.08 Z-2.726 I-0.012 J0.345 F250.
N4530 X14.116 Y39.242 Z-2.7 I-0.926 J0.178
N4535 X13.781 Y39.978 I-0.942 J0.016
N4540 X13.206 Y40.2 Z-2.8 I-0.608 J-0.72
N4545 G1 X12.742 F300.
N4550 G3 X12.183 Y39.901 I-0.053 J-0.573
N4555 X12.82 Y38.8 I0.638 J-0.366
N4560 G1 X13.296
N4565 G3 X13.622 Y39.073 Z-2.727 I-0.012 J0.345 F250.
N4570 X13.642 Y39.242 Z-2.7 I-0.912 J0.195
N4575 X13.316 Y39.976 I-0.933 J0.026
N4580 X12.742 Y40.2 Z-2.8 I-0.607 J-0.709
N4585 G1 X12.26 F300.
N4590 G3 X11.705 Y39.896 I-0.049 J-0.568
N4595 X12.346 Y38.8 I0.642 J-0.36
N4600 G1 X12.82
N4605 G3 X13.146 Y39.076 Z-2.727 I-0.012 J0.345 F250.
N4610 X13.165 Y39.242 Z-2.7 I-0.919 J0.187
N4615 X12.835 Y39.977 I-0.937 J0.021
N4620 X12.26 Y40.2 Z-2.8 I-0.607 J-0.714
N4625 G1 X11.786 F300.
N4630 G3 X11.231 Y39.897 I-0.05 J-0.569
N4635 X11.871 Y38.8 I0.641 J-0.361
N4640 G1 X12.346
N4645 G3 X12.673 Y39.077 Z-2.727 I-0.012 J0.345 F250.
N4650 X12.691 Y39.242 Z-2.7 I-0.919 J0.186
N4655 X12.361 Y39.977 I-0.938 J0.021
N4660 X11.787 Y40.2 Z-2.8 I-0.607 J-0.714
N4665 G1 X11.313 F300.
N4670 G3 X10.757 Y39.897 I-0.05 J-0.569
N4675 X11.397 Y38.8 I0.641 J-0.362
N4680 G1 X11.871
N4685 G3 X12.198 Y39.076 Z-2.727 I-0.012 J0.345 F250.
N4690 X12.216 Y39.242 Z-2.7 I-0.918 J0.188
N4695 X11.887 Y39.977 I-0.936 J0.022
N4700 X11.313 Y40.2 Z-2.8 I-0.607 J-0.713
N4705 G1 X10.82 F300.
N4710 G3 X10.273 Y39.887 I-0.038 J-0.568
N4715 X10.922 Y38.8 I0.649 J-0.35
N4720 G1 X11.397
N4725 G3 X11.725 Y39.086 Z-2.725 I-0.012 J0.345 F250.
N4730 X11.739 Y39.242 Z-2.7 I-0.938 J0.163
N4735 X11.396 Y39.98 I-0.952 J0.006
N4740 X10.82 Y40.2 Z-2.8 I-0.609 J-0.731
N4745 G1 X10.332 F300.
N4750 G3 X9.79 Y39.882 I-0.033 J-0.564
N4755 X10.444 Y38.8 I0.654 J-0.343
N4760 G1 X10.922
N4765 G3 X11.251 Y39.093 Z-2.724 I-0.012 J0.345 F250.
N4770 X11.262 Y39.243 Z-2.7 I-0.953 J0.144
N4775 X10.909 Y39.982 I-0.963 J-0.005
N4780 X10.332 Y40.2 Z-2.8 I-0.611 J-0.745
N4785 G1 X9.851 F300.
N4790 G3 X9.309 Y39.881 I-0.033 J-0.562
N4795 X9.964 Y38.8 I0.655 J-0.342
N4800 X10.074 Y38.822 Z-2.782 I-0.012 J0.349 F250.
N4805 X10.454 Y39.154 Z-2.7 I-0.248 J0.667
N4810 X10.391 Y39.921 I-0.628 J0.335
N4815 X9.851 Y40.2 Z-2.8 I-0.565 J-0.433
N4820 G1 X9.377 F300.
N4825 G3 X8.833 Y39.884 I-0.036 J-0.564
N4830 X9.484 Y38.8 I0.652 J-0.346
N4835 G1 X10.444
N4840 G3 X10.83 Y39.213 Z-2.7 I-0.014 J0.4 F250.
N4845 X10.626 Y39.548 I-0.4 J-0.014
N4850 G1 X10.481 Y39.63
N4855 X9.94 Y39.935
N4860 X9.559 Y40.149 Z-2.77
N4865 G3 X9.377 Y40.2 Z-2.8 I-0.196 J-0.349
N4870 G1 X8.903 F300.
N4875 G3 X8.357 Y39.887 I-0.038 J-0.566
N4880 X9.006 Y38.8 I0.649 J-0.349
N4885 X9.105 Y38.818 Z-2.784 I-0.012 J0.349 F250.
N4890 X9.5 Y39.148 Z-2.7 I-0.227 J0.672
N4895 X9.443 Y39.921 I-0.622 J0.342
N4900 X8.903 Y40.2 Z-2.8 I-0.565 J-0.43
N4905 G1 X8.439 F300.
N4910 G3 X7.885 Y39.894 I-0.048 J-0.566
N4915 X8.528 Y38.8 I0.643 J-0.358
N4920 G1 X8.571 Y38.804 Z-2.793 F250.
N4925 X8.614 Y38.814 Z-2.786
N4930 G3 X9.028 Y39.141 Z-2.7 I-0.2 J0.679
N4935 X8.978 Y39.92 I-0.614 J0.352
N4940 X8.439 Y40.2 Z-2.8 I-0.564 J-0.427
N4945 G1 X7.957 F300.
N4950 G3 X7.407 Y39.891 I-0.046 J-0.563
N4955 X8.052 Y38.8 I0.646 J-0.354
N4960 X8.145 Y38.816 Z-2.785 I-0.012 J0.349 F250.
N4965 X8.55 Y39.144 Z-2.7 I-0.213 J0.676
N4970 X8.497 Y39.92 I-0.617 J0.348
N4975 X7.957 Y40.2 Z-2.8 I-0.564 J-0.429
N4980 G1 X7.483 F300.
N4985 G3 X6.932 Y39.892 I-0.047 J-0.564
N4990 X7.576 Y38.8 I0.645 J-0.356
N4995 X7.666 Y38.815 Z-2.785 I-0.012 J0.349 F250.
N5000 X8.074 Y39.143 Z-2.7 I-0.207 J0.677
N5005 X8.023 Y39.92 I-0.616 J0.35
N5010 X7.483 Y40.2 Z-2.8 I-0.564 J-0.428
N5015 X6.636 Y40.054 I-0.113 J-1.875 F300.
N5020 G1 X6.577 Y40.001 Z-2.787 F250.
N5025 X6.53 Y39.937 Z-2.775
N5030 X6.496 Y39.865 Z-2.762
N5035 X6.477 Y39.788 Z-2.75
N5040 X6.473 Y39.71 Z-2.738
N5045 X6.485 Y39.631 Z-2.725
N5050 X6.512 Y39.557 Z-2.713
N5055 X6.552 Y39.49 Z-2.7
N5060 G3 X6.989 Y39.343 I0.323 J0.236
N5065 G1 X7.024 Y39.353
N5070 X7.084 Y39.371
N5075 G3 X7.367 Y39.8 I-0.114 J0.383
N5080 X6.924 Y40.152 Z-2.8 I-0.397 J-0.046
N5085 X6.554 Y39.984 I0.071 J-0.649 F300.
N5090 X6.738 Y39.773 I0.095 J-0.102 F250.
N5095 G1 X6.776 Y39.805
N5100 G3 X6.613 Y40.031 I-0.089 J0.108
N5105 X6.356 Y39.627 I0.438 J-0.562 F300.
N5110 G1 X6.349 Y39.567 F250.
N5115 X6.355 Y39.507
N5120 X6.374 Y39.45
N5125 X6.406 Y39.399
N5130 X6.448 Y39.356
N5135 X6.498 Y39.324
N5140 X6.555 Y39.303
N5145 X6.615 Y39.296
N5150 G3 X6.86 Y39.448 I0.002 J0.27
N5155 G1 X6.957 Y39.649
N5160 G3 X6.545 Y39.977 I-0.243 J0.118
N5165 X6.935 Y38.845 I0.455 J-0.476 F300.
N5170 G1 X7.062 Y38.825
N5175 X7.234 Y38.805
N5180 X7.406 Y38.8
N5185 X9.484
N5190 G3 X9.799 Y39.427 I-0.014 J0.4 F250.
N5195 G1 X9.755 Y39.469 Z-2.795
N5200 X9.711 Y39.509 Z-2.781
N5205 X9.669 Y39.547 Z-2.758
N5210 X9.618 Y39.563 Z-2.726
N5215 X9.572 Y39.577 Z-2.685
N5220 X9.533 Y39.589 Z-2.637
N5225 X9.501 Y39.599 Z-2.583
N5230 X9.484 Z-2.545
N5235 X9.47 Y39.6 Z-2.505
N5240 X9.46 Z-2.453
N5245 X9.457 Z-2.4
N5250 G0 Z5.
N5255 X18.746 Y38.985
N5260 Z0.1
N5265 G1 Z-0.3 F250.
N5270 G3 X18.098 Y40.015 Z-0.367 I-0.324 J0.515 F150.
N5275 X18.746 Y38.985 Z-0.434 I0.324 J-0.515
N5280 X18.098 Y40.015 Z-0.5 I-0.324 J0.515
N5285 X18.746 Y38.985 Z-0.567 I0.324 J-0.515
N5290 X18.098 Y40.015 Z-0.634 I-0.324 J0.515
N5295 X18.746 Y38.985 Z-0.701 I0.324 J-0.515
N5300 X18.098 Y40.015 Z-0.768 I-0.324 J0.515
N5305 X18.746 Y38.985 Z-0.834 I0.324 J-0.515
N5310 X18.098 Y40.015 Z-0.901 I-0.324 J0.515
N5315 X18.746 Y38.985 Z-0.968 I0.324 J-0.515
N5320 X18.098 Y40.015 Z-1.035 I-0.324 J0.515
N5325 X18.746 Y38.985 Z-1.102 I0.324 J-0.515
N5330 X18.098 Y40.015 Z-1.169 I-0.324 J0.515
N5335 X18.746 Y38.985 Z-1.235 I0.324 J-0.515
N5340 X18.098 Y40.015 Z-1.302 I-0.324 J0.515
N5345 X18.746 Y38.985 Z-1.369 I0.324 J-0.515
N5350 X18.098 Y40.015 Z-1.436 I-0.324 J0.515
N5355 X18.746 Y38.985 Z-1.503 I0.324 J-0.515
N5360 X18.098 Y40.015 Z-1.569 I-0.324 J0.515
N5365 X18.746 Y38.985 Z-1.636 I0.324 J-0.515
N5370 X18.098 Y40.015 Z-1.703 I-0.324 J0.515
N5375 X18.746 Y38.985 Z-1.77 I0.324 J-0.515
N5380 X18.098 Y40.015 Z-1.837 I-0.324 J0.515
N5385 X18.746 Y38.985 Z-1.903 I0.324 J-0.515
N5390 X18.098 Y40.015 Z-1.97 I-0.324 J0.515
N5395 X18.746 Y38.985 Z-2.037 I0.324 J-0.515
N5400 X18.098 Y40.015 Z-2.104 I-0.324 J0.515
N5405 X18.746 Y38.985 Z-2.171 I0.324 J-0.515
N5410 X18.098 Y40.015 Z-2.238 I-0.324 J0.515
N5415 X18.746 Y38.985 Z-2.304 I0.324 J-0.515
N5420 X18.098 Y40.015 Z-2.371 I-0.324 J0.515
N5425 X18.746 Y38.985 Z-2.438 I0.324 J-0.515
N5430 X18.098 Y40.015 Z-2.505 I-0.324 J0.515
N5435 X18.746 Y38.985 Z-2.572 I0.324 J-0.515
N5440 X18.098 Y40.015 Z-2.638 I-0.324 J0.515
N5445 X18.746 Y38.985 Z-2.705 I0.324 J-0.515
N5450 X18.098 Y40.015 Z-2.772 I-0.324 J0.515
N5455 X18.746 Y38.985 Z-2.839 I0.324 J-0.515
N5460 X18.098 Y40.015 Z-2.906 I-0.324 J0.515
N5465 X18.746 Y38.985 Z-2.972 I0.324 J-0.515
N5470 X18.098 Y40.015 Z-3.039 I-0.324 J0.515
N5475 X18.746 Y38.985 Z-3.106 I0.324 J-0.515
N5480 X18.098 Y40.015 Z-3.173 I-0.324 J0.515
N5485 X18.746 Y38.985 Z-3.24 I0.324 J-0.515
N5490 X18.098 Y40.015 Z-3.307 I-0.324 J0.515
N5495 X18.746 Y38.985 Z-3.373 I0.324 J-0.515
N5500 X18.098 Y40.015 Z-3.44 I-0.324 J0.515
N5505 X18.746 Y38.985 Z-3.507 I0.324 J-0.515
N5510 X18.098 Y40.015 Z-3.574 I-0.324 J0.515
N5515 X18.746 Y38.985 Z-3.641 I0.324 J-0.515
N5520 X18.098 Y40.015 Z-3.707 I-0.324 J0.515
N5525 X18.746 Y38.985 Z-3.774 I0.324 J-0.515
N5530 X18.098 Y40.015 Z-3.841 I-0.324 J0.515
N5535 X18.746 Y38.985 Z-3.908 I0.324 J-0.515
N5540 X18.098 Y40.015 Z-3.975 I-0.324 J0.515
N5545 X18.746 Y38.985 Z-4.041 I0.324 J-0.515
N5550 X18.098 Y40.015 Z-4.108 I-0.324 J0.515
N5555 X18.746 Y38.985 Z-4.175 I0.324 J-0.515
N5560 X18.098 Y40.015 Z-4.242 I-0.324 J0.515
N5565 X18.746 Y38.985 Z-4.309 I0.324 J-0.515
N5570 X18.098 Y40.015 Z-4.375 I-0.324 J0.515
N5575 X18.746 Y38.985 Z-4.442 I0.324 J-0.515
N5580 X18.098 Y40.015 Z-4.509 I-0.324 J0.515
N5585 X18.746 Y38.985 Z-4.576 I0.324 J-0.515
N5590 X18.098 Y40.015 Z-4.643 I-0.324 J0.515
N5595 X18.746 Y38.985 Z-4.71 I0.324 J-0.515
N5600 X18.098 Y40.015 Z-4.776 I-0.324 J0.515
N5605 X18.746 Y38.985 Z-4.843 I0.324 J-0.515
N5610 X18.098 Y40.015 Z-4.91 I-0.324 J0.515
N5615 X18.746 Y38.985 Z-4.977 I0.324 J-0.515
N5620 X18.098 Y40.015 Z-5.044 I-0.324 J0.515
N5625 X18.746 Y38.985 Z-5.11 I0.324 J-0.515
N5630 X18.098 Y40.015 Z-5.177 I-0.324 J0.515
N5635 X18.746 Y38.985 Z-5.244 I0.324 J-0.515
N5640 X18.098 Y40.015 Z-5.311 I-0.324 J0.515
N5645 X18.746 Y38.985 Z-5.378 I0.324 J-0.515
N5650 X18.098 Y40.015 Z-5.444 I-0.324 J0.515
N5655 X18.746 Y38.985 Z-5.511 I0.324 J-0.515
N5660 X18.098 Y40.015 Z-5.578 I-0.324 J0.515
N5665 X18.746 Y38.985 Z-5.645 I0.324 J-0.515
N5670 X18.098 Y40.015 Z-5.712 I-0.324 J0.515
N5675 X18.746 Y38.985 Z-5.779 I0.324 J-0.515
N5680 X19.031 Y39.5 Z-5.8 I-0.324 J0.515
N5685 X17.813 I-0.609 J0.
N5690 X19.031 I0.609 J0.
N5695 G1 X19.08 Y39.906 F300.
N5700 X19.053 Y40.035
N5705 X18.968 Y40.136
N5710 X18.846 Y40.185
N5715 G3 X17.833 Y40.192 I-0.553 J-6.519
N5720 G1 X17.691 Y40.144
N5725 G3 X17.382 Y39.263 I0.343 J-0.615
N5730 X18.062 Y38.8 I0.68 J0.268
N5735 G1 X18.594
N5740 X18.766 Y38.805
N5745 X18.938 Y38.825
N5750 X19.085 Y38.856
N5755 G3 X18.876 Y40.181 I-0.301 J0.631
N5760 X18.753 Y40.175 Z-5.78 I-0.042 J-0.431 F250.
N5765 X18.335 Y39.914 Z-5.7 I0.128 J-0.67
N5770 X18.375 Y39.048 I0.546 J-0.409
N5775 X18.938 Y38.825 Z-5.8 I0.506 J0.457
N5780 X19.455 Y39.023 I0.001 J0.769 F300.
N5785 X19.111 Y40.149 I-0.455 J0.476
N5790 G1 X18.938 Y40.172
N5795 X18.846 Y40.185
N5800 X18.814 Y40.187 F250.
N5805 X17.983 Y40.2
N5810 X17.509 F300.
N5815 G3 X16.952 Y39.899 I-0.051 J-0.572
N5820 X17.591 Y38.8 I0.639 J-0.363
N5825 G1 X18.062
N5830 G3 X18.387 Y39.072 Z-5.727 I-0.012 J0.345 F250.
N5835 X18.408 Y39.242 Z-5.7 I-0.91 J0.197
N5840 X18.083 Y39.976 I-0.931 J0.027
N5845 X17.509 Y40.2 Z-5.8 I-0.607 J-0.707
N5850 G1 X17.016 F300.
N5855 G3 X16.469 Y39.888 I-0.038 J-0.569
N5860 X17.116 Y38.8 I0.648 J-0.351
N5865 G1 X17.591
N5870 G3 X17.918 Y39.085 Z-5.725 I-0.012 J0.345 F250.
N5875 X17.933 Y39.242 Z-5.7 I-0.935 J0.166
N5880 X17.592 Y39.98 I-0.95 J0.008
N5885 X17.016 Y40.2 Z-5.8 I-0.609 J-0.729
N5890 G1 X16.529 F300.
N5895 G3 X15.986 Y39.882 I-0.034 J-0.564
N5900 X16.639 Y38.8 I0.653 J-0.344
N5905 X16.745 Y38.821 Z-5.783 I-0.012 J0.349 F250.
N5910 X17.13 Y39.152 Z-5.7 I-0.242 J0.669
N5915 X17.069 Y39.921 I-0.626 J0.337
N5920 X16.529 Y40.2 Z-5.8 I-0.565 J-0.432
N5925 G1 X16.047 F300.
N5930 G3 X15.505 Y39.881 I-0.033 J-0.563
N5935 X16.16 Y38.8 I0.654 J-0.343
N5940 X16.268 Y38.821 Z-5.782 I-0.012 J0.349 F250.
N5945 X16.65 Y39.153 Z-5.7 I-0.246 J0.668
N5950 X16.587 Y39.921 I-0.627 J0.336
N5955 X16.047 Y40.2 Z-5.8 I-0.565 J-0.432
N5960 G1 X15.573 F300.
N5965 G3 X15.029 Y39.884 I-0.036 J-0.564
N5970 X15.68 Y38.8 I0.651 J-0.347
N5975 G1 X17.116
N5980 G3 X17.502 Y39.213 Z-5.7 I-0.014 J0.4 F250.
N5985 X17.248 Y39.573 I-0.4 J-0.014
N5990 G1 X17.104 Y39.629
N5995 X16.743 Y39.769 F2000.
N6000 X16.164 Y39.994 F250.
N6005 X15.704 Y40.173 Z-5.779
N6010 G3 X15.573 Y40.2 Z-5.8 I-0.145 J-0.373
N6015 G1 X15.1 F300.
N6020 G3 X14.553 Y39.887 I-0.039 J-0.566
N6025 X15.201 Y38.8 I0.649 J-0.35
N6030 G1 X15.68
N6035 G3 X16.008 Y39.088 Z-5.725 I-0.012 J0.345 F250.
N6040 X16.021 Y39.242 Z-5.7 I-0.942 J0.157
N6045 X15.676 Y39.981 I-0.955 J0.003
N6050 X15.1 Y40.2 Z-5.8 I-0.61 J-0.735
N6055 G1 X14.635 F300.
N6060 G3 X14.082 Y39.895 I-0.048 J-0.566
N6065 X14.723 Y38.8 I0.642 J-0.359
N6070 G1 X15.201
N6075 G3 X15.529 Y39.08 Z-5.726 I-0.012 J0.345 F250.
N6080 X15.545 Y39.242 Z-5.7 I-0.926 J0.177
N6085 X15.21 Y39.978 I-0.943 J0.015
N6090 X14.635 Y40.2 Z-5.8 I-0.608 J-0.721
N6095 G1 X14.153 F300.
N6100 G3 X13.603 Y39.891 I-0.046 J-0.563
N6105 X14.248 Y38.8 I0.646 J-0.355
N6110 G1 X14.723
N6115 G3 X15.051 Y39.082 Z-5.726 I-0.012 J0.345 F250.
N6120 X15.067 Y39.242 Z-5.7 I-0.93 J0.172
N6125 X14.729 Y39.979 I-0.946 J0.012
N6130 X14.154 Y40.2 Z-5.8 I-0.609 J-0.724
N6135 G1 X13.68 F300.
N6140 G3 X13.128 Y39.893 I-0.047 J-0.564
N6145 X13.772 Y38.8 I0.644 J-0.356
N6150 G1 X14.248
N6155 G3 X14.576 Y39.081 Z-5.726 I-0.012 J0.345 F250.
N6160 X14.592 Y39.242 Z-5.7 I-0.929 J0.174
N6165 X14.255 Y39.979 I-0.945 J0.014
N6170 X13.68 Y40.2 Z-5.8 I-0.608 J-0.723
N6175 G1 X13.206 F300.
N6180 G3 X12.653 Y39.894 I-0.048 J-0.566
N6185 X13.296 Y38.8 I0.643 J-0.358
N6190 G1 X13.772
N6195 G3 X14.099 Y39.08 Z-5.726 I-0.012 J0.345 F250.
N6200 X14.116 Y39.242 Z-5.7 I-0.926 J0.178
N6205 X13.781 Y39.978 I-0.942 J0.016
N6210 X13.206 Y40.2 Z-5.8 I-0.608 J-0.72
N6215 G1 X12.742 F300.
N6220 G3 X12.183 Y39.901 I-0.053 J-0.573
N6225 X12.82 Y38.8 I0.638 J-0.366
N6230 G1 X13.296
N6235 G3 X13.622 Y39.073 Z-5.727 I-0.012 J0.345 F250.
N6240 X13.642 Y39.242 Z-5.7 I-0.912 J0.195
N6245 X13.316 Y39.976 I-0.933 J0.026
N6250 X12.742 Y40.2 Z-5.8 I-0.607 J-0.709
N6255 G1 X12.26 F300.
N6260 G3 X11.705 Y39.896 I-0.049 J-0.568
N6265 X12.346 Y38.8 I0.642 J-0.36
N6270 G1 X12.82
N6275 G3 X13.146 Y39.076 Z-5.727 I-0.012 J0.345 F250.
N6280 X13.165 Y39.242 Z-5.7 I-0.919 J0.187
N6285 X12.835 Y39.977 I-0.937 J0.021
N6290 X12.26 Y40.2 Z-5.8 I-0.607 J-0.714
N6295 G1 X11.786 F300.
N6300 G3 X11.231 Y39.897 I-0.05 J-0.569
N6305 X11.871 Y38.8 I0.641 J-0.361
N6310 G1 X12.346
N6315 G3 X12.673 Y39.077 Z-5.727 I-0.012 J0.345 F250.
N6320 X12.691 Y39.242 Z-5.7 I-0.919 J0.186
N6325 X12.361 Y39.977 I-0.938 J0.021
N6330 X11.787 Y40.2 Z-5.8 I-0.607 J-0.714
N6335 G1 X11.313 F300.
N6340 G3 X10.757 Y39.897 I-0.05 J-0.569
N6345 X11.397 Y38.8 I0.641 J-0.362
N6350 G1 X11.871
N6355 G3 X12.198 Y39.076 Z-5.727 I-0.012 J0.345 F250.
N6360 X12.216 Y39.242 Z-5.7 I-0.918 J0.188
N6365 X11.887 Y39.977 I-0.936 J0.022
N6370 X11.313 Y40.2 Z-5.8 I-0.607 J-0.713
N6375 G1 X10.82 F300.
N6380 G3 X10.273 Y39.887 I-0.038 J-0.568
N6385 X10.922 Y38.8 I0.649 J-0.35
N6390 G1 X11.397
N6395 G3 X11.725 Y39.086 Z-5.725 I-0.012 J0.345 F250.
N6400 X11.739 Y39.242 Z-5.7 I-0.938 J0.163
N6405 X11.396 Y39.98 I-0.952 J0.006
N6410 X10.82 Y40.2 Z-5.8 I-0.609 J-0.731
N6415 G1 X10.332 F300.
N6420 G3 X9.79 Y39.882 I-0.033 J-0.564
N6425 X10.444 Y38.8 I0.654 J-0.343
N6430 G1 X10.922
N6435 G3 X11.251 Y39.093 Z-5.724 I-0.012 J0.345 F250.
N6440 X11.262 Y39.243 Z-5.7 I-0.953 J0.144
N6445 X10.909 Y39.982 I-0.963 J-0.005
N6450 X10.332 Y40.2 Z-5.8 I-0.611 J-0.745
N6455 G1 X9.851 F300.
N6460 G3 X9.309 Y39.881 I-0.033 J-0.562
N6465 X9.964 Y38.8 I0.655 J-0.342
N6470 X10.074 Y38.822 Z-5.782 I-0.012 J0.349 F250.
N6475 X10.454 Y39.154 Z-5.7 I-0.248 J0.667
N6480 X10.391 Y39.921 I-0.628 J0.335
N6485 X9.851 Y40.2 Z-5.8 I-0.565 J-0.433
N6490 G1 X9.377 F300.
N6495 G3 X8.833 Y39.884 I-0.036 J-0.564
N6500 X9.484 Y38.8 I0.652 J-0.346
N6505 G1 X10.444
N6510 G3 X10.83 Y39.213 Z-5.7 I-0.014 J0.4 F250.
N6515 X10.626 Y39.548 I-0.4 J-0.014
N6520 G1 X10.481 Y39.63
N6525 X9.94 Y39.935
N6530 X9.559 Y40.149 Z-5.77
N6535 G3 X9.377 Y40.2 Z-5.8 I-0.196 J-0.349
N6540 G1 X8.903 F300.
N6545 G3 X8.357 Y39.887 I-0.038 J-0.566
N6550 X9.006 Y38.8 I0.649 J-0.349
N6555 X9.105 Y38.818 Z-5.784 I-0.012 J0.349 F250.
N6560 X9.5 Y39.148 Z-5.7 I-0.227 J0.672
N6565 X9.443 Y39.921 I-0.622 J0.342
N6570 X8.903 Y40.2 Z-5.8 I-0.565 J-0.43
N6575 G1 X8.439 F300.
N6580 G3 X7.885 Y39.894 I-0.048 J-0.566
N6585 X8.528 Y38.8 I0.643 J-0.358
N6590 G1 X8.571 Y38.804 Z-5.793 F250.
N6595 X8.614 Y38.814 Z-5.786
N6600 G3 X9.028 Y39.141 Z-5.7 I-0.2 J0.679
N6605 X8.978 Y39.92 I-0.614 J0.352
N6610 X8.439 Y40.2 Z-5.8 I-0.564 J-0.427
N6615 G1 X7.957 F300.
N6620 G3 X7.407 Y39.891 I-0.046 J-0.563
N6625 X8.052 Y38.8 I0.646 J-0.354
N6630 X8.145 Y38.816 Z-5.785 I-0.012 J0.349 F250.
N6635 X8.55 Y39.144 Z-5.7 I-0.213 J0.676
N6640 X8.497 Y39.92 I-0.617 J0.348
N6645 X7.957 Y40.2 Z-5.8 I-0.564 J-0.429
N6650 G1 X7.483 F300.
N6655 G3 X6.932 Y39.892 I-0.047 J-0.564
N6660 X7.576 Y38.8 I0.645 J-0.356
N6665 X7.666 Y38.815 Z-5.785 I-0.012 J0.349 F250.
N6670 X8.074 Y39.143 Z-5.7 I-0.207 J0.677
N6675 X8.023 Y39.92 I-0.616 J0.35
N6680 X7.483 Y40.2 Z-5.8 I-0.564 J-0.428
N6685 X6.636 Y40.054 I-0.113 J-1.875 F300.
N6690 G1 X6.577 Y40.001 Z-5.788 F250.
N6695 X6.53 Y39.937 Z-5.775
N6700 X6.496 Y39.865 Z-5.763
N6705 X6.477 Y39.788 Z-5.75
N6710 X6.473 Y39.71 Z-5.737
N6715 X6.485 Y39.631 Z-5.725
N6720 X6.512 Y39.557 Z-5.712
N6725 X6.552 Y39.49 Z-5.7
N6730 G3 X6.989 Y39.343 I0.323 J0.236
N6735 G1 X7.024 Y39.353
N6740 X7.084 Y39.371
N6745 G3 X7.367 Y39.8 I-0.114 J0.383
N6750 X6.924 Y40.152 Z-5.8 I-0.397 J-0.046
N6755 X6.554 Y39.984 I0.071 J-0.649 F300.
N6760 X6.738 Y39.773 I0.095 J-0.102 F250.
N6765 G1 X6.776 Y39.805
N6770 G3 X6.613 Y40.031 I-0.089 J0.108
N6775 X6.356 Y39.627 I0.438 J-0.562 F300.
N6780 G1 X6.349 Y39.567 F250.
N6785 X6.355 Y39.507
N6790 X6.374 Y39.45
N6795 X6.406 Y39.399
N6800 X6.448 Y39.356
N6805 X6.498 Y39.324
N6810 X6.555 Y39.303
N6815 X6.615 Y39.296
N6820 G3 X6.86 Y39.448 I0.002 J0.27
N6825 G1 X6.957 Y39.649
N6830 G3 X6.545 Y39.977 I-0.243 J0.118
N6835 X6.935 Y38.845 I0.455 J-0.476 F300.
N6840 G1 X7.062 Y38.825
N6845 X7.234 Y38.805
N6850 X7.406 Y38.8
N6855 X9.484
N6860 G3 X9.457 Y39.6 I-0.014 J0.4 F250.
N6865 G1 X9.379 Y39.597 Z-5.792
N6870 X9.304 Y39.594 Z-5.77
N6875 X9.234 Y39.592 Z-5.733
N6880 X9.174 Y39.59 Z-5.683
N6885 X9.124 Y39.588 Z-5.622
N6890 X9.087 Y39.587 Z-5.553
N6895 X9.064 Y39.586 Z-5.478
N6900 X9.057 Z-5.4
N6905 G0 Z10.
N6910 X16.539 Y12.666
N6915 Z3.1
N6920 G1 Z2.7 F250.
N6925 G3 X18.239 Y13.334 Z2.6 I0.85 J0.334 F150.
N6930 X16.539 Y12.666 Z2.5 I-0.85 J-0.334
N6935 X18.239 Y13.334 Z2.399 I0.85 J0.334
N6940 X16.539 Y12.666 Z2.299 I-0.85 J-0.334
N6945 X18.239 Y13.334 Z2.199 I0.85 J0.334
N6950 X16.539 Y12.666 Z2.099 I-0.85 J-0.334
N6955 X18.239 Y13.334 Z1.998 I0.85 J0.334
N6960 X16.539 Y12.666 Z1.898 I-0.85 J-0.334
N6965 X18.239 Y13.334 Z1.798 I0.85 J0.334
N6970 X16.539 Y12.666 Z1.698 I-0.85 J-0.334
N6975 X18.239 Y13.334 Z1.598 I0.85 J0.334
N6980 X16.539 Y12.666 Z1.497 I-0.85 J-0.334
N6985 X18.239 Y13.334 Z1.397 I0.85 J0.334
N6990 X16.539 Y12.666 Z1.297 I-0.85 J-0.334
N6995 X18.239 Y13.334 Z1.197 I0.85 J0.334
N7000 X16.539 Y12.666 Z1.097 I-0.85 J-0.334
N7005 X18.239 Y13.334 Z0.996 I0.85 J0.334
N7010 X16.539 Y12.666 Z0.896 I-0.85 J-0.334
N7015 X18.239 Y13.334 Z0.796 I0.85 J0.334
N7020 X16.539 Y12.666 Z0.696 I-0.85 J-0.334
N7025 X18.239 Y13.334 Z0.595 I0.85 J0.334
N7030 X16.539 Y12.666 Z0.495 I-0.85 J-0.334
N7035 X18.239 Y13.334 Z0.395 I0.85 J0.334
N7040 X16.539 Y12.666 Z0.295 I-0.85 J-0.334
N7045 X18.239 Y13.334 Z0.195 I0.85 J0.334
N7050 X16.539 Y12.666 Z0.094 I-0.85 J-0.334
N7055 X18.239 Y13.334 Z-0.006 I0.85 J0.334
N7060 X16.539 Y12.666 Z-0.106 I-0.85 J-0.334
N7065 X18.239 Y13.334 Z-0.206 I0.85 J0.334
N7070 X16.539 Y12.666 Z-0.307 I-0.85 J-0.334
N7075 X18.239 Y13.334 Z-0.407 I0.85 J0.334
N7080 X16.539 Y12.666 Z-0.507 I-0.85 J-0.334
N7085 X18.239 Y13.334 Z-0.607 I0.85 J0.334
N7090 X16.539 Y12.666 Z-0.707 I-0.85 J-0.334
N7095 X18.239 Y13.334 Z-0.808 I0.85 J0.334
N7100 X16.539 Y12.666 Z-0.908 I-0.85 J-0.334
N7105 X18.239 Y13.334 Z-1.008 I0.85 J0.334
N7110 X16.539 Y12.666 Z-1.108 I-0.85 J-0.334
N7115 X18.239 Y13.334 Z-1.208 I0.85 J0.334
N7120 X16.539 Y12.666 Z-1.309 I-0.85 J-0.334
N7125 X18.239 Y13.334 Z-1.409 I0.85 J0.334
N7130 X16.539 Y12.666 Z-1.509 I-0.85 J-0.334
N7135 X18.239 Y13.334 Z-1.609 I0.85 J0.334
N7140 X16.539 Y12.666 Z-1.71 I-0.85 J-0.334
N7145 X18.239 Y13.334 Z-1.81 I0.85 J0.334
N7150 X16.539 Y12.666 Z-1.91 I-0.85 J-0.334
N7155 X18.239 Y13.334 Z-2.01 I0.85 J0.334
N7160 X16.539 Y12.666 Z-2.11 I-0.85 J-0.334
N7165 X18.239 Y13.334 Z-2.211 I0.85 J0.334
N7170 X16.539 Y12.666 Z-2.311 I-0.85 J-0.334
N7175 X18.239 Y13.334 Z-2.411 I0.85 J0.334
N7180 X16.539 Y12.666 Z-2.511 I-0.85 J-0.334
N7185 X18.239 Y13.334 Z-2.612 I0.85 J0.334
N7190 X16.539 Y12.666 Z-2.712 I-0.85 J-0.334
N7195 X18.303 Y13. Z-2.8 I0.85 J0.334
N7200 X16.476 I-0.913 J0.
N7205 X18.303 I0.913 J0.
N7210 G1 X18.334 Y13.645 F300.
N7215 X18.306 Y13.775
N7220 X18.234 Y13.887
N7225 X18.128 Y13.967
N7230 X18.001 Y14.005
N7235 X17.733 Y14.034
N7240 X17.561 Y14.05
N7245 X16.778
N7250 G3 X15.808 Y13.253 I0.04 J-1.037
N7255 X16.67 Y11.949 I0.869 J-0.363
N7260 G1 X17.561 Y11.95
N7265 G3 X18.369 Y12.075 I-0.096 J3.28
N7270 X18.957 Y12.696 I-0.533 J1.094
N7275 G1 X18.973 Y12.773 Z-2.787 F250.
N7280 X18.974 Y12.851 Z-2.775
N7285 X18.96 Y12.929 Z-2.762
N7290 X18.931 Y13.002 Z-2.75
N7295 X18.889 Y13.068 Z-2.738
N7300 X18.834 Y13.124 Z-2.725
N7305 X18.77 Y13.169 Z-2.713
N7310 X18.698 Y13.2 Z-2.7
N7315 G3 X18.326 Y13.134 I-0.124 J-0.38
N7320 G1 X18.148 Y12.993
N7325 X17.979 Y12.86 F2000.
N7330 X17.799 Y12.718 F250.
N7335 G3 X17.648 Y12.373 I0.248 J-0.314
N7340 X18.078 Y12.005 Z-2.8 I0.399 J0.031
N7345 X18.001 Y14.001 I-0.069 J0.997 F300.
N7350 G1 X16.778 Y14.05 F250.
N7355 X16.09 F300.
N7360 G3 X15.077 Y13.29 I0.034 J-1.101
N7365 X15.067 Y12.486 I0.811 J-0.412
N7370 X15.911 Y11.95 I0.844 J0.396
N7375 G1 X16.67
N7380 G3 X17.056 Y12.363 Z-2.7 I-0.014 J0.4 F250.
N7385 X17.021 Y12.513 I-0.4 J-0.014
N7390 G1 X16.831 Y12.939
N7395 X16.768 Y13.081 F2000.
N7400 X16.515 Y13.647 F250.
N7405 X16.441 Y13.813 Z-2.729
N7410 G3 X16.09 Y14.05 Z-2.8 I-0.365 J-0.163
N7415 G1 X15.324 F300.
N7420 G3 X14.316 Y13.281 I0.05 J-1.11
N7425 X15.159 Y11.95 I0.842 J-0.399
N7430 G1 X15.911
N7435 G3 X16.297 Y12.363 Z-2.7 I-0.014 J0.4 F250.
N7440 X16.262 Y12.514 I-0.4 J-0.014
N7445 G1 X16.071 Y12.938
N7450 X16.005 Y13.082 F2000.
N7455 X15.75 Y13.648 F250.
N7460 X15.674 Y13.815 Z-2.729
N7465 G3 X15.324 Y14.05 Z-2.8 I-0.365 J-0.165
N7470 G1 X14.583 F300.
N7475 G3 X13.52 Y13.151 I0.049 J-1.136
N7480 G1 X13.476 Y13.004
N7485 G3 X14.401 Y11.95 I0.926 J-0.12
N7490 G1 X15.159
N7495 G3 X15.545 Y12.363 Z-2.7 I-0.014 J0.4 F250.
N7500 X15.511 Y12.512 I-0.4 J-0.014
N7505 G1 X15.322 Y12.939
N7510 X15.259 Y13.08 F2000.
N7515 X15.008 Y13.647 F250.
N7520 X14.935 Y13.812 Z-2.729
N7525 G3 X14.583 Y14.05 Z-2.8 I-0.366 J-0.162
N7530 G1 X13.852 F300.
N7535 G3 X12.77 Y13.171 I0.029 J-1.141
N7540 G1 X12.726 Y13.028
N7545 G3 X13.648 Y11.95 I0.922 J-0.144
N7550 G1 X14.401
N7555 G3 X14.787 Y12.363 Z-2.7 I-0.014 J0.4 F250.
N7560 X14.756 Y12.505 I-0.4 J-0.014
N7565 G1 X14.571 Y12.942
N7570 X14.516 Y13.074 F2000.
N7575 X14.274 Y13.646 F250.
N7580 X14.207 Y13.806 Z-2.728
N7585 G3 X13.852 Y14.05 Z-2.8 I-0.368 J-0.156
N7590 G1 X13.086 F300.
N7595 G3 X12.013 Y13.161 I0.04 J-1.14
N7600 G1 X11.969 Y13.015
N7605 G3 X12.893 Y11.95 I0.924 J-0.131
N7610 G1 X13.648
N7615 G3 X14.033 Y12.363 Z-2.7 I-0.014 J0.4 F250.
N7620 X14.001 Y12.508 I-0.4 J-0.014
N7625 G1 X13.814 Y12.941
N7630 X13.755 Y13.077 F2000.
N7635 X13.509 Y13.647 F250.
N7640 X13.439 Y13.809 Z-2.728
N7645 G3 X13.086 Y14.05 Z-2.8 I-0.367 J-0.159
N7650 G1 X12.303 F300.
N7655 G3 X11.297 Y13.279 I0.052 J-1.109
N7660 X12.141 Y11.95 I0.842 J-0.398
N7665 G1 X12.893
N7670 G3 X13.279 Y12.363 Z-2.7 I-0.014 J0.4 F250.
N7675 X13.243 Y12.515 I-0.4 J-0.014
N7680 G1 X13.052 Y12.938
N7685 X12.986 Y13.083 F2000.
N7690 X12.729 Y13.648 F250.
N7695 X12.653 Y13.816 Z-2.729
N7700 G3 X12.303 Y14.05 Z-2.8 I-0.364 J-0.165
N7705 G1 X11.572 F300.
N7710 G3 X10.503 Y13.157 I0.043 J-1.136
N7715 G1 X10.459 Y13.008
N7720 G3 X11.384 Y11.95 I0.925 J-0.125
N7725 G1 X12.141
N7730 G3 X12.526 Y12.363 Z-2.7 I-0.014 J0.4 F250.
N7735 X12.493 Y12.51 I-0.4 J-0.014
N7740 G1 X12.305 Y12.94
N7745 X12.245 Y13.078 F2000.
N7750 X11.996 Y13.647 F250.
N7755 X11.924 Y13.811 Z-2.728
N7760 G3 X11.572 Y14.05 Z-2.8 I-0.366 J-0.16
N7765 G1 X10.796 F300.
N7770 G3 X9.788 Y13.281 I0.05 J-1.11
N7775 X10.631 Y11.95 I0.841 J-0.399
N7780 G1 X11.384
N7785 G3 X11.769 Y12.363 Z-2.7 I-0.014 J0.4 F250.
N7790 X11.734 Y12.514 I-0.4 J-0.014
N7795 G1 X11.543 Y12.938
N7800 X11.478 Y13.082 F2000.
N7805 X11.222 Y13.648 F250.
N7810 X11.147 Y13.815 Z-2.729
N7815 G3 X10.796 Y14.05 Z-2.8 I-0.365 J-0.165
N7820 G1 X10.065 F300.
N7825 G3 X8.995 Y13.159 I0.04 J-1.137
N7830 G1 X8.951 Y13.015
N7835 G3 X9.875 Y11.95 I0.924 J-0.132
N7840 X10.257 Y12.292 Z-2.711 I-0.014 J0.4 F250.
N7845 G1 X10.267 Y12.363 Z-2.7
N7850 X10.357 Y12.977
N7855 X10.364 Y13.022 F2000.
N7860 G3 X10.451 Y13.637 I-4.816 J1. F250.
N7865 G1 X10.446 Y13.715 Z-2.713
N7870 X10.426 Y13.791 Z-2.725
N7875 X10.391 Y13.861 Z-2.738
N7880 X10.344 Y13.923 Z-2.75
N7885 X10.285 Y13.975 Z-2.762
N7890 X10.217 Y14.014 Z-2.775
N7895 X10.143 Y14.04 Z-2.787
N7900 X10.065 Y14.05 Z-2.8
N7905 X9.299 F300.
N7910 G3 X8.236 Y13.149 I0.053 J-1.14
N7915 X9.123 Y11.952 I0.879 J-0.277
N7920 G1 X9.193 Y11.96 Z-2.789 F250.
N7925 X9.259 Y11.98 Z-2.778
N7930 X9.322 Y12.012 Z-2.767
N7935 X9.377 Y12.054 Z-2.755
N7940 X9.425 Y12.105 Z-2.744
N7945 X9.463 Y12.164 Z-2.733
N7950 X9.49 Y12.228 Z-2.722
N7955 X9.506 Y12.296 Z-2.711
N7960 X9.515 Y12.363 Z-2.7
N7965 X9.598 Y12.978
N7970 X9.604 Y13.021 F2000.
N7975 G3 X9.685 Y13.637 I-5.553 J1.047 F250.
N7980 G1 X9.68 Y13.715 Z-2.713
N7985 X9.66 Y13.791 Z-2.725
N7990 X9.625 Y13.861 Z-2.738
N7995 X9.578 Y13.923 Z-2.75
N8000 X9.519 Y13.975 Z-2.762
N8005 X9.451 Y14.014 Z-2.775
N8010 X9.377 Y14.04 Z-2.787
N8015 X9.299 Y14.05 Z-2.8
N8020 X8.559 F300.
N8025 G3 X7.487 Y13.16 I0.039 J-1.137
N8030 G1 X7.443 Y13.016
N8035 G3 X8.367 Y11.95 I0.924 J-0.133
N8040 X8.749 Y12.291 Z-2.712 I-0.014 J0.4 F250.
N8045 G1 X8.759 Y12.363 Z-2.7
N8050 X8.85 Y12.977
N8055 X8.856 Y13.022 F2000.
N8060 G3 X8.945 Y13.637 I-4.778 J1. F250.
N8065 G1 X8.94 Y13.715 Z-2.713
N8070 X8.919 Y13.791 Z-2.725
N8075 X8.885 Y13.861 Z-2.738
N8080 X8.837 Y13.923 Z-2.75
N8085 X8.778 Y13.975 Z-2.762
N8090 X8.711 Y14.014 Z-2.775
N8095 X8.636 Y14.04 Z-2.787
N8100 X8.559 Y14.05 Z-2.8
N8105 G3 X7.576 Y13.918 I-0.157 J-2.561 F300.
N8110 X7.749 Y12.024 I0.43 J-0.916
N8115 G1 X8.094 Y11.967
N8120 X8.18 Y11.953
N8125 X8.267 Y11.95
N8130 X10.631
N8135 G3 X10.946 Y12.577 I-0.014 J0.4 F250.
N8140 G1 X10.902 Y12.619 Z-2.795
N8145 X10.858 Y12.659 Z-2.781
N8150 X10.817 Y12.697 Z-2.758
N8155 X10.765 Y12.713 Z-2.726
N8160 X10.719 Y12.727 Z-2.685
N8165 X10.68 Y12.739 Z-2.637
N8170 X10.648 Y12.749 Z-2.583
N8175 X10.631 Z-2.545
N8180 X10.618 Y12.75 Z-2.505
N8185 X10.607 Z-2.453
N8190 X10.604 Z-2.4
N8195 G0 Z0.1
N8200 X16.539 Y12.666
N8205 G1 Z-0.3 F250.
N8210 G3 X18.239 Y13.334 Z-0.4 I0.85 J0.334 F150.
N8215 X16.539 Y12.666 Z-0.5 I-0.85 J-0.334
N8220 X18.239 Y13.334 Z-0.601 I0.85 J0.334
N8225 X16.539 Y12.666 Z-0.701 I-0.85 J-0.334
N8230 X18.239 Y13.334 Z-0.801 I0.85 J0.334
N8235 X16.539 Y12.666 Z-0.901 I-0.85 J-0.334
N8240 X18.239 Y13.334 Z-1.002 I0.85 J0.334
N8245 X16.539 Y12.666 Z-1.102 I-0.85 J-0.334
N8250 X18.239 Y13.334 Z-1.202 I0.85 J0.334
N8255 X16.539 Y12.666 Z-1.302 I-0.85 J-0.334
N8260 X18.239 Y13.334 Z-1.402 I0.85 J0.334
N8265 X16.539 Y12.666 Z-1.503 I-0.85 J-0.334
N8270 X18.239 Y13.334 Z-1.603 I0.85 J0.334
N8275 X16.539 Y12.666 Z-1.703 I-0.85 J-0.334
N8280 X18.239 Y13.334 Z-1.803 I0.85 J0.334
N8285 X16.539 Y12.666 Z-1.903 I-0.85 J-0.334
N8290 X18.239 Y13.334 Z-2.004 I0.85 J0.334
N8295 X16.539 Y12.666 Z-2.104 I-0.85 J-0.334
N8300 X18.239 Y13.334 Z-2.204 I0.85 J0.334
N8305 X16.539 Y12.666 Z-2.304 I-0.85 J-0.334
N8310 X18.239 Y13.334 Z-2.405 I0.85 J0.334
N8315 X16.539 Y12.666 Z-2.505 I-0.85 J-0.334
N8320 X18.239 Y13.334 Z-2.605 I0.85 J0.334
N8325 X16.539 Y12.666 Z-2.705 I-0.85 J-0.334
N8330 X18.239 Y13.334 Z-2.805 I0.85 J0.334
N8335 X16.539 Y12.666 Z-2.906 I-0.85 J-0.334
N8340 X18.239 Y13.334 Z-3.006 I0.85 J0.334
N8345 X16.539 Y12.666 Z-3.106 I-0.85 J-0.334
N8350 X18.239 Y13.334 Z-3.206 I0.85 J0.334
N8355 X16.539 Y12.666 Z-3.307 I-0.85 J-0.334
N8360 X18.239 Y13.334 Z-3.407 I0.85 J0.334
N8365 X16.539 Y12.666 Z-3.507 I-0.85 J-0.334
N8370 X18.239 Y13.334 Z-3.607 I0.85 J0.334
N8375 X16.539 Y12.666 Z-3.707 I-0.85 J-0.334
N8380 X18.239 Y13.334 Z-3.808 I0.85 J0.334
N8385 X16.539 Y12.666 Z-3.908 I-0.85 J-0.334
N8390 X18.239 Y13.334 Z-4.008 I0.85 J0.334
N8395 X16.539 Y12.666 Z-4.108 I-0.85 J-0.334
N8400 X18.239 Y13.334 Z-4.208 I0.85 J0.334
N8405 X16.539 Y12.666 Z-4.309 I-0.85 J-0.334
N8410 X18.239 Y13.334 Z-4.409 I0.85 J0.334
N8415 X16.539 Y12.666 Z-4.509 I-0.85 J-0.334
N8420 X18.239 Y13.334 Z-4.609 I0.85 J0.334
N8425 X16.539 Y12.666 Z-4.71 I-0.85 J-0.334
N8430 X18.239 Y13.334 Z-4.81 I0.85 J0.334
N8435 X16.539 Y12.666 Z-4.91 I-0.85 J-0.334
N8440 X18.239 Y13.334 Z-5.01 I0.85 J0.334
N8445 X16.539 Y12.666 Z-5.11 I-0.85 J-0.334
N8450 X18.239 Y13.334 Z-5.211 I0.85 J0.334
N8455 X16.539 Y12.666 Z-5.311 I-0.85 J-0.334
N8460 X18.239 Y13.334 Z-5.411 I0.85 J0.334
N8465 X16.539 Y12.666 Z-5.511 I-0.85 J-0.334
N8470 X18.239 Y13.334 Z-5.612 I0.85 J0.334
N8475 X16.539 Y12.666 Z-5.712 I-0.85 J-0.334
N8480 X18.303 Y13. Z-5.8 I0.85 J0.334
N8485 X16.476 I-0.913 J0.
N8490 X18.303 I0.913 J0.
N8495 G1 X18.334 Y13.645 F300.
N8500 X18.306 Y13.775
N8505 X18.234 Y13.887
N8510 X18.128 Y13.967
N8515 X18.001 Y14.005
N8520 X17.733 Y14.034
N8525 X17.561 Y14.05
N8530 X16.778
N8535 G3 X15.808 Y13.253 I0.04 J-1.037
N8540 X16.67 Y11.949 I0.869 J-0.363
N8545 G1 X17.561 Y11.95
N8550 G3 X18.369 Y12.075 I-0.096 J3.28
N8555 X18.957 Y12.696 I-0.533 J1.094
N8560 G1 X18.973 Y12.773 Z-5.788 F250.
N8565 X18.974 Y12.851 Z-5.775
N8570 X18.96 Y12.929 Z-5.763
N8575 X18.931 Y13.002 Z-5.75
N8580 X18.889 Y13.068 Z-5.737
N8585 X18.834 Y13.124 Z-5.725
N8590 X18.77 Y13.169 Z-5.712
N8595 X18.698 Y13.2 Z-5.7
N8600 G3 X18.326 Y13.134 I-0.124 J-0.38
N8605 G1 X18.148 Y12.993
N8610 X17.979 Y12.86 F2000.
N8615 X17.799 Y12.718 F250.
N8620 G3 X17.648 Y12.373 I0.248 J-0.314
N8625 X18.078 Y12.005 Z-5.8 I0.399 J0.031
N8630 X18.001 Y14.001 I-0.069 J0.997 F300.
N8635 G1 X16.778 Y14.05 F250.
N8640 X16.09 F300.
N8645 G3 X15.077 Y13.29 I0.034 J-1.101
N8650 X15.067 Y12.486 I0.811 J-0.412
N8655 X15.911 Y11.95 I0.844 J0.396
N8660 G1 X16.67
N8665 G3 X17.056 Y12.363 Z-5.7 I-0.014 J0.4 F250.
N8670 X17.021 Y12.513 I-0.4 J-0.014
N8675 G1 X16.831 Y12.939
N8680 X16.768 Y13.081 F2000.
N8685 X16.515 Y13.647 F250.
N8690 X16.441 Y13.813 Z-5.729
N8695 G3 X16.09 Y14.05 Z-5.8 I-0.365 J-0.163
N8700 G1 X15.324 F300.
N8705 G3 X14.316 Y13.281 I0.05 J-1.11
N8710 X15.159 Y11.95 I0.842 J-0.399
N8715 G1 X15.911
N8720 G3 X16.297 Y12.363 Z-5.7 I-0.014 J0.4 F250.
N8725 X16.262 Y12.514 I-0.4 J-0.014
N8730 G1 X16.071 Y12.938
N8735 X16.005 Y13.082 F2000.
N8740 X15.75 Y13.648 F250.
N8745 X15.674 Y13.815 Z-5.729
N8750 G3 X15.324 Y14.05 Z-5.8 I-0.365 J-0.165
N8755 G1 X14.583 F300.
N8760 G3 X13.52 Y13.151 I0.049 J-1.136
N8765 G1 X13.476 Y13.004
N8770 G3 X14.401 Y11.95 I0.926 J-0.12
N8775 G1 X15.159
N8780 G3 X15.545 Y12.363 Z-5.7 I-0.014 J0.4 F250.
N8785 X15.511 Y12.512 I-0.4 J-0.014
N8790 G1 X15.322 Y12.939
N8795 X15.259 Y13.08 F2000.
N8800 X15.008 Y13.647 F250.
N8805 X14.935 Y13.812 Z-5.729
N8810 G3 X14.583 Y14.05 Z-5.8 I-0.366 J-0.162
N8815 G1 X13.852 F300.
N8820 G3 X12.77 Y13.171 I0.029 J-1.141
N8825 G1 X12.726 Y13.028
N8830 G3 X13.648 Y11.95 I0.922 J-0.144
N8835 G1 X14.401
N8840 G3 X14.787 Y12.363 Z-5.7 I-0.014 J0.4 F250.
N8845 X14.756 Y12.505 I-0.4 J-0.014
N8850 G1 X14.571 Y12.942
N8855 X14.516 Y13.074 F2000.
N8860 X14.274 Y13.646 F250.
N8865 X14.207 Y13.806 Z-5.728
N8870 G3 X13.852 Y14.05 Z-5.8 I-0.368 J-0.156
N8875 G1 X13.086 F300.
N8880 G3 X12.013 Y13.161 I0.04 J-1.14
N8885 G1 X11.969 Y13.015
N8890 G3 X12.893 Y11.95 I0.924 J-0.131
N8895 G1 X13.648
N8900 G3 X14.033 Y12.363 Z-5.7 I-0.014 J0.4 F250.
N8905 X14.001 Y12.508 I-0.4 J-0.014
N8910 G1 X13.814 Y12.941
N8915 X13.755 Y13.077 F2000.
N8920 X13.509 Y13.647 F250.
N8925 X13.439 Y13.809 Z-5.728
N8930 G3 X13.086 Y14.05 Z-5.8 I-0.367 J-0.159
N8935 G1 X12.303 F300.
N8940 G3 X11.297 Y13.279 I0.052 J-1.109
N8945 X12.141 Y11.95 I0.842 J-0.398
N8950 G1 X12.893
N8955 G3 X13.279 Y12.363 Z-5.7 I-0.014 J0.4 F250.
N8960 X13.243 Y12.515 I-0.4 J-0.014
N8965 G1 X13.052 Y12.938
N8970 X12.986 Y13.083 F2000.
N8975 X12.729 Y13.648 F250.
N8980 X12.653 Y13.816 Z-5.729
N8985 G3 X12.303 Y14.05 Z-5.8 I-0.364 J-0.165
N8990 G1 X11.572 F300.
N8995 G3 X10.503 Y13.157 I0.043 J-1.136
N9000 G1 X10.459 Y13.008
N9005 G3 X11.384 Y11.95 I0.925 J-0.125
N9010 G1 X12.141
N9015 G3 X12.526 Y12.363 Z-5.7 I-0.014 J0.4 F250.
N9020 X12.493 Y12.51 I-0.4 J-0.014
N9025 G1 X12.305 Y12.94
N9030 X12.245 Y13.078 F2000.
N9035 X11.996 Y13.647 F250.
N9040 X11.924 Y13.811 Z-5.728
N9045 G3 X11.572 Y14.05 Z-5.8 I-0.366 J-0.16
N9050 G1 X10.796 F300.
N9055 G3 X9.788 Y13.281 I0.05 J-1.11
N9060 X10.631 Y11.95 I0.841 J-0.399
N9065 G1 X11.384
N9070 G3 X11.769 Y12.363 Z-5.7 I-0.014 J0.4 F250.
N9075 X11.734 Y12.514 I-0.4 J-0.014
N9080 G1 X11.543 Y12.938
N9085 X11.478 Y13.082 F2000.
N9090 X11.222 Y13.648 F250.
N9095 X11.147 Y13.815 Z-5.729
N9100 G3 X10.796 Y14.05 Z-5.8 I-0.365 J-0.165
N9105 G1 X10.065 F300.
N9110 G3 X8.995 Y13.159 I0.04 J-1.137
N9115 G1 X8.951 Y13.015
N9120 G3 X9.875 Y11.95 I0.924 J-0.132
N9125 X10.257 Y12.292 Z-5.711 I-0.014 J0.4 F250.
N9130 G1 X10.267 Y12.363 Z-5.7
N9135 X10.357 Y12.977
N9140 X10.364 Y13.022 F2000.
N9145 G3 X10.451 Y13.637 I-4.816 J1. F250.
N9150 G1 X10.446 Y13.715 Z-5.712
N9155 X10.426 Y13.791 Z-5.725
N9160 X10.391 Y13.861 Z-5.737
N9165 X10.344 Y13.923 Z-5.75
N9170 X10.285 Y13.975 Z-5.763
N9175 X10.217 Y14.014 Z-5.775
N9180 X10.143 Y14.04 Z-5.788
N9185 X10.065 Y14.05 Z-5.8
N9190 X9.299 F300.
N9195 G3 X8.236 Y13.149 I0.053 J-1.14
N9200 X9.123 Y11.952 I0.879 J-0.277
N9205 G1 X9.193 Y11.96 Z-5.789 F250.
N9210 X9.259 Y11.98 Z-5.778
N9215 X9.322 Y12.012 Z-5.767
N9220 X9.377 Y12.054 Z-5.755
N9225 X9.425 Y12.105 Z-5.744
N9230 X9.463 Y12.164 Z-5.733
N9235 X9.49 Y12.228 Z-5.722
N9240 X9.506 Y12.296 Z-5.711
N9245 X9.515 Y12.363 Z-5.7
N9250 X9.598 Y12.978
N9255 X9.604 Y13.021 F2000.
N9260 G3 X9.685 Y13.637 I-5.553 J1.047 F250.
N9265 G1 X9.68 Y13.715 Z-5.712
N9270 X9.66 Y13.791 Z-5.725
N9275 X9.625 Y13.861 Z-5.737
N9280 X9.578 Y13.923 Z-5.75
N9285 X9.519 Y13.975 Z-5.763
N9290 X9.451 Y14.014 Z-5.775
N9295 X9.377 Y14.04 Z-5.788
N9300 X9.299 Y14.05 Z-5.8
N9305 X8.559 F300.
N9310 G3 X7.487 Y13.16 I0.039 J-1.137
N9315 G1 X7.443 Y13.016
N9320 G3 X8.367 Y11.95 I0.924 J-0.133
N9325 X8.749 Y12.291 Z-5.712 I-0.014 J0.4 F250.
N9330 G1 X8.759 Y12.363 Z-5.7
N9335 X8.85 Y12.977
N9340 X8.856 Y13.022 F2000.
N9345 G3 X8.945 Y13.637 I-4.778 J1. F250.
N9350 G1 X8.94 Y13.715 Z-5.712
N9355 X8.919 Y13.791 Z-5.725
N9360 X8.885 Y13.861 Z-5.737
N9365 X8.837 Y13.923 Z-5.75
N9370 X8.778 Y13.975 Z-5.763
N9375 X8.711 Y14.014 Z-5.775
N9380 X8.636 Y14.04 Z-5.788
N9385 X8.559 Y14.05 Z-5.8
N9390 G3 X7.576 Y13.918 I-0.157 J-2.561 F300.
N9395 X7.749 Y12.024 I0.43 J-0.916
N9400 G1 X8.094 Y11.967
N9405 X8.18 Y11.953
N9410 X8.267 Y11.95
N9415 X10.631
N9420 G3 X10.946 Y12.577 I-0.014 J0.4 F250.
N9425 G1 X10.902 Y12.619 Z-5.795
N9430 X10.858 Y12.659 Z-5.781
N9435 X10.817 Y12.697 Z-5.758
N9440 X10.765 Y12.713 Z-5.726
N9445 X10.719 Y12.727 Z-5.685
N9450 X10.68 Y12.739 Z-5.637
N9455 X10.648 Y12.749 Z-5.583
N9460 X10.631 Z-5.545
N9465 X10.618 Y12.75 Z-5.505
N9470 X10.607 Z-5.453
N9475 X10.604 Z-5.4
N9480 G0 Z5.
N9485 X18.954 Y52.932
N9490 Z3.1
N9495 G1 Z2.7 F250.
N9500 G3 X15.825 Y53.068 Z2.528 I-1.565 J0.068 F150.
N9505 X18.954 Y52.932 Z2.356 I1.565 J-0.068
N9510 X15.825 Y53.068 Z2.185 I-1.565 J0.068
N9515 X18.954 Y52.932 Z2.013 I1.565 J-0.068
N9520 X15.825 Y53.068 Z1.841 I-1.565 J0.068
N9525 X18.954 Y52.932 Z1.669 I1.565 J-0.068
N9530 X15.825 Y53.068 Z1.497 I-1.565 J0.068
N9535 X18.954 Y52.932 Z1.326 I1.565 J-0.068
N9540 X15.825 Y53.068 Z1.154 I-1.565 J0.068
N9545 X18.954 Y52.932 Z0.982 I1.565 J-0.068
N9550 X15.825 Y53.068 Z0.81 I-1.565 J0.068
N9555 X18.954 Y52.932 Z0.638 I1.565 J-0.068
N9560 X15.825 Y53.068 Z0.467 I-1.565 J0.068
N9565 X18.954 Y52.932 Z0.295 I1.565 J-0.068
N9570 X15.825 Y53.068 Z0.123 I-1.565 J0.068
N9575 X18.954 Y52.932 Z-0.049 I1.565 J-0.068
N9580 X15.825 Y53.068 Z-0.221 I-1.565 J0.068
N9585 X18.954 Y52.932 Z-0.392 I1.565 J-0.068
N9590 X15.825 Y53.068 Z-0.564 I-1.565 J0.068
N9595 X18.954 Y52.932 Z-0.736 I1.565 J-0.068
N9600 X15.825 Y53.068 Z-0.908 I-1.565 J0.068
N9605 X18.954 Y52.932 Z-1.08 I1.565 J-0.068
N9610 X15.825 Y53.068 Z-1.251 I-1.565 J0.068
N9615 X18.954 Y52.932 Z-1.423 I1.565 J-0.068
N9620 X15.825 Y53.068 Z-1.595 I-1.565 J0.068
N9625 X18.954 Y52.932 Z-1.767 I1.565 J-0.068
N9630 X15.825 Y53.068 Z-1.939 I-1.565 J0.068
N9635 X18.954 Y52.932 Z-2.11 I1.565 J-0.068
N9640 X15.825 Y53.068 Z-2.282 I-1.565 J0.068
N9645 X18.954 Y52.932 Z-2.454 I1.565 J-0.068
N9650 X15.825 Y53.068 Z-2.626 I-1.565 J0.068
N9655 X17.355 Y51.434 Z-2.713 I1.565 J-0.068
N9660 X18.955 Y53. Z-2.8 I0.034 J1.566
N9665 X15.823 I-1.566 J0.
N9670 X18.955 I1.566 J0.
N9675 G1 X18.976 Y53.757 F300.
N9680 G3 X18.416 Y54.765 I-0.78 J0.226
N9685 G1 X18.182 Y54.8
N9690 X16.529
N9695 G3 X15.095 Y53.828 I0.042 J-1.604
N9700 X15.312 Y51.462 I1.984 J-1.011
N9705 G1 X15.511 Y51.322
N9710 X15.734 Y51.231
N9715 X15.972 Y51.2
N9720 X18.25
N9725 G3 X19.196 Y51.707 I0.074 J0.998
N9730 G1 X19.273 Y51.918
N9735 X19.3 Y52.141
N9740 G3 X18.887 Y52.527 Z-2.7 I-0.4 J-0.014 F250.
N9745 X18.645 Y52.435 I0.014 J-0.4
N9750 G1 X18.37 Y52.207
N9755 X18.226 Y52.088 F2000.
N9760 X18.009 Y51.908 F250.
N9765 G3 X17.864 Y51.613 I0.255 J-0.308
N9770 X18.25 Y51.2 Z-2.8 I0.4 J-0.014
N9775 G1 X18.766 F300.
N9780 X18.938 Y51.203
N9785 X18.981 Y51.211
N9790 X19.024 Y51.224
N9795 X19.067 Y51.242
N9800 X19.11 Y51.268
N9805 X19.147 Y51.296
N9810 X19.184 Y51.332
N9815 X19.235 Y51.396
N9820 G3 X19.3 Y51.74 I-0.433 J0.26
N9825 G1 Y54.318
N9830 X19.299 Y54.404
N9835 X19.295 Y54.447
N9840 X19.285 Y54.49
N9845 X19.283 Y54.499
N9850 X19.268 Y54.54
N9855 X19.247 Y54.581
N9860 X19.221 Y54.622
N9865 X19.19 Y54.662
N9870 X19.15 Y54.702
N9875 X19.11 Y54.732
N9880 X19.067 Y54.757
N9885 G3 X18.766 Y54.8 I-0.22 J-0.467
N9890 G1 X18.182
N9895 X17.785 F250.
N9900 X16.529
N9905 X15.496 F300.
N9910 G3 X14.442 Y54.281 I0.047 J-1.423
N9915 X13.975 Y51.667 I1.906 J-1.689
N9920 X14.793 Y51.199 I0.831 J0.504
N9925 G1 X15.972 Y51.2
N9930 G3 X16.358 Y51.613 Z-2.7 I-0.014 J0.4 F250.
N9935 X16.353 Y51.667 I-0.4 J-0.014
N9940 G1 X16.258 Y52.226
N9945 X15.994 Y53.776 F2000.
N9950 X15.89 Y54.387 F250.
N9955 X15.876 Y54.467 Z-2.713
N9960 G3 X15.496 Y54.8 Z-2.8 I-0.394 J-0.067
N9965 G1 X14.541 F300.
N9970 G3 X13.339 Y54.154 I0.07 J-1.569
N9975 X12.763 Y51.925 I2.018 J-1.71
N9980 X13.675 Y51.2 I0.914 J0.213
N9985 G1 X14.793
N9990 G3 X15.178 Y51.613 Z-2.7 I-0.014 J0.4 F250.
N9995 G1 X15.177 Y51.636
N10000 X15.123 Y52.232
N10005 X14.985 Y53.769 F2000.
N10010 X14.929 Y54.387 F250.
N10015 X14.925 Y54.436 Z-2.708
N10020 G3 X14.541 Y54.8 Z-2.8 I-0.398 J-0.036
N10025 G1 X13.508 F300.
N10030 G3 X12.275 Y54.137 I0.101 J-1.665
N10035 X11.659 Y51.939 I1.951 J-1.732
N10040 X12.575 Y51.2 I0.919 J0.202
N10045 G1 X13.675
N10050 G3 X14.061 Y51.613 Z-2.7 I-0.014 J0.4 F250.
N10055 G1 X14.06 Y51.624
N10060 X14.024 Y52.233
N10065 X13.932 Y53.767 F2000.
N10070 X13.895 Y54.387 F250.
N10075 X13.893 Y54.424 Z-2.706
N10080 G3 X13.508 Y54.8 Z-2.8 I-0.399 J-0.024
N10085 G1 X12.475 F300.
N10090 G3 X11.095 Y54.011 I0.1 J-1.775
N10095 X10.56 Y51.963 I1.996 J-1.615
N10100 X11.48 Y51.2 I0.923 J0.176
N10105 G1 X12.575
N10110 G3 X12.96 Y51.613 Z-2.7 I-0.014 J0.4 F250.
N10115 G1 X12.938 Y52.234
N10120 X12.884 Y53.766 F2000.
N10125 X12.862 Y54.387 F250.
N10130 X12.861 Y54.414 Z-2.704
N10135 G3 X12.475 Y54.8 Z-2.8 I-0.4 J-0.014
N10140 G1 X11.365 F300.
N10145 G3 X10.11 Y54.14 I0.105 J-1.723
N10150 X9.469 Y51.952 I1.916 J-1.75
N10155 X10.387 Y51.2 I0.922 J0.189
N10160 G1 X11.48
N10165 G3 X11.866 Y51.613 Z-2.7 I-0.014 J0.4 F250.
N10170 G1 Y51.616
N10175 X11.84 Y52.234
N10180 X11.777 Y53.766 F2000.
N10185 X11.752 Y54.387 F250.
N10190 X11.751 Y54.417 Z-2.705
N10195 G3 X11.365 Y54.8 Z-2.8 I-0.4 J-0.016
N10200 G1 X10.332 F300.
N10205 G3 X8.941 Y54.044 I0.069 J-1.784
N10210 X8.385 Y51.909 I1.965 J-1.652
N10215 X9.293 Y51.2 I0.911 J0.23
N10220 G1 X10.387
N10225 G3 X10.773 Y51.608 Z-2.701 I-0.014 J0.4 F250.
N10230 G1 Y51.613 Z-2.7
N10235 X10.761 Y52.234
N10240 X10.731 Y53.766 F2000.
N10245 X10.718 Y54.387 F250.
N10250 Y54.408 Z-2.703
N10255 G3 X10.332 Y54.8 Z-2.8 I-0.4 J-0.008
N10260 G1 X9.205 F300.
N10265 G3 X7.82 Y54.007 I0.11 J-1.798
N10270 X7.281 Y51.964 I1.992 J-1.619
N10275 X8.201 Y51.2 I0.924 J0.175
N10280 G1 X9.293
N10285 G3 X9.679 Y51.612 Z-2.7 I-0.014 J0.4 F250.
N10290 G1 Y51.613
N10295 X9.659 Y52.234
N10300 X9.611 Y53.766 F2000.
N10305 X9.591 Y54.387 F250.
N10310 X9.59 Y54.413 Z-2.704
N10315 G3 X9.205 Y54.8 Z-2.8 I-0.4 J-0.013
N10320 G1 X8.096 F300.
N10325 G3 X6.82 Y54.093 I0.073 J-1.637
N10330 G1 X6.731 Y53.871
N10335 X6.7 Y53.633
N10340 G3 X7.113 Y53.247 Z-2.7 I0.4 J0.014 F250.
N10345 X7.343 Y53.33 I-0.014 J0.4
N10350 G1 X7.639 Y53.557
N10355 X8.112 Y53.92 F2000.
N10360 X8.324 Y54.083 F250.
N10365 G3 X8.48 Y54.387 I-0.244 J0.317
N10370 X8.094 Y54.8 Z-2.8 I-0.4 J0.014
N10375 G1 X7.234 F300.
N10380 X7.062 Y54.797
N10385 X7.019 Y54.789
N10390 X6.976 Y54.776
N10395 X6.933 Y54.757
N10400 X6.89 Y54.732
N10405 X6.85 Y54.702
N10410 X6.81 Y54.662
N10415 X6.779 Y54.622
N10420 X6.753 Y54.581
N10425 X6.732 Y54.54
N10430 X6.717 Y54.499
N10435 X6.715 Y54.49
N10440 X6.705 Y54.447
N10445 G3 X6.707 Y51.667 I96.547 J-1.313
N10450 X7.252 Y51.2 I0.544 J0.084
N10455 X7.664 Y51.366 Z-2.728 I-0.023 J0.652 F250.
N10460 X7.775 Y51.5 Z-2.7 I-0.386 J0.431
N10465 X7.776 Y52.091 I-0.497 J0.297
N10470 X7.616 Y52.267 I-0.498 J-0.295 F2000.
N10475 X7.026 Y52.318 I-0.337 J-0.47 F250.
N10480 X6.94 Y52.266 Z-2.716 I0.252 J-0.521
N10485 X6.7 Y51.817 Z-2.8 I0.338 J-0.47
N10490 G1 Y51.74 F300.
N10495 X6.703 Y51.568
N10500 X6.708 Y51.533
N10505 X6.717 Y51.498
N10510 X6.737 Y51.447
N10515 X6.765 Y51.396
N10520 X6.816 Y51.332
N10525 X6.853 Y51.296
N10530 X6.89 Y51.268
N10535 X6.933 Y51.242
N10540 G3 X7.234 Y51.2 I0.219 J0.467
N10545 G1 X8.201
N10550 G3 X8.516 Y51.827 I-0.014 J0.4 F250.
N10555 G1 X8.471 Y51.869 Z-2.795
N10560 X8.428 Y51.909 Z-2.781
N10565 X8.386 Y51.947 Z-2.758
N10570 X8.334 Y51.963 Z-2.726
N10575 X8.288 Y51.977 Z-2.685
N10580 X8.249 Y51.989 Z-2.637
N10585 X8.217 Y51.999 Z-2.583
N10590 X8.2 Z-2.545
N10595 X8.187 Y52. Z-2.505
N10600 X8.177 Z-2.453
N10605 X8.173 Z-2.4
N10610 G0 Z0.1
N10615 X18.954 Y52.932
N10620 G1 Z-0.3 F250.
N10625 G3 X15.825 Y53.068 Z-0.472 I-1.565 J0.068 F150.
N10630 X18.954 Y52.932 Z-0.644 I1.565 J-0.068
N10635 X15.825 Y53.068 Z-0.815 I-1.565 J0.068
N10640 X18.954 Y52.932 Z-0.987 I1.565 J-0.068
N10645 X15.825 Y53.068 Z-1.159 I-1.565 J0.068
N10650 X18.954 Y52.932 Z-1.331 I1.565 J-0.068
N10655 X15.825 Y53.068 Z-1.503 I-1.565 J0.068
N10660 X18.954 Y52.932 Z-1.674 I1.565 J-0.068
N10665 X15.825 Y53.068 Z-1.846 I-1.565 J0.068
N10670 X18.954 Y52.932 Z-2.018 I1.565 J-0.068
N10675 X15.825 Y53.068 Z-2.19 I-1.565 J0.068
N10680 X18.954 Y52.932 Z-2.362 I1.565 J-0.068
N10685 X15.825 Y53.068 Z-2.533 I-1.565 J0.068
N10690 X18.954 Y52.932 Z-2.705 I1.565 J-0.068
N10695 X15.825 Y53.068 Z-2.877 I-1.565 J0.068
N10700 X18.954 Y52.932 Z-3.049 I1.565 J-0.068
N10705 X15.825 Y53.068 Z-3.221 I-1.565 J0.068
N10710 X18.954 Y52.932 Z-3.392 I1.565 J-0.068
N10715 X15.825 Y53.068 Z-3.564 I-1.565 J0.068
N10720 X18.954 Y52.932 Z-3.736 I1.565 J-0.068
N10725 X15.825 Y53.068 Z-3.908 I-1.565 J0.068
N10730 X18.954 Y52.932 Z-4.08 I1.565 J-0.068
N10735 X15.825 Y53.068 Z-4.251 I-1.565 J0.068
N10740 X18.954 Y52.932 Z-4.423 I1.565 J-0.068
N10745 X15.825 Y53.068 Z-4.595 I-1.565 J0.068
N10750 X18.954 Y52.932 Z-4.767 I1.565 J-0.068
N10755 X15.825 Y53.068 Z-4.939 I-1.565 J0.068
N10760 X18.954 Y52.932 Z-5.11 I1.565 J-0.068
N10765 X15.825 Y53.068 Z-5.282 I-1.565 J0.068
N10770 X18.954 Y52.932 Z-5.454 I1.565 J-0.068
N10775 X15.825 Y53.068 Z-5.626 I-1.565 J0.068
N10780 X17.355 Y51.434 Z-5.713 I1.565 J-0.068
N10785 X18.955 Y53. Z-5.8 I0.034 J1.566
N10790 X15.823 I-1.566 J0.
N10795 X18.955 I1.566 J0.
N10800 G1 X18.976 Y53.757 F300.
N10805 G3 X18.416 Y54.765 I-0.78 J0.226
N10810 G1 X18.182 Y54.8
N10815 X16.529
N10820 G3 X15.095 Y53.828 I0.042 J-1.604
N10825 X15.312 Y51.462 I1.984 J-1.011
N10830 G1 X15.511 Y51.322
N10835 X15.734 Y51.231
N10840 X15.972 Y51.2
N10845 X18.25
N10850 G3 X19.196 Y51.707 I0.074 J0.998
N10855 G1 X19.273 Y51.918
N10860 X19.3 Y52.141
N10865 G3 X18.887 Y52.527 Z-5.7 I-0.4 J-0.014 F250.
N10870 X18.645 Y52.435 I0.014 J-0.4
N10875 G1 X18.37 Y52.207
N10880 X18.226 Y52.088 F2000.
N10885 X18.009 Y51.908 F250.
N10890 G3 X17.864 Y51.613 I0.255 J-0.308
N10895 X18.25 Y51.2 Z-5.8 I0.4 J-0.014
N10900 G1 X18.766 F300.
N10905 X18.938 Y51.203
N10910 X18.981 Y51.211
N10915 X19.024 Y51.224
N10920 X19.067 Y51.242
N10925 X19.11 Y51.268
N10930 X19.147 Y51.296
N10935 X19.184 Y51.332
N10940 X19.235 Y51.396
N10945 G3 X19.3 Y51.74 I-0.433 J0.26
N10950 G1 Y54.318
N10955 X19.299 Y54.404
N10960 X19.295 Y54.447
N10965 X19.285 Y54.49
N10970 X19.283 Y54.499
N10975 X19.268 Y54.54
N10980 X19.247 Y54.581
N10985 X19.221 Y54.622
N10990 X19.19 Y54.662
N10995 X19.15 Y54.702
N11000 X19.11 Y54.732
N11005 X19.067 Y54.757
N11010 G3 X18.766 Y54.8 I-0.22 J-0.467
N11015 G1 X18.182
N11020 X17.785 F250.
N11025 X16.529
N11030 X15.496 F300.
N11035 G3 X14.442 Y54.281 I0.047 J-1.423
N11040 X13.975 Y51.667 I1.906 J-1.689
N11045 X14.793 Y51.199 I0.831 J0.504
N11050 G1 X15.972 Y51.2
N11055 G3 X16.358 Y51.613 Z-5.7 I-0.014 J0.4 F250.
N11060 X16.353 Y51.667 I-0.4 J-0.014
N11065 G1 X16.258 Y52.226
N11070 X15.994 Y53.776 F2000.
N11075 X15.89 Y54.387 F250.
N11080 X15.876 Y54.467 Z-5.713
N11085 G3 X15.496 Y54.8 Z-5.8 I-0.394 J-0.067
N11090 G1 X14.541 F300.
N11095 G3 X13.339 Y54.154 I0.07 J-1.569
N11100 X12.763 Y51.925 I2.018 J-1.71
N11105 X13.675 Y51.2 I0.914 J0.213
N11110 G1 X14.793
N11115 G3 X15.178 Y51.613 Z-5.7 I-0.014 J0.4 F250.
N11120 G1 X15.177 Y51.636
N11125 X15.123 Y52.232
N11130 X14.985 Y53.769 F2000.
N11135 X14.929 Y54.387 F250.
N11140 X14.925 Y54.436 Z-5.708
N11145 G3 X14.541 Y54.8 Z-5.8 I-0.398 J-0.036
N11150 G1 X13.508 F300.
N11155 G3 X12.275 Y54.137 I0.101 J-1.665
N11160 X11.659 Y51.939 I1.951 J-1.732
N11165 X12.575 Y51.2 I0.919 J0.202
N11170 G1 X13.675
N11175 G3 X14.061 Y51.613 Z-5.7 I-0.014 J0.4 F250.
N11180 G1 X14.06 Y51.624
N11185 X14.024 Y52.233
N11190 X13.932 Y53.767 F2000.
N11195 X13.895 Y54.387 F250.
N11200 X13.893 Y54.424 Z-5.706
N11205 G3 X13.508 Y54.8 Z-5.8 I-0.399 J-0.024
N11210 G1 X12.475 F300.
N11215 G3 X11.095 Y54.011 I0.1 J-1.775
N11220 X10.56 Y51.963 I1.996 J-1.615
N11225 X11.48 Y51.2 I0.923 J0.176
N11230 G1 X12.575
N11235 G3 X12.96 Y51.613 Z-5.7 I-0.014 J0.4 F250.
N11240 G1 X12.938 Y52.234
N11245 X12.884 Y53.766 F2000.
N11250 X12.862 Y54.387 F250.
N11255 X12.861 Y54.414 Z-5.704
N11260 G3 X12.475 Y54.8 Z-5.8 I-0.4 J-0.014
N11265 G1 X11.365 F300.
N11270 G3 X10.11 Y54.14 I0.105 J-1.723
N11275 X9.469 Y51.952 I1.916 J-1.75
N11280 X10.387 Y51.2 I0.922 J0.189
N11285 G1 X11.48
N11290 G3 X11.866 Y51.613 Z-5.7 I-0.014 J0.4 F250.
N11295 G1 Y51.616
N11300 X11.84 Y52.234
N11305 X11.777 Y53.766 F2000.
N11310 X11.752 Y54.387 F250.
N11315 X11.751 Y54.417 Z-5.705
N11320 G3 X11.365 Y54.8 Z-5.8 I-0.4 J-0.016
N11325 G1 X10.332 F300.
N11330 G3 X8.941 Y54.044 I0.069 J-1.784
N11335 X8.385 Y51.909 I1.965 J-1.652
N11340 X9.293 Y51.2 I0.911 J0.23
N11345 G1 X10.387
N11350 G3 X10.773 Y51.608 Z-5.701 I-0.014 J0.4 F250.
N11355 G1 Y51.613 Z-5.7
N11360 X10.761 Y52.234
N11365 X10.731 Y53.766 F2000.
N11370 X10.718 Y54.387 F250.
N11375 Y54.408 Z-5.703
N11380 G3 X10.332 Y54.8 Z-5.8 I-0.4 J-0.008
N11385 G1 X9.205 F300.
N11390 G3 X7.82 Y54.007 I0.11 J-1.798
N11395 X7.281 Y51.964 I1.992 J-1.619
N11400 X8.201 Y51.2 I0.924 J0.175
N11405 G1 X9.293
N11410 G3 X9.679 Y51.612 Z-5.7 I-0.014 J0.4 F250.
N11415 G1 Y51.613
N11420 X9.659 Y52.234
N11425 X9.611 Y53.766 F2000.
N11430 X9.591 Y54.387 F250.
N11435 X9.59 Y54.413 Z-5.704
N11440 G3 X9.205 Y54.8 Z-5.8 I-0.4 J-0.013
N11445 G1 X8.096 F300.
N11450 G3 X6.82 Y54.093 I0.073 J-1.637
N11455 G1 X6.731 Y53.871
N11460 X6.7 Y53.633
N11465 G3 X7.113 Y53.247 Z-5.7 I0.4 J0.014 F250.
N11470 X7.343 Y53.33 I-0.014 J0.4
N11475 G1 X7.639 Y53.557
N11480 X8.112 Y53.92 F2000.
N11485 X8.324 Y54.083 F250.
N11490 G3 X8.48 Y54.387 I-0.244 J0.317
N11495 X8.094 Y54.8 Z-5.8 I-0.4 J0.014
N11500 G1 X7.234 F300.
N11505 X7.062 Y54.797
N11510 X7.019 Y54.789
N11515 X6.976 Y54.776
N11520 X6.933 Y54.757
N11525 X6.89 Y54.732
N11530 X6.85 Y54.702
N11535 X6.81 Y54.662
N11540 X6.779 Y54.622
N11545 X6.753 Y54.581
N11550 X6.732 Y54.54
N11555 X6.717 Y54.499
N11560 X6.715 Y54.49
N11565 X6.705 Y54.447
N11570 G3 X6.707 Y51.667 I96.547 J-1.313
N11575 X7.252 Y51.2 I0.544 J0.084
N11580 X7.664 Y51.366 Z-5.728 I-0.023 J0.652 F250.
N11585 X7.775 Y51.5 Z-5.7 I-0.386 J0.431
N11590 X7.776 Y52.091 I-0.497 J0.297
N11595 X7.616 Y52.267 I-0.498 J-0.295 F2000.
N11600 X7.026 Y52.318 I-0.337 J-0.47 F250.
N11605 X6.94 Y52.266 Z-5.716 I0.252 J-0.521
N11610 X6.7 Y51.817 Z-5.8 I0.338 J-0.47
N11615 G1 Y51.74 F300.
N11620 X6.703 Y51.568
N11625 X6.708 Y51.533
N11630 X6.717 Y51.498
N11635 X6.737 Y51.447
N11640 X6.765 Y51.396
N11645 X6.816 Y51.332
N11650 X6.853 Y51.296
N11655 X6.89 Y51.268
N11660 X6.933 Y51.242
N11665 G3 X7.234 Y51.2 I0.219 J0.467
N11670 G1 X8.201
N11675 G3 X8.173 Y52. I-0.014 J0.4 F250.
N11680 G1 X8.095 Y51.997 Z-5.792
N11685 X8.02 Y51.994 Z-5.77
N11690 X7.951 Y51.992 Z-5.733
N11695 X7.89 Y51.99 Z-5.683
N11700 X7.841 Y51.988 Z-5.622
N11705 X7.804 Y51.987 Z-5.553
N11710 X7.781 Y51.986 Z-5.478
N11715 X7.773 Z-5.4
N11720 G0 Z10.
(2D POCKET2)
N11730 M9
N11735 G0 X7.299 Y39.901
N11740 Z10.
N11745 Z5.
N11750 G1 Z2.9 F250.
N11755 G3 X7.284 Y39.912 Z2.779 I-0.299 J-0.401 F150.
N11760 X7.238 Y39.94 Z2.669 I-0.284 J-0.412
N11765 X7.16 Y39.974 Z2.581 I-0.238 J-0.44
N11770 X7.055 Y39.997 Z2.523 I-0.16 J-0.474
N11775 X6.935 Y39.996 Z2.5 I-0.055 J-0.497
N11780 X7.065 Y39.004 Z2.445 I0.065 J-0.496
N11785 X6.935 Y39.996 Z2.39 I-0.065 J0.496
N11790 X7.065 Y39.004 Z2.335 I0.065 J-0.496
N11795 X6.935 Y39.996 Z2.281 I-0.065 J0.496
N11800 X7.065 Y39.004 Z2.226 I0.065 J-0.496
N11805 X6.935 Y39.996 Z2.171 I-0.065 J0.496
N11810 X7.065 Y39.004 Z2.116 I0.065 J-0.496
N11815 X6.935 Y39.996 Z2.061 I-0.065 J0.496
N11820 X7.065 Y39.004 Z2.006 I0.065 J-0.496
N11825 X6.935 Y39.996 Z1.951 I-0.065 J0.496
N11830 X7.065 Y39.004 Z1.897 I0.065 J-0.496
N11835 X6.935 Y39.996 Z1.842 I-0.065 J0.496
N11840 X7.065 Y39.004 Z1.787 I0.065 J-0.496
N11845 X6.935 Y39.996 Z1.732 I-0.065 J0.496
N11850 X7.065 Y39.004 Z1.677 I0.065 J-0.496
N11855 X6.935 Y39.996 Z1.622 I-0.065 J0.496
N11860 X7.065 Y39.004 Z1.567 I0.065 J-0.496
N11865 X6.935 Y39.996 Z1.513 I-0.065 J0.496
N11870 X7.065 Y39.004 Z1.458 I0.065 J-0.496
N11875 X6.935 Y39.996 Z1.403 I-0.065 J0.496
N11880 X7.065 Y39.004 Z1.348 I0.065 J-0.496
N11885 X6.935 Y39.996 Z1.293 I-0.065 J0.496
N11890 X7.065 Y39.004 Z1.238 I0.065 J-0.496
N11895 X6.935 Y39.996 Z1.184 I-0.065 J0.496
N11900 X7.065 Y39.004 Z1.129 I0.065 J-0.496
N11905 X6.935 Y39.996 Z1.074 I-0.065 J0.496
N11910 X7.065 Y39.004 Z1.019 I0.065 J-0.496
N11915 X6.935 Y39.996 Z0.964 I-0.065 J0.496
N11920 X7.065 Y39.004 Z0.909 I0.065 J-0.496
N11925 X6.935 Y39.996 Z0.854 I-0.065 J0.496
N11930 X7.065 Y39.004 Z0.8 I0.065 J-0.496
N11935 X6.935 Y39.996 Z0.745 I-0.065 J0.496
N11940 X7.065 Y39.004 Z0.69 I0.065 J-0.496
N11945 X6.935 Y39.996 Z0.635 I-0.065 J0.496
N11950 X7.065 Y39.004 Z0.58 I0.065 J-0.496
N11955 X6.935 Y39.996 Z0.525 I-0.065 J0.496
N11960 X7.065 Y39.004 Z0.47 I0.065 J-0.496
N11965 X6.935 Y39.996 Z0.416 I-0.065 J0.496
N11970 X7.065 Y39.004 Z0.361 I0.065 J-0.496
N11975 X6.935 Y39.996 Z0.306 I-0.065 J0.496
N11980 X7.065 Y39.004 Z0.251 I0.065 J-0.496
N11985 X6.935 Y39.996 Z0.196 I-0.065 J0.496
N11990 X7.065 Y39.004 Z0.141 I0.065 J-0.496
N11995 X6.935 Y39.996 Z0.086 I-0.065 J0.496
N12000 X7.065 Y39.004 Z0.032 I0.065 J-0.496
N12005 X6.935 Y39.996 Z-0.023 I-0.065 J0.496
N12010 X7.065 Y39.004 Z-0.078 I0.065 J-0.496
N12015 X6.935 Y39.996 Z-0.133 I-0.065 J0.496
N12020 X7.065 Y39.004 Z-0.188 I0.065 J-0.496
N12025 X6.935 Y39.996 Z-0.243 I-0.065 J0.496
N12030 X7.065 Y39.004 Z-0.298 I0.065 J-0.496
N12035 X6.935 Y39.996 Z-0.352 I-0.065 J0.496
N12040 X7.065 Y39.004 Z-0.407 I0.065 J-0.496
N12045 X6.935 Y39.996 Z-0.462 I-0.065 J0.496
N12050 X7.065 Y39.004 Z-0.517 I0.065 J-0.496
N12055 X6.935 Y39.996 Z-0.572 I-0.065 J0.496
N12060 X7.065 Y39.004 Z-0.627 I0.065 J-0.496
N12065 X6.935 Y39.996 Z-0.681 I-0.065 J0.496
N12070 X7.065 Y39.004 Z-0.736 I0.065 J-0.496
N12075 X6.935 Y39.996 Z-0.791 I-0.065 J0.496
N12080 X7.065 Y39.004 Z-0.846 I0.065 J-0.496
N12085 X6.935 Y39.996 Z-0.901 I-0.065 J0.496
N12090 X7.065 Y39.004 Z-0.956 I0.065 J-0.496
N12095 X6.935 Y39.996 Z-1.011 I-0.065 J0.496
N12100 X7.065 Y39.004 Z-1.065 I0.065 J-0.496
N12105 X6.935 Y39.996 Z-1.12 I-0.065 J0.496
N12110 X7.065 Y39.004 Z-1.175 I0.065 J-0.496
N12115 X6.935 Y39.996 Z-1.23 I-0.065 J0.496
N12120 X7.065 Y39.004 Z-1.285 I0.065 J-0.496
N12125 X6.935 Y39.996 Z-1.34 I-0.065 J0.496
N12130 X7.065 Y39.004 Z-1.395 I0.065 J-0.496
N12135 X6.935 Y39.996 Z-1.449 I-0.065 J0.496
N12140 X7.065 Y39.004 Z-1.504 I0.065 J-0.496
N12145 X6.935 Y39.996 Z-1.559 I-0.065 J0.496
N12150 X7.065 Y39.004 Z-1.614 I0.065 J-0.496
N12155 X6.935 Y39.996 Z-1.669 I-0.065 J0.496
N12160 X7.065 Y39.004 Z-1.724 I0.065 J-0.496
N12165 X6.935 Y39.996 Z-1.779 I-0.065 J0.496
N12170 X7.065 Y39.004 Z-1.833 I0.065 J-0.496
N12175 X6.935 Y39.996 Z-1.888 I-0.065 J0.496
N12180 X7.065 Y39.004 Z-1.943 I0.065 J-0.496
N12185 X6.935 Y39.996 Z-1.998 I-0.065 J0.496
N12190 X7.065 Y39.004 Z-2.053 I0.065 J-0.496
N12195 X6.935 Y39.996 Z-2.108 I-0.065 J0.496
N12200 X7.065 Y39.004 Z-2.163 I0.065 J-0.496
N12205 X6.935 Y39.996 Z-2.217 I-0.065 J0.496
N12210 X7.065 Y39.004 Z-2.272 I0.065 J-0.496
N12215 X6.935 Y39.996 Z-2.327 I-0.065 J0.496
N12220 X7.065 Y39.004 Z-2.382 I0.065 J-0.496
N12225 X6.935 Y39.996 Z-2.437 I-0.065 J0.496
N12230 X7.065 Y39.004 Z-2.492 I0.065 J-0.496
N12235 X6.935 Y39.996 Z-2.547 I-0.065 J0.496
N12240 X7.065 Y39.004 Z-2.601 I0.065 J-0.496
N12245 X6.935 Y39.996 Z-2.656 I-0.065 J0.496
N12250 X7.065 Y39.004 Z-2.711 I0.065 J-0.496
N12255 X6.935 Y39.996 Z-2.766 I-0.065 J0.496
N12260 X7.065 Y39.004 Z-2.821 I0.065 J-0.496
N12265 X6.935 Y39.996 Z-2.876 I-0.065 J0.496
N12270 X7.065 Y39.004 Z-2.93 I0.065 J-0.496
N12275 X6.935 Y39.996 Z-2.985 I-0.065 J0.496
N12280 X7.065 Y39.004 Z-3.04 I0.065 J-0.496
N12285 X6.935 Y39.996 Z-3.095 I-0.065 J0.496
N12290 X7.065 Y39.004 Z-3.15 I0.065 J-0.496
N12295 X6.935 Y39.996 Z-3.205 I-0.065 J0.496
N12300 X7.065 Y39.004 Z-3.26 I0.065 J-0.496
N12305 X6.935 Y39.996 Z-3.314 I-0.065 J0.496
N12310 X7.065 Y39.004 Z-3.369 I0.065 J-0.496
N12315 X6.935 Y39.996 Z-3.424 I-0.065 J0.496
N12320 X7.065 Y39.004 Z-3.479 I0.065 J-0.496
N12325 X6.935 Y39.996 Z-3.534 I-0.065 J0.496
N12330 X7.065 Y39.004 Z-3.589 I0.065 J-0.496
N12335 X6.935 Y39.996 Z-3.644 I-0.065 J0.496
N12340 X7.065 Y39.004 Z-3.698 I0.065 J-0.496
N12345 X6.935 Y39.996 Z-3.753 I-0.065 J0.496
N12350 X7.065 Y39.004 Z-3.808 I0.065 J-0.496
N12355 X6.935 Y39.996 Z-3.863 I-0.065 J0.496
N12360 X7.065 Y39.004 Z-3.918 I0.065 J-0.496
N12365 X6.935 Y39.996 Z-3.973 I-0.065 J0.496
N12370 X7.065 Y39.004 Z-4.028 I0.065 J-0.496
N12375 X6.935 Y39.996 Z-4.082 I-0.065 J0.496
N12380 X7.065 Y39.004 Z-4.137 I0.065 J-0.496
N12385 X6.935 Y39.996 Z-4.192 I-0.065 J0.496
N12390 X7.065 Y39.004 Z-4.247 I0.065 J-0.496
N12395 X6.935 Y39.996 Z-4.302 I-0.065 J0.496
N12400 X7.065 Y39.004 Z-4.357 I0.065 J-0.496
N12405 X6.935 Y39.996 Z-4.412 I-0.065 J0.496
N12410 X7.065 Y39.004 Z-4.466 I0.065 J-0.496
N12415 X6.935 Y39.996 Z-4.521 I-0.065 J0.496
N12420 X7.065 Y39.004 Z-4.576 I0.065 J-0.496
N12425 X6.935 Y39.996 Z-4.631 I-0.065 J0.496
N12430 X7.065 Y39.004 Z-4.686 I0.065 J-0.496
N12435 X6.935 Y39.996 Z-4.741 I-0.065 J0.496
N12440 X7.065 Y39.004 Z-4.796 I0.065 J-0.496
N12445 X6.935 Y39.996 Z-4.85 I-0.065 J0.496
N12450 X7.065 Y39.004 Z-4.905 I0.065 J-0.496
N12455 X6.935 Y39.996 Z-4.96 I-0.065 J0.496
N12460 X7.065 Y39.004 Z-5.015 I0.065 J-0.496
N12465 X6.935 Y39.996 Z-5.07 I-0.065 J0.496
N12470 X7.065 Y39.004 Z-5.125 I0.065 J-0.496
N12475 X6.935 Y39.996 Z-5.179 I-0.065 J0.496
N12480 X7.065 Y39.004 Z-5.234 I0.065 J-0.496
N12485 X6.935 Y39.996 Z-5.289 I-0.065 J0.496
N12490 X7.065 Y39.004 Z-5.344 I0.065 J-0.496
N12495 X6.935 Y39.996 Z-5.399 I-0.065 J0.496
N12500 X7.065 Y39.004 Z-5.454 I0.065 J-0.496
N12505 X6.935 Y39.996 Z-5.509 I-0.065 J0.496
N12510 X7.065 Y39.004 Z-5.563 I0.065 J-0.496
N12515 X6.935 Y39.996 Z-5.618 I-0.065 J0.496
N12520 X7.065 Y39.004 Z-5.673 I0.065 J-0.496
N12525 X6.935 Y39.996 Z-5.728 I-0.065 J0.496
N12530 X7.065 Y39.004 Z-5.783 I0.065 J-0.496
N12535 X6.935 Y39.996 Z-5.838 I-0.065 J0.496
N12540 X7.065 Y39.004 Z-5.893 I0.065 J-0.496
N12545 X6.935 Y39.996 Z-5.947 I-0.065 J0.496
N12550 X7. Y39. Z-6. I0.065 J-0.496
N12555 G1 X19. F300.
N12560 G3 Y40. I0. J0.5
N12565 G1 X7.
N12570 G3 Y39. I0. J-0.5
N12575 G2 X7.3 Y38.8 I0. J-0.325
N12580 G3 X7.6 Y38.6 I0.3 J0.125
N12585 G1 X19.
N12590 G3 Y40.4 I0. J0.9
N12595 G1 X7.
N12600 G3 Y38.6 I0. J-0.9
N12605 G1 X7.6
N12610 G3 X7.722 Y38.619 Z-5.98 I0. J0.4 F250.
N12615 X7.822 Y38.667 Z-5.924 I-0.122 J0.381
N12620 X7.889 Y38.724 Z-5.835 I-0.222 J0.333
N12625 X7.926 Y38.768 Z-5.724 I-0.289 J0.276
N12630 X7.937 Y38.784 Z-5.6 I-0.326 J0.232
N12635 G0 Z5.
N12640 X6.701 Y26.099
N12645 G1 Z2.9 F250.
N12650 G3 X6.716 Y26.088 Z2.779 I0.299 J0.401 F150.
N12655 X6.762 Y26.06 Z2.669 I0.284 J0.412
N12660 X6.84 Y26.026 Z2.581 I0.238 J0.44
N12665 X6.945 Y26.003 Z2.523 I0.16 J0.474
N12670 X7.065 Y26.004 Z2.5 I0.055 J0.497
N12675 X6.935 Y26.996 Z2.445 I-0.065 J0.496
N12680 X7.065 Y26.004 Z2.39 I0.065 J-0.496
N12685 X6.935 Y26.996 Z2.335 I-0.065 J0.496
N12690 X7.065 Y26.004 Z2.281 I0.065 J-0.496
N12695 X6.935 Y26.996 Z2.226 I-0.065 J0.496
N12700 X7.065 Y26.004 Z2.171 I0.065 J-0.496
N12705 X6.935 Y26.996 Z2.116 I-0.065 J0.496
N12710 X7.065 Y26.004 Z2.061 I0.065 J-0.496
N12715 X6.935 Y26.996 Z2.006 I-0.065 J0.496
N12720 X7.065 Y26.004 Z1.951 I0.065 J-0.496
N12725 X6.935 Y26.996 Z1.897 I-0.065 J0.496
N12730 X7.065 Y26.004 Z1.842 I0.065 J-0.496
N12735 X6.935 Y26.996 Z1.787 I-0.065 J0.496
N12740 X7.065 Y26.004 Z1.732 I0.065 J-0.496
N12745 X6.935 Y26.996 Z1.677 I-0.065 J0.496
N12750 X7.065 Y26.004 Z1.622 I0.065 J-0.496
N12755 X6.935 Y26.996 Z1.567 I-0.065 J0.496
N12760 X7.065 Y26.004 Z1.513 I0.065 J-0.496
N12765 X6.935 Y26.996 Z1.458 I-0.065 J0.496
N12770 X7.065 Y26.004 Z1.403 I0.065 J-0.496
N12775 X6.935 Y26.996 Z1.348 I-0.065 J0.496
N12780 X7.065 Y26.004 Z1.293 I0.065 J-0.496
N12785 X6.935 Y26.996 Z1.238 I-0.065 J0.496
N12790 X7.065 Y26.004 Z1.184 I0.065 J-0.496
N12795 X6.935 Y26.996 Z1.129 I-0.065 J0.496
N12800 X7.065 Y26.004 Z1.074 I0.065 J-0.496
N12805 X6.935 Y26.996 Z1.019 I-0.065 J0.496
N12810 X7.065 Y26.004 Z0.964 I0.065 J-0.496
N12815 X6.935 Y26.996 Z0.909 I-0.065 J0.496
N12820 X7.065 Y26.004 Z0.854 I0.065 J-0.496
N12825 X6.935 Y26.996 Z0.8 I-0.065 J0.496
N12830 X7.065 Y26.004 Z0.745 I0.065 J-0.496
N12835 X6.935 Y26.996 Z0.69 I-0.065 J0.496
N12840 X7.065 Y26.004 Z0.635 I0.065 J-0.496
N12845 X6.935 Y26.996 Z0.58 I-0.065 J0.496
N12850 X7.065 Y26.004 Z0.525 I0.065 J-0.496
N12855 X6.935 Y26.996 Z0.47 I-0.065 J0.496
N12860 X7.065 Y26.004 Z0.416 I0.065 J-0.496
N12865 X6.935 Y26.996 Z0.361 I-0.065 J0.496
N12870 X7.065 Y26.004 Z0.306 I0.065 J-0.496
N12875 X6.935 Y26.996 Z0.251 I-0.065 J0.496
N12880 X7.065 Y26.004 Z0.196 I0.065 J-0.496
N12885 X6.935 Y26.996 Z0.141 I-0.065 J0.496
N12890 X7.065 Y26.004 Z0.086 I0.065 J-0.496
N12895 X6.935 Y26.996 Z0.032 I-0.065 J0.496
N12900 X7.065 Y26.004 Z-0.023 I0.065 J-0.496
N12905 X6.935 Y26.996 Z-0.078 I-0.065 J0.496
N12910 X7.065 Y26.004 Z-0.133 I0.065 J-0.496
N12915 X6.935 Y26.996 Z-0.188 I-0.065 J0.496
N12920 X7.065 Y26.004 Z-0.243 I0.065 J-0.496
N12925 X6.935 Y26.996 Z-0.298 I-0.065 J0.496
N12930 X7.065 Y26.004 Z-0.352 I0.065 J-0.496
N12935 X6.935 Y26.996 Z-0.407 I-0.065 J0.496
N12940 X7.065 Y26.004 Z-0.462 I0.065 J-0.496
N12945 X6.935 Y26.996 Z-0.517 I-0.065 J0.496
N12950 X7.065 Y26.004 Z-0.572 I0.065 J-0.496
N12955 X6.935 Y26.996 Z-0.627 I-0.065 J0.496
N12960 X7.065 Y26.004 Z-0.681 I0.065 J-0.496
N12965 X6.935 Y26.996 Z-0.736 I-0.065 J0.496
N12970 X7.065 Y26.004 Z-0.791 I0.065 J-0.496
N12975 X6.935 Y26.996 Z-0.846 I-0.065 J0.496
N12980 X7.065 Y26.004 Z-0.901 I0.065 J-0.496
N12985 X6.935 Y26.996 Z-0.956 I-0.065 J0.496
N12990 X7.065 Y26.004 Z-1.011 I0.065 J-0.496
N12995 X6.935 Y26.996 Z-1.065 I-0.065 J0.496
N13000 X7.065 Y26.004 Z-1.12 I0.065 J-0.496
N13005 X6.935 Y26.996 Z-1.175 I-0.065 J0.496
N13010 X7.065 Y26.004 Z-1.23 I0.065 J-0.496
N13015 X6.935 Y26.996 Z-1.285 I-0.065 J0.496
N13020 X7.065 Y26.004 Z-1.34 I0.065 J-0.496
N13025 X6.935 Y26.996 Z-1.395 I-0.065 J0.496
N13030 X7.065 Y26.004 Z-1.449 I0.065 J-0.496
N13035 X6.935 Y26.996 Z-1.504 I-0.065 J0.496
N13040 X7.065 Y26.004 Z-1.559 I0.065 J-0.496
N13045 X6.935 Y26.996 Z-1.614 I-0.065 J0.496
N13050 X7.065 Y26.004 Z-1.669 I0.065 J-0.496
N13055 X6.935 Y26.996 Z-1.724 I-0.065 J0.496
N13060 X7.065 Y26.004 Z-1.779 I0.065 J-0.496
N13065 X6.935 Y26.996 Z-1.833 I-0.065 J0.496
N13070 X7.065 Y26.004 Z-1.888 I0.065 J-0.496
N13075 X6.935 Y26.996 Z-1.943 I-0.065 J0.496
N13080 X7.065 Y26.004 Z-1.998 I0.065 J-0.496
N13085 X6.935 Y26.996 Z-2.053 I-0.065 J0.496
N13090 X7.065 Y26.004 Z-2.108 I0.065 J-0.496
N13095 X6.935 Y26.996 Z-2.163 I-0.065 J0.496
N13100 X7.065 Y26.004 Z-2.217 I0.065 J-0.496
N13105 X6.935 Y26.996 Z-2.272 I-0.065 J0.496
N13110 X7.065 Y26.004 Z-2.327 I0.065 J-0.496
N13115 X6.935 Y26.996 Z-2.382 I-0.065 J0.496
N13120 X7.065 Y26.004 Z-2.437 I0.065 J-0.496
N13125 X6.935 Y26.996 Z-2.492 I-0.065 J0.496
N13130 X7.065 Y26.004 Z-2.547 I0.065 J-0.496
N13135 X6.935 Y26.996 Z-2.601 I-0.065 J0.496
N13140 X7.065 Y26.004 Z-2.656 I0.065 J-0.496
N13145 X6.935 Y26.996 Z-2.711 I-0.065 J0.496
N13150 X7.065 Y26.004 Z-2.766 I0.065 J-0.496
N13155 X6.935 Y26.996 Z-2.821 I-0.065 J0.496
N13160 X7.065 Y26.004 Z-2.876 I0.065 J-0.496
N13165 X6.935 Y26.996 Z-2.93 I-0.065 J0.496
N13170 X7.065 Y26.004 Z-2.985 I0.065 J-0.496
N13175 X6.935 Y26.996 Z-3.04 I-0.065 J0.496
N13180 X7.065 Y26.004 Z-3.095 I0.065 J-0.496
N13185 X6.935 Y26.996 Z-3.15 I-0.065 J0.496
N13190 X7.065 Y26.004 Z-3.205 I0.065 J-0.496
N13195 X6.935 Y26.996 Z-3.26 I-0.065 J0.496
N13200 X7.065 Y26.004 Z-3.314 I0.065 J-0.496
N13205 X6.935 Y26.996 Z-3.369 I-0.065 J0.496
N13210 X7.065 Y26.004 Z-3.424 I0.065 J-0.496
N13215 X6.935 Y26.996 Z-3.479 I-0.065 J0.496
N13220 X7.065 Y26.004 Z-3.534 I0.065 J-0.496
N13225 X6.935 Y26.996 Z-3.589 I-0.065 J0.496
N13230 X7.065 Y26.004 Z-3.644 I0.065 J-0.496
N13235 X6.935 Y26.996 Z-3.698 I-0.065 J0.496
N13240 X7.065 Y26.004 Z-3.753 I0.065 J-0.496
N13245 X6.935 Y26.996 Z-3.808 I-0.065 J0.496
N13250 X7.065 Y26.004 Z-3.863 I0.065 J-0.496
N13255 X6.935 Y26.996 Z-3.918 I-0.065 J0.496
N13260 X7.065 Y26.004 Z-3.973 I0.065 J-0.496
N13265 X6.935 Y26.996 Z-4.028 I-0.065 J0.496
N13270 X7.065 Y26.004 Z-4.082 I0.065 J-0.496
N13275 X6.935 Y26.996 Z-4.137 I-0.065 J0.496
N13280 X7.065 Y26.004 Z-4.192 I0.065 J-0.496
N13285 X6.935 Y26.996 Z-4.247 I-0.065 J0.496
N13290 X7.065 Y26.004 Z-4.302 I0.065 J-0.496
N13295 X6.935 Y26.996 Z-4.357 I-0.065 J0.496
N13300 X7.065 Y26.004 Z-4.412 I0.065 J-0.496
N13305 X6.935 Y26.996 Z-4.466 I-0.065 J0.496
N13310 X7.065 Y26.004 Z-4.521 I0.065 J-0.496
N13315 X6.935 Y26.996 Z-4.576 I-0.065 J0.496
N13320 X7.065 Y26.004 Z-4.631 I0.065 J-0.496
N13325 X6.935 Y26.996 Z-4.686 I-0.065 J0.496
N13330 X7.065 Y26.004 Z-4.741 I0.065 J-0.496
N13335 X6.935 Y26.996 Z-4.796 I-0.065 J0.496
N13340 X7.065 Y26.004 Z-4.85 I0.065 J-0.496
N13345 X6.935 Y26.996 Z-4.905 I-0.065 J0.496
N13350 X7.065 Y26.004 Z-4.96 I0.065 J-0.496
N13355 X6.935 Y26.996 Z-5.015 I-0.065 J0.496
N13360 X7.065 Y26.004 Z-5.07 I0.065 J-0.496
N13365 X6.935 Y26.996 Z-5.125 I-0.065 J0.496
N13370 X7.065 Y26.004 Z-5.179 I0.065 J-0.496
N13375 X6.935 Y26.996 Z-5.234 I-0.065 J0.496
N13380 X7.065 Y26.004 Z-5.289 I0.065 J-0.496
N13385 X6.935 Y26.996 Z-5.344 I-0.065 J0.496
N13390 X7.065 Y26.004 Z-5.399 I0.065 J-0.496
N13395 X6.935 Y26.996 Z-5.454 I-0.065 J0.496
N13400 X7.065 Y26.004 Z-5.509 I0.065 J-0.496
N13405 X6.935 Y26.996 Z-5.563 I-0.065 J0.496
N13410 X7.065 Y26.004 Z-5.618 I0.065 J-0.496
N13415 X6.935 Y26.996 Z-5.673 I-0.065 J0.496
N13420 X7.065 Y26.004 Z-5.728 I0.065 J-0.496
N13425 X6.935 Y26.996 Z-5.783 I-0.065 J0.496
N13430 X7.065 Y26.004 Z-5.838 I0.065 J-0.496
N13435 X6.935 Y26.996 Z-5.893 I-0.065 J0.496
N13440 X7.065 Y26.004 Z-5.947 I0.065 J-0.496
N13445 X7. Y27. Z-6. I-0.065 J0.496
N13450 Y26. I0. J-0.5 F300.
N13455 G1 X19.
N13460 G3 Y27. I0. J0.5
N13465 G1 X7.
N13470 G2 X6.739 Y27.15 I0. J0.301
N13475 G3 X6.443 Y27.207 I-0.172 J-0.1
N13480 X7. Y25.6 I0.557 J-0.707
N13485 G1 X19.
N13490 G3 Y27.4 I0. J0.9
N13495 G1 X7.
N13500 G3 X6.443 Y27.207 I0. J-0.9
N13505 X6.36 Y27.117 Z-5.98 I0.247 J-0.314 F250.
N13510 X6.311 Y27.017 Z-5.924 I0.331 J-0.224
N13515 X6.293 Y26.931 Z-5.835 I0.38 J-0.124
N13520 X6.291 Y26.874 Z-5.724 I0.398 J-0.038
N13525 X6.293 Y26.855 Z-5.6 I0.4 J0.019
N13530 G0 Z5.
N13535 X7.318 Y12.493
N13540 G1 Z2.9 F250.
N13545 X7.32 Y12.49 Z2.845 F150.
N13550 G3 X7.339 Y12.466 Z2.738 I0.68 J0.51
N13555 X7.377 Y12.421 Z2.643 I0.661 J0.534
N13560 X7.437 Y12.364 Z2.568 I0.623 J0.579
N13565 X7.515 Y12.302 Z2.519 I0.563 J0.636
N13570 X7.609 Y12.245 Z2.5 I0.485 J0.698
N13575 X8.391 Y13.755 Z2.407 I0.391 J0.755
N13580 X7.609 Y12.245 Z2.313 I-0.391 J-0.755
N13585 X8.391 Y13.755 Z2.22 I0.391 J0.755
N13590 X7.609 Y12.245 Z2.127 I-0.391 J-0.755
N13595 X8.391 Y13.755 Z2.034 I0.391 J0.755
N13600 X7.609 Y12.245 Z1.94 I-0.391 J-0.755
N13605 X8.391 Y13.755 Z1.847 I0.391 J0.755
N13610 X7.609 Y12.245 Z1.754 I-0.391 J-0.755
N13615 X8.391 Y13.755 Z1.661 I0.391 J0.755
N13620 X7.609 Y12.245 Z1.567 I-0.391 J-0.755
N13625 X8.391 Y13.755 Z1.474 I0.391 J0.755
N13630 X7.609 Y12.245 Z1.381 I-0.391 J-0.755
N13635 X8.391 Y13.755 Z1.288 I0.391 J0.755
N13640 X7.609 Y12.245 Z1.194 I-0.391 J-0.755
N13645 X8.391 Y13.755 Z1.101 I0.391 J0.755
N13650 X7.609 Y12.245 Z1.008 I-0.391 J-0.755
N13655 X8.391 Y13.755 Z0.915 I0.391 J0.755
N13660 X7.609 Y12.245 Z0.821 I-0.391 J-0.755
N13665 X8.391 Y13.755 Z0.728 I0.391 J0.755
N13670 X7.609 Y12.245 Z0.635 I-0.391 J-0.755
N13675 X8.391 Y13.755 Z0.542 I0.391 J0.755
N13680 X7.609 Y12.245 Z0.448 I-0.391 J-0.755
N13685 X8.391 Y13.755 Z0.355 I0.391 J0.755
N13690 X7.609 Y12.245 Z0.262 I-0.391 J-0.755
N13695 X8.391 Y13.755 Z0.169 I0.391 J0.755
N13700 X7.609 Y12.245 Z0.075 I-0.391 J-0.755
N13705 X8.391 Y13.755 Z-0.018 I0.391 J0.755
N13710 X7.609 Y12.245 Z-0.111 I-0.391 J-0.755
N13715 X8.391 Y13.755 Z-0.204 I0.391 J0.755
N13720 X7.609 Y12.245 Z-0.298 I-0.391 J-0.755
N13725 X8.391 Y13.755 Z-0.391 I0.391 J0.755
N13730 X7.609 Y12.245 Z-0.484 I-0.391 J-0.755
N13735 X8.391 Y13.755 Z-0.577 I0.391 J0.755
N13740 X7.609 Y12.245 Z-0.671 I-0.391 J-0.755
N13745 X8.391 Y13.755 Z-0.764 I0.391 J0.755
N13750 X7.609 Y12.245 Z-0.857 I-0.391 J-0.755
N13755 X8.391 Y13.755 Z-0.95 I0.391 J0.755
N13760 X7.609 Y12.245 Z-1.044 I-0.391 J-0.755
N13765 X8.391 Y13.755 Z-1.137 I0.391 J0.755
N13770 X7.609 Y12.245 Z-1.23 I-0.391 J-0.755
N13775 X8.391 Y13.755 Z-1.323 I0.391 J0.755
N13780 X7.609 Y12.245 Z-1.417 I-0.391 J-0.755
N13785 X8.391 Y13.755 Z-1.51 I0.391 J0.755
N13790 X7.609 Y12.245 Z-1.603 I-0.391 J-0.755
N13795 X8.391 Y13.755 Z-1.696 I0.391 J0.755
N13800 X7.609 Y12.245 Z-1.79 I-0.391 J-0.755
N13805 X8.391 Y13.755 Z-1.883 I0.391 J0.755
N13810 X7.609 Y12.245 Z-1.976 I-0.391 J-0.755
N13815 X8.391 Y13.755 Z-2.069 I0.391 J0.755
N13820 X7.609 Y12.245 Z-2.163 I-0.391 J-0.755
N13825 X8.391 Y13.755 Z-2.256 I0.391 J0.755
N13830 X7.609 Y12.245 Z-2.349 I-0.391 J-0.755
N13835 X8.391 Y13.755 Z-2.442 I0.391 J0.755
N13840 X7.609 Y12.245 Z-2.536 I-0.391 J-0.755
N13845 X8.391 Y13.755 Z-2.629 I0.391 J0.755
N13850 X7.609 Y12.245 Z-2.722 I-0.391 J-0.755
N13855 X8.391 Y13.755 Z-2.815 I0.391 J0.755
N13860 X7.609 Y12.245 Z-2.909 I-0.391 J-0.755
N13865 X8.391 Y13.755 Z-3.002 I0.391 J0.755
N13870 X7.609 Y12.245 Z-3.095 I-0.391 J-0.755
N13875 X8.391 Y13.755 Z-3.188 I0.391 J0.755
N13880 X7.609 Y12.245 Z-3.282 I-0.391 J-0.755
N13885 X8.391 Y13.755 Z-3.375 I0.391 J0.755
