%
(1001)
(T2  D=4. CR=0. - ZMIN=-6. - FLAT END MILL)
N10 G90 G94 G17 G91.1
N15 G21
N20 G53 G0 Z0.
(2D POCKET2)
N25 M9
N30 T2 M6
N35 S5500 M3
N40 G54
N45 M8
N55 G0 X6.584 Y38.937
N60 G43 Z10. H2
N65 G0 Z5.
N70 G1 Z1.394 F150.
N75 S5000
N80 G3 X6.597 Y38.928 Z1.284 I0.416 J0.563 F220.
N85 X6.634 Y38.903 Z1.182 I0.403 J0.572
N90 X6.697 Y38.869 Z1.097 I0.366 J0.597
N95 X6.783 Y38.835 Z1.034 I0.303 J0.631
N100 X6.886 Y38.809 Z1. I0.217 J0.665
N105 X7.114 Y40.191 Z0.612 I0.114 J0.691
N110 X6.886 Y38.809 Z0.224 I-0.114 J-0.691
N115 X7.114 Y40.191 Z-0.163 I0.114 J0.691
N120 X6.886 Y38.809 Z-0.551 I-0.114 J-0.691
N125 X7.114 Y40.191 Z-0.939 I0.114 J0.691
N130 X6.886 Y38.809 Z-1.327 I-0.114 J-0.691
N135 X7.114 Y40.191 Z-1.714 I0.114 J0.691
N140 X6.886 Y38.809 Z-2.102 I-0.114 J-0.691
N145 X7.114 Y40.191 Z-2.49 I0.114 J0.691
N150 X6.886 Y38.809 Z-2.878 I-0.114 J-0.691
N155 X7.114 Y40.191 Z-3.265 I0.114 J0.691
N160 X6.886 Y38.809 Z-3.653 I-0.114 J-0.691
N165 X7.114 Y40.191 Z-4.041 I0.114 J0.691
N170 X6.886 Y38.809 Z-4.429 I-0.114 J-0.691
N175 X7.114 Y40.191 Z-4.816 I0.114 J0.691
N180 X6.886 Y38.809 Z-5.204 I-0.114 J-0.691
N185 X7.114 Y40.191 Z-5.592 I0.114 J0.691
N190 X6.302 Y39.557 Z-5.796 I-0.114 J-0.691
N195 X7. Y38.8 Z-6. I0.698 J-0.057
N200 S5500
N205 G1 X19. F275.
N210 G3 Y40.2 I0. J0.7
N215 G1 X7.
N220 G3 Y38.8 I0. J-0.7
N225 G2 X7.15 Y38.7 I0. J-0.162
N230 G3 X7.3 Y38.6 I0.15 J0.063
N235 G1 X19.
N240 G3 Y40.4 I0. J0.9
N245 G1 X7.
N250 G3 Y38.6 I0. J-0.9
N255 G1 X7.3
N260 G3 X7.422 Y38.619 Z-5.98 I0. J0.4 F150.
N265 X7.522 Y38.667 Z-5.924 I-0.122 J0.381
N270 X7.589 Y38.724 Z-5.835 I-0.222 J0.333
N275 X7.626 Y38.768 Z-5.724 I-0.289 J0.276
N280 X7.637 Y38.784 Z-5.6 I-0.326 J0.232
N285 G0 Z5.
N290 X7.416 Y27.063
N295 G1 Z1.394 F150.
N300 S5000
N305 G3 X7.403 Y27.072 Z1.284 I-0.416 J-0.563 F220.
N310 X7.366 Y27.097 Z1.182 I-0.403 J-0.572
N315 X7.303 Y27.131 Z1.097 I-0.366 J-0.597
N320 X7.217 Y27.165 Z1.034 I-0.303 J-0.631
N325 X7.114 Y27.191 Z1. I-0.217 J-0.665
N330 X6.886 Y25.809 Z0.612 I-0.114 J-0.691
N335 X7.114 Y27.191 Z0.224 I0.114 J0.691
N340 X6.886 Y25.809 Z-0.163 I-0.114 J-0.691
N345 X7.114 Y27.191 Z-0.551 I0.114 J0.691
N350 X6.886 Y25.809 Z-0.939 I-0.114 J-0.691
N355 X7.114 Y27.191 Z-1.327 I0.114 J0.691
N360 X6.886 Y25.809 Z-1.714 I-0.114 J-0.691
N365 X7.114 Y27.191 Z-2.102 I0.114 J0.691
N370 X6.886 Y25.809 Z-2.49 I-0.114 J-0.691
N375 X7.114 Y27.191 Z-2.878 I0.114 J0.691
N380 X6.886 Y25.809 Z-3.265 I-0.114 J-0.691
N385 X7.114 Y27.191 Z-3.653 I0.114 J0.691
N390 X6.886 Y25.809 Z-4.041 I-0.114 J-0.691
N395 X7.114 Y27.191 Z-4.429 I0.114 J0.691
N400 X6.886 Y25.809 Z-4.816 I-0.114 J-0.691
N405 X7.114 Y27.191 Z-5.204 I0.114 J0.691
N410 X6.886 Y25.809 Z-5.592 I-0.114 J-0.691
N415 X7.698 Y26.443 Z-5.796 I0.114 J0.691
N420 X7. Y27.2 Z-6. I-0.698 J0.057
N425 S5500
N430 Y25.8 I0. J-0.7 F275.
N435 G1 X19.
N440 G3 Y27.2 I0. J0.7
N445 G1 X7.
N450 G2 X6.859 Y27.288 I0. J0.157
N455 G3 X6.706 Y27.35 I-0.112 J-0.056
N460 X7. Y25.6 I0.294 J-0.85
N465 G1 X19.
N470 G3 Y27.4 I0. J0.9
N475 G1 X7.
N480 G3 X6.706 Y27.35 I0. J-0.9
N485 X6.597 Y27.293 Z-5.98 I0.131 J-0.378 F150.
N490 X6.518 Y27.214 Z-5.924 I0.24 J-0.32
N495 X6.473 Y27.139 Z-5.835 I0.319 J-0.242
N500 X6.453 Y27.085 Z-5.724 I0.364 J-0.166
N505 X6.448 Y27.067 Z-5.6 I0.384 J-0.113
N510 G0 Z5.
N515 X8.432 Y13.957
N520 G1 Z1.394 F150.
N525 S5000
N530 G3 X8.418 Y13.963 Z1.284 I-0.432 J-0.957 F220.
N535 X8.376 Y13.98 Z1.182 I-0.418 J-0.963
N540 X8.308 Y14.004 Z1.097 I-0.376 J-0.98
N545 X8.219 Y14.027 Z1.034 I-0.308 J-1.004
N550 X8.115 Y14.044 Z1. I-0.219 J-1.027
N555 X7.885 Y11.956 Z0.418 I-0.115 J-1.044
N560 X8.115 Y14.044 Z-0.163 I0.115 J1.044
N565 X7.885 Y11.956 Z-0.745 I-0.115 J-1.044
N570 X8.115 Y14.044 Z-1.327 I0.115 J1.044
N575 X7.885 Y11.956 Z-1.908 I-0.115 J-1.044
N580 X8.115 Y14.044 Z-2.49 I0.115 J1.044
N585 X7.885 Y11.956 Z-3.072 I-0.115 J-1.044
N590 X8.115 Y14.044 Z-3.653 I0.115 J1.044
N595 X7.885 Y11.956 Z-4.235 I-0.115 J-1.044
N600 X8.115 Y14.044 Z-4.816 I0.115 J1.044
N605 X7.885 Y11.956 Z-5.398 I-0.115 J-1.044
N610 X9.048 Y12.943 Z-5.699 I0.115 J1.044
N615 X8. Y14.05 Z-6. I-1.048 J0.057
N620 S5500
N625 Y11.95 I0. J-1.05 F275.
N630 G1 X18.
N635 G3 Y14.05 I0. J1.05
N640 G1 X8.
N645 G2 X7.856 Y14.141 I0. J0.159
N650 G3 X7.703 Y14.214 I-0.122 J-0.057
N655 X8. Y11.75 I0.297 J-1.214
N660 G1 X18.
N665 G3 Y14.25 I0. J1.25
N670 G1 X8.
N675 G3 X7.703 Y14.214 I0. J-1.25
N680 X7.589 Y14.167 Z-5.98 I0.095 J-0.389 F150.
N685 X7.503 Y14.096 Z-5.924 I0.209 J-0.341
N690 X7.451 Y14.025 Z-5.835 I0.295 J-0.271
N695 X7.426 Y13.974 Z-5.724 I0.347 J-0.199
N700 X7.42 Y13.956 Z-5.6 I0.372 J-0.148
N705 G0 Z5.
N710 X8.059 Y51.255
N715 G1 Z1.394 F150.
N720 S5000
N725 G3 X8.074 Y51.251 Z1.284 I0.441 J1.745 F220.
N730 X8.118 Y51.241 Z1.182 I0.426 J1.749
N735 X8.188 Y51.227 Z1.097 I0.382 J1.759
N740 X8.28 Y51.214 Z1.034 I0.312 J1.773
N745 X8.385 Y51.204 Z1. I0.22 J1.786
N750 X8.615 Y54.796 Z0.003 I0.115 J1.796
N755 X8.385 Y51.204 Z-0.994 I-0.115 J-1.796
N760 X8.615 Y54.796 Z-1.991 I0.115 J1.796
N765 X8.385 Y51.204 Z-2.988 I-0.115 J-1.796
N770 X8.615 Y54.796 Z-3.986 I0.115 J1.796
N775 X8.385 Y51.204 Z-4.983 I-0.115 J-1.796
N780 X10.299 Y52.943 Z-5.491 I0.115 J1.796
N785 X8.5 Y54.8 Z-6. I-1.799 J0.057
N790 S5500
N795 G1 X6.7 F275.
N800 Y51.2
N805 X19.3
N810 Y54.8
N815 X8.5
N820 G2 X8.35 Y54.9 I0. J0.163
N825 G3 X8.2 Y55. I-0.15 J-0.063
N830 G1 X6.5
N835 Y51.
N840 X19.5
N845 Y55.
N850 X8.2
N855 G3 X8.078 Y54.981 Z-5.98 I0. J-0.4 F150.
N860 X7.978 Y54.933 Z-5.924 I0.122 J-0.381
N865 X7.911 Y54.876 Z-5.835 I0.222 J-0.333
N870 X7.874 Y54.832 Z-5.724 I0.289 J-0.276
N875 X7.863 Y54.816 Z-5.6 I0.326 J-0.232
N880 G0 Z10.
N890 M9
N895 G53 Z0.
N900 M30
%
