%
(CONTOUR CUTOUT)
(T2  D=4. CR=0. - ZMIN=-8. - FLAT END MILL)
N10 G90 G94 G17 G91.1
N15 G21
N20 G53 G0 Z0.
(2D CONTOUR1)
N25 M9
N30 T2 M6
N35 S3000 M3
N40 G54
N45 M9
N55 G0 X-1. Y36.941
N60 G43 Z4. H2
N65 #100=240. (CUTTING)
N70 #107=200. (RAMPING)
N75 G0 Z2.
N80 S2600
N85 G1 Y63. Z1.09 F#107
N90 G2 X5. Y69. Z0.761 I6. J0.
N95 G1 X17. Z0.342
N100 G2 X23. Y63. Z0.013 I0. J-6.
N105 G1 Y34. Z-1.
N110 S3000
N115 Y1. F#100
N120 G2 X21. Y-1. I-2. J0.
N125 G1 X1.
N130 G2 X-1. Y1. I0. J2.
N135 G1 Y63.
N140 G2 X5. Y69. I6. J0.
N145 G1 X17.
N150 G2 X23. Y63. I0. J-6.
N155 G1 Y34.
N160 S2600
N165 Y5.364 Z-2. F#107
N170 S3000
N175 Y1. F#100
N180 G2 X21. Y-1. I-2. J0.
N185 G1 X1.
N190 G2 X-1. Y1. I0. J2.
N195 G1 Y63.
N200 G2 X5. Y69. I6. J0.
N205 G1 X17.
N210 G2 X23. Y63. I0. J-6.
N215 G1 Y5.364
N220 S2600
N225 Y1. Z-2.152 F#107
N230 G2 X21. Y-1. Z-2.262 I-2. J0.
N235 G1 X1. Z-2.961
N240 G2 X-0.072 Y-0.689 Z-3. I0. J2.
N245 S3000
N250 X-1. Y1. I1.072 J1.689 F#100
N255 G1 Y63.
N260 G2 X5. Y69. I6. J0.
N265 G1 X17.
N270 G2 X23. Y63. I0. J-6.
N275 G1 Y1.
N280 G2 X21. Y-1. I-2. J0.
N285 G1 X1.
N290 G2 X-0.072 Y-0.689 I0. J2.
N295 S2600
N300 X-1. Y1. Z-3.07 I1.072 J1.689 F#107
N305 G1 Y27.626 Z-4.
N310 S3000
N315 Y63. F#100
N320 G2 X5. Y69. I6. J0.
N325 G1 X17.
N330 G2 X23. Y63. I0. J-6.
N335 G1 Y1.
N340 G2 X21. Y-1. I-2. J0.
N345 G1 X1.
N350 G2 X-1. Y1. I0. J2.
N355 G1 Y27.626
N360 S2600
N365 Y56.262 Z-5. F#107
N370 S3000
N375 Y63. F#100
N380 G2 X5. Y69. I6. J0.
N385 G1 X17.
N390 G2 X23. Y63. I0. J-6.
N395 G1 Y1.
N400 G2 X21. Y-1. I-2. J0.
N405 G1 X1.
N410 G2 X-1. Y1. I0. J2.
N415 G1 Y56.262
N420 S2600
N425 Y63. Z-5.235 F#107
N430 G2 X5. Y69. Z-5.564 I6. J0.
N435 G1 X17. Z-5.983
N440 G2 X17.473 Y68.981 Z-6. I0. J-6.
N445 S3000
N450 X23. Y63. I-0.473 J-5.981 F#100
N455 G1 Y1.
N460 G2 X21. Y-1. I-2. J0.
N465 G1 X1.
N470 G2 X-1. Y1. I0. J2.
N475 G1 Y63.
N480 G2 X5. Y69. I6. J0.
N485 G1 X17.
N490 G2 X17.473 Y68.981 I0. J-6.
N495 S2600
N500 X23. Y63. Z-6.313 I-0.473 J-5.981 F#107
N505 G1 Y43.315 Z-7.
N510 S3000
N515 Y1. F#100
N520 G2 X21. Y-1. I-2. J0.
N525 G1 X1.
N530 G2 X-1. Y1. I0. J2.
N535 G1 Y63.
N540 G2 X5. Y69. I6. J0.
N545 G1 X17.
N550 G2 X23. Y63. I0. J-6.
N555 G1 Y43.315
N560 S2600
N565 Y14.679 Z-8. F#107
N570 S3000
N575 Y1. F#100
N580 G2 X21. Y-1. I-2. J0.
N585 G1 X1.
N590 G2 X-1. Y1. I0. J2.
N595 G1 Y63.
N600 G2 X5. Y69. I6. J0.
N605 G1 X17.
N610 G2 X23. Y63. I0. J-6.
N615 G1 Y14.679
N620 G0 Z4.
(2D CONTOUR1)
N630 M9
N635 G0 X23. Y36.941
N640 Z4.
N645 Z2.
N650 S2600
N655 G1 Y63. Z1.09 F#107
N660 G2 X29. Y69. Z0.761 I6. J0.
N665 G1 X41. Z0.342
N670 G2 X47. Y63. Z0.013 I0. J-6.
N675 G1 Y34. Z-1.
N680 S3000
N685 Y1. F#100
N690 G2 X45. Y-1. I-2. J0.
N695 G1 X25.
N700 G2 X23. Y1. I0. J2.
N705 G1 Y63.
N710 G2 X29. Y69. I6. J0.
N715 G1 X41.
N720 G2 X47. Y63. I0. J-6.
N725 G1 Y34.
N730 S2600
N735 Y5.364 Z-2. F#107
N740 S3000
N745 Y1. F#100
N750 G2 X45. Y-1. I-2. J0.
N755 G1 X25.
N760 G2 X23. Y1. I0. J2.
N765 G1 Y63.
N770 G2 X29. Y69. I6. J0.
N775 G1 X41.
N780 G2 X47. Y63. I0. J-6.
N785 G1 Y5.364
N790 S2600
N795 Y1. Z-2.152 F#107
N800 G2 X45. Y-1. Z-2.262 I-2. J0.
N805 G1 X25. Z-2.961
N810 G2 X23.928 Y-0.689 Z-3. I0. J2.
N815 S3000
N820 X23. Y1. I1.072 J1.689 F#100
N825 G1 Y63.
N830 G2 X29. Y69. I6. J0.
N835 G1 X41.
N840 G2 X47. Y63. I0. J-6.
N845 G1 Y1.
N850 G2 X45. Y-1. I-2. J0.
N855 G1 X25.
N860 G2 X23.928 Y-0.689 I0. J2.
N865 S2600
N870 X23. Y1. Z-3.07 I1.072 J1.689 F#107
N875 G1 Y27.626 Z-4.
N880 S3000
N885 Y63. F#100
N890 G2 X29. Y69. I6. J0.
N895 G1 X41.
N900 G2 X47. Y63. I0. J-6.
N905 G1 Y1.
N910 G2 X45. Y-1. I-2. J0.
N915 G1 X25.
N920 G2 X23. Y1. I0. J2.
N925 G1 Y27.626
N930 S2600
N935 Y56.262 Z-5. F#107
N940 S3000
N945 Y63. F#100
N950 G2 X29. Y69. I6. J0.
N955 G1 X41.
N960 G2 X47. Y63. I0. J-6.
N965 G1 Y1.
N970 G2 X45. Y-1. I-2. J0.
N975 G1 X25.
N980 G2 X23. Y1. I0. J2.
N985 G1 Y56.262
N990 S2600
N995 Y63. Z-5.235 F#107
N1000 G2 X29. Y69. Z-5.564 I6. J0.
N1005 G1 X41. Z-5.983
N1010 G2 X41.473 Y68.981 Z-6. I0. J-6.
N1015 S3000
N1020 X47. Y63. I-0.473 J-5.981 F#100
N1025 G1 Y1.
N1030 G2 X45. Y-1. I-2. J0.
N1035 G1 X25.
N1040 G2 X23. Y1. I0. J2.
N1045 G1 Y63.
N1050 G2 X29. Y69. I6. J0.
N1055 G1 X41.
N1060 G2 X41.473 Y68.981 I0. J-6.
N1065 S2600
N1070 X47. Y63. Z-6.313 I-0.473 J-5.981 F#107
N1075 G1 Y43.315 Z-7.
N1080 S3000
N1085 Y1. F#100
N1090 G2 X45. Y-1. I-2. J0.
N1095 G1 X25.
N1100 G2 X23. Y1. I0. J2.
N1105 G1 Y63.
N1110 G2 X29. Y69. I6. J0.
N1115 G1 X41.
N1120 G2 X47. Y63. I0. J-6.
N1125 G1 Y43.315
N1130 S2600
N1135 Y14.679 Z-8. F#107
N1140 S3000
N1145 Y1. F#100
N1150 G2 X45. Y-1. I-2. J0.
N1155 G1 X25.
N1160 G2 X23. Y1. I0. J2.
N1165 G1 Y63.
N1170 G2 X29. Y69. I6. J0.
N1175 G1 X41.
N1180 G2 X47. Y63. I0. J-6.
N1185 G1 Y14.679
N1190 G0 Z4.
(2D CONTOUR1)
N1200 M9
N1205 G0 X47. Y36.941
N1210 Z4.
N1215 Z2.
N1220 S2600
N1225 G1 Y63. Z1.09 F#107
N1230 G2 X53. Y69. Z0.761 I6. J0.
N1235 G1 X65. Z0.342
N1240 G2 X71. Y63. Z0.013 I0. J-6.
N1245 G1 Y34. Z-1.
N1250 S3000
N1255 Y1. F#100
N1260 G2 X69. Y-1. I-2. J0.
N1265 G1 X49.
N1270 G2 X47. Y1. I0. J2.
N1275 G1 Y63.
N1280 G2 X53. Y69. I6. J0.
N1285 G1 X65.
N1290 G2 X71. Y63. I0. J-6.
N1295 G1 Y34.
N1300 S2600
N1305 Y5.364 Z-2. F#107
N1310 S3000
N1315 Y1. F#100
N1320 G2 X69. Y-1. I-2. J0.
N1325 G1 X49.
N1330 G2 X47. Y1. I0. J2.
N1335 G1 Y63.
N1340 G2 X53. Y69. I6. J0.
N1345 G1 X65.
N1350 G2 X71. Y63. I0. J-6.
N1355 G1 Y5.364
N1360 S2600
N1365 Y1. Z-2.152 F#107
N1370 G2 X69. Y-1. Z-2.262 I-2. J0.
N1375 G1 X49. Z-2.961
N1380 G2 X47.928 Y-0.689 Z-3. I0. J2.
N1385 S3000
N1390 X47. Y1. I1.072 J1.689 F#100
N1395 G1 Y63.
N1400 G2 X53. Y69. I6. J0.
N1405 G1 X65.
N1410 G2 X71. Y63. I0. J-6.
N1415 G1 Y1.
N1420 G2 X69. Y-1. I-2. J0.
N1425 G1 X49.
N1430 G2 X47.928 Y-0.689 I0. J2.
N1435 S2600
N1440 X47. Y1. Z-3.07 I1.072 J1.689 F#107
N1445 G1 Y27.626 Z-4.
N1450 S3000
N1455 Y63. F#100
N1460 G2 X53. Y69. I6. J0.
N1465 G1 X65.
N1470 G2 X71. Y63. I0. J-6.
N1475 G1 Y1.
N1480 G2 X69. Y-1. I-2. J0.
N1485 G1 X49.
N1490 G2 X47. Y1. I0. J2.
N1495 G1 Y27.626
N1500 S2600
N1505 Y56.262 Z-5. F#107
N1510 S3000
N1515 Y63. F#100
N1520 G2 X53. Y69. I6. J0.
N1525 G1 X65.
N1530 G2 X71. Y63. I0. J-6.
N1535 G1 Y1.
N1540 G2 X69. Y-1. I-2. J0.
N1545 G1 X49.
N1550 G2 X47. Y1. I0. J2.
N1555 G1 Y56.262
N1560 S2600
N1565 Y63. Z-5.235 F#107
N1570 G2 X53. Y69. Z-5.564 I6. J0.
N1575 G1 X65. Z-5.983
N1580 G2 X65.473 Y68.981 Z-6. I0. J-6.
N1585 S3000
N1590 X71. Y63. I-0.473 J-5.981 F#100
N1595 G1 Y1.
N1600 G2 X69. Y-1. I-2. J0.
N1605 G1 X49.
N1610 G2 X47. Y1. I0. J2.
N1615 G1 Y63.
N1620 G2 X53. Y69. I6. J0.
N1625 G1 X65.
N1630 G2 X65.473 Y68.981 I0. J-6.
N1635 S2600
N1640 X71. Y63. Z-6.313 I-0.473 J-5.981 F#107
N1645 G1 Y43.315 Z-7.
N1650 S3000
N1655 Y1. F#100
N1660 G2 X69. Y-1. I-2. J0.
N1665 G1 X49.
N1670 G2 X47. Y1. I0. J2.
N1675 G1 Y63.
N1680 G2 X53. Y69. I6. J0.
N1685 G1 X65.
N1690 G2 X71. Y63. I0. J-6.
N1695 G1 Y43.315
N1700 S2600
N1705 Y14.679 Z-8. F#107
N1710 S3000
N1715 Y1. F#100
N1720 G2 X69. Y-1. I-2. J0.
N1725 G1 X49.
N1730 G2 X47. Y1. I0. J2.
N1735 G1 Y63.
N1740 G2 X53. Y69. I6. J0.
N1745 G1 X65.
N1750 G2 X71. Y63. I0. J-6.
N1755 G1 Y14.679
N1760 G0 Z4.
(2D CONTOUR1)
N1770 M9
N1775 G0 X71. Y36.941
N1780 Z4.
N1785 Z2.
N1790 S2600
N1795 G1 Y63. Z1.09 F#107
N1800 G2 X77. Y69. Z0.761 I6. J0.
N1805 G1 X89. Z0.342
N1810 G2 X95. Y63. Z0.013 I0. J-6.
N1815 G1 Y34. Z-1.
N1820 S3000
N1825 Y1. F#100
N1830 G2 X93. Y-1. I-2. J0.
N1835 G1 X73.
N1840 G2 X71. Y1. I0. J2.
N1845 G1 Y63.
N1850 G2 X77. Y69. I6. J0.
N1855 G1 X89.
N1860 G2 X95. Y63. I0. J-6.
N1865 G1 Y34.
N1870 S2600
N1875 Y5.364 Z-2. F#107
N1880 S3000
N1885 Y1. F#100
N1890 G2 X93. Y-1. I-2. J0.
N1895 G1 X73.
N1900 G2 X71. Y1. I0. J2.
N1905 G1 Y63.
N1910 G2 X77. Y69. I6. J0.
N1915 G1 X89.
N1920 G2 X95. Y63. I0. J-6.
N1925 G1 Y5.364
N1930 S2600
N1935 Y1. Z-2.152 F#107
N1940 G2 X93. Y-1. Z-2.262 I-2. J0.
N1945 G1 X73. Z-2.961
N1950 G2 X71.928 Y-0.689 Z-3. I0. J2.
N1955 S3000
N1960 X71. Y1. I1.072 J1.689 F#100
N1965 G1 Y63.
N1970 G2 X77. Y69. I6. J0.
N1975 G1 X89.
N1980 G2 X95. Y63. I0. J-6.
N1985 G1 Y1.
N1990 G2 X93. Y-1. I-2. J0.
N1995 G1 X73.
N2000 G2 X71.928 Y-0.689 I0. J2.
N2005 S2600
N2010 X71. Y1. Z-3.07 I1.072 J1.689 F#107
N2015 G1 Y27.626 Z-4.
N2020 S3000
N2025 Y63. F#100
N2030 G2 X77. Y69. I6. J0.
N2035 G1 X89.
N2040 G2 X95. Y63. I0. J-6.
N2045 G1 Y1.
N2050 G2 X93. Y-1. I-2. J0.
N2055 G1 X73.
N2060 G2 X71. Y1. I0. J2.
N2065 G1 Y27.626
N2070 S2600
N2075 Y56.262 Z-5. F#107
N2080 S3000
N2085 Y63. F#100
N2090 G2 X77. Y69. I6. J0.
N2095 G1 X89.
N2100 G2 X95. Y63. I0. J-6.
N2105 G1 Y1.
N2110 G2 X93. Y-1. I-2. J0.
N2115 G1 X73.
N2120 G2 X71. Y1. I0. J2.
N2125 G1 Y56.262
N2130 S2600
N2135 Y63. Z-5.235 F#107
N2140 G2 X77. Y69. Z-5.564 I6. J0.
N2145 G1 X89. Z-5.983
N2150 G2 X89.473 Y68.981 Z-6. I0. J-6.
N2155 S3000
N2160 X95. Y63. I-0.473 J-5.981 F#100
N2165 G1 Y1.
N2170 G2 X93. Y-1. I-2. J0.
N2175 G1 X73.
N2180 G2 X71. Y1. I0. J2.
N2185 G1 Y63.
N2190 G2 X77. Y69. I6. J0.
N2195 G1 X89.
N2200 G2 X89.473 Y68.981 I0. J-6.
N2205 S2600
N2210 X95. Y63. Z-6.313 I-0.473 J-5.981 F#107
N2215 G1 Y43.315 Z-7.
N2220 S3000
N2225 Y1. F#100
N2230 G2 X93. Y-1. I-2. J0.
N2235 G1 X73.
N2240 G2 X71. Y1. I0. J2.
N2245 G1 Y63.
N2250 G2 X77. Y69. I6. J0.
N2255 G1 X89.
N2260 G2 X95. Y63. I0. J-6.
N2265 G1 Y43.315
N2270 S2600
N2275 Y14.679 Z-8. F#107
N2280 S3000
N2285 Y1. F#100
N2290 G2 X93. Y-1. I-2. J0.
N2295 G1 X73.
N2300 G2 X71. Y1. I0. J2.
N2305 G1 Y63.
N2310 G2 X77. Y69. I6. J0.
N2315 G1 X89.
N2320 G2 X95. Y63. I0. J-6.
N2325 G1 Y14.679
N2330 G0 Z4.
N2340 M9
N2345 G53 Z0.
N2350 M30
%
