%
(CONTOUR-4MM)
(T2  D=4. CR=0. - ZMIN=-8. - FLAT END MILL)
N10 G90 G94 G17 G91.1
N15 G21
N20 G53 G0 Z0.
(2D CONTOUR1)
N25 M9
N30 T2 M6
N35 S5500 M3
N40 G54
N45 M8
N55 G0 X-0.2 Y2.85
N60 G43 Z10. H2
N65 G0 Z5.
N70 G1 Z2. F150.
N75 Z-0.6 F110.
N80 G18 G2 X0.2 Z-1. I0.4 K0.
N85 G1 X0.6 F150.
N90 G17 G3 X1. Y3.25 I0. J0.4
N95 G1 Y62.75 F275.
N100 G2 X3.25 Y65. I2.25 J0.
N105 G1 X22.75
N110 G2 X25. Y62.75 I0. J-2.25
N115 G1 Y3.25
N120 G2 X22.75 Y1. I-2.25 J0.
N125 G1 X3.25
N130 G2 X1. Y3.25 I0. J2.25
N135 G3 X0.6 Y3.65 I-0.4 J0. F150.
N140 G1 X0.2
N145 G18 G3 X-0.2 Z-0.6 I0. K0.4
N150 G1 Y2.85
N155 Z-1.6 F110.
N160 G2 X0.2 Z-2. I0.4 K0.
N165 G1 X0.6 F150.
N170 G17 G3 X1. Y3.25 I0. J0.4
N175 G1 Y62.75 F275.
N180 G2 X3.25 Y65. I2.25 J0.
N185 G1 X22.75
N190 G2 X25. Y62.75 I0. J-2.25
N195 G1 Y3.25
N200 G2 X22.75 Y1. I-2.25 J0.
N205 G1 X3.25
N210 G2 X1. Y3.25 I0. J2.25
N215 G3 X0.6 Y3.65 I-0.4 J0. F150.
N220 G1 X0.2
N225 G18 G3 X-0.2 Z-1.6 I0. K0.4
N230 G1 Y2.85
N235 Z-2.6 F110.
N240 G2 X0.2 Z-3. I0.4 K0.
N245 G1 X0.6 F150.
N250 G17 G3 X1. Y3.25 I0. J0.4
N255 G1 Y62.75 F275.
N260 G2 X3.25 Y65. I2.25 J0.
N265 G1 X22.75
N270 G2 X25. Y62.75 I0. J-2.25
N275 G1 Y3.25
N280 G2 X22.75 Y1. I-2.25 J0.
N285 G1 X3.25
N290 G2 X1. Y3.25 I0. J2.25
N295 G3 X0.6 Y3.65 I-0.4 J0. F150.
N300 G1 X0.2
N305 G18 G3 X-0.2 Z-2.6 I0. K0.4
N310 G1 Y2.85
N315 Z-3.6 F110.
N320 G2 X0.2 Z-4. I0.4 K0.
N325 G1 X0.6 F150.
N330 G17 G3 X1. Y3.25 I0. J0.4
N335 G1 Y62.75 F275.
N340 G2 X3.25 Y65. I2.25 J0.
N345 G1 X22.75
N350 G2 X25. Y62.75 I0. J-2.25
N355 G1 Y3.25
N360 G2 X22.75 Y1. I-2.25 J0.
N365 G1 X3.25
N370 G2 X1. Y3.25 I0. J2.25
N375 G3 X0.6 Y3.65 I-0.4 J0. F150.
N380 G1 X0.2
N385 G18 G3 X-0.2 Z-3.6 I0. K0.4
N390 G1 Y2.85
N395 Z-4.6 F110.
N400 G2 X0.2 Z-5. I0.4 K0.
N405 G1 X0.6 F150.
N410 G17 G3 X1. Y3.25 I0. J0.4
N415 G1 Y62.75 F275.
N420 G2 X3.25 Y65. I2.25 J0.
N425 G1 X22.75
N430 G2 X25. Y62.75 I0. J-2.25
N435 G1 Y3.25
N440 G2 X22.75 Y1. I-2.25 J0.
N445 G1 X3.25
N450 G2 X1. Y3.25 I0. J2.25
N455 G3 X0.6 Y3.65 I-0.4 J0. F150.
N460 G1 X0.2
N465 G18 G3 X-0.2 Z-4.6 I0. K0.4
N470 G1 Y2.85
N475 Z-5.6 F110.
N480 G2 X0.2 Z-6. I0.4 K0.
N485 G1 X0.6 F150.
N490 G17 G3 X1. Y3.25 I0. J0.4
N495 G1 Y62.75 F275.
N500 G2 X3.25 Y65. I2.25 J0.
N505 G1 X22.75
N510 G2 X25. Y62.75 I0. J-2.25
N515 G1 Y3.25
N520 G2 X22.75 Y1. I-2.25 J0.
N525 G1 X3.25
N530 G2 X1. Y3.25 I0. J2.25
N535 G3 X0.6 Y3.65 I-0.4 J0. F150.
N540 G1 X0.2
N545 G18 G3 X-0.2 Z-5.6 I0. K0.4
N550 G1 Y2.85
N555 Z-6.6 F110.
N560 G2 X0.2 Z-7. I0.4 K0.
N565 G1 X0.6 F150.
N570 G17 G3 X1. Y3.25 I0. J0.4
N575 G1 Y62.75 F275.
N580 G2 X3.25 Y65. I2.25 J0.
N585 G1 X22.75
N590 G2 X25. Y62.75 I0. J-2.25
N595 G1 Y3.25
N600 G2 X22.75 Y1. I-2.25 J0.
N605 G1 X3.25
N610 G2 X1. Y3.25 I0. J2.25
N615 G3 X0.6 Y3.65 I-0.4 J0. F150.
N620 G1 X0.2
N625 G18 G3 X-0.2 Z-6.6 I0. K0.4
N630 G1 Y2.85
N635 Z-7.6 F110.
N640 G2 X0.2 Z-8. I0.4 K0.
N645 G1 X0.6 F150.
N650 G17 G3 X1. Y3.25 I0. J0.4
N655 G1 Y62.75 F275.
N660 G2 X3.25 Y65. I2.25 J0.
N665 G1 X22.75
N670 G2 X25. Y62.75 I0. J-2.25
N675 G1 Y3.25
N680 G2 X22.75 Y1. I-2.25 J0.
N685 G1 X3.25
N690 G2 X1. Y3.25 I0. J2.25
N695 G3 X0.6 Y3.65 I-0.4 J0. F150.
N700 G1 X0.2
N705 G18 G3 X-0.2 Z-7.6 I0. K0.4
N710 G0 Z10.
N715 G17
N720 M9
N725 G53 G0 Z0.
N730 M30
%
