%
(FACING)
(T2  D=4. CR=0. - ZMIN=-2. - FLAT END MILL)
N10 G90 G94 G17 G91.1
N15 G21
N20 G53 G0 Z0.
(FACE1)
N25 M9
N30 T2 M6
N35 S3000 M3
N40 G54
N45 M9
N55 G0 X5.373 Y-2.4
N60 G43 Z8. H2
N65 G0 Z3.
N70 G1 Z-1.6 F210.
N75 G19 G3 Y-2. Z-2. J0.4 K0.
N80 G17 G3 X4.373 Y-1. I-1. J0. F240.
N85 G2 X2.373 Y1. I0. J2.
N90 G1 Y66.946
N95 G19 G3 Y67.346 Z-1.6 J0. K0.4 F210.
N100 G0 Z3.
N105 X8.712 Y-2.4
N110 G1 Z-1.6 F210.
N115 G3 Y-2. Z-2. J0.4 K0.
N120 G17 G3 X7.712 Y-1. I-1. J0. F240.
N125 G2 X5.712 Y1. I0. J2.
N130 G1 Y67.
N135 G19 G3 Y67.4 Z-1.6 J0. K0.4 F210.
N140 G0 Z3.
N145 X12.05 Y-2.4
N150 G1 Z-1.6 F210.
N155 G3 Y-2. Z-2. J0.4 K0.
N160 G17 G3 X11.05 Y-1. I-1. J0. F240.
N165 G2 X9.05 Y1. I0. J2.
N170 G1 Y67.
N175 G19 G3 Y67.4 Z-1.6 J0. K0.4 F210.
N180 G0 Z3.
N185 X15.388 Y-2.4
N190 G1 Z-1.6 F210.
N195 G3 Y-2. Z-2. J0.4 K0.
N200 G17 G3 X14.388 Y-1. I-1. J0. F240.
N205 G2 X12.388 Y1. I0. J2.
N210 G1 Y67.
N215 G19 G3 Y67.4 Z-1.6 J0. K0.4 F210.
N220 G0 Z3.
N225 X18.727 Y-2.4
N230 G1 Z-1.6 F210.
N235 G3 Y-2. Z-2. J0.4 K0.
N240 G17 G3 X17.727 Y-1. I-1. J0. F240.
N245 G2 X15.727 Y1. I0. J2.
N250 G1 Y67.
N255 G19 G3 Y67.4 Z-1.6 J0. K0.4 F210.
N260 G0 Z3.
N265 X22.065 Y-2.4
N270 G1 Z-1.6 F210.
N275 G3 Y-2. Z-2. J0.4 K0.
N280 G17 G3 X21.065 Y-1. I-1. J0. F240.
N285 G2 X19.065 Y1. I0. J2.
N290 G1 Y66.997
N295 G19 G3 Y67.397 Z-1.6 J0. K0.4 F210.
N300 G0 Z8.
N305 G17
(FACE1)
N310 M9
N315 G0 X29.373 Y-2.4
N320 Z8.
N325 Z3.
N330 G1 Z-1.6 F210.
N335 G19 G3 Y-2. Z-2. J0.4 K0.
N340 G17 G3 X28.373 Y-1. I-1. J0. F240.
N345 G2 X26.373 Y1. I0. J2.
N350 G1 Y66.946
N355 G19 G3 Y67.346 Z-1.6 J0. K0.4 F210.
N360 G0 Z3.
N365 X32.712 Y-2.4
N370 G1 Z-1.6 F210.
N375 G3 Y-2. Z-2. J0.4 K0.
N380 G17 G3 X31.712 Y-1. I-1. J0. F240.
N385 G2 X29.712 Y1. I0. J2.
N390 G1 Y67.
N395 G19 G3 Y67.4 Z-1.6 J0. K0.4 F210.
N400 G0 Z3.
N405 X36.05 Y-2.4
N410 G1 Z-1.6 F210.
N415 G3 Y-2. Z-2. J0.4 K0.
N420 G17 G3 X35.05 Y-1. I-1. J0. F240.
N425 G2 X33.05 Y1. I0. J2.
N430 G1 Y67.
N435 G19 G3 Y67.4 Z-1.6 J0. K0.4 F210.
N440 G0 Z3.
N445 X39.388 Y-2.4
N450 G1 Z-1.6 F210.
N455 G3 Y-2. Z-2. J0.4 K0.
N460 G17 G3 X38.388 Y-1. I-1. J0. F240.
N465 G2 X36.388 Y1. I0. J2.
N470 G1 Y67.
N475 G19 G3 Y67.4 Z-1.6 J0. K0.4 F210.
N480 G0 Z3.
N485 X42.727 Y-2.4
N490 G1 Z-1.6 F210.
N495 G3 Y-2. Z-2. J0.4 K0.
N500 G17 G3 X41.727 Y-1. I-1. J0. F240.
N505 G2 X39.727 Y1. I0. J2.
N510 G1 Y67.
N515 G19 G3 Y67.4 Z-1.6 J0. K0.4 F210.
N520 G0 Z3.
N525 X46.065 Y-2.4
N530 G1 Z-1.6 F210.
N535 G3 Y-2. Z-2. J0.4 K0.
N540 G17 G3 X45.065 Y-1. I-1. J0. F240.
N545 G2 X43.065 Y1. I0. J2.
N550 G1 Y66.997
N555 G19 G3 Y67.397 Z-1.6 J0. K0.4 F210.
N560 G0 Z8.
N565 G17
(FACE1)
N570 M9
N575 G0 X53.373 Y-2.4
N580 Z8.
N585 Z3.
N590 G1 Z-1.6 F210.
N595 G19 G3 Y-2. Z-2. J0.4 K0.
N600 G17 G3 X52.373 Y-1. I-1. J0. F240.
N605 G2 X50.373 Y1. I0. J2.
N610 G1 Y66.946
N615 G19 G3 Y67.346 Z-1.6 J0. K0.4 F210.
N620 G0 Z3.
N625 X56.712 Y-2.4
N630 G1 Z-1.6 F210.
N635 G3 Y-2. Z-2. J0.4 K0.
N640 G17 G3 X55.712 Y-1. I-1. J0. F240.
N645 G2 X53.712 Y1. I0. J2.
N650 G1 Y67.
N655 G19 G3 Y67.4 Z-1.6 J0. K0.4 F210.
N660 G0 Z3.
N665 X60.05 Y-2.4
N670 G1 Z-1.6 F210.
N675 G3 Y-2. Z-2. J0.4 K0.
N680 G17 G3 X59.05 Y-1. I-1. J0. F240.
N685 G2 X57.05 Y1. I0. J2.
N690 G1 Y67.
N695 G19 G3 Y67.4 Z-1.6 J0. K0.4 F210.
N700 G0 Z3.
N705 X63.388 Y-2.4
N710 G1 Z-1.6 F210.
N715 G3 Y-2. Z-2. J0.4 K0.
N720 G17 G3 X62.388 Y-1. I-1. J0. F240.
N725 G2 X60.388 Y1. I0. J2.
N730 G1 Y67.
N735 G19 G3 Y67.4 Z-1.6 J0. K0.4 F210.
N740 G0 Z3.
N745 X66.727 Y-2.4
N750 G1 Z-1.6 F210.
N755 G3 Y-2. Z-2. J0.4 K0.
N760 G17 G3 X65.727 Y-1. I-1. J0. F240.
N765 G2 X63.727 Y1. I0. J2.
N770 G1 Y67.
N775 G19 G3 Y67.4 Z-1.6 J0. K0.4 F210.
N780 G0 Z3.
N785 X70.065 Y-2.4
N790 G1 Z-1.6 F210.
N795 G3 Y-2. Z-2. J0.4 K0.
N800 G17 G3 X69.065 Y-1. I-1. J0. F240.
N805 G2 X67.065 Y1. I0. J2.
N810 G1 Y66.997
N815 G19 G3 Y67.397 Z-1.6 J0. K0.4 F210.
N820 G0 Z8.
N825 G17
(FACE1)
N830 M9
N835 G0 X77.373 Y-2.4
N840 Z8.
N845 Z3.
N850 G1 Z-1.6 F210.
N855 G19 G3 Y-2. Z-2. J0.4 K0.
N860 G17 G3 X76.373 Y-1. I-1. J0. F240.
N865 G2 X74.373 Y1. I0. J2.
N870 G1 Y66.946
N875 G19 G3 Y67.346 Z-1.6 J0. K0.4 F210.
N880 G0 Z3.
N885 X80.712 Y-2.4
N890 G1 Z-1.6 F210.
N895 G3 Y-2. Z-2. J0.4 K0.
N900 G17 G3 X79.712 Y-1. I-1. J0. F240.
N905 G2 X77.712 Y1. I0. J2.
N910 G1 Y67.
N915 G19 G3 Y67.4 Z-1.6 J0. K0.4 F210.
N920 G0 Z3.
N925 X84.05 Y-2.4
N930 G1 Z-1.6 F210.
N935 G3 Y-2. Z-2. J0.4 K0.
N940 G17 G3 X83.05 Y-1. I-1. J0. F240.
N945 G2 X81.05 Y1. I0. J2.
N950 G1 Y67.
N955 G19 G3 Y67.4 Z-1.6 J0. K0.4 F210.
N960 G0 Z3.
N965 X87.388 Y-2.4
N970 G1 Z-1.6 F210.
N975 G3 Y-2. Z-2. J0.4 K0.
N980 G17 G3 X86.388 Y-1. I-1. J0. F240.
N985 G2 X84.388 Y1. I0. J2.
N990 G1 Y67.
N995 G19 G3 Y67.4 Z-1.6 J0. K0.4 F210.
N1000 G0 Z3.
N1005 X90.727 Y-2.4
N1010 G1 Z-1.6 F210.
N1015 G3 Y-2. Z-2. J0.4 K0.
N1020 G17 G3 X89.727 Y-1. I-1. J0. F240.
N1025 G2 X87.727 Y1. I0. J2.
N1030 G1 Y67.
N1035 G19 G3 Y67.4 Z-1.6 J0. K0.4 F210.
N1040 G0 Z3.
N1045 X94.065 Y-2.4
N1050 G1 Z-1.6 F210.
N1055 G3 Y-2. Z-2. J0.4 K0.
N1060 G17 G3 X93.065 Y-1. I-1. J0. F240.
N1065 G2 X91.065 Y1. I0. J2.
N1070 G1 Y66.997
N1075 G19 G3 Y67.397 Z-1.6 J0. K0.4 F210.
N1080 G0 Z8.
N1085 G17
N1090 M9
N1095 G53 G0 Z0.
N1100 M30
%
