%
(POCKET)
(T2  D=4. CR=0. - ZMIN=-6.75 - FLAT END MILL)
N10 G90 G94 G17 G91.1
N15 G21
N20 G53 G0 Z0.
(2D POCKET2)
N25 M9
N30 T2 M6
N35 S3000 M3
N40 G54
N45 M9
N55 G0 X6.947 Y53.754
N60 G43 Z6. H2
N65 #100=240. (CUTTING)
N70 #103=210. (ENTRY)
N75 #104=210. (EXIT)
N80 #106=60. (REDUCED)
N85 #107=200. (RAMPING)
N90 G0 Z5.
N95 G1 Z1.499 F#103
N100 S2600
N105 X6.954 Y53.738 Z1.367 F#107
N110 X6.974 Y53.689 Z1.243
N115 X7.008 Y53.613 Z1.138
N120 X7.057 Y53.517 Z1.06
N125 X7.121 Y53.409 Z1.012
N130 X7.17 Y53.337 Z1.
N135 G3 X10.274 Y55.53 Z0.687 I1.552 J1.096
N140 X7.17 Y53.337 Z0.374 I-1.552 J-1.096
N145 X10.274 Y55.53 Z0.062 I1.552 J1.096
N150 X7.17 Y53.337 Z-0.251 I-1.552 J-1.096
N155 X10.274 Y55.53 Z-0.564 I1.552 J1.096
N160 X7.17 Y53.337 Z-0.877 I-1.552 J-1.096
N165 X10.274 Y55.53 Z-1.19 I1.552 J1.096
N170 X7.17 Y53.337 Z-1.503 I-1.552 J-1.096
N175 X10.274 Y55.53 Z-1.815 I1.552 J1.096
N180 X7.17 Y53.337 Z-2.128 I-1.552 J-1.096
N185 X10.274 Y55.53 Z-2.441 I1.552 J1.096
N190 X7.17 Y53.337 Z-2.754 I-1.552 J-1.096
N195 X10.274 Y55.53 Z-3.067 I1.552 J1.096
N200 X7.121 Y53.409 Z-3.375 I-1.552 J-1.096
N205 X8.639 Y53.809 I0.694 J0.444
N210 G1 X8.677 Y54.51
N215 G2 X9.898 Y55.187 I0.823 J-0.045
N220 S3000
N225 G1 X10.207 Y55.016 F#100
N230 X10.268 Y54.98
N235 X10.841 Y54.629
N240 G2 X10.997 Y54.351 I-0.171 J-0.279
N245 G1 X10.992 Y52.871
N250 X10.899 Y13.607
N255 X10.897 Y12.807 F#106
N260 G3 X11.107 Y12.808 I0.105 J0.001
N265 G1 X11.204 Y51.405 F#100
N270 G3 X11.223 Y54.206 I-232.644 J2.948
N275 G2 X11.398 Y54.514 I0.37 J-0.006
N280 X11.606 Y54.649 I4.011 J-5.991
N285 X11.959 Y54.854 I3.803 J-6.125 F#106
N290 G1 X12.054 Y54.912
N295 X12.144 Y54.979
N300 X12.274 Y55.085
N305 G3 X12.173 Y55.393 I-0.11 J0.134
N310 X11.911 Y55.333 I-0.024 J-0.491 F#100
N315 G1 X11.675 Y55.204
N320 X11.627 Y55.176
N325 X11.164 Y54.899
N330 G2 X10.836 Y54.9 I-0.163 J0.273
N335 G3 X9.966 Y55.388 I-3.336 J-4.93
N340 G1 X9.911 Y55.403
N345 X9.855
N350 X9.801 Y55.389
N355 X9.752 Y55.361
N360 X9.713 Y55.321
N365 X9.686 Y55.272
N370 X9.672 Y55.217
N375 X9.674 Y55.162
N380 X9.69 Y55.108
N385 X9.72 Y55.061
N390 X9.761 Y55.023
N395 G3 X10.567 Y54.517 I5.611 J8.049
N400 G2 X10.76 Y54.175 I-0.216 J-0.347
N405 G3 X10.752 Y50.091 I481.58 J-2.949
N410 G1 X10.573 Y13.314
N415 G3 X10.581 Y12.829 I15.115 J-0.002
N420 X10.592 Y12.565 I15.107 J0.483 F#106
N425 G1 X10.604 Y12.502
N430 X10.628 Y12.442
N435 X10.664 Y12.388
N440 X10.709 Y12.342
N445 X10.762 Y12.305
N450 X10.821 Y12.28
N455 X10.884 Y12.266
N460 X10.948 Y12.265
N465 X10.968 Y12.266
N470 X11. Y12.267 F#100
N475 X11.032 Y12.266
N480 X11.064 Y12.264
N485 G3 X11.398 Y12.529 I0.023 J0.314
N490 G1 X11.409 Y12.602
N495 G3 X11.434 Y12.921 I-2.104 J0.329
N500 G1 X11.619 Y50.893
N505 G3 X11.668 Y53.725 I-141.287 J3.88
N510 G1 X11.68 Y53.836
N515 X11.707 Y53.945
N520 X11.749 Y54.05
N525 X11.804 Y54.147
N530 X11.873 Y54.236
N535 X11.953 Y54.315
N540 X12.043 Y54.383
N545 G3 X12.338 Y54.597 I-1.69 J2.638
N550 X12.831 Y55.066 I-1.705 J2.287
N555 G1 X12.97 Y55.234
N560 G3 X12.83 Y55.701 I-0.226 J0.187
N565 G1 X12.68 Y55.747
N570 G3 X12.317 Y55.81 I-0.44 J-1.439
N575 G1 X12.241 Y55.812
N580 G3 X11.541 Y55.637 I0. J-1.48
N585 G1 X11.436 Y55.58
N590 X11.42 Y55.571
N595 X11.353 Y55.534
N600 G2 X10.649 Y55.537 I-0.348 J0.621
N605 G1 X10.41 Y55.673
N610 G3 X9.76 Y55.824 I-0.583 J-1.035
N615 G1 X9.65 Y55.817
N620 G3 X9.28 Y55.752 I0.091 J-1.597
N625 G1 X9.146 Y55.712
N630 G3 X8.995 Y55.249 I0.085 J-0.284
N635 G1 X9.195 Y54.985
N640 G3 X9.507 Y54.661 I1.548 J1.175
N645 G1 X9.627 Y54.562
N650 G3 X9.811 Y54.435 I0.828 J1.004
N655 G2 X10.295 Y53.603 I-0.474 J-0.833
N660 G3 X10.317 Y50.898 I102.718 J-0.523
N665 G1 X10.143 Y13.532
N670 G3 X10.164 Y12.664 I14.665 J-0.068
N675 G1 X10.178 Y12.408
N680 X10.181 Y12.379
N685 X10.213 Y12.028
N690 G3 X10.547 Y11.789 I0.271 J0.025
N695 G2 X10.661 Y11.798 I0.085 J-0.353
N700 G1 X11.255 Y11.753
N705 G3 X11.791 Y12.219 I0.037 J0.499
N710 G2 X11.798 Y12.277 I0.637 J-0.042
N715 G1 X11.823 Y12.44
N720 G3 X11.875 Y13.084 I-4.214 J0.664
N725 G1 X12.051 Y50.894
N730 G2 X12.096 Y52.27 I30.472 J-0.31
N735 G1 X12.114 Y52.532
N740 X12.119 Y52.794
N745 X12.117 Y53.282
N750 Y53.393
N755 X12.119 Y53.481
N760 G2 X12.42 Y54.104 I0.817 J-0.012
N765 G1 X12.475 Y54.149
N770 G3 X13.321 Y54.985 I-3.83 J4.715
N775 G1 X13.498 Y55.199
N780 G3 X13.611 Y55.398 I-0.509 J0.422
N785 G1 X13.703 Y55.653
N790 G3 X13.488 Y56.002 I-0.247 J0.089
N795 G2 X13.426 Y56.015 I0.045 J0.363
N800 G1 X13.04 Y56.134
N805 G3 X12.497 Y56.252 I-0.986 J-3.212
N810 G1 X12.378 Y56.268
N815 G3 X11.431 Y56.087 I-0.201 J-1.513
N820 G2 X10.578 Y56.09 I-0.424 J0.756
N825 G3 X9.609 Y56.278 I-0.762 J-1.339
N830 G1 X9.454 Y56.257
N835 G3 X8.897 Y56.136 I0.491 J-3.619
N840 G1 X8.497 Y56.016
N845 G3 X8.288 Y55.621 I0.09 J-0.3
N850 G1 X8.358 Y55.4
N855 G3 X8.463 Y55.199 I0.636 J0.203
N860 G1 X8.722 Y54.859
N865 G3 X9.256 Y54.308 I2.524 J1.917
N870 G1 X9.616 Y54.018
N875 G2 X9.832 Y53.57 I-0.363 J-0.45
N880 G1 Y53.383
N885 Y53.292
N890 X9.824 Y52.795
N895 G3 X9.842 Y52.269 I5.355 J-0.078
N900 G1 X9.85 Y52.14
N905 G2 X9.878 Y50.897 I-30.492 J-1.309
N910 G1 X9.711 Y13.761
N915 G3 X9.752 Y12.437 I18.868 J-0.084
N920 G1 X9.766 Y12.223
N925 X9.768 Y12.195
N930 X9.827 Y11.542
N935 G3 X10.204 Y11.272 I0.305 J0.027
N940 G1 X10.319 Y11.3
N945 G2 X10.491 Y11.314 I0.129 J-0.53
N950 G1 X10.833 Y11.287
N955 G3 X11.168 Y11.282 I0.211 J2.705
N960 G1 X11.596 Y11.302
N965 G2 X11.732 Y11.288 I0.022 J-0.478
N970 G3 X12.168 Y11.608 I0.085 J0.342
N975 G2 X12.239 Y12.284 I3.856 J-0.059
N980 G3 X12.316 Y13.242 I-6.248 J0.986
N985 G1 X12.484 Y50.895
N990 G2 X12.545 Y52.273 I21.522 J-0.262
N995 G1 X12.57 Y52.532
N1000 X12.579 Y52.792
N1005 X12.577 Y53.161
N1010 G2 X12.885 Y53.878 I0.97 J0.007
N1015 G1 X13.184 Y54.156
N1020 G3 X13.62 Y54.652 I-2.275 J2.439
N1025 G2 X13.987 Y55.087 I2.654 J-1.865
N1030 G3 X14.197 Y55.437 I-0.744 J0.685
N1035 G1 X14.328 Y55.811
N1040 G3 X13.986 Y56.364 I-0.394 J0.139
N1045 G2 X13.897 Y56.382 I0.073 J0.575
N1050 G1 X13.379 Y56.533
N1055 G3 X12.652 Y56.685 I-1.347 J-4.631
N1060 G1 X12.294 Y56.731
N1065 G3 X11.909 Y56.737 I-0.216 J-1.667
N1070 G1 X11.823 Y56.728
N1075 G3 X11.428 Y56.617 I0.118 J-1.173
N1080 G1 X11.25 Y56.531
N1085 G2 X10.686 Y56.547 I-0.266 J0.55
N1090 G3 X9.688 Y56.741 I-0.792 J-1.415
N1095 G1 X9.278 Y56.688
N1100 G3 X8.568 Y56.547 I0.677 J-5.272
N1105 G1 X7.968 Y56.385
N1110 X7.938 Y56.378
N1115 X7.908 Y56.372
N1120 G3 X7.616 Y55.908 I0.049 J-0.355
N1125 G1 X7.78 Y55.402
N1130 G3 X7.968 Y55.055 I1.033 J0.334
N1135 G1 X8.372 Y54.554
N1140 G3 X8.82 Y54.073 I3.584 J2.891
N1145 G1 X9.131 Y53.784
N1150 G2 X9.361 Y53.245 I-0.492 J-0.529
N1155 G1 X9.356 Y52.79
N1160 G3 X9.386 Y52.275 I4.269 J-0.009
N1165 G1 X9.398 Y52.133
N1170 G2 X9.439 Y50.896 I-21.764 J-1.343
N1175 G1 X9.278 Y13.568
N1180 G3 X9.306 Y12.629 I13.984 J-0.06
N1185 G1 X9.323 Y12.35
N1190 G2 X9.336 Y11.846 I-6.633 J-0.418
N1195 G3 X9.337 Y11.048 I2.676 J-0.395
N1200 X9.753 Y10.756 I0.365 J0.078
N1205 G1 X10.166 Y10.813
N1210 G2 X10.374 Y10.82 I0.139 J-1.008
N1215 G1 X10.764 Y10.794
N1220 G3 X11.236 Y10.785 I0.328 J4.814
N1225 G2 X12.17 Y10.756 I0.362 J-3.396
N1230 G1 X12.242 Y10.753
N1235 X12.313 Y10.765
N1240 X12.381 Y10.789
N1245 X12.443 Y10.825
N1250 X12.498 Y10.872
N1255 X12.543 Y10.928
N1260 X12.577 Y10.992
N1265 X12.598 Y11.06
N1270 X12.607 Y11.132
N1275 G2 X12.683 Y12.267 I5.472 J0.201
N1280 G1 X12.722 Y12.596
N1285 X12.746 Y12.927
N1290 X12.755 Y13.259
N1295 X12.917 Y50.913
N1300 G2 X13.074 Y53.09 I29.967 J-1.063
N1305 G1 X13.083 Y53.196
N1310 X13.108 Y53.3
N1315 X13.147 Y53.4
N1320 X13.201 Y53.493
N1325 X13.267 Y53.578
N1330 G3 X14.006 Y54.409 I-4.293 J4.559
N1335 G2 X14.255 Y54.694 I2.335 J-1.797
N1340 G1 X14.271 Y54.71
N1345 G3 X14.629 Y55.152 I-1.931 J1.929
N1350 G1 X14.925 Y55.608
N1355 G3 X15.075 Y56.15 I-0.783 J0.508
N1360 X14.354 Y56.907 I-0.788 J-0.029
N1365 G2 X13.357 Y57.056 I0.274 J5.239
N1370 G3 X12.682 Y57.153 I-1.308 J-6.702
N1375 G1 X12.292 Y57.19
N1380 G3 X11.912 Y57.192 I-0.207 J-2.221
N1385 G1 X11.692 Y57.175
N1390 G2 X10.328 Y57.181 I-0.649 J8.345
N1395 G1 X10.118 Y57.199
N1400 G3 X9.679 Y57.198 I-0.216 J-2.522
N1405 G1 X9.243 Y57.16
N1410 G3 X8.597 Y57.075 I0.666 J-7.541
N1415 G2 X7.514 Y56.923 I-1.424 J6.235
N1420 G3 X6.909 Y56.283 I0.055 J-0.658
N1425 G1 X6.905 Y56.132
N1430 G3 X7.057 Y55.579 I0.986 J-0.026
N1435 G1 X7.383 Y55.064
N1440 G3 X7.634 Y54.721 I2.602 J1.644
N1445 X8.723 Y53.49 I14.334 J11.58
N1450 G2 X8.867 Y53.146 I-0.395 J-0.367
N1455 X9.001 Y50.925 I-65.207 J-5.057
N1460 G1 X8.847 Y13.56
N1465 G3 X8.866 Y12.637 I18.928 J-0.078
N1470 G1 X8.873 Y12.48
N1475 G2 X8.885 Y11.716 I-13.41 J-0.599
N1480 G3 X8.915 Y10.629 I6.355 J-0.369
N1485 X9.331 Y10.266 I0.395 J0.032
N1490 G2 X12.691 Y10.251 I1.478 J-46.817
N1495 G3 X13.073 Y10.609 I0.018 J0.364
N1500 G2 X13.14 Y12.264 I11.304 J0.375
N1505 G1 X13.168 Y12.595
N1510 X13.186 Y12.927
N1515 X13.193 Y13.259
N1520 X13.349 Y50.941
N1525 G2 X13.384 Y51.625 I8.571 J-0.103
N1530 G1 X13.411 Y51.886
N1535 X13.452 Y52.145
N1540 X13.508 Y52.401
N1545 X13.578 Y52.654
N1550 X13.663 Y52.902
N1555 X13.761 Y53.146
N1560 X13.874 Y53.383
N1565 X13.999 Y53.613
N1570 X14.138 Y53.836
N1575 X14.289 Y54.051
N1580 X14.451 Y54.256
N1585 X14.626 Y54.453
N1590 G3 X14.922 Y54.8 I-3.487 J3.28
N1595 G1 X15.297 Y55.283
N1600 G3 X15.631 Y56.309 I-1.26 J0.977
N1605 G1 X15.612 Y56.925
N1610 G3 X15.126 Y57.419 I-0.51 J-0.016
N1615 G2 X13.362 Y57.552 I-0.054 J10.993
N1620 G3 X12.678 Y57.62 I-1.327 J-9.925
N1625 G1 X12.288 Y57.645
N1630 G3 X11.915 Y57.647 I-0.208 J-3.227
N1635 G1 X11.897 Y57.646
N1640 G2 X10.115 Y57.654 I-0.825 J16.12
N1645 G3 X9.681 I-0.219 J-3.693
N1650 G1 X9.243 Y57.629
N1655 G3 X8.594 Y57.572 I0.649 J-11.138
N1660 G2 X6.846 Y57.451 I-1.698 J11.889
N1665 G3 X6.352 Y56.953 I0.021 J-0.514
N1670 G1 X6.317 Y55.83
N1675 G3 X6.514 Y55.428 I0.479 J-0.015
N1680 G2 X6.621 Y55.322 I-0.305 J-0.418
N1685 X8.005 Y53.549 I-30.202 J-24.994
N1690 X8.438 Y52.466 I-1.974 J-1.418
N1695 X8.562 Y50.61 I-12.988 J-1.804
N1700 G1 X8.415 Y13.559
N1705 X8.469 Y10.101
N1710 G3 X8.802 Y9.785 I0.328 J0.013
N1715 G2 X13.216 Y9.768 I1.574 J-167.061
N1720 G3 X13.541 Y10.083 I0.006 J0.32
N1725 G2 X13.596 Y12.248 I25.381 J0.441
N1730 G1 X13.621 Y12.761
N1735 X13.631 Y13.274
N1740 X13.781 Y50.936
N1745 G2 X13.803 Y51.379 I4.933 J-0.027
N1750 G1 X13.832 Y51.641
N1755 X13.875 Y51.902
N1760 X13.932 Y52.159
N1765 X14.002 Y52.413
N1770 X14.085 Y52.664
N1775 X14.182 Y52.909
N1780 X14.291 Y53.149
N1785 X14.413 Y53.383
N1790 X14.548 Y53.61
N1795 X14.694 Y53.829
N1800 X14.851 Y54.041
N1805 X15.02 Y54.244
N1810 X15.05 Y54.278
N1815 X15.134 Y54.372
N1820 X15.609 Y54.893
N1825 G3 X16.166 Y56.356 I-1.573 J1.436
N1830 G1 X16.15 Y57.561
N1835 G3 X15.762 Y57.955 I-0.399 J-0.005
N1840 G1 X14.481 Y58.016
N1845 X13.199 Y58.063
N1850 X11.917 Y58.096
N1855 X11.311 Y58.089
N1860 X10.705 Y58.093
N1865 X10.099 Y58.109
N1870 G3 X6.198 Y57.998 I1.767 J-129.898
N1875 X5.803 Y57.601 I0.008 J-0.403
N1880 G1 X5.776 Y55.732
N1885 G3 X6.161 Y55.014 I0.839 J-0.012
N1890 G2 X6.345 Y54.857 I-0.495 J-0.769
N1895 X7.082 Y54.011 I-9.585 J-9.093
N1900 G1 X7.237 Y53.808
N1905 X7.38 Y53.596
N1910 X7.511 Y53.378
N1915 X7.63 Y53.152
N1920 X7.737 Y52.921
N1925 X7.831 Y52.684
N1930 X7.912 Y52.442
N1935 X7.98 Y52.196
N1940 X8.034 Y51.946
N1945 X8.075 Y51.695
N1950 X8.101 Y51.441
N1955 G2 X8.126 Y50.908 I-5.75 J-0.531
N1960 G1 X7.981 Y13.102
N1965 G3 X8.011 Y9.512 I148.083 J-0.568
N1970 G1 X8.018 Y9.46
N1975 X8.039 Y9.412
N1980 X8.072 Y9.371
N1985 X8.113 Y9.34
N1990 X8.161 Y9.32
N1995 X8.213 Y9.313
N2000 X11. Y9.291
N2005 X13.025 Y9.292
N2010 X13.825 F#106
N2015 G3 X14.009 Y9.473 I0. J0.184
N2020 X14.069 Y13.384 I-481.662 J9.387 F#100
N2025 G1 X14.213 Y50.933
N2030 G2 X14.248 Y51.452 I4.629 J-0.053
N2035 X15.678 Y54.279 I4.34 J-0.419
N2040 G1 X15.909 Y54.487
N2045 G2 X16.115 Y54.639 I0.886 J-0.988
N2050 G1 X16.565 Y54.907
N2055 G3 X16.707 Y55.156 I-0.149 J0.25
N2060 G1 X16.702 Y57.545
N2065 X16.701 Y58.345 F#106
N2070 G3 X16.547 Y58.501 I-0.156 J0.
N2075 X6.214 Y58.575 I-10.958 J-817.08 F#100
N2080 X5.414 I-0.625 J-817.153 F#106
N2085 G1 X5.365 Y58.568
N2090 X5.319 Y58.549
N2095 X5.281 Y58.518
N2100 X5.251 Y58.479
N2105 X5.233 Y58.434
N2110 X5.227 Y58.385
N2115 X5.217 Y55.158 F#100
N2120 G3 X5.396 Y54.842 I0.366 J-0.001
N2125 G1 X5.785 Y54.611
N2130 G2 X6.097 Y54.383 I-1.024 J-1.726
N2135 G1 X6.546 Y53.982
N2140 G2 X7.7 Y51.091 I-3.046 J-2.891
N2145 G1 Y9.899
N2150 Y9.099 F#106
N2155 G3 X7.8 Y8.999 I0.1 J0.
N2160 G1 X13.4 F#100
N2165 X14.2 F#106
N2170 G3 X14.3 Y9.099 I0. J0.1
N2175 G1 Y51.091 F#100
N2180 G2 X16.052 Y54.503 I4.2 J0.
N2185 X16.742 Y54.905 I2.449 J-3.412 F#106
N2190 G3 X16.8 Y54.996 I-0.042 J0.091
N2195 G1 Y57.699 F#100
N2200 Y58.499 F#106
N2205 G3 X16.7 Y58.599 I-0.1 J0.
N2210 G1 X6.1 F#100
N2215 X5.3 F#106
N2220 G3 X5.2 Y58.499 I0. J-0.1
N2225 G1 Y55.796 F#100
N2230 Y54.996 F#106
N2235 G3 X5.258 Y54.905 I0.1 J0.
N2240 G2 X6.546 Y53.982 I-1.758 J-3.814 F#100
N2245 G3 X6.647 Y53.901 Z-3.358 I0.363 J0.344 F#104
N2250 X6.756 Y53.85 Z-3.308 I0.263 J0.426
N2255 X6.857 Y53.829 Z-3.229 I0.153 J0.476
N2260 X6.936 Y53.827 Z-3.125 I0.052 J0.497
N2265 X6.986 Y53.832 Z-3.004 I-0.027 J0.499
N2270 G1 X7.003 Y53.835 Z-2.875
N2275 Z-1.876
N2280 X9.363 Y55.589
N2285 S2600
N2290 X9.374 Y55.578 Z-2.001 F#107
N2295 X9.406 Y55.544 Z-2.118
N2300 X9.46 Y55.492 Z-2.22
N2305 X9.533 Y55.428 Z-2.3
N2310 X9.623 Y55.357 Z-2.353
N2315 X9.726 Y55.286 Z-2.375
N2320 X9.84 Y55.218 Z-2.382
N2325 G3 X11.66 Y58.542 Z-2.694 I0.91 J1.662
N2330 X9.84 Y55.218 Z-3.006 I-0.91 J-1.662
N2335 X11.66 Y58.542 Z-3.318 I0.91 J1.662
N2340 X9.84 Y55.218 Z-3.63 I-0.91 J-1.662
N2345 X11.66 Y58.542 Z-3.942 I0.91 J1.662
N2350 X9.84 Y55.218 Z-4.254 I-0.91 J-1.662
N2355 X11.66 Y58.542 Z-4.566 I0.91 J1.662
N2360 X9.84 Y55.218 Z-4.878 I-0.91 J-1.662
N2365 X11.66 Y58.542 Z-5.19 I0.91 J1.662
N2370 X9.84 Y55.218 Z-5.502 I-0.91 J-1.662
N2375 X11.66 Y58.542 Z-5.814 I0.91 J1.662
N2380 X9.84 Y55.218 Z-6.126 I-0.91 J-1.662
N2385 X11.66 Y58.542 Z-6.438 I0.91 J1.662
N2390 X9.84 Y55.218 Z-6.75 I-0.91 J-1.662
N2395 S3000
N2400 G2 X10.231 Y54.999 I-8.51 J-15.672 F#100
N2405 X10.915 Y54.585 I-8.901 J-15.454 F#106
N2410 G1 X10.949 Y54.558
N2415 X10.975 Y54.523
N2420 X10.992 Y54.482
N2425 X10.997 Y54.439
N2430 X10.991 Y52.551 F#100
N2435 X10.895 Y13.503
N2440 X10.893 Y12.791 F#106
N2445 X10.895 Y12.755
N2450 X10.899 Y12.718
N2455 X10.901 Y12.703
N2460 G3 X10.992 Y12.632 I0.083 J0.013
N2465 G2 X11.008 I0.009 J-0.106
N2470 G3 X11.099 Y12.705 I0.006 J0.085
N2475 G1 X11.101 Y12.716
N2480 X11.105 Y12.755 F#100
N2485 X11.107 Y12.793
N2490 X11.204 Y51.409
N2495 G3 X11.222 Y54.207 I-226.173 J2.842
N2500 G2 X11.398 Y54.515 I0.369 J-0.007
N2505 X11.667 Y54.687 I4.371 J-6.561
N2510 X11.972 Y54.863 I4.101 J-6.733 F#106
N2515 G3 X12.164 Y54.988 I-0.643 J1.192
N2520 G1 X12.336 Y55.123
N2525 G3 X12.241 Y55.421 I-0.103 J0.131
N2530 X11.956 Y55.356 I-0.027 J-0.538 F#100
N2535 G1 X11.74 Y55.24
N2540 X11.676 Y55.204
N2545 X11.165 Y54.9
N2550 G2 X10.835 Y54.901 I-0.164 J0.276
N2555 G3 X9.906 Y55.414 I-2.921 J-4.192
N2560 X9.706 Y55.055 I-0.084 J-0.189
N2565 X10.576 Y54.512 I7.412 J10.901
N2570 G2 X10.76 Y54.186 I-0.204 J-0.331
N2575 G3 X10.752 Y50.112 I446.458 J-2.931
N2580 G1 X10.572 Y12.902
N2585 G3 X10.573 Y12.82 I1.861 J-0.009
N2590 X10.594 Y12.608 I1.86 J0.074 F#106
N2595 G1 X10.61 Y12.506
N2600 G3 X10.925 Y12.257 I0.291 J0.045
N2605 G1 X10.967 Y12.261
N2610 X11. Y12.262 F#100
N2615 X11.033 Y12.261
N2620 X11.065 Y12.259
N2625 G3 X11.396 Y12.521 I0.022 J0.311
N2630 G1 X11.408 Y12.599
N2635 G3 X11.434 Y12.912 I-2.013 J0.323
N2640 G1 X11.618 Y50.892
N2645 G3 X11.664 Y53.715 I-66.621 J2.506
N2650 G2 X12.041 Y54.381 I0.813 J-0.02
N2655 G3 X12.391 Y54.63 I-1.663 J2.703
N2660 X12.881 Y55.095 I-1.732 J2.316
N2665 G1 X13.037 Y55.283
N2670 G3 X12.885 Y55.745 I-0.221 J0.184
N2675 X12.408 Y55.832 I-0.503 J-1.398
N2680 X11.582 Y55.658 I-0.086 J-1.637
N2685 G1 X11.506 Y55.62
N2690 X11.465 Y55.598
N2695 X11.351 Y55.534
N2700 G2 X10.651 Y55.537 I-0.347 J0.617
N2705 G1 X10.531 Y55.606
N2710 X10.503 Y55.622
N2715 X10.418 Y55.667
N2720 G3 X9.62 Y55.844 I-0.712 J-1.33
N2725 G1 X9.597 Y55.842
N2730 G3 X9.221 Y55.776 I0.091 J-1.611
N2735 G1 X9.084 Y55.735
N2740 G3 X8.939 Y55.284 I0.083 J-0.275
N2745 G1 X9.142 Y55.019
N2750 G3 X9.463 Y54.69 I1.541 J1.182
N2755 X9.913 Y54.371 I2.181 J2.602
N2760 G1 X9.996 Y54.309
N2765 X10.071 Y54.237
N2770 X10.137 Y54.157
N2775 X10.192 Y54.069
N2780 X10.237 Y53.975
N2785 X10.269 Y53.876
N2790 X10.289 Y53.774
N2795 X10.297 Y53.67
N2800 G2 X10.289 Y52.825 I-19.794 J-0.236
N2805 G1 Y52.551
N2810 X10.297 Y52.278
N2815 X10.301 Y52.16
N2820 X10.313 Y51.486
N2825 X10.316 Y51.19
N2830 X10.317 Y50.895
N2835 X10.141 Y13.051
N2840 G3 X10.184 Y12.462 I3.754 J-0.017
N2845 G2 X10.226 Y12.027 I-1.903 J-0.4
N2850 G3 X10.549 Y11.78 I0.262 J0.008
N2855 G2 X10.656 Y11.789 I0.084 J-0.351
N2860 G3 X11.5 Y11.788 I0.433 J5.389
N2865 G1 X11.553 Y11.779
N2870 X11.607 Y11.784
N2875 X11.658 Y11.802
N2880 X11.703 Y11.833
N2885 X11.739 Y11.875
N2890 X11.763 Y11.924
N2895 X11.775 Y11.979
N2900 G2 X11.823 Y12.44 I2.379 J-0.015
N2905 G3 X11.875 Y13.073 I-4.035 J0.652
N2910 G1 X12.051 Y50.893
N2915 G2 X12.096 Y52.279 I30.856 J-0.321
N2920 G1 X12.114 Y52.552
N2925 X12.117 Y52.825
N2930 X12.107 Y53.308
N2935 G2 X12.499 Y54.158 I1.069 J0.023
N2940 G1 X12.525 Y54.18
N2945 G3 X13.364 Y55.011 I-3.956 J4.832
N2950 G1 X13.549 Y55.233
N2955 G3 X13.668 Y55.44 I-0.521 J0.435
N2960 G1 X13.719 Y55.585
N2965 G3 X13.453 Y56.081 I-0.358 J0.127
N2970 X12.625 Y56.262 I-1.343 J-4.144
N2975 X11.394 Y56.065 I-0.29 J-2.13
N2980 G1 X11.268 Y56.003
N2985 G2 X10.731 Y56.008 I-0.264 J0.542
N2990 G1 X10.714 Y56.017
N2995 G3 X8.913 Y56.178 I-1.101 J-2.163
N3000 G1 X8.419 Y56.029
N3005 G3 X8.229 Y55.667 I0.083 J-0.274
N3010 G1 X8.303 Y55.436
N3015 G3 X8.406 Y55.239 I0.618 J0.198
N3020 G1 X8.679 Y54.883
N3025 G3 X9.207 Y54.34 I2.58 J1.979
N3030 G1 X9.483 Y54.115
N3035 G2 X9.842 Y53.329 I-0.614 J-0.754
N3040 G1 X9.826 Y52.825
N3045 G3 X9.841 Y52.278 I4.89 J-0.132
N3050 G1 X9.848 Y52.16
N3055 G2 X9.877 Y50.894 I-30.64 J-1.337
N3060 G1 X9.709 Y13.195
N3065 G3 X9.774 Y12.318 I5.606 J-0.025
N3070 G2 X9.836 Y11.757 I-2.987 J-0.614
N3075 Y11.653 I-3.049 J-0.053 F#106
N3080 G3 X10.314 Y11.288 I0.387 J0.011
N3085 G1 X10.321 Y11.29
N3090 G2 X10.483 Y11.304 I0.127 J-0.526 F#100
N3095 G1 X10.835 Y11.281
N3100 G3 X11.165 Y11.279 I0.184 J2.873
N3105 G1 X11.615 Y11.302
N3110 G2 X11.754 Y11.287 I0.023 J-0.451
N3115 G3 X12.166 Y11.587 I0.085 J0.317
N3120 G2 X12.238 Y12.289 I3.479 J-0.002
N3125 G3 X12.316 Y13.225 I-5.954 J0.963
N3130 G1 X12.484 Y50.893
N3135 G2 X12.55 Y52.324 I20.498 J-0.229
N3140 G1 X12.571 Y52.552
N3145 X12.577 Y52.78
N3150 G2 X12.593 Y53.203 I4.033 J0.065
N3155 X12.927 Y53.914 I1.045 J-0.058
N3160 G1 X13.222 Y54.187
N3165 G3 X13.66 Y54.68 I-2.274 J2.461
N3170 G1 X13.691 Y54.723
N3175 G2 X13.884 Y54.957 I2.02 J-1.465
N3180 G1 X13.927 Y55.003
N3185 G3 X14.325 Y55.616 I-1.547 J1.439
N3190 G1 X14.451 Y55.913
N3195 G3 X14.181 Y56.364 I-0.3 J0.127
N3200 G2 X13.446 Y56.546 I0.196 J2.375
N3205 G3 X12.718 Y56.699 I-1.368 J-4.692
N3210 G1 X12.368 Y56.745
N3215 G3 X11.353 Y56.556 I-0.218 J-1.648
N3220 G2 X10.655 Y56.558 I-0.347 J0.634
N3225 G1 X10.628 Y56.574
N3230 G3 X9.654 Y56.76 I-0.77 J-1.385
N3235 G1 X9.225 Y56.705
N3240 G3 X8.515 Y56.563 I0.68 J-5.259
N3245 G2 X7.817 Y56.386 I-0.953 J2.295
N3250 G3 X7.523 Y55.9 I0.035 J-0.353
N3255 G1 X7.659 Y55.568
N3260 G3 X8.01 Y54.976 I2.15 J0.877
N3265 G1 X8.298 Y54.623
N3270 G3 X8.822 Y54.067 I4.18 J3.412
N3275 G1 X9.1 Y53.81
N3280 G2 X9.347 Y53.271 I-0.52 J-0.564
N3285 X9.358 Y52.804 I-6.276 J-0.375
N3290 G1 Y52.636
N3295 X9.367 Y52.468
N3300 X9.383 Y52.3
N3305 G2 X9.439 Y50.894 I-18.75 J-1.443
N3310 G1 X9.276 Y12.914
N3315 G3 X9.297 Y12.596 I2.264 J-0.01
N3320 G2 X9.398 Y11.109 I-5.518 J-1.124
N3325 G3 X9.807 Y10.75 I0.36 J-0.003
N3330 G2 X10.769 Y10.787 I0.592 J-2.867
N3335 G3 X11.231 Y10.783 I0.279 J5.276
N3340 G2 X12.185 Y10.753 I0.38 J-3.08
N3345 G1 X12.255 Y10.749
N3350 X12.325 Y10.759
N3355 X12.391 Y10.782
N3360 X12.453 Y10.817
N3365 X12.506 Y10.863
N3370 X12.55 Y10.918
N3375 X12.582 Y10.981
N3380 X12.603 Y11.048
N3385 X12.61 Y11.118
N3390 G2 X12.702 Y12.402 I5.3 J0.267
N3395 G3 X12.755 Y13.11 I-5.039 J0.73
N3400 G1 X12.917 Y50.91
N3405 G2 X12.994 Y52.268 I15.664 J-0.212
N3410 G1 X13.021 Y52.469
N3415 X13.038 Y52.671
N3420 X13.045 Y52.811
N3425 G2 X13.47 Y53.791 I1.535 J-0.084
N3430 G3 X14.033 Y54.427 I-3.428 J3.602
N3435 G2 X14.301 Y54.729 I2.519 J-1.962
N3440 G1 X14.34 Y54.768
N3445 G3 X14.661 Y55.155 I-1.843 J1.855
N3450 G1 X14.972 Y55.613
N3455 G3 X15.129 Y56.195 I-0.763 J0.518
N3460 G1 X15.122 Y56.29
N3465 G3 X14.491 Y56.919 I-0.676 J-0.047
N3470 G2 X13.421 Y57.067 I0.104 J4.712
N3475 G3 X12.75 Y57.164 I-1.325 J-6.799
N3480 G1 X12.355 Y57.201
N3485 G3 X11.964 Y57.205 I-0.217 J-2.282
N3490 G1 X11.871 Y57.198
N3495 G3 X11.385 Y57.086 I0.127 J-1.662
N3500 G2 X11.006 Y57.013 I-0.38 J0.954
N3505 X10.622 Y57.087 I0. J1.027
N3510 G3 X10.12 Y57.207 I-0.647 J-1.604
N3515 G1 X10.038 Y57.214
N3520 G3 X9.643 Y57.213 I-0.193 J-2.281
N3525 G1 X9.19 Y57.173
N3530 G3 X8.545 Y57.087 I0.668 J-7.513
N3535 G2 X7.487 Y56.946 I-1.196 J4.942
N3540 G3 X6.853 Y56.311 I0.042 J-0.677
N3545 G1 X6.845 Y56.183
N3550 G3 X7.006 Y55.584 I0.968 J-0.06
N3555 G1 X7.355 Y55.062
N3560 G3 X7.565 Y54.785 I2.437 J1.627
N3565 G1 X8.474 Y53.727
N3570 G2 X8.889 Y52.703 I-1.293 J-1.121
N3575 X9.001 Y50.923 I-18.454 J-2.057
N3580 G1 X8.846 Y13.222
N3585 G3 X8.89 Y12.289 I9.115 J-0.038
N3590 G2 X8.929 Y10.591 I-9.021 J-1.058
N3595 G3 X9.291 Y10.247 I0.342 J-0.002
N3600 G2 X12.709 Y10.241 I1.637 J-36.723
N3605 G3 X13.084 Y10.591 I0.022 J0.353
N3610 G2 X13.141 Y12.278 I9.732 J0.518
N3615 G1 X13.169 Y12.596
N3620 X13.186 Y12.914
N3625 X13.193 Y13.233
N3630 X13.349 Y50.939
N3635 G2 X13.38 Y51.558 I7.65 J-0.074
N3640 G1 X13.407 Y51.83
N3645 X13.451 Y52.101
N3650 X13.51 Y52.368
N3655 X13.584 Y52.632
N3660 X13.673 Y52.891
N3665 X13.776 Y53.145
N3670 X13.894 Y53.392
N3675 X14.026 Y53.632
N3680 X14.172 Y53.864
N3685 X14.33 Y54.088
N3690 X14.501 Y54.302
N3695 X14.684 Y54.506
N3700 G3 X14.951 Y54.808 I-4.129 J3.922
N3705 G1 X15.393 Y55.344
N3710 G3 X15.664 Y56.136 I-0.922 J0.759
N3715 G1 X15.642 Y56.961
N3720 G3 X15.162 Y57.443 I-0.496 J-0.014
N3725 G2 X13.426 Y57.559 I-0.252 J9.247
N3730 G3 X12.747 Y57.627 I-1.344 J-10.066
N3735 G1 X12.352 Y57.653
N3740 G3 X11.967 Y57.655 I-0.217 J-3.317
N3745 G1 X11.938 Y57.654
N3750 G2 X10.076 Y57.662 I-0.861 J17.101
N3755 G3 X9.605 I-0.235 J-4.018
N3760 G1 X9.19 Y57.637
N3765 G3 X8.542 Y57.58 I0.651 J-11.097
N3770 G2 X6.807 Y57.477 I-1.472 J10.103
N3775 G3 X6.321 Y56.992 I0.012 J-0.499
N3780 G1 X6.296 Y56.122
N3785 G3 X6.562 Y55.333 I1.203 J-0.034
N3790 G2 X7.98 Y53.583 I-30.095 J-25.828
N3795 G1 X8.079 Y53.443
N3800 X8.168 Y53.296
N3805 X8.245 Y53.143
N3810 X8.311 Y52.984
N3815 X8.365 Y52.822
N3820 X8.406 Y52.655
N3825 X8.435 Y52.486
N3830 G2 X8.562 Y50.509 I-14.498 J-1.919
N3835 G1 X8.414 Y13.221
N3840 G3 X8.44 Y12.288 I14.631 J-0.058
N3845 G2 X8.46 Y10.07 I-18.77 J-1.276
N3850 G3 X8.771 Y9.765 I0.304 J-0.001
N3855 G2 X13.238 Y9.752 I1.992 J-81.604
N3860 G3 X13.559 Y10.061 I0.009 J0.311
N3865 G2 X13.598 Y12.28 I20.537 J0.746
N3870 G1 X13.622 Y12.755
N3875 X13.631 Y13.23
N3880 X13.781 Y50.934
N3885 G2 X13.806 Y51.414 I5.175 J-0.035
N3890 G1 X13.835 Y51.672
N3895 X13.878 Y51.929
N3900 X13.934 Y52.183
N3905 X14.004 Y52.433
N3910 X14.087 Y52.679
N3915 X14.183 Y52.921
N3920 X14.292 Y53.157
N3925 X14.413 Y53.386
N3930 X14.546 Y53.609
N3935 X14.691 Y53.825
N3940 X14.848 Y54.033
N3945 X15.015 Y54.231
N3950 G2 X15.686 Y54.943 I14.666 J-13.156
N3955 X15.851 Y55.074 I0.56 J-0.535
N3960 G3 X16.197 Y55.689 I-0.361 J0.608
N3965 G1 X16.179 Y57.595
N3970 G3 X15.796 Y57.981 I-0.39 J-0.004
N3975 X11.969 Y58.106 I-8.791 J-209.477
N3980 G2 X10.049 Y58.114 I-0.827 J33.895
N3985 G3 X6.162 Y58.024 I3.99 J-256.791
N3990 X5.773 Y57.637 I0.003 J-0.391
N3995 G1 X5.752 Y55.678
N4000 G3 X6.113 Y55.03 I0.749 J-0.008
N4005 G2 X6.284 Y54.892 I-0.425 J-0.701
N4010 X7.094 Y53.99 I-7.964 J-7.972
N4015 G1 X7.246 Y53.793
N4020 X7.387 Y53.588
N4025 X7.516 Y53.376
N4030 X7.633 Y53.157
N4035 X7.738 Y52.932
N4040 X7.831 Y52.702
N4045 X7.91 Y52.467
N4050 X7.977 Y52.227
N4055 X8.03 Y51.985
N4060 X8.07 Y51.74
N4065 X8.097 Y51.493
N4070 G2 X8.126 Y50.906 I-6.185 J-0.598
N4075 G1 X7.981 Y13.221
N4080 G2 X7.993 Y10.282 I-219.179 J-2.356
N4085 X7.99 Y9.482 I-219.191 J0.583 F#106
N4090 G3 X8.182 Y9.289 I0.192 J-0.001
N4095 G1 X10.271 Y9.299 F#100
N4100 X11.825 Y9.291
N4105 X13.053 Y9.277
N4110 X13.853 Y9.268 F#106
N4115 G3 X14.033 Y9.446 I0.002 J0.178
N4120 G2 X14.068 Y13.037 I161.29 J0.232 F#100
N4125 G1 X14.213 Y50.931
N4130 G2 X14.251 Y51.472 I4.742 J-0.057
N4135 X15.707 Y54.303 I4.295 J-0.42
N4140 G1 X15.955 Y54.52
N4145 G2 X16.161 Y54.664 I0.793 J-0.908
N4150 G1 X16.596 Y54.907
N4155 G3 X16.722 Y55.121 I-0.12 J0.215
N4160 G1 X16.723 Y57.629
N4165 Y58.429 F#106
N4170 G3 X16.63 Y58.523 I-0.093 J0.
N4175 G1 X11.62 Y58.558 F#100
N4180 G2 X6.142 Y58.572 I-0.794 J744.536
N4185 X5.342 Y58.578 I4.684 J744.521 F#106
N4190 G3 X5.22 Y58.457 I0. J-0.121
N4195 G1 X5.215 Y55.101 F#100
N4200 G3 X5.354 Y54.86 I0.277 J0.
N4205 G1 X5.799 Y54.606
N4210 G2 X6.003 Y54.46 I-0.633 J-1.106
N4215 G1 X6.517 Y54.013
N4220 G2 X7.7 Y51.091 I-3.017 J-2.922
N4225 G1 Y9.799
N4230 Y8.999 F#106
N4235 X13.5 F#100
N4240 X14.3 F#106
N4245 Y51.091 F#100
N4250 G2 X16.104 Y54.54 I4.2 J0.
N4255 X16.8 Y54.931 I2.396 J-3.449 F#106
N4260 G1 Y57.799 F#100
N4265 Y58.599 F#106
N4270 X6. F#100
N4275 X5.2 F#106
N4280 Y55.731 F#100
N4285 Y54.931 F#106
N4290 G2 X6.517 Y54.013 I-1.7 J-3.841 F#100
N4295 X6.549 Y53.832 I-0.117 J-0.114
N4300 G3 X6.574 Y53.65 I0.158 J-0.071
N4305 G2 X7.5 Y51.091 I-3.074 J-2.56
N4310 G1 Y9.699
N4315 Y8.899 F#106
N4320 G3 X7.6 Y8.799 I0.1 J0.
N4325 G1 X13.6 F#100
N4330 X14.4 F#106
N4335 G3 X14.5 Y8.899 I0. J0.1
N4340 G1 Y51.091 F#100
N4345 G2 X16.238 Y54.39 I4. J0.
N4350 X16.939 Y54.774 I2.262 J-3.299 F#106
N4355 G3 X17. Y54.866 I-0.039 J0.092
N4360 G1 Y57.899 F#100
N4365 Y58.699 F#106
N4370 G3 X16.9 Y58.799 I-0.1 J0.
N4375 G1 X5.9 F#100
N4380 X5.1 F#106
N4385 G3 X5. Y58.699 I0. J-0.1
N4390 G1 Y55.666 F#100
N4395 Y54.866 F#106
N4400 G3 X5.061 Y54.774 I0.1 J0.
N4405 G2 X6.574 Y53.65 I-1.561 J-3.683 F#100
N4410 G3 X6.668 Y53.563 Z-6.733 I0.384 J0.32 F#104
N4415 X6.774 Y53.505 Z-6.683 I0.29 J0.408
N4420 X6.874 Y53.477 Z-6.604 I0.184 J0.465
N4425 X6.953 Y53.47 Z-6.5 I0.084 J0.493
N4430 X7.003 Y53.472 Z-6.379 I0.005 J0.5
N4435 G1 X7.02 Y53.474 Z-6.25
N4440 G0 Z6.
(2D POCKET2)
N4450 M9
N4455 G0 X30.947 Y53.754
N4460 Z6.
N4465 Z5.
N4470 G1 Z1.499 F#103
N4475 S2600
N4480 X30.954 Y53.738 Z1.367 F#107
N4485 X30.974 Y53.689 Z1.243
N4490 X31.008 Y53.613 Z1.138
N4495 X31.057 Y53.517 Z1.06
N4500 X31.121 Y53.409 Z1.012
N4505 X31.17 Y53.337 Z1.
N4510 G3 X34.274 Y55.53 Z0.687 I1.552 J1.096
N4515 X31.17 Y53.337 Z0.374 I-1.552 J-1.096
N4520 X34.274 Y55.53 Z0.062 I1.552 J1.096
N4525 X31.17 Y53.337 Z-0.251 I-1.552 J-1.096
N4530 X34.274 Y55.53 Z-0.564 I1.552 J1.096
N4535 X31.17 Y53.337 Z-0.877 I-1.552 J-1.096
N4540 X34.274 Y55.53 Z-1.19 I1.552 J1.096
N4545 X31.17 Y53.337 Z-1.503 I-1.552 J-1.096
N4550 X34.274 Y55.53 Z-1.815 I1.552 J1.096
N4555 X31.17 Y53.337 Z-2.128 I-1.552 J-1.096
N4560 X34.274 Y55.53 Z-2.441 I1.552 J1.096
N4565 X31.17 Y53.337 Z-2.754 I-1.552 J-1.096
N4570 X34.274 Y55.53 Z-3.067 I1.552 J1.096
N4575 X31.121 Y53.409 Z-3.375 I-1.552 J-1.096
N4580 X32.639 Y53.809 I0.694 J0.444
N4585 G1 X32.677 Y54.51
N4590 G2 X33.898 Y55.187 I0.823 J-0.045
N4595 S3000
N4600 G1 X34.207 Y55.016 F#100
N4605 X34.268 Y54.98
N4610 X34.841 Y54.629
N4615 G2 X34.997 Y54.351 I-0.171 J-0.279
N4620 G1 X34.992 Y52.871
N4625 X34.899 Y13.607
N4630 X34.897 Y12.807 F#106
N4635 G3 X35.107 Y12.808 I0.105 J0.001
N4640 G1 X35.204 Y51.405 F#100
N4645 G3 X35.223 Y54.206 I-232.644 J2.948
N4650 G2 X35.398 Y54.514 I0.37 J-0.006
N4655 X35.606 Y54.649 I4.011 J-5.991
N4660 X35.959 Y54.854 I3.803 J-6.125 F#106
N4665 G1 X36.054 Y54.912
N4670 X36.144 Y54.979
N4675 X36.274 Y55.085
N4680 G3 X36.173 Y55.393 I-0.11 J0.134
N4685 X35.911 Y55.333 I-0.024 J-0.491 F#100
N4690 G1 X35.675 Y55.204
N4695 X35.627 Y55.176
N4700 X35.164 Y54.899
N4705 G2 X34.836 Y54.9 I-0.163 J0.273
N4710 G3 X33.966 Y55.388 I-3.336 J-4.93
N4715 G1 X33.911 Y55.403
N4720 X33.855
N4725 X33.801 Y55.389
N4730 X33.752 Y55.361
N4735 X33.713 Y55.321
N4740 X33.686 Y55.272
N4745 X33.672 Y55.217
N4750 X33.674 Y55.162
N4755 X33.69 Y55.108
N4760 X33.72 Y55.061
N4765 X33.761 Y55.023
N4770 G3 X34.567 Y54.517 I5.611 J8.049
N4775 G2 X34.76 Y54.175 I-0.216 J-0.347
N4780 G3 X34.752 Y50.091 I481.58 J-2.949
N4785 G1 X34.573 Y13.314
N4790 G3 X34.581 Y12.829 I15.115 J-0.002
N4795 X34.592 Y12.565 I15.107 J0.483 F#106
N4800 G1 X34.604 Y12.502
N4805 X34.628 Y12.442
N4810 X34.664 Y12.388
N4815 X34.709 Y12.342
N4820 X34.762 Y12.305
N4825 X34.821 Y12.28
N4830 X34.884 Y12.266
N4835 X34.948 Y12.265
N4840 X34.968 Y12.266
N4845 X35. Y12.267 F#100
N4850 X35.032 Y12.266
N4855 X35.064 Y12.264
N4860 G3 X35.398 Y12.529 I0.023 J0.314
N4865 G1 X35.409 Y12.602
N4870 G3 X35.434 Y12.921 I-2.104 J0.329
N4875 G1 X35.619 Y50.893
N4880 G3 X35.668 Y53.725 I-141.287 J3.88
N4885 G1 X35.68 Y53.836
N4890 X35.707 Y53.945
N4895 X35.749 Y54.05
N4900 X35.804 Y54.147
N4905 X35.873 Y54.236
N4910 X35.953 Y54.315
N4915 X36.043 Y54.383
N4920 G3 X36.338 Y54.597 I-1.69 J2.638
N4925 X36.831 Y55.066 I-1.705 J2.287
N4930 G1 X36.97 Y55.234
N4935 G3 X36.83 Y55.701 I-0.226 J0.187
N4940 G1 X36.68 Y55.747
N4945 G3 X36.317 Y55.81 I-0.44 J-1.439
N4950 G1 X36.241 Y55.812
N4955 G3 X35.541 Y55.637 I0. J-1.48
N4960 G1 X35.436 Y55.58
N4965 X35.42 Y55.571
N4970 X35.353 Y55.534
N4975 G2 X34.649 Y55.537 I-0.348 J0.621
N4980 G1 X34.41 Y55.673
N4985 G3 X33.76 Y55.824 I-0.583 J-1.035
N4990 G1 X33.65 Y55.817
N4995 G3 X33.28 Y55.752 I0.091 J-1.597
N5000 G1 X33.146 Y55.712
N5005 G3 X32.995 Y55.249 I0.085 J-0.284
N5010 G1 X33.195 Y54.985
N5015 G3 X33.507 Y54.661 I1.548 J1.175
N5020 G1 X33.627 Y54.562
N5025 G3 X33.811 Y54.435 I0.828 J1.004
N5030 G2 X34.295 Y53.603 I-0.474 J-0.833
N5035 G3 X34.317 Y50.898 I102.718 J-0.523
N5040 G1 X34.143 Y13.532
N5045 G3 X34.164 Y12.664 I14.665 J-0.068
N5050 G1 X34.178 Y12.408
N5055 X34.181 Y12.379
N5060 X34.213 Y12.028
N5065 G3 X34.547 Y11.789 I0.271 J0.025
N5070 G2 X34.661 Y11.798 I0.085 J-0.353
N5075 G1 X35.255 Y11.753
N5080 G3 X35.791 Y12.219 I0.037 J0.499
N5085 G2 X35.798 Y12.277 I0.637 J-0.042
N5090 G1 X35.823 Y12.44
N5095 G3 X35.875 Y13.084 I-4.214 J0.664
N5100 G1 X36.051 Y50.894
N5105 G2 X36.096 Y52.27 I30.472 J-0.31
N5110 G1 X36.114 Y52.532
N5115 X36.119 Y52.794
N5120 X36.117 Y53.282
N5125 Y53.393
N5130 X36.119 Y53.481
N5135 G2 X36.42 Y54.104 I0.817 J-0.012
N5140 G1 X36.475 Y54.149
N5145 G3 X37.321 Y54.985 I-3.83 J4.715
N5150 G1 X37.498 Y55.199
N5155 G3 X37.611 Y55.398 I-0.509 J0.422
N5160 G1 X37.703 Y55.653
N5165 G3 X37.488 Y56.002 I-0.247 J0.089
N5170 G2 X37.426 Y56.015 I0.045 J0.363
N5175 G1 X37.04 Y56.134
N5180 G3 X36.497 Y56.252 I-0.986 J-3.212
N5185 G1 X36.378 Y56.268
N5190 G3 X35.431 Y56.087 I-0.201 J-1.513
N5195 G2 X34.578 Y56.09 I-0.424 J0.756
N5200 G3 X33.609 Y56.278 I-0.762 J-1.339
N5205 G1 X33.454 Y56.257
N5210 G3 X32.897 Y56.136 I0.491 J-3.619
N5215 G1 X32.497 Y56.016
N5220 G3 X32.288 Y55.621 I0.09 J-0.3
N5225 G1 X32.358 Y55.4
N5230 G3 X32.463 Y55.199 I0.636 J0.203
N5235 G1 X32.722 Y54.859
N5240 G3 X33.256 Y54.308 I2.524 J1.917
N5245 G1 X33.616 Y54.018
N5250 G2 X33.832 Y53.57 I-0.363 J-0.45
N5255 G1 Y53.383
N5260 Y53.292
N5265 X33.824 Y52.795
N5270 G3 X33.842 Y52.269 I5.355 J-0.078
N5275 G1 X33.85 Y52.14
N5280 G2 X33.878 Y50.897 I-30.492 J-1.309
N5285 G1 X33.711 Y13.761
N5290 G3 X33.752 Y12.437 I18.868 J-0.084
N5295 G1 X33.766 Y12.223
N5300 X33.768 Y12.195
N5305 X33.827 Y11.542
N5310 G3 X34.204 Y11.272 I0.305 J0.027
N5315 G1 X34.319 Y11.3
N5320 G2 X34.491 Y11.314 I0.129 J-0.53
N5325 G1 X34.833 Y11.287
N5330 G3 X35.168 Y11.282 I0.211 J2.705
N5335 G1 X35.596 Y11.302
N5340 G2 X35.732 Y11.288 I0.022 J-0.478
N5345 G3 X36.168 Y11.608 I0.085 J0.342
N5350 G2 X36.239 Y12.284 I3.856 J-0.059
N5355 G3 X36.316 Y13.242 I-6.248 J0.986
N5360 G1 X36.484 Y50.895
N5365 G2 X36.545 Y52.273 I21.522 J-0.262
N5370 G1 X36.57 Y52.532
N5375 X36.579 Y52.792
N5380 X36.577 Y53.161
N5385 G2 X36.885 Y53.878 I0.97 J0.007
N5390 G1 X37.184 Y54.156
N5395 G3 X37.62 Y54.652 I-2.275 J2.439
N5400 G2 X37.987 Y55.087 I2.654 J-1.865
N5405 G3 X38.197 Y55.437 I-0.744 J0.685
N5410 G1 X38.328 Y55.811
N5415 G3 X37.986 Y56.364 I-0.394 J0.139
N5420 G2 X37.897 Y56.382 I0.073 J0.575
N5425 G1 X37.379 Y56.533
N5430 G3 X36.652 Y56.685 I-1.347 J-4.631
N5435 G1 X36.294 Y56.731
N5440 G3 X35.909 Y56.737 I-0.216 J-1.667
N5445 G1 X35.823 Y56.728
N5450 G3 X35.428 Y56.617 I0.118 J-1.173
N5455 G1 X35.25 Y56.531
N5460 G2 X34.686 Y56.547 I-0.266 J0.55
N5465 G3 X33.688 Y56.741 I-0.792 J-1.415
N5470 G1 X33.278 Y56.688
N5475 G3 X32.568 Y56.547 I0.677 J-5.272
N5480 G1 X31.968 Y56.385
N5485 X31.938 Y56.378
N5490 X31.908 Y56.372
N5495 G3 X31.616 Y55.908 I0.049 J-0.355
N5500 G1 X31.78 Y55.402
N5505 G3 X31.968 Y55.055 I1.033 J0.334
N5510 G1 X32.372 Y54.554
N5515 G3 X32.82 Y54.073 I3.584 J2.891
N5520 G1 X33.131 Y53.784
N5525 G2 X33.361 Y53.245 I-0.492 J-0.529
N5530 G1 X33.356 Y52.79
N5535 G3 X33.386 Y52.275 I4.269 J-0.009
N5540 G1 X33.398 Y52.133
N5545 G2 X33.439 Y50.896 I-21.764 J-1.343
N5550 G1 X33.278 Y13.568
N5555 G3 X33.306 Y12.629 I13.984 J-0.06
N5560 G1 X33.323 Y12.35
N5565 G2 X33.336 Y11.846 I-6.633 J-0.418
N5570 G3 X33.337 Y11.048 I2.676 J-0.395
N5575 X33.753 Y10.756 I0.365 J0.078
N5580 G1 X34.166 Y10.813
N5585 G2 X34.374 Y10.82 I0.139 J-1.008
N5590 G1 X34.764 Y10.794
N5595 G3 X35.236 Y10.785 I0.328 J4.814
N5600 G2 X36.17 Y10.756 I0.362 J-3.396
N5605 G1 X36.242 Y10.753
N5610 X36.313 Y10.765
N5615 X36.381 Y10.789
N5620 X36.443 Y10.825
N5625 X36.498 Y10.872
N5630 X36.543 Y10.928
N5635 X36.577 Y10.992
N5640 X36.598 Y11.06
N5645 X36.607 Y11.132
N5650 G2 X36.683 Y12.267 I5.472 J0.201
N5655 G1 X36.722 Y12.596
N5660 X36.746 Y12.927
N5665 X36.755 Y13.259
N5670 X36.917 Y50.913
N5675 G2 X37.074 Y53.09 I29.967 J-1.063
N5680 G1 X37.083 Y53.196
N5685 X37.108 Y53.3
N5690 X37.147 Y53.4
N5695 X37.201 Y53.493
N5700 X37.267 Y53.578
N5705 G3 X38.006 Y54.409 I-4.293 J4.559
N5710 G2 X38.255 Y54.694 I2.335 J-1.797
N5715 G1 X38.271 Y54.71
N5720 G3 X38.629 Y55.152 I-1.931 J1.929
N5725 G1 X38.925 Y55.608
N5730 G3 X39.075 Y56.15 I-0.783 J0.508
N5735 X38.354 Y56.907 I-0.788 J-0.029
N5740 G2 X37.357 Y57.056 I0.274 J5.239
N5745 G3 X36.682 Y57.153 I-1.308 J-6.702
N5750 G1 X36.292 Y57.19
N5755 G3 X35.912 Y57.192 I-0.207 J-2.221
N5760 G1 X35.692 Y57.175
N5765 G2 X34.328 Y57.181 I-0.649 J8.345
N5770 G1 X34.118 Y57.199
N5775 G3 X33.679 Y57.198 I-0.216 J-2.522
N5780 G1 X33.243 Y57.16
N5785 G3 X32.597 Y57.075 I0.666 J-7.541
N5790 G2 X31.514 Y56.923 I-1.424 J6.235
N5795 G3 X30.909 Y56.283 I0.055 J-0.658
N5800 G1 X30.905 Y56.132
N5805 G3 X31.057 Y55.579 I0.986 J-0.026
N5810 G1 X31.383 Y55.064
N5815 G3 X31.634 Y54.721 I2.602 J1.644
N5820 X32.723 Y53.49 I14.334 J11.58
N5825 G2 X32.867 Y53.146 I-0.395 J-0.367
N5830 X33.001 Y50.925 I-65.207 J-5.057
N5835 G1 X32.847 Y13.56
N5840 G3 X32.866 Y12.637 I18.928 J-0.078
N5845 G1 X32.873 Y12.48
N5850 G2 X32.885 Y11.716 I-13.41 J-0.599
N5855 G3 X32.915 Y10.629 I6.355 J-0.369
N5860 X33.331 Y10.266 I0.395 J0.032
N5865 G2 X36.691 Y10.251 I1.478 J-46.817
N5870 G3 X37.073 Y10.609 I0.018 J0.364
N5875 G2 X37.14 Y12.264 I11.304 J0.375
N5880 G1 X37.168 Y12.595
N5885 X37.186 Y12.927
N5890 X37.193 Y13.259
N5895 X37.349 Y50.941
N5900 G2 X37.384 Y51.625 I8.571 J-0.103
N5905 G1 X37.411 Y51.886
N5910 X37.452 Y52.145
N5915 X37.508 Y52.401
N5920 X37.578 Y52.654
N5925 X37.663 Y52.902
N5930 X37.761 Y53.146
N5935 X37.874 Y53.383
N5940 X37.999 Y53.613
N5945 X38.138 Y53.836
N5950 X38.289 Y54.051
N5955 X38.451 Y54.256
N5960 X38.626 Y54.453
N5965 G3 X38.922 Y54.8 I-3.487 J3.28
N5970 G1 X39.297 Y55.283
N5975 G3 X39.631 Y56.309 I-1.26 J0.977
N5980 G1 X39.612 Y56.925
N5985 G3 X39.126 Y57.419 I-0.51 J-0.016
N5990 G2 X37.362 Y57.552 I-0.054 J10.993
N5995 G3 X36.678 Y57.62 I-1.327 J-9.925
N6000 G1 X36.288 Y57.645
N6005 G3 X35.915 Y57.647 I-0.208 J-3.227
N6010 G1 X35.897 Y57.646
N6015 G2 X34.115 Y57.654 I-0.825 J16.12
N6020 G3 X33.681 I-0.219 J-3.693
N6025 G1 X33.243 Y57.629
N6030 G3 X32.594 Y57.572 I0.649 J-11.138
N6035 G2 X30.846 Y57.451 I-1.698 J11.889
N6040 G3 X30.352 Y56.953 I0.021 J-0.514
N6045 G1 X30.317 Y55.83
N6050 G3 X30.514 Y55.428 I0.479 J-0.015
N6055 G2 X30.621 Y55.322 I-0.305 J-0.418
N6060 X32.005 Y53.549 I-30.202 J-24.994
N6065 X32.438 Y52.466 I-1.974 J-1.418
N6070 X32.562 Y50.61 I-12.988 J-1.804
N6075 G1 X32.415 Y13.559
N6080 X32.469 Y10.101
N6085 G3 X32.802 Y9.785 I0.328 J0.013
N6090 G2 X37.216 Y9.768 I1.574 J-167.061
N6095 G3 X37.541 Y10.083 I0.006 J0.32
N6100 G2 X37.596 Y12.248 I25.381 J0.441
N6105 G1 X37.621 Y12.761
N6110 X37.631 Y13.274
N6115 X37.781 Y50.936
N6120 G2 X37.803 Y51.379 I4.933 J-0.027
N6125 G1 X37.832 Y51.641
N6130 X37.875 Y51.902
N6135 X37.932 Y52.159
N6140 X38.002 Y52.413
N6145 X38.085 Y52.664
N6150 X38.182 Y52.909
N6155 X38.291 Y53.149
N6160 X38.413 Y53.383
N6165 X38.548 Y53.61
N6170 X38.694 Y53.829
N6175 X38.851 Y54.041
N6180 X39.02 Y54.244
N6185 X39.05 Y54.278
N6190 X39.134 Y54.372
N6195 X39.609 Y54.893
N6200 G3 X40.166 Y56.356 I-1.573 J1.436
N6205 G1 X40.15 Y57.561
N6210 G3 X39.762 Y57.955 I-0.399 J-0.005
N6215 G1 X38.481 Y58.016
N6220 X37.199 Y58.063
N6225 X35.917 Y58.096
N6230 X35.311 Y58.089
N6235 X34.705 Y58.093
N6240 X34.099 Y58.109
N6245 G3 X30.198 Y57.998 I1.767 J-129.898
N6250 X29.803 Y57.601 I0.008 J-0.403
N6255 G1 X29.776 Y55.732
N6260 G3 X30.161 Y55.014 I0.839 J-0.012
N6265 G2 X30.345 Y54.857 I-0.495 J-0.769
N6270 X31.082 Y54.011 I-9.585 J-9.093
N6275 G1 X31.237 Y53.808
N6280 X31.38 Y53.596
N6285 X31.511 Y53.378
N6290 X31.63 Y53.152
N6295 X31.737 Y52.921
N6300 X31.831 Y52.684
N6305 X31.912 Y52.442
N6310 X31.98 Y52.196
N6315 X32.034 Y51.946
N6320 X32.075 Y51.695
N6325 X32.101 Y51.441
N6330 G2 X32.126 Y50.908 I-5.75 J-0.531
N6335 G1 X31.981 Y13.102
N6340 G3 X32.011 Y9.512 I148.083 J-0.568
N6345 G1 X32.018 Y9.46
N6350 X32.039 Y9.412
N6355 X32.072 Y9.371
N6360 X32.113 Y9.34
N6365 X32.161 Y9.32
N6370 X32.213 Y9.313
N6375 X35. Y9.291
N6380 X37.025 Y9.292
N6385 X37.825 F#106
N6390 G3 X38.009 Y9.473 I0. J0.184
N6395 X38.069 Y13.384 I-481.662 J9.387 F#100
N6400 G1 X38.213 Y50.933
N6405 G2 X38.248 Y51.452 I4.629 J-0.053
N6410 X39.678 Y54.279 I4.34 J-0.419
N6415 G1 X39.909 Y54.487
N6420 G2 X40.115 Y54.639 I0.886 J-0.988
N6425 G1 X40.565 Y54.907
N6430 G3 X40.707 Y55.156 I-0.149 J0.25
N6435 G1 X40.702 Y57.545
N6440 X40.701 Y58.345 F#106
N6445 G3 X40.547 Y58.501 I-0.156 J0.
N6450 X30.214 Y58.575 I-10.958 J-817.08 F#100
N6455 X29.414 I-0.625 J-817.153 F#106
N6460 G1 X29.365 Y58.568
N6465 X29.319 Y58.549
N6470 X29.281 Y58.518
N6475 X29.251 Y58.479
N6480 X29.233 Y58.434
N6485 X29.227 Y58.385
N6490 X29.217 Y55.158 F#100
N6495 G3 X29.396 Y54.842 I0.366 J-0.001
N6500 G1 X29.785 Y54.611
N6505 G2 X30.097 Y54.383 I-1.024 J-1.726
N6510 G1 X30.546 Y53.982
N6515 G2 X31.7 Y51.091 I-3.046 J-2.891
N6520 G1 Y9.899
N6525 Y9.099 F#106
N6530 G3 X31.8 Y8.999 I0.1 J0.
N6535 G1 X37.4 F#100
N6540 X38.2 F#106
N6545 G3 X38.3 Y9.099 I0. J0.1
N6550 G1 Y51.091 F#100
N6555 G2 X40.052 Y54.503 I4.2 J0.
N6560 X40.742 Y54.905 I2.449 J-3.412 F#106
N6565 G3 X40.8 Y54.996 I-0.042 J0.091
N6570 G1 Y57.699 F#100
N6575 Y58.499 F#106
N6580 G3 X40.7 Y58.599 I-0.1 J0.
N6585 G1 X30.1 F#100
N6590 X29.3 F#106
N6595 G3 X29.2 Y58.499 I0. J-0.1
N6600 G1 Y55.796 F#100
N6605 Y54.996 F#106
N6610 G3 X29.258 Y54.905 I0.1 J0.
N6615 G2 X30.546 Y53.982 I-1.758 J-3.814 F#100
N6620 G3 X30.647 Y53.901 Z-3.358 I0.363 J0.344 F#104
N6625 X30.756 Y53.85 Z-3.308 I0.263 J0.426
N6630 X30.857 Y53.829 Z-3.229 I0.153 J0.476
N6635 X30.936 Y53.827 Z-3.125 I0.052 J0.497
N6640 X30.986 Y53.832 Z-3.004 I-0.027 J0.499
N6645 G1 X31.003 Y53.835 Z-2.875
N6650 Z-1.876
N6655 X33.363 Y55.589
N6660 S2600
N6665 X33.374 Y55.578 Z-2.001 F#107
N6670 X33.406 Y55.544 Z-2.118
N6675 X33.46 Y55.492 Z-2.22
N6680 X33.533 Y55.428 Z-2.3
N6685 X33.623 Y55.357 Z-2.353
N6690 X33.726 Y55.286 Z-2.375
N6695 X33.84 Y55.218 Z-2.382
N6700 G3 X35.66 Y58.542 Z-2.694 I0.91 J1.662
N6705 X33.84 Y55.218 Z-3.006 I-0.91 J-1.662
N6710 X35.66 Y58.542 Z-3.318 I0.91 J1.662
N6715 X33.84 Y55.218 Z-3.63 I-0.91 J-1.662
N6720 X35.66 Y58.542 Z-3.942 I0.91 J1.662
N6725 X33.84 Y55.218 Z-4.254 I-0.91 J-1.662
N6730 X35.66 Y58.542 Z-4.566 I0.91 J1.662
N6735 X33.84 Y55.218 Z-4.878 I-0.91 J-1.662
N6740 X35.66 Y58.542 Z-5.19 I0.91 J1.662
N6745 X33.84 Y55.218 Z-5.502 I-0.91 J-1.662
N6750 X35.66 Y58.542 Z-5.814 I0.91 J1.662
N6755 X33.84 Y55.218 Z-6.126 I-0.91 J-1.662
N6760 X35.66 Y58.542 Z-6.438 I0.91 J1.662
N6765 X33.84 Y55.218 Z-6.75 I-0.91 J-1.662
N6770 S3000
N6775 G2 X34.231 Y54.999 I-8.51 J-15.672 F#100
N6780 X34.915 Y54.585 I-8.901 J-15.454 F#106
N6785 G1 X34.949 Y54.558
N6790 X34.975 Y54.523
N6795 X34.992 Y54.482
N6800 X34.997 Y54.439
N6805 X34.991 Y52.551 F#100
N6810 X34.895 Y13.503
N6815 X34.893 Y12.791 F#106
N6820 X34.895 Y12.755
N6825 X34.899 Y12.718
N6830 X34.901 Y12.703
N6835 G3 X34.992 Y12.632 I0.083 J0.013
N6840 G2 X35.008 I0.009 J-0.106
N6845 G3 X35.099 Y12.705 I0.006 J0.085
N6850 G1 X35.101 Y12.716
N6855 X35.105 Y12.755 F#100
N6860 X35.107 Y12.793
N6865 X35.204 Y51.409
N6870 G3 X35.222 Y54.207 I-226.173 J2.842
N6875 G2 X35.398 Y54.515 I0.369 J-0.007
N6880 X35.667 Y54.687 I4.371 J-6.561
N6885 X35.972 Y54.863 I4.101 J-6.733 F#106
N6890 G3 X36.164 Y54.988 I-0.643 J1.192
N6895 G1 X36.336 Y55.123
N6900 G3 X36.241 Y55.421 I-0.103 J0.131
N6905 X35.956 Y55.356 I-0.027 J-0.538 F#100
N6910 G1 X35.74 Y55.24
N6915 X35.676 Y55.204
N6920 X35.165 Y54.9
N6925 G2 X34.835 Y54.901 I-0.164 J0.276
N6930 G3 X33.906 Y55.414 I-2.921 J-4.192
N6935 X33.706 Y55.055 I-0.084 J-0.189
N6940 X34.576 Y54.512 I7.412 J10.901
N6945 G2 X34.76 Y54.186 I-0.204 J-0.331
N6950 G3 X34.752 Y50.112 I446.458 J-2.931
N6955 G1 X34.572 Y12.902
N6960 G3 X34.573 Y12.82 I1.861 J-0.009
N6965 X34.594 Y12.608 I1.86 J0.074 F#106
N6970 G1 X34.61 Y12.506
N6975 G3 X34.925 Y12.257 I0.291 J0.045
N6980 G1 X34.967 Y12.261
N6985 X35. Y12.262 F#100
N6990 X35.033 Y12.261
N6995 X35.065 Y12.259
N7000 G3 X35.396 Y12.521 I0.022 J0.311
N7005 G1 X35.408 Y12.599
N7010 G3 X35.434 Y12.912 I-2.013 J0.323
N7015 G1 X35.618 Y50.892
N7020 G3 X35.664 Y53.715 I-66.621 J2.506
N7025 G2 X36.041 Y54.381 I0.813 J-0.02
N7030 G3 X36.391 Y54.63 I-1.663 J2.703
N7035 X36.881 Y55.095 I-1.732 J2.316
N7040 G1 X37.037 Y55.283
N7045 G3 X36.885 Y55.745 I-0.221 J0.184
N7050 X36.408 Y55.832 I-0.503 J-1.398
N7055 X35.582 Y55.658 I-0.086 J-1.637
N7060 G1 X35.506 Y55.62
N7065 X35.465 Y55.598
N7070 X35.351 Y55.534
N7075 G2 X34.651 Y55.537 I-0.347 J0.617
N7080 G1 X34.531 Y55.606
N7085 X34.503 Y55.622
N7090 X34.418 Y55.667
N7095 G3 X33.62 Y55.844 I-0.712 J-1.33
N7100 G1 X33.597 Y55.842
N7105 G3 X33.221 Y55.776 I0.091 J-1.611
N7110 G1 X33.084 Y55.735
N7115 G3 X32.939 Y55.284 I0.083 J-0.275
N7120 G1 X33.142 Y55.019
N7125 G3 X33.463 Y54.69 I1.541 J1.182
N7130 X33.913 Y54.371 I2.181 J2.602
N7135 G1 X33.996 Y54.309
N7140 X34.071 Y54.237
N7145 X34.137 Y54.157
N7150 X34.192 Y54.069
N7155 X34.237 Y53.975
N7160 X34.269 Y53.876
N7165 X34.289 Y53.774
N7170 X34.297 Y53.67
N7175 G2 X34.289 Y52.825 I-19.794 J-0.236
N7180 G1 Y52.551
N7185 X34.297 Y52.278
N7190 X34.301 Y52.16
N7195 X34.313 Y51.486
N7200 X34.316 Y51.19
N7205 X34.317 Y50.895
N7210 X34.141 Y13.051
N7215 G3 X34.184 Y12.462 I3.754 J-0.017
N7220 G2 X34.226 Y12.027 I-1.903 J-0.4
N7225 G3 X34.549 Y11.78 I0.262 J0.008
N7230 G2 X34.656 Y11.789 I0.084 J-0.351
N7235 G3 X35.5 Y11.788 I0.433 J5.389
N7240 G1 X35.553 Y11.779
N7245 X35.607 Y11.784
N7250 X35.658 Y11.802
N7255 X35.703 Y11.833
N7260 X35.739 Y11.875
N7265 X35.763 Y11.924
N7270 X35.775 Y11.979
N7275 G2 X35.823 Y12.44 I2.379 J-0.015
N7280 G3 X35.875 Y13.073 I-4.035 J0.652
N7285 G1 X36.051 Y50.893
N7290 G2 X36.096 Y52.279 I30.856 J-0.321
N7295 G1 X36.114 Y52.552
N7300 X36.117 Y52.825
N7305 X36.107 Y53.308
N7310 G2 X36.499 Y54.158 I1.069 J0.023
N7315 G1 X36.525 Y54.18
N7320 G3 X37.364 Y55.011 I-3.956 J4.832
N7325 G1 X37.549 Y55.233
N7330 G3 X37.668 Y55.44 I-0.521 J0.435
N7335 G1 X37.719 Y55.585
N7340 G3 X37.453 Y56.081 I-0.358 J0.127
N7345 X36.625 Y56.262 I-1.343 J-4.144
N7350 X35.394 Y56.065 I-0.29 J-2.13
N7355 G1 X35.268 Y56.003
N7360 G2 X34.731 Y56.008 I-0.264 J0.542
N7365 G1 X34.714 Y56.017
N7370 G3 X32.913 Y56.178 I-1.101 J-2.163
N7375 G1 X32.419 Y56.029
N7380 G3 X32.229 Y55.667 I0.083 J-0.274
N7385 G1 X32.303 Y55.436
N7390 G3 X32.406 Y55.239 I0.618 J0.198
N7395 G1 X32.679 Y54.883
N7400 G3 X33.207 Y54.34 I2.58 J1.979
N7405 G1 X33.483 Y54.115
N7410 G2 X33.842 Y53.329 I-0.614 J-0.754
N7415 G1 X33.826 Y52.825
N7420 G3 X33.841 Y52.278 I4.89 J-0.132
N7425 G1 X33.848 Y52.16
N7430 G2 X33.877 Y50.894 I-30.64 J-1.337
N7435 G1 X33.709 Y13.195
N7440 G3 X33.774 Y12.318 I5.606 J-0.025
N7445 G2 X33.836 Y11.757 I-2.987 J-0.614
N7450 Y11.653 I-3.049 J-0.053 F#106
N7455 G3 X34.314 Y11.288 I0.387 J0.011
N7460 G1 X34.321 Y11.29
N7465 G2 X34.483 Y11.304 I0.127 J-0.526 F#100
N7470 G1 X34.835 Y11.281
N7475 G3 X35.165 Y11.279 I0.184 J2.873
N7480 G1 X35.615 Y11.302
N7485 G2 X35.754 Y11.287 I0.023 J-0.451
N7490 G3 X36.166 Y11.587 I0.085 J0.317
N7495 G2 X36.238 Y12.289 I3.479 J-0.002
N7500 G3 X36.316 Y13.225 I-5.954 J0.963
N7505 G1 X36.484 Y50.893
N7510 G2 X36.55 Y52.324 I20.498 J-0.229
N7515 G1 X36.571 Y52.552
N7520 X36.577 Y52.78
N7525 G2 X36.593 Y53.203 I4.033 J0.065
N7530 X36.927 Y53.914 I1.045 J-0.058
N7535 G1 X37.222 Y54.187
N7540 G3 X37.66 Y54.68 I-2.274 J2.461
N7545 G1 X37.691 Y54.723
N7550 G2 X37.884 Y54.957 I2.02 J-1.465
N7555 G1 X37.927 Y55.003
N7560 G3 X38.325 Y55.616 I-1.547 J1.439
N7565 G1 X38.451 Y55.913
N7570 G3 X38.181 Y56.364 I-0.3 J0.127
N7575 G2 X37.446 Y56.546 I0.196 J2.375
N7580 G3 X36.718 Y56.699 I-1.368 J-4.692
N7585 G1 X36.368 Y56.745
N7590 G3 X35.353 Y56.556 I-0.218 J-1.648
N7595 G2 X34.655 Y56.558 I-0.347 J0.634
N7600 G1 X34.628 Y56.574
N7605 G3 X33.654 Y56.76 I-0.77 J-1.385
N7610 G1 X33.225 Y56.705
N7615 G3 X32.515 Y56.563 I0.68 J-5.259
N7620 G2 X31.817 Y56.386 I-0.953 J2.295
N7625 G3 X31.523 Y55.9 I0.035 J-0.353
N7630 G1 X31.659 Y55.568
N7635 G3 X32.01 Y54.976 I2.15 J0.877
N7640 G1 X32.298 Y54.623
N7645 G3 X32.822 Y54.067 I4.18 J3.412
N7650 G1 X33.1 Y53.81
N7655 G2 X33.347 Y53.271 I-0.52 J-0.564
N7660 X33.358 Y52.804 I-6.276 J-0.375
N7665 G1 Y52.636
N7670 X33.367 Y52.468
N7675 X33.383 Y52.3
N7680 G2 X33.439 Y50.894 I-18.75 J-1.443
N7685 G1 X33.276 Y12.914
N7690 G3 X33.297 Y12.596 I2.264 J-0.01
N7695 G2 X33.398 Y11.109 I-5.518 J-1.124
N7700 G3 X33.807 Y10.75 I0.36 J-0.003
N7705 G2 X34.769 Y10.787 I0.592 J-2.867
N7710 G3 X35.231 Y10.783 I0.279 J5.276
N7715 G2 X36.185 Y10.753 I0.38 J-3.08
N7720 G1 X36.255 Y10.749
N7725 X36.325 Y10.759
N7730 X36.391 Y10.782
N7735 X36.453 Y10.817
N7740 X36.506 Y10.863
N7745 X36.55 Y10.918
N7750 X36.582 Y10.981
N7755 X36.603 Y11.048
N7760 X36.61 Y11.118
N7765 G2 X36.702 Y12.402 I5.3 J0.267
N7770 G3 X36.755 Y13.11 I-5.039 J0.73
N7775 G1 X36.917 Y50.91
N7780 G2 X36.994 Y52.268 I15.664 J-0.212
N7785 G1 X37.021 Y52.469
N7790 X37.038 Y52.671
N7795 X37.045 Y52.811
N7800 G2 X37.47 Y53.791 I1.535 J-0.084
N7805 G3 X38.033 Y54.427 I-3.428 J3.602
N7810 G2 X38.301 Y54.729 I2.519 J-1.962
N7815 G1 X38.34 Y54.768
N7820 G3 X38.661 Y55.155 I-1.843 J1.855
N7825 G1 X38.972 Y55.613
N7830 G3 X39.129 Y56.195 I-0.763 J0.518
N7835 G1 X39.122 Y56.29
N7840 G3 X38.491 Y56.919 I-0.676 J-0.047
N7845 G2 X37.421 Y57.067 I0.104 J4.712
N7850 G3 X36.75 Y57.164 I-1.325 J-6.799
N7855 G1 X36.355 Y57.201
N7860 G3 X35.964 Y57.205 I-0.217 J-2.282
N7865 G1 X35.871 Y57.198
N7870 G3 X35.385 Y57.086 I0.127 J-1.662
N7875 G2 X35.006 Y57.013 I-0.38 J0.954
N7880 X34.622 Y57.087 I0. J1.027
N7885 G3 X34.12 Y57.207 I-0.647 J-1.604
N7890 G1 X34.038 Y57.214
N7895 G3 X33.643 Y57.213 I-0.193 J-2.281
N7900 G1 X33.19 Y57.173
N7905 G3 X32.545 Y57.087 I0.668 J-7.513
N7910 G2 X31.487 Y56.946 I-1.196 J4.942
N7915 G3 X30.853 Y56.311 I0.042 J-0.677
N7920 G1 X30.845 Y56.183
N7925 G3 X31.006 Y55.584 I0.968 J-0.06
N7930 G1 X31.355 Y55.062
N7935 G3 X31.565 Y54.785 I2.437 J1.627
N7940 G1 X32.474 Y53.727
N7945 G2 X32.889 Y52.703 I-1.293 J-1.121
N7950 X33.001 Y50.923 I-18.454 J-2.057
N7955 G1 X32.846 Y13.222
N7960 G3 X32.89 Y12.289 I9.115 J-0.038
N7965 G2 X32.929 Y10.591 I-9.021 J-1.058
N7970 G3 X33.291 Y10.247 I0.342 J-0.002
N7975 G2 X36.709 Y10.241 I1.637 J-36.723
N7980 G3 X37.084 Y10.591 I0.022 J0.353
N7985 G2 X37.141 Y12.278 I9.732 J0.518
N7990 G1 X37.169 Y12.596
N7995 X37.186 Y12.914
N8000 X37.193 Y13.233
N8005 X37.349 Y50.939
N8010 G2 X37.38 Y51.558 I7.65 J-0.074
N8015 G1 X37.407 Y51.83
N8020 X37.451 Y52.101
N8025 X37.51 Y52.368
N8030 X37.584 Y52.632
N8035 X37.673 Y52.891
N8040 X37.776 Y53.145
N8045 X37.894 Y53.392
N8050 X38.026 Y53.632
N8055 X38.172 Y53.864
N8060 X38.33 Y54.088
N8065 X38.501 Y54.302
N8070 X38.684 Y54.506
N8075 G3 X38.951 Y54.808 I-4.129 J3.922
N8080 G1 X39.393 Y55.344
N8085 G3 X39.664 Y56.136 I-0.922 J0.759
N8090 G1 X39.642 Y56.961
N8095 G3 X39.162 Y57.443 I-0.496 J-0.014
N8100 G2 X37.426 Y57.559 I-0.252 J9.247
N8105 G3 X36.747 Y57.627 I-1.344 J-10.066
N8110 G1 X36.352 Y57.653
N8115 G3 X35.967 Y57.655 I-0.217 J-3.317
N8120 G1 X35.938 Y57.654
N8125 G2 X34.076 Y57.662 I-0.861 J17.101
N8130 G3 X33.605 I-0.235 J-4.018
N8135 G1 X33.19 Y57.637
N8140 G3 X32.542 Y57.58 I0.651 J-11.097
N8145 G2 X30.807 Y57.477 I-1.472 J10.103
N8150 G3 X30.321 Y56.992 I0.012 J-0.499
N8155 G1 X30.296 Y56.122
N8160 G3 X30.562 Y55.333 I1.203 J-0.034
N8165 G2 X31.98 Y53.583 I-30.095 J-25.828
N8170 G1 X32.079 Y53.443
N8175 X32.168 Y53.296
N8180 X32.245 Y53.143
N8185 X32.311 Y52.984
N8190 X32.365 Y52.822
N8195 X32.406 Y52.655
N8200 X32.435 Y52.486
N8205 G2 X32.562 Y50.509 I-14.498 J-1.919
N8210 G1 X32.414 Y13.221
N8215 G3 X32.44 Y12.288 I14.631 J-0.058
N8220 G2 X32.46 Y10.07 I-18.77 J-1.276
N8225 G3 X32.771 Y9.765 I0.304 J-0.001
N8230 G2 X37.238 Y9.752 I1.992 J-81.604
N8235 G3 X37.559 Y10.061 I0.009 J0.311
N8240 G2 X37.598 Y12.28 I20.537 J0.746
N8245 G1 X37.622 Y12.755
N8250 X37.631 Y13.23
N8255 X37.781 Y50.934
N8260 G2 X37.806 Y51.414 I5.175 J-0.035
N8265 G1 X37.835 Y51.672
N8270 X37.878 Y51.929
N8275 X37.934 Y52.183
N8280 X38.004 Y52.433
N8285 X38.087 Y52.679
N8290 X38.183 Y52.921
N8295 X38.292 Y53.157
N8300 X38.413 Y53.386
N8305 X38.546 Y53.609
N8310 X38.691 Y53.825
N8315 X38.848 Y54.033
N8320 X39.015 Y54.231
N8325 G2 X39.686 Y54.943 I14.666 J-13.156
N8330 X39.851 Y55.074 I0.56 J-0.535
N8335 G3 X40.197 Y55.689 I-0.361 J0.608
N8340 G1 X40.179 Y57.595
N8345 G3 X39.796 Y57.981 I-0.39 J-0.004
N8350 X35.969 Y58.106 I-8.791 J-209.477
N8355 G2 X34.049 Y58.114 I-0.827 J33.895
N8360 G3 X30.162 Y58.024 I3.99 J-256.791
N8365 X29.773 Y57.637 I0.003 J-0.391
N8370 G1 X29.752 Y55.678
N8375 G3 X30.113 Y55.03 I0.749 J-0.008
N8380 G2 X30.284 Y54.892 I-0.425 J-0.701
N8385 X31.094 Y53.99 I-7.964 J-7.972
N8390 G1 X31.246 Y53.793
N8395 X31.387 Y53.588
N8400 X31.516 Y53.376
N8405 X31.633 Y53.157
N8410 X31.738 Y52.932
N8415 X31.831 Y52.702
N8420 X31.91 Y52.467
N8425 X31.977 Y52.227
N8430 X32.03 Y51.985
N8435 X32.07 Y51.74
N8440 X32.097 Y51.493
N8445 G2 X32.126 Y50.906 I-6.185 J-0.598
N8450 G1 X31.981 Y13.221
N8455 G2 X31.993 Y10.282 I-219.179 J-2.356
N8460 X31.99 Y9.482 I-219.191 J0.583 F#106
N8465 G3 X32.182 Y9.289 I0.192 J-0.001
N8470 G1 X34.271 Y9.299 F#100
N8475 X35.825 Y9.291
N8480 X37.053 Y9.277
N8485 X37.853 Y9.268 F#106
N8490 G3 X38.033 Y9.446 I0.002 J0.178
N8495 G2 X38.068 Y13.037 I161.29 J0.232 F#100
N8500 G1 X38.213 Y50.931
N8505 G2 X38.251 Y51.472 I4.742 J-0.057
N8510 X39.707 Y54.303 I4.295 J-0.42
N8515 G1 X39.955 Y54.52
N8520 G2 X40.161 Y54.664 I0.793 J-0.908
N8525 G1 X40.596 Y54.907
N8530 G3 X40.722 Y55.121 I-0.12 J0.215
N8535 G1 X40.723 Y57.629
N8540 Y58.429 F#106
N8545 G3 X40.63 Y58.523 I-0.093 J0.
N8550 G1 X35.62 Y58.558 F#100
N8555 G2 X30.142 Y58.572 I-0.794 J744.536
N8560 X29.342 Y58.578 I4.684 J744.521 F#106
N8565 G3 X29.22 Y58.457 I0. J-0.121
N8570 G1 X29.215 Y55.101 F#100
N8575 G3 X29.354 Y54.86 I0.277 J0.
N8580 G1 X29.799 Y54.606
N8585 G2 X30.003 Y54.46 I-0.633 J-1.106
N8590 G1 X30.517 Y54.013
N8595 G2 X31.7 Y51.091 I-3.017 J-2.922
N8600 G1 Y9.799
N8605 Y8.999 F#106
N8610 X37.5 F#100
N8615 X38.3 F#106
N8620 Y51.091 F#100
N8625 G2 X40.104 Y54.54 I4.2 J0.
N8630 X40.8 Y54.931 I2.396 J-3.449 F#106
N8635 G1 Y57.799 F#100
N8640 Y58.599 F#106
N8645 X30. F#100
N8650 X29.2 F#106
N8655 Y55.731 F#100
N8660 Y54.931 F#106
N8665 G2 X30.517 Y54.013 I-1.7 J-3.841 F#100
N8670 X30.549 Y53.832 I-0.117 J-0.114
N8675 G3 X30.574 Y53.65 I0.158 J-0.071
N8680 G2 X31.5 Y51.091 I-3.074 J-2.56
N8685 G1 Y9.699
N8690 Y8.899 F#106
N8695 G3 X31.6 Y8.799 I0.1 J0.
N8700 G1 X37.6 F#100
N8705 X38.4 F#106
N8710 G3 X38.5 Y8.899 I0. J0.1
N8715 G1 Y51.091 F#100
N8720 G2 X40.238 Y54.39 I4. J0.
N8725 X40.939 Y54.774 I2.262 J-3.299 F#106
N8730 G3 X41. Y54.866 I-0.039 J0.092
N8735 G1 Y57.899 F#100
N8740 Y58.699 F#106
N8745 G3 X40.9 Y58.799 I-0.1 J0.
N8750 G1 X29.9 F#100
N8755 X29.1 F#106
N8760 G3 X29. Y58.699 I0. J-0.1
N8765 G1 Y55.666 F#100
N8770 Y54.866 F#106
N8775 G3 X29.061 Y54.774 I0.1 J0.
N8780 G2 X30.574 Y53.65 I-1.561 J-3.683 F#100
N8785 G3 X30.668 Y53.563 Z-6.733 I0.384 J0.32 F#104
N8790 X30.774 Y53.505 Z-6.683 I0.29 J0.408
N8795 X30.874 Y53.477 Z-6.604 I0.184 J0.465
N8800 X30.953 Y53.47 Z-6.5 I0.084 J0.493
N8805 X31.003 Y53.472 Z-6.379 I0.005 J0.5
N8810 G1 X31.02 Y53.474 Z-6.25
N8815 G0 Z6.
(2D POCKET2)
N8825 M9
N8830 G0 X54.947 Y53.754
N8835 Z6.
N8840 Z5.
N8845 G1 Z1.499 F#103
N8850 S2600
N8855 X54.954 Y53.738 Z1.367 F#107
N8860 X54.974 Y53.689 Z1.243
N8865 X55.008 Y53.613 Z1.138
N8870 X55.057 Y53.517 Z1.06
N8875 X55.121 Y53.409 Z1.012
N8880 X55.17 Y53.337 Z1.
N8885 G3 X58.274 Y55.53 Z0.687 I1.552 J1.096
N8890 X55.17 Y53.337 Z0.374 I-1.552 J-1.096
N8895 X58.274 Y55.53 Z0.062 I1.552 J1.096
N8900 X55.17 Y53.337 Z-0.251 I-1.552 J-1.096
N8905 X58.274 Y55.53 Z-0.564 I1.552 J1.096
N8910 X55.17 Y53.337 Z-0.877 I-1.552 J-1.096
N8915 X58.274 Y55.53 Z-1.19 I1.552 J1.096
N8920 X55.17 Y53.337 Z-1.503 I-1.552 J-1.096
N8925 X58.274 Y55.53 Z-1.815 I1.552 J1.096
N8930 X55.17 Y53.337 Z-2.128 I-1.552 J-1.096
N8935 X58.274 Y55.53 Z-2.441 I1.552 J1.096
N8940 X55.17 Y53.337 Z-2.754 I-1.552 J-1.096
N8945 X58.274 Y55.53 Z-3.067 I1.552 J1.096
N8950 X55.121 Y53.409 Z-3.375 I-1.552 J-1.096
N8955 X56.639 Y53.809 I0.694 J0.444
N8960 G1 X56.677 Y54.51
N8965 G2 X57.898 Y55.187 I0.823 J-0.045
N8970 S3000
N8975 G1 X58.207 Y55.016 F#100
N8980 X58.268 Y54.98
N8985 X58.841 Y54.629
N8990 G2 X58.997 Y54.351 I-0.171 J-0.279
N8995 G1 X58.992 Y52.871
N9000 X58.899 Y13.607
N9005 X58.897 Y12.807 F#106
N9010 G3 X59.107 Y12.808 I0.105 J0.001
N9015 G1 X59.204 Y51.405 F#100
N9020 G3 X59.223 Y54.206 I-232.644 J2.948
N9025 G2 X59.398 Y54.514 I0.37 J-0.006
N9030 X59.606 Y54.649 I4.011 J-5.991
N9035 X59.959 Y54.854 I3.803 J-6.125 F#106
N9040 G1 X60.054 Y54.912
N9045 X60.144 Y54.979
N9050 X60.274 Y55.085
N9055 G3 X60.173 Y55.393 I-0.11 J0.134
N9060 X59.911 Y55.333 I-0.024 J-0.491 F#100
N9065 G1 X59.675 Y55.204
N9070 X59.627 Y55.176
N9075 X59.164 Y54.899
N9080 G2 X58.836 Y54.9 I-0.163 J0.273
N9085 G3 X57.966 Y55.388 I-3.336 J-4.93
N9090 G1 X57.911 Y55.403
N9095 X57.855
N9100 X57.801 Y55.389
N9105 X57.752 Y55.361
N9110 X57.713 Y55.321
N9115 X57.686 Y55.272
N9120 X57.672 Y55.217
N9125 X57.674 Y55.162
N9130 X57.69 Y55.108
N9135 X57.72 Y55.061
N9140 X57.761 Y55.023
N9145 G3 X58.567 Y54.517 I5.611 J8.049
N9150 G2 X58.76 Y54.175 I-0.216 J-0.347
N9155 G3 X58.752 Y50.091 I481.58 J-2.949
N9160 G1 X58.573 Y13.314
N9165 G3 X58.581 Y12.829 I15.115 J-0.002
N9170 X58.592 Y12.565 I15.107 J0.483 F#106
N9175 G1 X58.604 Y12.502
N9180 X58.628 Y12.442
N9185 X58.664 Y12.388
N9190 X58.709 Y12.342
N9195 X58.762 Y12.305
N9200 X58.821 Y12.28
N9205 X58.884 Y12.266
N9210 X58.948 Y12.265
N9215 X58.968 Y12.266
N9220 X59. Y12.267 F#100
N9225 X59.032 Y12.266
N9230 X59.064 Y12.264
N9235 G3 X59.398 Y12.529 I0.023 J0.314
N9240 G1 X59.409 Y12.602
N9245 G3 X59.434 Y12.921 I-2.104 J0.329
N9250 G1 X59.619 Y50.893
N9255 G3 X59.668 Y53.725 I-141.287 J3.88
N9260 G1 X59.68 Y53.836
N9265 X59.707 Y53.945
N9270 X59.749 Y54.05
N9275 X59.804 Y54.147
N9280 X59.873 Y54.236
N9285 X59.953 Y54.315
N9290 X60.043 Y54.383
N9295 G3 X60.338 Y54.597 I-1.69 J2.638
N9300 X60.831 Y55.066 I-1.705 J2.287
N9305 G1 X60.97 Y55.234
N9310 G3 X60.83 Y55.701 I-0.226 J0.187
N9315 G1 X60.68 Y55.747
N9320 G3 X60.317 Y55.81 I-0.44 J-1.439
N9325 G1 X60.241 Y55.812
N9330 G3 X59.541 Y55.637 I0. J-1.48
N9335 G1 X59.436 Y55.58
N9340 X59.42 Y55.571
N9345 X59.353 Y55.534
N9350 G2 X58.649 Y55.537 I-0.348 J0.621
N9355 G1 X58.41 Y55.673
N9360 G3 X57.76 Y55.824 I-0.583 J-1.035
N9365 G1 X57.65 Y55.817
N9370 G3 X57.28 Y55.752 I0.091 J-1.597
N9375 G1 X57.146 Y55.712
N9380 G3 X56.995 Y55.249 I0.085 J-0.284
N9385 G1 X57.195 Y54.985
N9390 G3 X57.507 Y54.661 I1.548 J1.175
N9395 G1 X57.627 Y54.562
N9400 G3 X57.811 Y54.435 I0.828 J1.004
N9405 G2 X58.295 Y53.603 I-0.474 J-0.833
N9410 G3 X58.317 Y50.898 I102.718 J-0.523
N9415 G1 X58.143 Y13.532
N9420 G3 X58.164 Y12.664 I14.665 J-0.068
N9425 G1 X58.178 Y12.408
N9430 X58.181 Y12.379
N9435 X58.213 Y12.028
N9440 G3 X58.547 Y11.789 I0.271 J0.025
N9445 G2 X58.661 Y11.798 I0.085 J-0.353
N9450 G1 X59.255 Y11.753
N9455 G3 X59.791 Y12.219 I0.037 J0.499
N9460 G2 X59.798 Y12.277 I0.637 J-0.042
N9465 G1 X59.823 Y12.44
N9470 G3 X59.875 Y13.084 I-4.214 J0.664
N9475 G1 X60.051 Y50.894
N9480 G2 X60.096 Y52.27 I30.472 J-0.31
N9485 G1 X60.114 Y52.532
N9490 X60.119 Y52.794
N9495 X60.117 Y53.282
N9500 Y53.393
N9505 X60.119 Y53.481
N9510 G2 X60.42 Y54.104 I0.817 J-0.012
N9515 G1 X60.475 Y54.149
N9520 G3 X61.321 Y54.985 I-3.83 J4.715
N9525 G1 X61.498 Y55.199
N9530 G3 X61.611 Y55.398 I-0.509 J0.422
N9535 G1 X61.703 Y55.653
N9540 G3 X61.488 Y56.002 I-0.247 J0.089
N9545 G2 X61.426 Y56.015 I0.045 J0.363
N9550 G1 X61.04 Y56.134
N9555 G3 X60.497 Y56.252 I-0.986 J-3.212
N9560 G1 X60.378 Y56.268
N9565 G3 X59.431 Y56.087 I-0.201 J-1.513
N9570 G2 X58.578 Y56.09 I-0.424 J0.756
N9575 G3 X57.609 Y56.278 I-0.762 J-1.339
N9580 G1 X57.454 Y56.257
N9585 G3 X56.897 Y56.136 I0.491 J-3.619
N9590 G1 X56.497 Y56.016
N9595 G3 X56.288 Y55.621 I0.09 J-0.3
N9600 G1 X56.358 Y55.4
N9605 G3 X56.463 Y55.199 I0.636 J0.203
N9610 G1 X56.722 Y54.859
N9615 G3 X57.256 Y54.308 I2.524 J1.917
N9620 G1 X57.616 Y54.018
N9625 G2 X57.832 Y53.57 I-0.363 J-0.45
N9630 G1 Y53.383
N9635 Y53.292
N9640 X57.824 Y52.795
N9645 G3 X57.842 Y52.269 I5.355 J-0.078
N9650 G1 X57.85 Y52.14
N9655 G2 X57.878 Y50.897 I-30.492 J-1.309
N9660 G1 X57.711 Y13.761
N9665 G3 X57.752 Y12.437 I18.868 J-0.084
N9670 G1 X57.766 Y12.223
N9675 X57.768 Y12.195
N9680 X57.827 Y11.542
N9685 G3 X58.204 Y11.272 I0.305 J0.027
N9690 G1 X58.319 Y11.3
N9695 G2 X58.491 Y11.314 I0.129 J-0.53
N9700 G1 X58.833 Y11.287
N9705 G3 X59.168 Y11.282 I0.211 J2.705
N9710 G1 X59.596 Y11.302
N9715 G2 X59.732 Y11.288 I0.022 J-0.478
N9720 G3 X60.168 Y11.608 I0.085 J0.342
N9725 G2 X60.239 Y12.284 I3.856 J-0.059
N9730 G3 X60.316 Y13.242 I-6.248 J0.986
N9735 G1 X60.484 Y50.895
N9740 G2 X60.545 Y52.273 I21.522 J-0.262
N9745 G1 X60.57 Y52.532
N9750 X60.579 Y52.792
N9755 X60.577 Y53.161
N9760 G2 X60.885 Y53.878 I0.97 J0.007
N9765 G1 X61.184 Y54.156
N9770 G3 X61.62 Y54.652 I-2.275 J2.439
N9775 G2 X61.987 Y55.087 I2.654 J-1.865
N9780 G3 X62.197 Y55.437 I-0.744 J0.685
N9785 G1 X62.328 Y55.811
N9790 G3 X61.986 Y56.364 I-0.394 J0.139
N9795 G2 X61.897 Y56.382 I0.073 J0.575
N9800 G1 X61.379 Y56.533
N9805 G3 X60.652 Y56.685 I-1.347 J-4.631
N9810 G1 X60.294 Y56.731
N9815 G3 X59.909 Y56.737 I-0.216 J-1.667
N9820 G1 X59.823 Y56.728
N9825 G3 X59.428 Y56.617 I0.118 J-1.173
N9830 G1 X59.25 Y56.531
N9835 G2 X58.686 Y56.547 I-0.266 J0.55
N9840 G3 X57.688 Y56.741 I-0.792 J-1.415
N9845 G1 X57.278 Y56.688
N9850 G3 X56.568 Y56.547 I0.677 J-5.272
N9855 G1 X55.968 Y56.385
N9860 X55.938 Y56.378
N9865 X55.908 Y56.372
N9870 G3 X55.616 Y55.908 I0.049 J-0.355
N9875 G1 X55.78 Y55.402
N9880 G3 X55.968 Y55.055 I1.033 J0.334
N9885 G1 X56.372 Y54.554
N9890 G3 X56.82 Y54.073 I3.584 J2.891
N9895 G1 X57.131 Y53.784
N9900 G2 X57.361 Y53.245 I-0.492 J-0.529
N9905 G1 X57.356 Y52.79
N9910 G3 X57.386 Y52.275 I4.269 J-0.009
N9915 G1 X57.398 Y52.133
N9920 G2 X57.439 Y50.896 I-21.764 J-1.343
N9925 G1 X57.278 Y13.568
N9930 G3 X57.306 Y12.629 I13.984 J-0.06
N9935 G1 X57.323 Y12.35
N9940 G2 X57.336 Y11.846 I-6.633 J-0.418
N9945 G3 X57.337 Y11.048 I2.676 J-0.395
N9950 X57.753 Y10.756 I0.365 J0.078
N9955 G1 X58.166 Y10.813
N9960 G2 X58.374 Y10.82 I0.139 J-1.008
N9965 G1 X58.764 Y10.794
N9970 G3 X59.236 Y10.785 I0.328 J4.814
N9975 G2 X60.17 Y10.756 I0.362 J-3.396
N9980 G1 X60.242 Y10.753
N9985 X60.313 Y10.765
N9990 X60.381 Y10.789
N9995 X60.443 Y10.825
N10000 X60.498 Y10.872
N10005 X60.543 Y10.928
N10010 X60.577 Y10.992
N10015 X60.598 Y11.06
N10020 X60.607 Y11.132
N10025 G2 X60.683 Y12.267 I5.472 J0.201
N10030 G1 X60.722 Y12.596
N10035 X60.746 Y12.927
N10040 X60.755 Y13.259
N10045 X60.917 Y50.913
N10050 G2 X61.074 Y53.09 I29.967 J-1.063
N10055 G1 X61.083 Y53.196
N10060 X61.108 Y53.3
N10065 X61.147 Y53.4
N10070 X61.201 Y53.493
N10075 X61.267 Y53.578
N10080 G3 X62.006 Y54.409 I-4.293 J4.559
N10085 G2 X62.255 Y54.694 I2.335 J-1.797
N10090 G1 X62.271 Y54.71
N10095 G3 X62.629 Y55.152 I-1.931 J1.929
N10100 G1 X62.925 Y55.608
N10105 G3 X63.075 Y56.15 I-0.783 J0.508
N10110 X62.354 Y56.907 I-0.788 J-0.029
N10115 G2 X61.357 Y57.056 I0.274 J5.239
N10120 G3 X60.682 Y57.153 I-1.308 J-6.702
N10125 G1 X60.292 Y57.19
N10130 G3 X59.912 Y57.192 I-0.207 J-2.221
N10135 G1 X59.692 Y57.175
N10140 G2 X58.328 Y57.181 I-0.649 J8.345
N10145 G1 X58.118 Y57.199
N10150 G3 X57.679 Y57.198 I-0.216 J-2.522
N10155 G1 X57.243 Y57.16
N10160 G3 X56.597 Y57.075 I0.666 J-7.541
N10165 G2 X55.514 Y56.923 I-1.424 J6.235
N10170 G3 X54.909 Y56.283 I0.055 J-0.658
N10175 G1 X54.905 Y56.132
N10180 G3 X55.057 Y55.579 I0.986 J-0.026
N10185 G1 X55.383 Y55.064
N10190 G3 X55.634 Y54.721 I2.602 J1.644
N10195 X56.723 Y53.49 I14.334 J11.58
N10200 G2 X56.867 Y53.146 I-0.395 J-0.367
N10205 X57.001 Y50.925 I-65.207 J-5.057
N10210 G1 X56.847 Y13.56
N10215 G3 X56.866 Y12.637 I18.928 J-0.078
N10220 G1 X56.873 Y12.48
N10225 G2 X56.885 Y11.716 I-13.41 J-0.599
N10230 G3 X56.915 Y10.629 I6.355 J-0.369
N10235 X57.331 Y10.266 I0.395 J0.032
N10240 G2 X60.691 Y10.251 I1.478 J-46.817
N10245 G3 X61.073 Y10.609 I0.018 J0.364
N10250 G2 X61.14 Y12.264 I11.304 J0.375
N10255 G1 X61.168 Y12.595
N10260 X61.186 Y12.927
N10265 X61.193 Y13.259
N10270 X61.349 Y50.941
N10275 G2 X61.384 Y51.625 I8.571 J-0.103
N10280 G1 X61.411 Y51.886
N10285 X61.452 Y52.145
N10290 X61.508 Y52.401
N10295 X61.578 Y52.654
N10300 X61.663 Y52.902
N10305 X61.761 Y53.146
N10310 X61.874 Y53.383
N10315 X61.999 Y53.613
N10320 X62.138 Y53.836
N10325 X62.289 Y54.051
N10330 X62.451 Y54.256
N10335 X62.626 Y54.453
N10340 G3 X62.922 Y54.8 I-3.487 J3.28
N10345 G1 X63.297 Y55.283
N10350 G3 X63.631 Y56.309 I-1.26 J0.977
N10355 G1 X63.612 Y56.925
N10360 G3 X63.126 Y57.419 I-0.51 J-0.016
N10365 G2 X61.362 Y57.552 I-0.054 J10.993
N10370 G3 X60.678 Y57.62 I-1.327 J-9.925
N10375 G1 X60.288 Y57.645
N10380 G3 X59.915 Y57.647 I-0.208 J-3.227
N10385 G1 X59.897 Y57.646
N10390 G2 X58.115 Y57.654 I-0.825 J16.12
N10395 G3 X57.681 I-0.219 J-3.693
N10400 G1 X57.243 Y57.629
N10405 G3 X56.594 Y57.572 I0.649 J-11.138
N10410 G2 X54.846 Y57.451 I-1.698 J11.889
N10415 G3 X54.352 Y56.953 I0.021 J-0.514
N10420 G1 X54.317 Y55.83
N10425 G3 X54.514 Y55.428 I0.479 J-0.015
N10430 G2 X54.621 Y55.322 I-0.305 J-0.418
N10435 X56.005 Y53.549 I-30.202 J-24.994
N10440 X56.438 Y52.466 I-1.974 J-1.418
N10445 X56.562 Y50.61 I-12.988 J-1.804
N10450 G1 X56.415 Y13.559
N10455 X56.469 Y10.101
N10460 G3 X56.802 Y9.785 I0.328 J0.013
N10465 G2 X61.216 Y9.768 I1.574 J-167.061
N10470 G3 X61.541 Y10.083 I0.006 J0.32
N10475 G2 X61.596 Y12.248 I25.381 J0.441
N10480 G1 X61.621 Y12.761
N10485 X61.631 Y13.274
N10490 X61.781 Y50.936
N10495 G2 X61.803 Y51.379 I4.933 J-0.027
N10500 G1 X61.832 Y51.641
N10505 X61.875 Y51.902
N10510 X61.932 Y52.159
N10515 X62.002 Y52.413
N10520 X62.085 Y52.664
N10525 X62.182 Y52.909
N10530 X62.291 Y53.149
N10535 X62.413 Y53.383
N10540 X62.548 Y53.61
N10545 X62.694 Y53.829
N10550 X62.851 Y54.041
N10555 X63.02 Y54.244
N10560 X63.05 Y54.278
N10565 X63.134 Y54.372
N10570 X63.609 Y54.893
N10575 G3 X64.166 Y56.356 I-1.573 J1.436
N10580 G1 X64.15 Y57.561
N10585 G3 X63.762 Y57.955 I-0.399 J-0.005
N10590 G1 X62.481 Y58.016
N10595 X61.199 Y58.063
N10600 X59.917 Y58.096
N10605 X59.311 Y58.089
N10610 X58.705 Y58.093
N10615 X58.099 Y58.109
N10620 G3 X54.198 Y57.998 I1.767 J-129.898
N10625 X53.803 Y57.601 I0.008 J-0.403
N10630 G1 X53.776 Y55.732
N10635 G3 X54.161 Y55.014 I0.839 J-0.012
N10640 G2 X54.345 Y54.857 I-0.495 J-0.769
N10645 X55.082 Y54.011 I-9.585 J-9.093
N10650 G1 X55.237 Y53.808
N10655 X55.38 Y53.596
N10660 X55.511 Y53.378
N10665 X55.63 Y53.152
N10670 X55.737 Y52.921
N10675 X55.831 Y52.684
N10680 X55.912 Y52.442
N10685 X55.98 Y52.196
N10690 X56.034 Y51.946
N10695 X56.075 Y51.695
N10700 X56.101 Y51.441
N10705 G2 X56.126 Y50.908 I-5.75 J-0.531
N10710 G1 X55.981 Y13.102
N10715 G3 X56.011 Y9.512 I148.083 J-0.568
N10720 G1 X56.018 Y9.46
N10725 X56.039 Y9.412
N10730 X56.072 Y9.371
N10735 X56.113 Y9.34
N10740 X56.161 Y9.32
N10745 X56.213 Y9.313
N10750 X59. Y9.291
N10755 X61.025 Y9.292
N10760 X61.825 F#106
N10765 G3 X62.009 Y9.473 I0. J0.184
N10770 X62.069 Y13.384 I-481.662 J9.387 F#100
N10775 G1 X62.213 Y50.933
N10780 G2 X62.248 Y51.452 I4.629 J-0.053
N10785 X63.678 Y54.279 I4.34 J-0.419
N10790 G1 X63.909 Y54.487
N10795 G2 X64.115 Y54.639 I0.886 J-0.988
N10800 G1 X64.565 Y54.907
N10805 G3 X64.707 Y55.156 I-0.149 J0.25
N10810 G1 X64.702 Y57.545
N10815 X64.701 Y58.345 F#106
N10820 G3 X64.547 Y58.501 I-0.156 J0.
N10825 X54.214 Y58.575 I-10.958 J-817.08 F#100
N10830 X53.414 I-0.625 J-817.153 F#106
N10835 G1 X53.365 Y58.568
N10840 X53.319 Y58.549
N10845 X53.281 Y58.518
N10850 X53.251 Y58.479
N10855 X53.233 Y58.434
N10860 X53.227 Y58.385
N10865 X53.217 Y55.158 F#100
N10870 G3 X53.396 Y54.842 I0.366 J-0.001
N10875 G1 X53.785 Y54.611
N10880 G2 X54.097 Y54.383 I-1.024 J-1.726
N10885 G1 X54.546 Y53.982
N10890 G2 X55.7 Y51.091 I-3.046 J-2.891
N10895 G1 Y9.899
N10900 Y9.099 F#106
N10905 G3 X55.8 Y8.999 I0.1 J0.
N10910 G1 X61.4 F#100
N10915 X62.2 F#106
N10920 G3 X62.3 Y9.099 I0. J0.1
N10925 G1 Y51.091 F#100
N10930 G2 X64.052 Y54.503 I4.2 J0.
N10935 X64.742 Y54.905 I2.449 J-3.412 F#106
N10940 G3 X64.8 Y54.996 I-0.042 J0.091
N10945 G1 Y57.699 F#100
N10950 Y58.499 F#106
N10955 G3 X64.7 Y58.599 I-0.1 J0.
N10960 G1 X54.1 F#100
N10965 X53.3 F#106
N10970 G3 X53.2 Y58.499 I0. J-0.1
N10975 G1 Y55.796 F#100
N10980 Y54.996 F#106
N10985 G3 X53.258 Y54.905 I0.1 J0.
N10990 G2 X54.546 Y53.982 I-1.758 J-3.814 F#100
N10995 G3 X54.647 Y53.901 Z-3.358 I0.363 J0.344 F#104
N11000 X54.756 Y53.85 Z-3.308 I0.263 J0.426
N11005 X54.857 Y53.829 Z-3.229 I0.153 J0.476
N11010 X54.936 Y53.827 Z-3.125 I0.052 J0.497
N11015 X54.986 Y53.832 Z-3.004 I-0.027 J0.499
N11020 G1 X55.003 Y53.835 Z-2.875
N11025 Z-1.876
N11030 X57.363 Y55.589
N11035 S2600
N11040 X57.374 Y55.578 Z-2.001 F#107
N11045 X57.406 Y55.544 Z-2.118
N11050 X57.46 Y55.492 Z-2.22
N11055 X57.533 Y55.428 Z-2.3
N11060 X57.623 Y55.357 Z-2.353
N11065 X57.726 Y55.286 Z-2.375
N11070 X57.84 Y55.218 Z-2.382
N11075 G3 X59.66 Y58.542 Z-2.694 I0.91 J1.662
N11080 X57.84 Y55.218 Z-3.006 I-0.91 J-1.662
N11085 X59.66 Y58.542 Z-3.318 I0.91 J1.662
N11090 X57.84 Y55.218 Z-3.63 I-0.91 J-1.662
N11095 X59.66 Y58.542 Z-3.942 I0.91 J1.662
N11100 X57.84 Y55.218 Z-4.254 I-0.91 J-1.662
N11105 X59.66 Y58.542 Z-4.566 I0.91 J1.662
N11110 X57.84 Y55.218 Z-4.878 I-0.91 J-1.662
N11115 X59.66 Y58.542 Z-5.19 I0.91 J1.662
N11120 X57.84 Y55.218 Z-5.502 I-0.91 J-1.662
N11125 X59.66 Y58.542 Z-5.814 I0.91 J1.662
N11130 X57.84 Y55.218 Z-6.126 I-0.91 J-1.662
N11135 X59.66 Y58.542 Z-6.438 I0.91 J1.662
N11140 X57.84 Y55.218 Z-6.75 I-0.91 J-1.662
N11145 S3000
N11150 G2 X58.231 Y54.999 I-8.51 J-15.672 F#100
N11155 X58.915 Y54.585 I-8.901 J-15.454 F#106
N11160 G1 X58.949 Y54.558
N11165 X58.975 Y54.523
N11170 X58.992 Y54.482
N11175 X58.997 Y54.439
N11180 X58.991 Y52.551 F#100
N11185 X58.895 Y13.503
N11190 X58.893 Y12.791 F#106
N11195 X58.895 Y12.755
N11200 X58.899 Y12.718
N11205 X58.901 Y12.703
N11210 G3 X58.992 Y12.632 I0.083 J0.013
N11215 G2 X59.008 I0.009 J-0.106
N11220 G3 X59.099 Y12.705 I0.006 J0.085
N11225 G1 X59.101 Y12.716
N11230 X59.105 Y12.755 F#100
N11235 X59.107 Y12.793
N11240 X59.204 Y51.409
N11245 G3 X59.222 Y54.207 I-226.173 J2.842
N11250 G2 X59.398 Y54.515 I0.369 J-0.007
N11255 X59.667 Y54.687 I4.371 J-6.561
N11260 X59.972 Y54.863 I4.101 J-6.733 F#106
N11265 G3 X60.164 Y54.988 I-0.643 J1.192
N11270 G1 X60.336 Y55.123
N11275 G3 X60.241 Y55.421 I-0.103 J0.131
N11280 X59.956 Y55.356 I-0.027 J-0.538 F#100
N11285 G1 X59.74 Y55.24
N11290 X59.676 Y55.204
N11295 X59.165 Y54.9
N11300 G2 X58.835 Y54.901 I-0.164 J0.276
N11305 G3 X57.906 Y55.414 I-2.921 J-4.192
N11310 X57.706 Y55.055 I-0.084 J-0.189
N11315 X58.576 Y54.512 I7.412 J10.901
N11320 G2 X58.76 Y54.186 I-0.204 J-0.331
N11325 G3 X58.752 Y50.112 I446.458 J-2.931
N11330 G1 X58.572 Y12.902
N11335 G3 X58.573 Y12.82 I1.861 J-0.009
N11340 X58.594 Y12.608 I1.86 J0.074 F#106
N11345 G1 X58.61 Y12.506
N11350 G3 X58.925 Y12.257 I0.291 J0.045
N11355 G1 X58.967 Y12.261
N11360 X59. Y12.262 F#100
N11365 X59.033 Y12.261
N11370 X59.065 Y12.259
N11375 G3 X59.396 Y12.521 I0.022 J0.311
N11380 G1 X59.408 Y12.599
N11385 G3 X59.434 Y12.912 I-2.013 J0.323
N11390 G1 X59.618 Y50.892
N11395 G3 X59.664 Y53.715 I-66.621 J2.506
N11400 G2 X60.041 Y54.381 I0.813 J-0.02
N11405 G3 X60.391 Y54.63 I-1.663 J2.703
N11410 X60.881 Y55.095 I-1.732 J2.316
N11415 G1 X61.037 Y55.283
N11420 G3 X60.885 Y55.745 I-0.221 J0.184
N11425 X60.408 Y55.832 I-0.503 J-1.398
N11430 X59.582 Y55.658 I-0.086 J-1.637
N11435 G1 X59.506 Y55.62
N11440 X59.465 Y55.598
N11445 X59.351 Y55.534
N11450 G2 X58.651 Y55.537 I-0.347 J0.617
N11455 G1 X58.531 Y55.606
N11460 X58.503 Y55.622
N11465 X58.418 Y55.667
N11470 G3 X57.62 Y55.844 I-0.712 J-1.33
N11475 G1 X57.597 Y55.842
N11480 G3 X57.221 Y55.776 I0.091 J-1.611
N11485 G1 X57.084 Y55.735
N11490 G3 X56.939 Y55.284 I0.083 J-0.275
N11495 G1 X57.142 Y55.019
N11500 G3 X57.463 Y54.69 I1.541 J1.182
N11505 X57.913 Y54.371 I2.181 J2.602
N11510 G1 X57.996 Y54.309
N11515 X58.071 Y54.237
N11520 X58.137 Y54.157
N11525 X58.192 Y54.069
N11530 X58.237 Y53.975
N11535 X58.269 Y53.876
N11540 X58.289 Y53.774
N11545 X58.297 Y53.67
N11550 G2 X58.289 Y52.825 I-19.794 J-0.236
N11555 G1 Y52.551
N11560 X58.297 Y52.278
N11565 X58.301 Y52.16
N11570 X58.313 Y51.486
N11575 X58.316 Y51.19
N11580 X58.317 Y50.895
N11585 X58.141 Y13.051
N11590 G3 X58.184 Y12.462 I3.754 J-0.017
N11595 G2 X58.226 Y12.027 I-1.903 J-0.4
N11600 G3 X58.549 Y11.78 I0.262 J0.008
N11605 G2 X58.656 Y11.789 I0.084 J-0.351
N11610 G3 X59.5 Y11.788 I0.433 J5.389
N11615 G1 X59.553 Y11.779
N11620 X59.607 Y11.784
N11625 X59.658 Y11.802
N11630 X59.703 Y11.833
N11635 X59.739 Y11.875
N11640 X59.763 Y11.924
N11645 X59.775 Y11.979
N11650 G2 X59.823 Y12.44 I2.379 J-0.015
N11655 G3 X59.875 Y13.073 I-4.035 J0.652
N11660 G1 X60.051 Y50.893
N11665 G2 X60.096 Y52.279 I30.856 J-0.321
N11670 G1 X60.114 Y52.552
N11675 X60.117 Y52.825
N11680 X60.107 Y53.308
N11685 G2 X60.499 Y54.158 I1.069 J0.023
N11690 G1 X60.525 Y54.18
N11695 G3 X61.364 Y55.011 I-3.956 J4.832
N11700 G1 X61.549 Y55.233
N11705 G3 X61.668 Y55.44 I-0.521 J0.435
N11710 G1 X61.719 Y55.585
N11715 G3 X61.453 Y56.081 I-0.358 J0.127
N11720 X60.625 Y56.262 I-1.343 J-4.144
N11725 X59.394 Y56.065 I-0.29 J-2.13
N11730 G1 X59.268 Y56.003
N11735 G2 X58.731 Y56.008 I-0.264 J0.542
N11740 G1 X58.714 Y56.017
N11745 G3 X56.913 Y56.178 I-1.101 J-2.163
N11750 G1 X56.419 Y56.029
N11755 G3 X56.229 Y55.667 I0.083 J-0.274
N11760 G1 X56.303 Y55.436
N11765 G3 X56.406 Y55.239 I0.618 J0.198
N11770 G1 X56.679 Y54.883
N11775 G3 X57.207 Y54.34 I2.58 J1.979
N11780 G1 X57.483 Y54.115
N11785 G2 X57.842 Y53.329 I-0.614 J-0.754
N11790 G1 X57.826 Y52.825
N11795 G3 X57.841 Y52.278 I4.89 J-0.132
N11800 G1 X57.848 Y52.16
N11805 G2 X57.877 Y50.894 I-30.64 J-1.337
N11810 G1 X57.709 Y13.195
N11815 G3 X57.774 Y12.318 I5.606 J-0.025
N11820 G2 X57.836 Y11.757 I-2.987 J-0.614
N11825 Y11.653 I-3.049 J-0.053 F#106
N11830 G3 X58.314 Y11.288 I0.387 J0.011
N11835 G1 X58.321 Y11.29
N11840 G2 X58.483 Y11.304 I0.127 J-0.526 F#100
N11845 G1 X58.835 Y11.281
N11850 G3 X59.165 Y11.279 I0.184 J2.873
N11855 G1 X59.615 Y11.302
N11860 G2 X59.754 Y11.287 I0.023 J-0.451
N11865 G3 X60.166 Y11.587 I0.085 J0.317
N11870 G2 X60.238 Y12.289 I3.479 J-0.002
N11875 G3 X60.316 Y13.225 I-5.954 J0.963
N11880 G1 X60.484 Y50.893
N11885 G2 X60.55 Y52.324 I20.498 J-0.229
N11890 G1 X60.571 Y52.552
N11895 X60.577 Y52.78
N11900 G2 X60.593 Y53.203 I4.033 J0.065
N11905 X60.927 Y53.914 I1.045 J-0.058
N11910 G1 X61.222 Y54.187
N11915 G3 X61.66 Y54.68 I-2.274 J2.461
N11920 G1 X61.691 Y54.723
N11925 G2 X61.884 Y54.957 I2.02 J-1.465
N11930 G1 X61.927 Y55.003
N11935 G3 X62.325 Y55.616 I-1.547 J1.439
N11940 G1 X62.451 Y55.913
N11945 G3 X62.181 Y56.364 I-0.3 J0.127
N11950 G2 X61.446 Y56.546 I0.196 J2.375
N11955 G3 X60.718 Y56.699 I-1.368 J-4.692
N11960 G1 X60.368 Y56.745
N11965 G3 X59.353 Y56.556 I-0.218 J-1.648
N11970 G2 X58.655 Y56.558 I-0.347 J0.634
N11975 G1 X58.628 Y56.574
N11980 G3 X57.654 Y56.76 I-0.77 J-1.385
N11985 G1 X57.225 Y56.705
N11990 G3 X56.515 Y56.563 I0.68 J-5.259
N11995 G2 X55.817 Y56.386 I-0.953 J2.295
N12000 G3 X55.523 Y55.9 I0.035 J-0.353
N12005 G1 X55.659 Y55.568
N12010 G3 X56.01 Y54.976 I2.15 J0.877
N12015 G1 X56.298 Y54.623
N12020 G3 X56.822 Y54.067 I4.18 J3.412
N12025 G1 X57.1 Y53.81
N12030 G2 X57.347 Y53.271 I-0.52 J-0.564
N12035 X57.358 Y52.804 I-6.276 J-0.375
N12040 G1 Y52.636
N12045 X57.367 Y52.468
N12050 X57.383 Y52.3
N12055 G2 X57.439 Y50.894 I-18.75 J-1.443
N12060 G1 X57.276 Y12.914
N12065 G3 X57.297 Y12.596 I2.264 J-0.01
N12070 G2 X57.398 Y11.109 I-5.518 J-1.124
N12075 G3 X57.807 Y10.75 I0.36 J-0.003
N12080 G2 X58.769 Y10.787 I0.592 J-2.867
N12085 G3 X59.231 Y10.783 I0.279 J5.276
N12090 G2 X60.185 Y10.753 I0.38 J-3.08
N12095 G1 X60.255 Y10.749
N12100 X60.325 Y10.759
N12105 X60.391 Y10.782
N12110 X60.453 Y10.817
N12115 X60.506 Y10.863
N12120 X60.55 Y10.918
N12125 X60.582 Y10.981
N12130 X60.603 Y11.048
N12135 X60.61 Y11.118
N12140 G2 X60.702 Y12.402 I5.3 J0.267
N12145 G3 X60.755 Y13.11 I-5.039 J0.73
N12150 G1 X60.917 Y50.91
N12155 G2 X60.994 Y52.268 I15.664 J-0.212
N12160 G1 X61.021 Y52.469
N12165 X61.038 Y52.671
N12170 X61.045 Y52.811
N12175 G2 X61.47 Y53.791 I1.535 J-0.084
N12180 G3 X62.033 Y54.427 I-3.428 J3.602
N12185 G2 X62.301 Y54.729 I2.519 J-1.962
N12190 G1 X62.34 Y54.768
N12195 G3 X62.661 Y55.155 I-1.843 J1.855
N12200 G1 X62.972 Y55.613
N12205 G3 X63.129 Y56.195 I-0.763 J0.518
N12210 G1 X63.122 Y56.29
N12215 G3 X62.491 Y56.919 I-0.676 J-0.047
N12220 G2 X61.421 Y57.067 I0.104 J4.712
N12225 G3 X60.75 Y57.164 I-1.325 J-6.799
N12230 G1 X60.355 Y57.201
N12235 G3 X59.964 Y57.205 I-0.217 J-2.282
N12240 G1 X59.871 Y57.198
N12245 G3 X59.385 Y57.086 I0.127 J-1.662
N12250 G2 X59.006 Y57.013 I-0.38 J0.954
N12255 X58.622 Y57.087 I0. J1.027
N12260 G3 X58.12 Y57.207 I-0.647 J-1.604
N12265 G1 X58.038 Y57.214
N12270 G3 X57.643 Y57.213 I-0.193 J-2.281
N12275 G1 X57.19 Y57.173
N12280 G3 X56.545 Y57.087 I0.668 J-7.513
N12285 G2 X55.487 Y56.946 I-1.196 J4.942
N12290 G3 X54.853 Y56.311 I0.042 J-0.677
N12295 G1 X54.845 Y56.183
N12300 G3 X55.006 Y55.584 I0.968 J-0.06
N12305 G1 X55.355 Y55.062
N12310 G3 X55.565 Y54.785 I2.437 J1.627
N12315 G1 X56.474 Y53.727
N12320 G2 X56.889 Y52.703 I-1.293 J-1.121
N12325 X57.001 Y50.923 I-18.454 J-2.057
N12330 G1 X56.846 Y13.222
N12335 G3 X56.89 Y12.289 I9.115 J-0.038
N12340 G2 X56.929 Y10.591 I-9.021 J-1.058
N12345 G3 X57.291 Y10.247 I0.342 J-0.002
N12350 G2 X60.709 Y10.241 I1.637 J-36.723
N12355 G3 X61.084 Y10.591 I0.022 J0.353
N12360 G2 X61.141 Y12.278 I9.732 J0.518
N12365 G1 X61.169 Y12.596
N12370 X61.186 Y12.914
N12375 X61.193 Y13.233
N12380 X61.349 Y50.939
N12385 G2 X61.38 Y51.558 I7.65 J-0.074
N12390 G1 X61.407 Y51.83
N12395 X61.451 Y52.101
N12400 X61.51 Y52.368
N12405 X61.584 Y52.632
N12410 X61.673 Y52.891
N12415 X61.776 Y53.145
N12420 X61.894 Y53.392
N12425 X62.026 Y53.632
N12430 X62.172 Y53.864
N12435 X62.33 Y54.088
N12440 X62.501 Y54.302
N12445 X62.684 Y54.506
N12450 G3 X62.951 Y54.808 I-4.129 J3.922
N12455 G1 X63.393 Y55.344
N12460 G3 X63.664 Y56.136 I-0.922 J0.759
N12465 G1 X63.642 Y56.961
N12470 G3 X63.162 Y57.443 I-0.496 J-0.014
N12475 G2 X61.426 Y57.559 I-0.252 J9.247
N12480 G3 X60.747 Y57.627 I-1.344 J-10.066
N12485 G1 X60.352 Y57.653
N12490 G3 X59.967 Y57.655 I-0.217 J-3.317
N12495 G1 X59.938 Y57.654
N12500 G2 X58.076 Y57.662 I-0.861 J17.101
N12505 G3 X57.605 I-0.235 J-4.018
N12510 G1 X57.19 Y57.637
N12515 G3 X56.542 Y57.58 I0.651 J-11.097
N12520 G2 X54.807 Y57.477 I-1.472 J10.103
N12525 G3 X54.321 Y56.992 I0.012 J-0.499
N12530 G1 X54.296 Y56.122
N12535 G3 X54.562 Y55.333 I1.203 J-0.034
N12540 G2 X55.98 Y53.583 I-30.095 J-25.828
N12545 G1 X56.079 Y53.443
N12550 X56.168 Y53.296
N12555 X56.245 Y53.143
N12560 X56.311 Y52.984
N12565 X56.365 Y52.822
N12570 X56.406 Y52.655
N12575 X56.435 Y52.486
N12580 G2 X56.562 Y50.509 I-14.498 J-1.919
N12585 G1 X56.414 Y13.221
N12590 G3 X56.44 Y12.288 I14.631 J-0.058
N12595 G2 X56.46 Y10.07 I-18.77 J-1.276
N12600 G3 X56.771 Y9.765 I0.304 J-0.001
N12605 G2 X61.238 Y9.752 I1.992 J-81.604
N12610 G3 X61.559 Y10.061 I0.009 J0.311
N12615 G2 X61.598 Y12.28 I20.537 J0.746
N12620 G1 X61.622 Y12.755
N12625 X61.631 Y13.23
N12630 X61.781 Y50.934
N12635 G2 X61.806 Y51.414 I5.175 J-0.035
N12640 G1 X61.835 Y51.672
N12645 X61.878 Y51.929
N12650 X61.934 Y52.183
N12655 X62.004 Y52.433
N12660 X62.087 Y52.679
N12665 X62.183 Y52.921
N12670 X62.292 Y53.157
N12675 X62.413 Y53.386
N12680 X62.546 Y53.609
N12685 X62.691 Y53.825
N12690 X62.848 Y54.033
N12695 X63.015 Y54.231
N12700 G2 X63.686 Y54.943 I14.666 J-13.156
N12705 X63.851 Y55.074 I0.56 J-0.535
N12710 G3 X64.197 Y55.689 I-0.361 J0.608
N12715 G1 X64.179 Y57.595
N12720 G3 X63.796 Y57.981 I-0.39 J-0.004
N12725 X59.969 Y58.106 I-8.791 J-209.477
N12730 G2 X58.049 Y58.114 I-0.827 J33.895
N12735 G3 X54.162 Y58.024 I3.99 J-256.791
N12740 X53.773 Y57.637 I0.003 J-0.391
N12745 G1 X53.752 Y55.678
N12750 G3 X54.113 Y55.03 I0.749 J-0.008
N12755 G2 X54.284 Y54.892 I-0.425 J-0.701
N12760 X55.094 Y53.99 I-7.964 J-7.972
N12765 G1 X55.246 Y53.793
N12770 X55.387 Y53.588
N12775 X55.516 Y53.376
N12780 X55.633 Y53.157
N12785 X55.738 Y52.932
N12790 X55.831 Y52.702
N12795 X55.91 Y52.467
N12800 X55.977 Y52.227
N12805 X56.03 Y51.985
N12810 X56.07 Y51.74
N12815 X56.097 Y51.493
N12820 G2 X56.126 Y50.906 I-6.185 J-0.598
N12825 G1 X55.981 Y13.221
N12830 G2 X55.993 Y10.282 I-219.179 J-2.356
N12835 X55.99 Y9.482 I-219.191 J0.583 F#106
N12840 G3 X56.182 Y9.289 I0.192 J-0.001
N12845 G1 X58.271 Y9.299 F#100
N12850 X59.825 Y9.291
N12855 X61.053 Y9.277
N12860 X61.853 Y9.268 F#106
N12865 G3 X62.033 Y9.446 I0.002 J0.178
N12870 G2 X62.068 Y13.037 I161.29 J0.232 F#100
N12875 G1 X62.213 Y50.931
N12880 G2 X62.251 Y51.472 I4.742 J-0.057
N12885 X63.707 Y54.303 I4.295 J-0.42
N12890 G1 X63.955 Y54.52
N12895 G2 X64.161 Y54.664 I0.793 J-0.908
N12900 G1 X64.596 Y54.907
N12905 G3 X64.722 Y55.121 I-0.12 J0.215
N12910 G1 X64.723 Y57.629
N12915 Y58.429 F#106
N12920 G3 X64.63 Y58.523 I-0.093 J0.
N12925 G1 X59.62 Y58.558 F#100
N12930 G2 X54.142 Y58.572 I-0.794 J744.536
N12935 X53.342 Y58.578 I4.684 J744.521 F#106
N12940 G3 X53.22 Y58.457 I0. J-0.121
N12945 G1 X53.215 Y55.101 F#100
N12950 G3 X53.354 Y54.86 I0.277 J0.
N12955 G1 X53.799 Y54.606
N12960 G2 X54.003 Y54.46 I-0.633 J-1.106
N12965 G1 X54.517 Y54.013
N12970 G2 X55.7 Y51.091 I-3.017 J-2.922
N12975 G1 Y9.799
N12980 Y8.999 F#106
N12985 X61.5 F#100
N12990 X62.3 F#106
N12995 Y51.091 F#100
N13000 G2 X64.104 Y54.54 I4.2 J0.
N13005 X64.8 Y54.931 I2.396 J-3.449 F#106
N13010 G1 Y57.799 F#100
N13015 Y58.599 F#106
N13020 X54. F#100
N13025 X53.2 F#106
N13030 Y55.731 F#100
N13035 Y54.931 F#106
N13040 G2 X54.517 Y54.013 I-1.7 J-3.841 F#100
N13045 X54.549 Y53.832 I-0.117 J-0.114
N13050 G3 X54.574 Y53.65 I0.158 J-0.071
N13055 G2 X55.5 Y51.091 I-3.074 J-2.56
N13060 G1 Y9.699
N13065 Y8.899 F#106
N13070 G3 X55.6 Y8.799 I0.1 J0.
N13075 G1 X61.6 F#100
N13080 X62.4 F#106
N13085 G3 X62.5 Y8.899 I0. J0.1
N13090 G1 Y51.091 F#100
N13095 G2 X64.238 Y54.39 I4. J0.
N13100 X64.939 Y54.774 I2.262 J-3.299 F#106
N13105 G3 X65. Y54.866 I-0.039 J0.092
N13110 G1 Y57.899 F#100
N13115 Y58.699 F#106
N13120 G3 X64.9 Y58.799 I-0.1 J0.
N13125 G1 X53.9 F#100
N13130 X53.1 F#106
N13135 G3 X53. Y58.699 I0. J-0.1
N13140 G1 Y55.666 F#100
N13145 Y54.866 F#106
N13150 G3 X53.061 Y54.774 I0.1 J0.
N13155 G2 X54.574 Y53.65 I-1.561 J-3.683 F#100
N13160 G3 X54.668 Y53.563 Z-6.733 I0.384 J0.32 F#104
N13165 X54.774 Y53.505 Z-6.683 I0.29 J0.408
N13170 X54.874 Y53.477 Z-6.604 I0.184 J0.465
N13175 X54.953 Y53.47 Z-6.5 I0.084 J0.493
N13180 X55.003 Y53.472 Z-6.379 I0.005 J0.5
N13185 G1 X55.02 Y53.474 Z-6.25
N13190 G0 Z6.
(2D POCKET2)
N13200 M9
N13205 G0 X78.947 Y53.754
N13210 Z6.
N13215 Z5.
N13220 G1 Z1.499 F#103
N13225 S2600
N13230 X78.954 Y53.738 Z1.367 F#107
N13235 X78.974 Y53.689 Z1.243
N13240 X79.008 Y53.613 Z1.138
N13245 X79.057 Y53.517 Z1.06
N13250 X79.121 Y53.409 Z1.012
N13255 X79.17 Y53.337 Z1.
N13260 G3 X82.274 Y55.53 Z0.687 I1.552 J1.096
N13265 X79.17 Y53.337 Z0.374 I-1.552 J-1.096
N13270 X82.274 Y55.53 Z0.062 I1.552 J1.096
N13275 X79.17 Y53.337 Z-0.251 I-1.552 J-1.096
N13280 X82.274 Y55.53 Z-0.564 I1.552 J1.096
N13285 X79.17 Y53.337 Z-0.877 I-1.552 J-1.096
N13290 X82.274 Y55.53 Z-1.19 I1.552 J1.096
N13295 X79.17 Y53.337 Z-1.503 I-1.552 J-1.096
N13300 X82.274 Y55.53 Z-1.815 I1.552 J1.096
N13305 X79.17 Y53.337 Z-2.128 I-1.552 J-1.096
N13310 X82.274 Y55.53 Z-2.441 I1.552 J1.096
N13315 X79.17 Y53.337 Z-2.754 I-1.552 J-1.096
N13320 X82.274 Y55.53 Z-3.067 I1.552 J1.096
N13325 X79.121 Y53.409 Z-3.375 I-1.552 J-1.096
N13330 X80.639 Y53.809 I0.694 J0.444
N13335 G1 X80.677 Y54.51
N13340 G2 X81.898 Y55.187 I0.823 J-0.045
N13345 S3000
N13350 G1 X82.207 Y55.016 F#100
N13355 X82.268 Y54.98
N13360 X82.841 Y54.629
N13365 G2 X82.997 Y54.351 I-0.171 J-0.279
N13370 G1 X82.992 Y52.871
N13375 X82.899 Y13.607
N13380 X82.897 Y12.807 F#106
N13385 G3 X83.107 Y12.808 I0.105 J0.001
N13390 G1 X83.204 Y51.405 F#100
N13395 G3 X83.223 Y54.206 I-232.644 J2.948
N13400 G2 X83.398 Y54.514 I0.37 J-0.006
N13405 X83.606 Y54.649 I4.011 J-5.991
N13410 X83.959 Y54.854 I3.803 J-6.125 F#106
N13415 G1 X84.054 Y54.912
N13420 X84.144 Y54.979
N13425 X84.274 Y55.085
N13430 G3 X84.173 Y55.393 I-0.11 J0.134
N13435 X83.911 Y55.333 I-0.024 J-0.491 F#100
N13440 G1 X83.675 Y55.204
N13445 X83.627 Y55.176
N13450 X83.164 Y54.899
N13455 G2 X82.836 Y54.9 I-0.163 J0.273
N13460 G3 X81.966 Y55.388 I-3.336 J-4.93
N13465 G1 X81.911 Y55.403
N13470 X81.855
N13475 X81.801 Y55.389
N13480 X81.752 Y55.361
N13485 X81.713 Y55.321
N13490 X81.686 Y55.272
N13495 X81.672 Y55.217
N13500 X81.674 Y55.162
N13505 X81.69 Y55.108
N13510 X81.72 Y55.061
N13515 X81.761 Y55.023
N13520 G3 X82.567 Y54.517 I5.611 J8.049
N13525 G2 X82.76 Y54.175 I-0.216 J-0.347
N13530 G3 X82.752 Y50.091 I481.58 J-2.949
N13535 G1 X82.573 Y13.314
N13540 G3 X82.581 Y12.829 I15.115 J-0.002
N13545 X82.592 Y12.565 I15.107 J0.483 F#106
N13550 G1 X82.604 Y12.502
N13555 X82.628 Y12.442
N13560 X82.664 Y12.388
N13565 X82.709 Y12.342
N13570 X82.762 Y12.305
N13575 X82.821 Y12.28
N13580 X82.884 Y12.266
N13585 X82.948 Y12.265
N13590 X82.968 Y12.266
N13595 X83. Y12.267 F#100
N13600 X83.032 Y12.266
N13605 X83.064 Y12.264
N13610 G3 X83.398 Y12.529 I0.023 J0.314
N13615 G1 X83.409 Y12.602
N13620 G3 X83.434 Y12.921 I-2.104 J0.329
N13625 G1 X83.619 Y50.893
N13630 G3 X83.668 Y53.725 I-141.287 J3.88
N13635 G1 X83.68 Y53.836
N13640 X83.707 Y53.945
N13645 X83.749 Y54.05
N13650 X83.804 Y54.147
N13655 X83.873 Y54.236
N13660 X83.953 Y54.315
N13665 X84.043 Y54.383
N13670 G3 X84.338 Y54.597 I-1.69 J2.638
N13675 X84.831 Y55.066 I-1.705 J2.287
N13680 G1 X84.97 Y55.234
N13685 G3 X84.83 Y55.701 I-0.226 J0.187
N13690 G1 X84.68 Y55.747
N13695 G3 X84.317 Y55.81 I-0.44 J-1.439
N13700 G1 X84.241 Y55.812
N13705 G3 X83.541 Y55.637 I0. J-1.48
N13710 G1 X83.436 Y55.58
N13715 X83.42 Y55.571
N13720 X83.353 Y55.534
N13725 G2 X82.649 Y55.537 I-0.348 J0.621
N13730 G1 X82.41 Y55.673
N13735 G3 X81.76 Y55.824 I-0.583 J-1.035
N13740 G1 X81.65 Y55.817
N13745 G3 X81.28 Y55.752 I0.091 J-1.597
N13750 G1 X81.146 Y55.712
N13755 G3 X80.995 Y55.249 I0.085 J-0.284
N13760 G1 X81.195 Y54.985
N13765 G3 X81.507 Y54.661 I1.548 J1.175
N13770 G1 X81.627 Y54.562
N13775 G3 X81.811 Y54.435 I0.828 J1.004
N13780 G2 X82.295 Y53.603 I-0.474 J-0.833
N13785 G3 X82.317 Y50.898 I102.718 J-0.523
N13790 G1 X82.143 Y13.532
N13795 G3 X82.164 Y12.664 I14.665 J-0.068
N13800 G1 X82.178 Y12.408
N13805 X82.181 Y12.379
N13810 X82.213 Y12.028
N13815 G3 X82.547 Y11.789 I0.271 J0.025
N13820 G2 X82.661 Y11.798 I0.085 J-0.353
N13825 G1 X83.255 Y11.753
N13830 G3 X83.791 Y12.219 I0.037 J0.499
N13835 G2 X83.798 Y12.277 I0.637 J-0.042
N13840 G1 X83.823 Y12.44
N13845 G3 X83.875 Y13.084 I-4.214 J0.664
N13850 G1 X84.051 Y50.894
N13855 G2 X84.096 Y52.27 I30.472 J-0.31
N13860 G1 X84.114 Y52.532
N13865 X84.119 Y52.794
N13870 X84.117 Y53.282
N13875 Y53.393
N13880 X84.119 Y53.481
N13885 G2 X84.42 Y54.104 I0.817 J-0.012
N13890 G1 X84.475 Y54.149
N13895 G3 X85.321 Y54.985 I-3.83 J4.715
N13900 G1 X85.498 Y55.199
N13905 G3 X85.611 Y55.398 I-0.509 J0.422
N13910 G1 X85.703 Y55.653
N13915 G3 X85.488 Y56.002 I-0.247 J0.089
N13920 G2 X85.426 Y56.015 I0.045 J0.363
N13925 G1 X85.04 Y56.134
N13930 G3 X84.497 Y56.252 I-0.986 J-3.212
N13935 G1 X84.378 Y56.268
N13940 G3 X83.431 Y56.087 I-0.201 J-1.513
N13945 G2 X82.578 Y56.09 I-0.424 J0.756
N13950 G3 X81.609 Y56.278 I-0.762 J-1.339
N13955 G1 X81.454 Y56.257
N13960 G3 X80.897 Y56.136 I0.491 J-3.619
N13965 G1 X80.497 Y56.016
N13970 G3 X80.288 Y55.621 I0.09 J-0.3
N13975 G1 X80.358 Y55.4
N13980 G3 X80.463 Y55.199 I0.636 J0.203
N13985 G1 X80.722 Y54.859
N13990 G3 X81.256 Y54.308 I2.524 J1.917
N13995 G1 X81.616 Y54.018
N14000 G2 X81.832 Y53.57 I-0.363 J-0.45
N14005 G1 Y53.383
N14010 Y53.292
N14015 X81.824 Y52.795
N14020 G3 X81.842 Y52.269 I5.355 J-0.078
N14025 G1 X81.85 Y52.14
N14030 G2 X81.878 Y50.897 I-30.492 J-1.309
N14035 G1 X81.711 Y13.761
N14040 G3 X81.752 Y12.437 I18.868 J-0.084
N14045 G1 X81.766 Y12.223
N14050 X81.768 Y12.195
N14055 X81.827 Y11.542
N14060 G3 X82.204 Y11.272 I0.305 J0.027
N14065 G1 X82.319 Y11.3
N14070 G2 X82.491 Y11.314 I0.129 J-0.53
N14075 G1 X82.833 Y11.287
N14080 G3 X83.168 Y11.282 I0.211 J2.705
N14085 G1 X83.596 Y11.302
N14090 G2 X83.732 Y11.288 I0.022 J-0.478
N14095 G3 X84.168 Y11.608 I0.085 J0.342
N14100 G2 X84.239 Y12.284 I3.856 J-0.059
N14105 G3 X84.316 Y13.242 I-6.248 J0.986
N14110 G1 X84.484 Y50.895
N14115 G2 X84.545 Y52.273 I21.522 J-0.262
N14120 G1 X84.57 Y52.532
N14125 X84.579 Y52.792
N14130 X84.577 Y53.161
N14135 G2 X84.885 Y53.878 I0.97 J0.007
N14140 G1 X85.184 Y54.156
N14145 G3 X85.62 Y54.652 I-2.275 J2.439
N14150 G2 X85.987 Y55.087 I2.654 J-1.865
N14155 G3 X86.197 Y55.437 I-0.744 J0.685
N14160 G1 X86.328 Y55.811
N14165 G3 X85.986 Y56.364 I-0.394 J0.139
N14170 G2 X85.897 Y56.382 I0.073 J0.575
N14175 G1 X85.379 Y56.533
N14180 G3 X84.652 Y56.685 I-1.347 J-4.631
N14185 G1 X84.294 Y56.731
N14190 G3 X83.909 Y56.737 I-0.216 J-1.667
N14195 G1 X83.823 Y56.728
N14200 G3 X83.428 Y56.617 I0.118 J-1.173
N14205 G1 X83.25 Y56.531
N14210 G2 X82.686 Y56.547 I-0.266 J0.55
N14215 G3 X81.688 Y56.741 I-0.792 J-1.415
N14220 G1 X81.278 Y56.688
N14225 G3 X80.568 Y56.547 I0.677 J-5.272
N14230 G1 X79.968 Y56.385
N14235 X79.938 Y56.378
N14240 X79.908 Y56.372
N14245 G3 X79.616 Y55.908 I0.049 J-0.355
N14250 G1 X79.78 Y55.402
N14255 G3 X79.968 Y55.055 I1.033 J0.334
N14260 G1 X80.372 Y54.554
N14265 G3 X80.82 Y54.073 I3.584 J2.891
N14270 G1 X81.131 Y53.784
N14275 G2 X81.361 Y53.245 I-0.492 J-0.529
N14280 G1 X81.356 Y52.79
N14285 G3 X81.386 Y52.275 I4.269 J-0.009
N14290 G1 X81.398 Y52.133
N14295 G2 X81.439 Y50.896 I-21.764 J-1.343
N14300 G1 X81.278 Y13.568
N14305 G3 X81.306 Y12.629 I13.984 J-0.06
N14310 G1 X81.323 Y12.35
N14315 G2 X81.336 Y11.846 I-6.633 J-0.418
N14320 G3 X81.337 Y11.048 I2.676 J-0.395
N14325 X81.753 Y10.756 I0.365 J0.078
N14330 G1 X82.166 Y10.813
N14335 G2 X82.374 Y10.82 I0.139 J-1.008
N14340 G1 X82.764 Y10.794
N14345 G3 X83.236 Y10.785 I0.328 J4.814
N14350 G2 X84.17 Y10.756 I0.362 J-3.396
N14355 G1 X84.242 Y10.753
N14360 X84.313 Y10.765
N14365 X84.381 Y10.789
N14370 X84.443 Y10.825
N14375 X84.498 Y10.872
N14380 X84.543 Y10.928
N14385 X84.577 Y10.992
N14390 X84.598 Y11.06
N14395 X84.607 Y11.132
N14400 G2 X84.683 Y12.267 I5.472 J0.201
N14405 G1 X84.722 Y12.596
N14410 X84.746 Y12.927
N14415 X84.755 Y13.259
N14420 X84.917 Y50.913
N14425 G2 X85.074 Y53.09 I29.967 J-1.063
N14430 G1 X85.083 Y53.196
N14435 X85.108 Y53.3
N14440 X85.147 Y53.4
N14445 X85.201 Y53.493
N14450 X85.267 Y53.578
N14455 G3 X86.006 Y54.409 I-4.293 J4.559
N14460 G2 X86.255 Y54.694 I2.335 J-1.797
N14465 G1 X86.271 Y54.71
N14470 G3 X86.629 Y55.152 I-1.931 J1.929
N14475 G1 X86.925 Y55.608
N14480 G3 X87.075 Y56.15 I-0.783 J0.508
N14485 X86.354 Y56.907 I-0.788 J-0.029
N14490 G2 X85.357 Y57.056 I0.274 J5.239
N14495 G3 X84.682 Y57.153 I-1.308 J-6.702
N14500 G1 X84.292 Y57.19
N14505 G3 X83.912 Y57.192 I-0.207 J-2.221
N14510 G1 X83.692 Y57.175
N14515 G2 X82.328 Y57.181 I-0.649 J8.345
N14520 G1 X82.118 Y57.199
N14525 G3 X81.679 Y57.198 I-0.216 J-2.522
N14530 G1 X81.243 Y57.16
N14535 G3 X80.597 Y57.075 I0.666 J-7.541
N14540 G2 X79.514 Y56.923 I-1.424 J6.235
N14545 G3 X78.909 Y56.283 I0.055 J-0.658
N14550 G1 X78.905 Y56.132
N14555 G3 X79.057 Y55.579 I0.986 J-0.026
N14560 G1 X79.383 Y55.064
N14565 G3 X79.634 Y54.721 I2.602 J1.644
N14570 X80.723 Y53.49 I14.334 J11.58
N14575 G2 X80.867 Y53.146 I-0.395 J-0.367
N14580 X81.001 Y50.925 I-65.207 J-5.057
N14585 G1 X80.847 Y13.56
N14590 G3 X80.866 Y12.637 I18.928 J-0.078
N14595 G1 X80.873 Y12.48
N14600 G2 X80.885 Y11.716 I-13.41 J-0.599
N14605 G3 X80.915 Y10.629 I6.355 J-0.369
N14610 X81.331 Y10.266 I0.395 J0.032
N14615 G2 X84.691 Y10.251 I1.478 J-46.817
N14620 G3 X85.073 Y10.609 I0.018 J0.364
N14625 G2 X85.14 Y12.264 I11.304 J0.375
N14630 G1 X85.168 Y12.595
N14635 X85.186 Y12.927
N14640 X85.193 Y13.259
N14645 X85.349 Y50.941
N14650 G2 X85.384 Y51.625 I8.571 J-0.103
N14655 G1 X85.411 Y51.886
N14660 X85.452 Y52.145
N14665 X85.508 Y52.401
N14670 X85.578 Y52.654
N14675 X85.663 Y52.902
N14680 X85.761 Y53.146
N14685 X85.874 Y53.383
N14690 X85.999 Y53.613
N14695 X86.138 Y53.836
N14700 X86.289 Y54.051
N14705 X86.451 Y54.256
N14710 X86.626 Y54.453
N14715 G3 X86.922 Y54.8 I-3.487 J3.28
N14720 G1 X87.297 Y55.283
N14725 G3 X87.631 Y56.309 I-1.26 J0.977
N14730 G1 X87.612 Y56.925
N14735 G3 X87.126 Y57.419 I-0.51 J-0.016
N14740 G2 X85.362 Y57.552 I-0.054 J10.993
N14745 G3 X84.678 Y57.62 I-1.327 J-9.925
N14750 G1 X84.288 Y57.645
N14755 G3 X83.915 Y57.647 I-0.208 J-3.227
N14760 G1 X83.897 Y57.646
N14765 G2 X82.115 Y57.654 I-0.825 J16.12
N14770 G3 X81.681 I-0.219 J-3.693
N14775 G1 X81.243 Y57.629
N14780 G3 X80.594 Y57.572 I0.649 J-11.138
N14785 G2 X78.846 Y57.451 I-1.698 J11.889
N14790 G3 X78.352 Y56.953 I0.021 J-0.514
N14795 G1 X78.317 Y55.83
N14800 G3 X78.514 Y55.428 I0.479 J-0.015
N14805 G2 X78.621 Y55.322 I-0.305 J-0.418
N14810 X80.005 Y53.549 I-30.202 J-24.994
N14815 X80.438 Y52.466 I-1.974 J-1.418
N14820 X80.562 Y50.61 I-12.988 J-1.804
N14825 G1 X80.415 Y13.559
N14830 X80.469 Y10.101
N14835 G3 X80.802 Y9.785 I0.328 J0.013
N14840 G2 X85.216 Y9.768 I1.574 J-167.061
N14845 G3 X85.541 Y10.083 I0.006 J0.32
N14850 G2 X85.596 Y12.248 I25.381 J0.441
N14855 G1 X85.621 Y12.761
N14860 X85.631 Y13.274
N14865 X85.781 Y50.936
N14870 G2 X85.803 Y51.379 I4.933 J-0.027
N14875 G1 X85.832 Y51.641
N14880 X85.875 Y51.902
N14885 X85.932 Y52.159
N14890 X86.002 Y52.413
N14895 X86.085 Y52.664
N14900 X86.182 Y52.909
N14905 X86.291 Y53.149
N14910 X86.413 Y53.383
N14915 X86.548 Y53.61
N14920 X86.694 Y53.829
N14925 X86.851 Y54.041
N14930 X87.02 Y54.244
N14935 X87.05 Y54.278
N14940 X87.134 Y54.372
N14945 X87.609 Y54.893
N14950 G3 X88.166 Y56.356 I-1.573 J1.436
N14955 G1 X88.15 Y57.561
N14960 G3 X87.762 Y57.955 I-0.399 J-0.005
N14965 G1 X86.481 Y58.016
N14970 X85.199 Y58.063
N14975 X83.917 Y58.096
N14980 X83.311 Y58.089
N14985 X82.705 Y58.093
N14990 X82.099 Y58.109
N14995 G3 X78.198 Y57.998 I1.767 J-129.898
N15000 X77.803 Y57.601 I0.008 J-0.403
N15005 G1 X77.776 Y55.732
N15010 G3 X78.161 Y55.014 I0.839 J-0.012
N15015 G2 X78.345 Y54.857 I-0.495 J-0.769
N15020 X79.082 Y54.011 I-9.585 J-9.093
N15025 G1 X79.237 Y53.808
N15030 X79.38 Y53.596
N15035 X79.511 Y53.378
N15040 X79.63 Y53.152
N15045 X79.737 Y52.921
N15050 X79.831 Y52.684
N15055 X79.912 Y52.442
N15060 X79.98 Y52.196
N15065 X80.034 Y51.946
N15070 X80.075 Y51.695
N15075 X80.101 Y51.441
N15080 G2 X80.126 Y50.908 I-5.75 J-0.531
N15085 G1 X79.981 Y13.102
N15090 G3 X80.011 Y9.512 I148.083 J-0.568
N15095 G1 X80.018 Y9.46
N15100 X80.039 Y9.412
N15105 X80.072 Y9.371
N15110 X80.113 Y9.34
N15115 X80.161 Y9.32
N15120 X80.213 Y9.313
N15125 X83. Y9.291
N15130 X85.025 Y9.292
N15135 X85.825 F#106
N15140 G3 X86.009 Y9.473 I0. J0.184
N15145 X86.069 Y13.384 I-481.662 J9.387 F#100
N15150 G1 X86.213 Y50.933
N15155 G2 X86.248 Y51.452 I4.629 J-0.053
N15160 X87.678 Y54.279 I4.34 J-0.419
N15165 G1 X87.909 Y54.487
N15170 G2 X88.115 Y54.639 I0.886 J-0.988
N15175 G1 X88.565 Y54.907
N15180 G3 X88.707 Y55.156 I-0.149 J0.25
N15185 G1 X88.702 Y57.545
N15190 X88.701 Y58.345 F#106
N15195 G3 X88.547 Y58.501 I-0.156 J0.
N15200 X78.214 Y58.575 I-10.958 J-817.08 F#100
N15205 X77.414 I-0.625 J-817.153 F#106
N15210 G1 X77.365 Y58.568
N15215 X77.319 Y58.549
N15220 X77.281 Y58.518
N15225 X77.251 Y58.479
N15230 X77.233 Y58.434
N15235 X77.227 Y58.385
N15240 X77.217 Y55.158 F#100
N15245 G3 X77.396 Y54.842 I0.366 J-0.001
N15250 G1 X77.785 Y54.611
N15255 G2 X78.097 Y54.383 I-1.024 J-1.726
N15260 G1 X78.546 Y53.982
N15265 G2 X79.7 Y51.091 I-3.046 J-2.891
N15270 G1 Y9.899
N15275 Y9.099 F#106
N15280 G3 X79.8 Y8.999 I0.1 J0.
N15285 G1 X85.4 F#100
N15290 X86.2 F#106
N15295 G3 X86.3 Y9.099 I0. J0.1
N15300 G1 Y51.091 F#100
N15305 G2 X88.052 Y54.503 I4.2 J0.
N15310 X88.742 Y54.905 I2.449 J-3.412 F#106
N15315 G3 X88.8 Y54.996 I-0.042 J0.091
N15320 G1 Y57.699 F#100
N15325 Y58.499 F#106
N15330 G3 X88.7 Y58.599 I-0.1 J0.
N15335 G1 X78.1 F#100
N15340 X77.3 F#106
N15345 G3 X77.2 Y58.499 I0. J-0.1
N15350 G1 Y55.796 F#100
N15355 Y54.996 F#106
N15360 G3 X77.258 Y54.905 I0.1 J0.
N15365 G2 X78.546 Y53.982 I-1.758 J-3.814 F#100
N15370 G3 X78.647 Y53.901 Z-3.358 I0.363 J0.344 F#104
N15375 X78.756 Y53.85 Z-3.308 I0.263 J0.426
N15380 X78.857 Y53.829 Z-3.229 I0.153 J0.476
N15385 X78.936 Y53.827 Z-3.125 I0.052 J0.497
N15390 X78.986 Y53.832 Z-3.004 I-0.027 J0.499
N15395 G1 X79.003 Y53.835 Z-2.875
N15400 Z-1.876
N15405 X81.363 Y55.589
N15410 S2600
N15415 X81.374 Y55.578 Z-2.001 F#107
N15420 X81.406 Y55.544 Z-2.118
N15425 X81.46 Y55.492 Z-2.22
N15430 X81.533 Y55.428 Z-2.3
N15435 X81.623 Y55.357 Z-2.353
N15440 X81.726 Y55.286 Z-2.375
N15445 X81.84 Y55.218 Z-2.382
N15450 G3 X83.66 Y58.542 Z-2.694 I0.91 J1.662
N15455 X81.84 Y55.218 Z-3.006 I-0.91 J-1.662
N15460 X83.66 Y58.542 Z-3.318 I0.91 J1.662
N15465 X81.84 Y55.218 Z-3.63 I-0.91 J-1.662
N15470 X83.66 Y58.542 Z-3.942 I0.91 J1.662
N15475 X81.84 Y55.218 Z-4.254 I-0.91 J-1.662
N15480 X83.66 Y58.542 Z-4.566 I0.91 J1.662
N15485 X81.84 Y55.218 Z-4.878 I-0.91 J-1.662
N15490 X83.66 Y58.542 Z-5.19 I0.91 J1.662
N15495 X81.84 Y55.218 Z-5.502 I-0.91 J-1.662
N15500 X83.66 Y58.542 Z-5.814 I0.91 J1.662
N15505 X81.84 Y55.218 Z-6.126 I-0.91 J-1.662
N15510 X83.66 Y58.542 Z-6.438 I0.91 J1.662
N15515 X81.84 Y55.218 Z-6.75 I-0.91 J-1.662
N15520 S3000
N15525 G2 X82.231 Y54.999 I-8.51 J-15.672 F#100
N15530 X82.915 Y54.585 I-8.901 J-15.454 F#106
N15535 G1 X82.949 Y54.558
N15540 X82.975 Y54.523
N15545 X82.992 Y54.482
N15550 X82.997 Y54.439
N15555 X82.991 Y52.551 F#100
N15560 X82.895 Y13.503
N15565 X82.893 Y12.791 F#106
N15570 X82.895 Y12.755
N15575 X82.899 Y12.718
N15580 X82.901 Y12.703
N15585 G3 X82.992 Y12.632 I0.083 J0.013
N15590 G2 X83.008 I0.009 J-0.106
N15595 G3 X83.099 Y12.705 I0.006 J0.085
N15600 G1 X83.101 Y12.716
N15605 X83.105 Y12.755 F#100
N15610 X83.107 Y12.793
N15615 X83.204 Y51.409
N15620 G3 X83.222 Y54.207 I-226.173 J2.842
N15625 G2 X83.398 Y54.515 I0.369 J-0.007
N15630 X83.667 Y54.687 I4.371 J-6.561
N15635 X83.972 Y54.863 I4.101 J-6.733 F#106
N15640 G3 X84.164 Y54.988 I-0.643 J1.192
N15645 G1 X84.336 Y55.123
N15650 G3 X84.241 Y55.421 I-0.103 J0.131
N15655 X83.956 Y55.356 I-0.027 J-0.538 F#100
N15660 G1 X83.74 Y55.24
N15665 X83.676 Y55.204
N15670 X83.165 Y54.9
N15675 G2 X82.835 Y54.901 I-0.164 J0.276
N15680 G3 X81.906 Y55.414 I-2.921 J-4.192
N15685 X81.706 Y55.055 I-0.084 J-0.189
N15690 X82.576 Y54.512 I7.412 J10.901
N15695 G2 X82.76 Y54.186 I-0.204 J-0.331
N15700 G3 X82.752 Y50.112 I446.458 J-2.931
N15705 G1 X82.572 Y12.902
N15710 G3 X82.573 Y12.82 I1.861 J-0.009
N15715 X82.594 Y12.608 I1.86 J0.074 F#106
N15720 G1 X82.61 Y12.506
N15725 G3 X82.925 Y12.257 I0.291 J0.045
N15730 G1 X82.967 Y12.261
N15735 X83. Y12.262 F#100
N15740 X83.033 Y12.261
N15745 X83.065 Y12.259
N15750 G3 X83.396 Y12.521 I0.022 J0.311
N15755 G1 X83.408 Y12.599
N15760 G3 X83.434 Y12.912 I-2.013 J0.323
N15765 G1 X83.618 Y50.892
N15770 G3 X83.664 Y53.715 I-66.621 J2.506
N15775 G2 X84.041 Y54.381 I0.813 J-0.02
N15780 G3 X84.391 Y54.63 I-1.663 J2.703
N15785 X84.881 Y55.095 I-1.732 J2.316
N15790 G1 X85.037 Y55.283
N15795 G3 X84.885 Y55.745 I-0.221 J0.184
N15800 X84.408 Y55.832 I-0.503 J-1.398
N15805 X83.582 Y55.658 I-0.086 J-1.637
N15810 G1 X83.506 Y55.62
N15815 X83.465 Y55.598
N15820 X83.351 Y55.534
N15825 G2 X82.651 Y55.537 I-0.347 J0.617
N15830 G1 X82.531 Y55.606
N15835 X82.503 Y55.622
N15840 X82.418 Y55.667
N15845 G3 X81.62 Y55.844 I-0.712 J-1.33
N15850 G1 X81.597 Y55.842
N15855 G3 X81.221 Y55.776 I0.091 J-1.611
N15860 G1 X81.084 Y55.735
N15865 G3 X80.939 Y55.284 I0.083 J-0.275
N15870 G1 X81.142 Y55.019
N15875 G3 X81.463 Y54.69 I1.541 J1.182
N15880 X81.913 Y54.371 I2.181 J2.602
N15885 G1 X81.996 Y54.309
N15890 X82.071 Y54.237
N15895 X82.137 Y54.157
N15900 X82.192 Y54.069
N15905 X82.237 Y53.975
N15910 X82.269 Y53.876
N15915 X82.289 Y53.774
N15920 X82.297 Y53.67
N15925 G2 X82.289 Y52.825 I-19.794 J-0.236
N15930 G1 Y52.551
N15935 X82.297 Y52.278
N15940 X82.301 Y52.16
N15945 X82.313 Y51.486
N15950 X82.316 Y51.19
N15955 X82.317 Y50.895
N15960 X82.141 Y13.051
N15965 G3 X82.184 Y12.462 I3.754 J-0.017
N15970 G2 X82.226 Y12.027 I-1.903 J-0.4
N15975 G3 X82.549 Y11.78 I0.262 J0.008
N15980 G2 X82.656 Y11.789 I0.084 J-0.351
N15985 G3 X83.5 Y11.788 I0.433 J5.389
N15990 G1 X83.553 Y11.779
N15995 X83.607 Y11.784
N16000 X83.658 Y11.802
N16005 X83.703 Y11.833
N16010 X83.739 Y11.875
N16015 X83.763 Y11.924
N16020 X83.775 Y11.979
N16025 G2 X83.823 Y12.44 I2.379 J-0.015
N16030 G3 X83.875 Y13.073 I-4.035 J0.652
N16035 G1 X84.051 Y50.893
N16040 G2 X84.096 Y52.279 I30.856 J-0.321
N16045 G1 X84.114 Y52.552
N16050 X84.117 Y52.825
N16055 X84.107 Y53.308
N16060 G2 X84.499 Y54.158 I1.069 J0.023
N16065 G1 X84.525 Y54.18
N16070 G3 X85.364 Y55.011 I-3.956 J4.832
N16075 G1 X85.549 Y55.233
N16080 G3 X85.668 Y55.44 I-0.521 J0.435
N16085 G1 X85.719 Y55.585
N16090 G3 X85.453 Y56.081 I-0.358 J0.127
N16095 X84.625 Y56.262 I-1.343 J-4.144
N16100 X83.394 Y56.065 I-0.29 J-2.13
N16105 G1 X83.268 Y56.003
N16110 G2 X82.731 Y56.008 I-0.264 J0.542
N16115 G1 X82.714 Y56.017
N16120 G3 X80.913 Y56.178 I-1.101 J-2.163
N16125 G1 X80.419 Y56.029
N16130 G3 X80.229 Y55.667 I0.083 J-0.274
N16135 G1 X80.303 Y55.436
N16140 G3 X80.406 Y55.239 I0.618 J0.198
N16145 G1 X80.679 Y54.883
N16150 G3 X81.207 Y54.34 I2.58 J1.979
N16155 G1 X81.483 Y54.115
N16160 G2 X81.842 Y53.329 I-0.614 J-0.754
N16165 G1 X81.826 Y52.825
N16170 G3 X81.841 Y52.278 I4.89 J-0.132
N16175 G1 X81.848 Y52.16
N16180 G2 X81.877 Y50.894 I-30.64 J-1.337
N16185 G1 X81.709 Y13.195
N16190 G3 X81.774 Y12.318 I5.606 J-0.025
N16195 G2 X81.836 Y11.757 I-2.987 J-0.614
N16200 Y11.653 I-3.049 J-0.053 F#106
N16205 G3 X82.314 Y11.288 I0.387 J0.011
N16210 G1 X82.321 Y11.29
N16215 G2 X82.483 Y11.304 I0.127 J-0.526 F#100
N16220 G1 X82.835 Y11.281
N16225 G3 X83.165 Y11.279 I0.184 J2.873
N16230 G1 X83.615 Y11.302
N16235 G2 X83.754 Y11.287 I0.023 J-0.451
N16240 G3 X84.166 Y11.587 I0.085 J0.317
