%
(POCKET-ADAPTIVE-0.8STEPOVER)
(T2  D=4. CR=0. - ZMIN=-6.75 - FLAT END MILL)
N10 G90 G94 G17 G91.1
N15 G21
N20 G53 G0 Z0.
(2D ADAPTIVE1)
N25 M9
N30 T2 M6
N35 S3000 M3
N40 G54
N45 M9
N55 G0 X13.16 Y54.691
N60 G43 Z4. H2
N65 #100=240. (CUTTING)
N70 #103=210. (ENTRY)
N75 #104=210. (EXIT)
N80 #105=2500. (DIRECT)
N85 #106=100. (REDUCED)
N90 #107=200. (RAMPING)
N95 G0 Z1.5
N100 G1 Z1. F#103
N105 S2600
N110 G3 X10.097 Y56.464 Z0.783 I-2.16 J-0.199 F#107
N115 X9.443 Y53.017 Z0.566 I0.895 J-1.955
N120 X12.882 Y53.537 Z0.349 I1.535 J1.479
N125 X11.267 Y56.583 Z0.132 I-1.887 J0.95
N130 X8.949 Y54.073 Z-0.085 I-0.27 J-2.076
N135 X12.057 Y52.729 Z-0.302 I2.03 J0.429
N140 X12.294 Y56.075 Z-0.519 I-1.067 J1.757
N145 X9.087 Y55.199 Z-0.736 I-1.293 J-1.574
N150 X10.958 Y52.489 Z-0.953 I1.896 J-0.692
N155 X12.878 Y55.127 Z-1.17 I0.025 J1.999
N160 X9.783 Y56.056 Z-1.387 I-1.877 J-0.632
N165 X9.93 Y52.859 Z-1.603 I1.207 J-1.547
N170 X12.869 Y54.044 Z-1.82 I1.05 J1.635
N175 X10.798 Y56.402 Z-2.037 I-1.872 J0.445
N180 X9.273 Y53.693 Z-2.254 I0.198 J-1.895
N185 X12.304 Y53.158 Z-2.471 I1.705 J0.806
N190 X11.811 Y56.164 Z-2.688 I-1.312 J1.329
N195 X9.164 Y54.718 Z-2.905 I-0.811 J-1.661
N200 X11.382 Y52.72 Z-3.122 I1.817 J-0.213
N205 X12.521 Y55.446 Z-3.339 I-0.397 J1.767
N210 X9.603 Y55.617 Z-3.556 I-1.52 J-0.949
N215 X10.4 Y52.836 Z-3.773 I1.384 J-1.108
N220 X12.734 Y54.491 Z-3.99 I0.581 J1.655
N225 X9.227 I-1.754 J0.
N230 X12.734 I1.754 J0.
N235 S3000
N240 X10.493 Y56.609 I-1.651 J0.498 F#100
N245 G1 X10.312 Y56.562
N250 X10.135 Y56.499
N255 X9.965 Y56.422
N260 X9.801 Y56.33
N265 X9.646 Y56.225
N270 X9.501 Y56.107
N275 X9.366 Y55.977
N280 X9.242 Y55.836
N285 X9.131 Y55.685
N290 X9.034 Y55.525
N295 X8.95 Y55.357
N300 X8.88 Y55.183
N305 X8.826 Y55.004
N310 X8.787 Y54.821
N315 X8.764 Y54.635
N320 X8.756 Y54.448
N325 X8.765 Y54.261
N330 X8.789 Y54.075
N335 X8.829 Y53.892
N340 X8.885 Y53.713
N345 X8.955 Y53.539
N350 X9.04 Y53.372
N355 X9.139 Y53.213
N360 X9.251 Y53.063
N365 X9.375 Y52.923
N370 X9.511 Y52.793
N375 X9.657 Y52.676
N380 X9.813 Y52.572
N385 X9.977 Y52.481
N390 X10.148 Y52.405
N395 X10.324 Y52.343
N400 X10.506 Y52.297
N405 X10.691 Y52.266
N410 X10.878 Y52.251
N415 X11.065
N420 X11.251 Y52.268
N425 X11.436 Y52.301
N430 X11.617 Y52.349
N435 X11.793 Y52.412
N440 X11.964 Y52.49
N445 X12.127 Y52.582
N450 X12.282 Y52.688
N455 X12.427 Y52.806
N460 X12.561 Y52.936
N465 X12.685 Y53.078
N470 X12.795 Y53.229
N475 X12.893 Y53.389
N480 X12.976 Y53.557
N485 X13.045 Y53.731
N490 G3 X9.71 Y56.858 I-2.067 J1.138
N495 G1 X9.532 Y56.757
N500 X9.362 Y56.643
N505 X9.202 Y56.516
N510 X9.051 Y56.377
N515 X8.911 Y56.228
N520 X8.783 Y56.068
N525 X8.667 Y55.899
N530 X8.564 Y55.722
N535 X8.475 Y55.538
N540 X8.4 Y55.347
N545 X8.34 Y55.152
N550 X8.294 Y54.952
N555 X8.264 Y54.75
N560 X8.249 Y54.546
N565 Y54.341
N570 X8.265 Y54.137
N575 X8.296 Y53.934
N580 X8.342 Y53.735
N585 X8.404 Y53.54
N590 X8.479 Y53.349
N595 X8.569 Y53.165
N600 X8.673 Y52.989
N605 X8.789 Y52.82
N610 X8.918 Y52.661
N615 X9.058 Y52.512
N620 X9.21 Y52.374
N625 X9.371 Y52.248
N630 X9.541 Y52.134
N635 X9.719 Y52.034
N640 X9.905 Y51.947
N645 X10.096 Y51.874
N650 X10.292 Y51.816
N655 X10.493 Y51.773
N660 X10.695 Y51.745
N665 X10.9 Y51.733
N670 X11.105 Y51.736
N675 X11.308 Y51.754
N680 X11.51 Y51.787
N685 X11.709 Y51.836
N690 X11.904 Y51.9
N695 X12.093 Y51.978
N700 X12.276 Y52.07
N705 X12.451 Y52.176
N710 X12.618 Y52.294
N715 X12.776 Y52.425
N720 X12.923 Y52.567
N725 X13.059 Y52.72
N730 X13.183 Y52.883
N735 X13.295 Y53.054
N740 X13.393 Y53.234
N745 G3 X9.411 Y57.317 I-2.434 J1.61
N750 X12.503 Y51.573 I1.546 J-2.872
N755 X13.532 Y52.443 I-1.546 J2.872
N760 X8.827 Y57.634 I-2.6 J2.371
N765 X8.074 Y51.906 I2.131 J-3.194
N770 X13.851 Y51.915 I2.885 J2.535
N775 X11.691 Y58.819 I-2.852 J2.897
N780 X9.407 Y58.621 I-0.556 J-6.857
N785 X6.621 Y53.519 I1.437 J-4.097
N790 G2 X7.638 Y51.596 I-7.533 J-5.214
N795 G3 X14.232 Y51.381 I3.393 J2.828
N800 X14.615 Y51.842 I-3.202 J3.043 F#106
N805 G2 X15.438 Y53.693 I4.053 J-0.695 F#100
N810 G3 X13.502 Y58.74 I-4.252 J1.264
N815 G1 X13.241 Y58.777
N820 X12.99 Y58.799
N825 X11.687
N830 X10.509 F#103
N835 G3 X8.755 Y58.744 I-0.692 J-6.003 F#100
N840 X5.941 Y55.052 I1.297 J-3.907
N845 X5.953 Y54.453 I4.111 J-0.215 F#106
N850 G1 X6.766 Y53.332 F#100
N855 G3 X7.464 Y53.221 Z-3.89 I0.405 J0.294 F#104
N860 X7.63 Y53.428 I-0.294 J0.405
N865 G1 X7.832 Y53.898
N870 X9.408 Y57.557 F#105
N875 X9.642 Y58.101 F#103
N880 G3 X9.683 Y58.282 I-0.459 J0.198
N885 X9.201 Y58.799 Z-3.99 I-0.5 J0.017
N890 X7.566 Y58.636 I-0.536 J-2.893 F#100
N895 X5.359 Y55.262 I1.87 J-3.632
N900 X6.023 Y54.168 I1.557 J0.195
N905 G1 X6.101 Y54.129 Z-3.979 F#104
N910 X6.185 Y54.104 Z-3.968
N915 X6.271 Y54.094 Z-3.957
N920 X6.358 Y54.099 Z-3.946
N925 X6.443 Y54.12 Z-3.934
N930 X6.523 Y54.154 Z-3.923
N935 X6.596 Y54.203 Z-3.912
N940 X6.659 Y54.263 Z-3.901
N945 X6.711 Y54.333 Z-3.89
N950 X7.1 Y54.535
N955 X7.401 Y54.416
N960 X7.408 Y54.4
N965 X7.541 Y54.093 F#105
N970 X7.52 Y53.965
N975 X7.391 Y53.196 F#103
N980 X7.261 Y52.422 Z-3.99
N985 G3 X10.18 Y49.52 I3.125 J0.224 F#100
N990 X13.891 Y50.292 I1.026 J4.374
N995 X14.347 Y50.682 I-2.685 J3.602 F#106
N1000 X14.673 Y52.134 I-13.737 J3.848 F#100
N1005 G2 X15.135 Y53.178 I2.264 J-0.377 F#103
N1010 G3 X16.118 Y54.936 I-3.396 J3.053 F#100
N1015 X14.771 Y58.517 I-4.585 J0.318
N1020 G1 X14.49 Y58.666
N1025 X14.193 Y58.765
N1030 X13.881 Y58.799
N1035 X12.99
N1040 G3 X12.508 Y58.282 Z-3.89 I0.017 J-0.5 F#104
N1045 X12.571 Y58.055 I0.5 J0.017
N1050 G1 X12.835 Y57.582
N1055 X14.525 Y54.558 F#105
N1060 G3 X14.917 Y53.885 I2.306 J0.894 F#103
N1065 X15.623 Y53.86 Z-3.99 I0.366 J0.341
N1070 X16.452 Y56.69 I-1.353 J1.933 F#100
N1075 X15.45 Y58.518 I-2.496 J-0.18
N1080 X14.93 Y58.815 I-1.494 J-2.008 F#106
N1085 G1 X14.644 Y58.799 F#100
N1090 X13.881
N1095 X13.168 Y58.471 Z-3.89 F#104
N1100 X12.46 Y58.145
N1105 X10.509 Y57.248 F#105
N1110 G2 X9.038 Y57.557 I-0.559 J0.994
N1115 X8.852 Y57.935 I0.912 J0.685 F#103
N1120 G1 X8.775 Y58.282
N1125 G3 X8.293 Y58.799 Z-3.99 I-0.5 J0.017
N1130 G1 X8.083 Y58.817 F#100
N1135 X7.872 Y58.82
N1140 X7.661 Y58.808
N1145 X7.452 Y58.781
N1150 X7.245 Y58.739
N1155 X7.042 Y58.682
N1160 X6.843 Y58.611
N1165 X6.65 Y58.526
N1170 X6.464 Y58.427
N1175 X6.285 Y58.315
N1180 X6.115 Y58.19
N1185 X5.954 Y58.054
N1190 X5.803 Y57.906
N1195 X5.663 Y57.748
N1200 X5.535 Y57.581
N1205 X5.419 Y57.404
N1210 X5.317 Y57.22
N1215 X5.227 Y57.029
N1220 X5.152 Y56.832
N1225 X5.091 Y56.63
N1230 X5.045 Y56.424
N1235 X5.013 Y56.215
N1240 X5.022 Y56.131 Z-3.979 F#104
N1245 X5.046 Y56.05 Z-3.968
N1250 X5.084 Y55.973 Z-3.957
N1255 X5.134 Y55.904 Z-3.946
N1260 X5.196 Y55.845 Z-3.934
N1265 X5.267 Y55.797 Z-3.923
N1270 X5.346 Y55.762 Z-3.912
N1275 X5.43 Y55.741 Z-3.901
N1280 X5.517 Y55.735 Z-3.89
N1285 G3 X5.859 Y55.887 I-0.017 J0.5
N1290 G1 X6.134 Y56.171
N1295 X7.571 Y57.655 F#105
N1300 X7.857 Y57.951 F#103
N1305 G3 X7.998 Y58.282 I-0.359 J0.348
N1310 X7.515 Y58.799 Z-3.99 I-0.5 J0.017
N1315 X5.117 Y57.749 I-0.453 J-2.229 F#100
N1320 G1 X5.033 Y57.442
N1325 X5. Y57.131
N1330 G3 X5.517 Y56.649 Z-3.89 I0.5 J0.017 F#104
N1335 X5.836 Y56.779 I-0.017 J0.5
N1340 G1 X6.152 Y57.066
N1345 X6.818 Y57.673 F#105
N1350 X7.099 Y57.93 F#103
N1355 G3 X7.262 Y58.282 I-0.337 J0.37
N1360 X6.78 Y58.799 Z-3.99 I-0.5 J0.017
N1365 X5.461 Y58.595 I-0.403 J-1.759 F#100
N1370 X5. Y57.694 I0.649 J-0.9
N1375 X5.303 Y56.989 Z-3.89 I1.057 J0.037 F#104
N1380 X5.997 Y56.675 I0.754 J0.742
N1385 X6.334 Y56.71 I0.06 J1.056 F#105
N1390 X7.116 Y57.805 I-0.278 J1.026
N1395 X6.798 Y58.497 I-1.061 J-0.068 F#103
N1400 X6.093 Y58.799 Z-3.99 I-0.743 J-0.761
N1405 G1 X5.602 F#100
N1410 G3 X5. Y58.184 I0.006 J-0.608
N1415 X5.473 Y57.632 Z-3.89 I0.583 J0.02 F#104
N1420 X5.742 Y57.643 I0.11 J0.573
N1425 X5.838 Y57.68 I-0.16 J0.567
N1430 X6.158 Y58.329 I-0.257 J0.53 F#103
N1435 X5.602 Y58.799 Z-3.99 I-0.577 J-0.119
N1440 X4.998 Y58.262 I-0.075 J-0.524 F#100
N1445 G1 X5. Y55.312
N1450 G3 X5.324 Y54.631 I0.754 J-0.059
N1455 G1 X5.402 Y54.592 Z-3.979 F#104
N1460 X5.486 Y54.568 Z-3.968
N1465 X5.572 Y54.558 Z-3.957
N1470 X5.66 Y54.564 Z-3.946
N1475 X5.744 Y54.585 Z-3.934
N1480 X5.824 Y54.62 Z-3.923
N1485 X5.897 Y54.668 Z-3.912
N1490 X5.96 Y54.728 Z-3.901
N1495 X6.011 Y54.798 Z-3.89
N1500 G3 X6.055 Y55.229 I-0.427 J0.261
N1505 G1 X6.033 Y55.29
N1510 X5.97 Y55.464 F#103
N1515 G3 X5.517 Y55.794 I-0.47 J-0.17
N1520 X5. Y55.312 Z-3.99 I-0.017 J-0.5
N1525 G1 X4.994 Y55.208 F#100
N1530 X5.002 Y55.104
N1535 X5.024 Y55.003
N1540 X5.06 Y54.905
N1545 X5.108 Y54.813
N1550 X5.169 Y54.728
N1555 X5.24 Y54.653
N1560 X5.321 Y54.587
N1565 X5.41 Y54.534
N1570 X5.505 Y54.492
N1575 X5.605 Y54.464
N1580 X6.024 Y54.169
N1585 X6.637 Y53.679 Z-3.89 F#104
N1590 X7.231 Y53.205
N1595 X7.238 Y53.2 F#103
N1600 X7.33 Y52.435
N1605 X7.425 Y51.655 Z-3.99
N1610 G3 X9.532 Y49.08 I2.582 J-0.037 F#100
N1615 G1 X9.781 Y48.994
N1620 X10.035 Y48.921
N1625 X10.292 Y48.862
N1630 X10.552 Y48.817
N1635 X10.814 Y48.786
N1640 X11.077 Y48.769
N1645 X11.341 Y48.767
N1650 X11.605 Y48.778
N1655 X11.867 Y48.805
N1660 X12.128 Y48.845
N1665 X12.386 Y48.899
N1670 X12.641 Y48.968
N1675 X12.892 Y49.049
N1680 X13.138 Y49.145
N1685 X13.378 Y49.254
N1690 X13.612 Y49.375
N1695 X13.84 Y49.509
N1700 X14.059 Y49.655
N1705 G3 X14.518 Y51.267 I-1.909 J1.414
N1710 X14.075 Y51.818 Z-3.89 I-0.497 J0.053 F#104
N1715 X13.997 Y51.82 I-0.054 J-0.497
N1720 G1 X13.296 Y51.787
N1725 X8.792 Y51.572 F#105
N1730 X8.013 Y51.535 F#103
N1735 X7.974 Y51.533 Z-3.895
N1740 G3 X7.498 Y51.049 Z-3.99 I0.024 J-0.499
N1745 X9.112 Y48.64 I2.217 J-0.26 F#100
N1750 G1 X9.36 Y48.526
N1755 X9.613 Y48.425
N1760 X9.872 Y48.339
N1765 X10.135 Y48.267
N1770 X10.401 Y48.209
N1775 X10.671 Y48.166
N1780 X10.942 Y48.137
N1785 X11.214 Y48.124
N1790 X11.487 Y48.125
N1795 X11.759 Y48.142
N1800 X12.03 Y48.173
N1805 X12.299 Y48.219
N1810 X12.565 Y48.279
N1815 X12.827 Y48.354
N1820 X13.085 Y48.443
N1825 X13.338 Y48.546
N1830 X13.584 Y48.663
N1835 X13.824 Y48.793
N1840 X14.056 Y48.936
N1845 G3 X14.494 Y50.719 I-1.641 J1.348
N1850 G1 X14.485 Y50.804 Z-3.979 F#104
N1855 X14.46 Y50.887 Z-3.968
N1860 X14.422 Y50.965 Z-3.957
N1865 X14.371 Y51.034 Z-3.946
N1870 X14.308 Y51.094 Z-3.934
N1875 X14.236 Y51.142 Z-3.923
N1880 X14.156 Y51.177 Z-3.912
N1885 X14.071 Y51.198 Z-3.901
N1890 X13.984 Y51.203 Z-3.89
N1895 X13.206 Y51.17
N1900 X8.795 Y50.984 F#105
N1905 X8.017 Y50.951 F#103
N1910 X7.979 Y50.949 Z-3.895
N1915 G3 X7.5 Y50.467 Z-3.99 I0.021 J-0.5
N1920 X9.134 Y48.017 I2.232 J-0.282 F#100
N1925 X14.063 Y48.241 I2.265 J4.498
N1930 X14.5 Y50.021 I-1.663 J1.351
N1935 X13.986 Y50.503 Z-3.89 I-0.5 J-0.017 F#104
N1940 G1 X13.983
N1945 X13.204 Y50.481
N1950 X8.796 Y50.357 F#105
N1955 X8.017 Y50.335 F#103
N1960 X7.986 Y50.334 Z-3.894
N1965 G3 X7.5 Y49.852 Z-3.99 I0.014 J-0.5
N1970 X9.093 Y47.415 I2.238 J-0.276 F#100
N1975 X14.052 Y47.546 I2.363 J4.49
N1980 X14.5 Y49.332 I-1.649 J1.363
N1985 X13.996 Y49.815 Z-3.892 I-0.5 J-0.017 F#104
N1990 G1 X13.983 Z-3.89
N1995 X13.204 Y49.808
N2000 X8.796 Y49.769 F#105
N2005 X8.017 Y49.762 F#103
N2010 X7.995 Z-3.893
N2015 G3 X7.5 Y49.279 Z-3.99 I0.004 J-0.5
N2020 X9.109 Y46.785 I2.271 J-0.301 F#100
N2025 X14.053 Y46.868 I2.397 J4.461
N2030 X14.5 Y48.653 I-1.664 J1.366
N2035 X14.001 Y49.136 Z-3.892 I-0.5 J-0.017 F#104
N2040 G1 X13.983 Z-3.89
N2045 X13.204 Y49.137
N2050 X8.796 Y49.145 F#105
N2055 X8.017 Y49.147 F#103
N2060 X8.001 Z-3.892
N2065 G3 X7.5 Y48.664 Z-3.99 I-0.001 J-0.5
N2070 X9.117 Y46.154 I2.293 J-0.298 F#100
N2075 X14.05 Y46.195 I2.429 J4.421
N2080 X14.5 Y47.981 I-1.662 J1.369
N2085 X14.006 Y48.463 Z-3.893 I-0.5 J-0.017 F#104
N2090 G1 X13.983 Z-3.89
N2095 X13.204 Y48.472
N2100 X8.796 Y48.522 F#105
N2105 X8.017 Y48.531 F#103
N2110 X8.005 Z-3.891
N2115 G3 X7.5 Y48.049 Z-3.99 I-0.006 J-0.5
N2120 X9.104 Y45.528 I2.313 J-0.299 F#100
N2125 X14.042 Y45.523 I2.472 J4.39
N2130 X14.5 Y47.313 I-1.646 J1.375
N2135 X14.011 Y47.796 Z-3.894 I-0.5 J-0.017 F#104
N2140 G1 X13.983 Z-3.89
N2145 X13.204 Y47.813
N2150 X8.796 Y47.908 F#105
N2155 X8.017 Y47.925 F#103
N2160 X8.01 Z-3.891
N2165 G3 X7.5 Y47.443 Z-3.99 I-0.011 J-0.5
N2170 X9.151 Y44.871 I2.346 J-0.31 F#100
N2175 X14.048 Y44.866 I2.453 J4.348
N2180 X14.5 Y46.65 I-1.663 J1.371
N2185 X14.012 Y47.132 Z-3.894 I-0.5 J-0.017 F#104
N2190 G1 X13.983 Y47.133 Z-3.89
N2195 X13.204 Y47.151
N2200 X8.796 Y47.251 F#105
N2205 X8.017 Y47.269 F#103
N2210 X8.011 Z-3.891
N2215 G3 X7.5 Y46.787 Z-3.99 I-0.011 J-0.5
N2220 X9.144 Y44.236 I2.354 J-0.288 F#100
N2225 X14.043 Y44.202 I2.479 J4.321
N2230 X14.5 Y45.989 I-1.65 J1.374
N2235 X14.015 Y46.471 Z-3.894 I-0.5 J-0.017 F#104
N2240 G1 X13.983 Y46.472 Z-3.89
N2245 X13.204 Y46.495
N2250 X8.796 Y46.624 F#105
N2255 X8.017 Y46.647 F#103
N2260 X8.014
N2265 G3 X7.5 Y46.164 Z-3.99 I-0.015 J-0.5
N2270 X9.12 Y43.605 I2.365 J-0.295 F#100
N2275 X14.035 Y43.538 I2.516 J4.31
N2280 X14.5 Y45.33 I-1.632 J1.38
N2285 X14.019 Y45.812 Z-3.894 I-0.5 J-0.017 F#104
N2290 G1 X13.983 Y45.813 Z-3.89
N2295 X13.204 Y45.842
N2300 X8.796 Y46.003 F#105
N2305 X8.018 Y46.031 F#103
N2310 G3 X7.5 Y45.549 Z-3.99 I-0.018 J-0.5
N2315 X9.146 Y42.949 I2.389 J-0.309 F#100
N2320 X14.038 Y42.884 I2.503 J4.289
N2325 X14.5 Y44.673 I-1.641 J1.378
N2330 X14.019 Y45.155 Z-3.895 I-0.5 J-0.017 F#104
N2335 G1 X13.983 Y45.157 Z-3.89
N2340 X13.204 Y45.185
N2345 X8.796 Y45.347 F#105
N2350 X8.018 Y45.376 F#103
N2355 G3 X7.5 Y44.893 Z-3.99 I-0.018 J-0.5
N2360 X9.114 Y42.319 I2.386 J-0.297 F#100
N2365 X14.029 Y42.222 I2.543 J4.281
N2370 X14.5 Y44.017 I-1.619 J1.384
N2375 X14.022 Y44.5 Z-3.895 I-0.5 J-0.017 F#104
N2380 G1 X13.983 Y44.501 Z-3.89
N2385 X13.205 Y44.535
N2390 X8.795 Y44.727 F#105
N2395 X8.021 Y44.76 F#103
N2400 G3 X7.5 Y44.278 Z-3.99 I-0.022 J-0.5
N2405 X9.132 Y41.663 I2.406 J-0.315 F#100
N2410 X14.031 Y41.57 I2.531 J4.27
N2415 X14.5 Y43.363 I-1.625 J1.383
N2420 X14.022 Y43.845 Z-3.895 I-0.5 J-0.017 F#104
N2425 G1 X13.983 Y43.847 Z-3.89
N2430 X13.205 Y43.881
N2435 X8.795 Y44.071 F#105
N2440 X8.021 Y44.105 F#103
N2445 G3 X7.5 Y43.623 Z-3.99 I-0.022 J-0.5
N2450 X9.149 Y41.008 I2.411 J-0.306 F#100
N2455 X14.033 Y40.919 I2.521 J4.253
N2460 X14.5 Y42.709 I-1.63 J1.381
N2465 X14.022 Y43.191 Z-3.895 I-0.5 J-0.017 F#104
N2470 G1 X13.983 Y43.193 Z-3.89
N2475 X13.205 Y43.226
N2480 X8.795 Y43.416 F#105
N2485 X8.021 Y43.449 F#103
N2490 G3 X7.5 Y42.967 Z-3.99 I-0.021 J-0.5
N2495 X9.096 Y40.386 I2.401 J-0.299 F#100
N2500 X14.021 Y40.256 I2.577 J4.26
N2505 X14.5 Y42.056 I-1.6 J1.39
N2510 X14.026 Y42.538 Z-3.895 I-0.5 J-0.017 F#104
N2515 G1 X13.983 Y42.54 Z-3.89
N2520 X13.205 Y42.579
N2525 X8.795 Y42.803 F#105
N2530 X8.025 Y42.843 F#103
N2535 X8.017
N2540 G3 X7.5 Y42.361 Z-3.99 I-0.017 J-0.5
N2545 X9.108 Y39.73 I2.421 J-0.327 F#100
N2550 X14.022 Y39.604 I2.568 J4.258
N2555 X14.5 Y41.403 I-1.604 J1.389
N2560 X14.025 Y41.885 Z-3.895 I-0.5 J-0.017 F#104
N2565 G1 X13.983 Y41.887 Z-3.89
N2570 X13.205 Y41.927
N2575 X8.795 Y42.148 F#105
N2580 X8.025 Y42.187 F#103
N2585 X8.017
N2590 G3 X7.5 Y41.705 Z-3.99 I-0.017 J-0.5
N2595 X9.12 Y39.075 I2.424 J-0.321 F#100
N2600 X14.024 Y38.954 I2.559 J4.248
N2605 X14.5 Y40.751 I-1.608 J1.388
N2610 X14.025 Y41.233 Z-3.895 I-0.5 J-0.017 F#104
N2615 G1 X13.983 Y41.235 Z-3.89
N2620 X13.205 Y41.274
N2625 X8.795 Y41.493 F#105
N2630 X8.024 Y41.531 F#103
N2635 X8.017
N2640 G3 X7.5 Y41.049 Z-3.99 I-0.017 J-0.5
N2645 X9.13 Y38.421 I2.426 J-0.315 F#100
N2650 X14.026 Y38.303 I2.552 J4.241
N2655 X14.5 Y40.099 I-1.612 J1.386
N2660 X14.025 Y40.581 Z-3.895 I-0.5 J-0.017 F#104
N2665 G1 X13.983 Y40.583 Z-3.89
N2670 X13.205 Y40.621
N2675 X8.795 Y40.838 F#105
N2680 X8.024 Y40.875 F#103
N2685 X8.017 Y40.876
N2690 G3 X7.5 Y40.393 Z-3.99 I-0.017 J-0.5
N2695 X9.139 Y37.767 I2.428 J-0.31 F#100
N2700 X14.027 Y37.653 I2.545 J4.235
N2705 X14.5 Y39.447 I-1.616 J1.385
N2710 X14.024 Y39.929 Z-3.895 I-0.5 J-0.017 F#104
N2715 G1 X13.983 Y39.931 Z-3.89
N2720 X13.205 Y39.969
N2725 X8.795 Y40.182 F#105
N2730 X8.017 Y40.22 F#103
N2735 G3 X7.5 Y39.738 Z-3.99 I-0.017 J-0.5
N2740 X9.147 Y37.113 I2.429 J-0.306 F#100
N2745 X14.029 Y37.002 I2.538 J4.23
N2750 X14.5 Y38.795 I-1.619 J1.384
N2755 X14.024 Y39.277 Z-3.895 I-0.5 J-0.017 F#104
N2760 G1 X13.983 Y39.279 Z-3.89
N2765 X13.205 Y39.316
N2770 X8.795 Y39.527 F#105
N2775 X8.017 Y39.564 F#103
N2780 G3 X7.5 Y39.082 Z-3.99 I-0.017 J-0.5
N2785 X9.109 Y36.48 I2.42 J-0.302 F#100
N2790 X14.021 Y36.344 I2.575 J4.239
N2795 X14.5 Y38.143 I-1.601 J1.39
N2800 X14.027 Y38.625 Z-3.896 I-0.5 J-0.017 F#104
N2805 G1 X13.983 Y38.628 Z-3.89
N2810 X13.205 Y38.669
N2815 X8.795 Y38.901 F#105
N2820 X8.026 Y38.941 F#103
N2825 X8.017 Y38.942
N2830 G3 X7.5 Y38.459 Z-3.99 I-0.017 J-0.5
N2835 X9.116 Y35.825 I2.431 J-0.322 F#100
N2840 X14.022 Y35.693 I2.568 J4.241
N2845 X14.5 Y37.492 I-1.604 J1.389
N2850 X14.026 Y37.974 Z-3.895 I-0.5 J-0.017 F#104
N2855 G1 X13.983 Y37.976 Z-3.89
N2860 X13.205 Y38.017
N2865 X8.795 Y38.246 F#105
N2870 X8.026 Y38.286 F#103
N2875 X8.017
N2880 G3 X7.5 Y37.804 Z-3.99 I-0.017 J-0.5
N2885 X9.124 Y35.171 I2.431 J-0.317 F#100
N2890 X14.023 Y35.043 I2.562 J4.236
N2895 X14.5 Y36.841 I-1.607 J1.388
N2900 X14.026 Y37.323 Z-3.895 I-0.5 J-0.017 F#104
N2905 G1 X13.983 Y37.325 Z-3.89
N2910 X13.205 Y37.365
N2915 X8.795 Y37.59 F#105
N2920 X8.025 Y37.63 F#103
N2925 X8.017
N2930 G3 X7.5 Y37.148 Z-3.99 I-0.017 J-0.5
N2935 X9.131 Y34.517 I2.432 J-0.314 F#100
N2940 X14.025 Y34.393 I2.555 J4.232
N2945 X14.5 Y36.189 I-1.61 J1.387
N2950 X14.026 Y36.671 Z-3.895 I-0.5 J-0.017 F#104
N2955 G1 X13.983 Y36.673 Z-3.89
N2960 X13.205 Y36.713
N2965 X8.795 Y36.935 F#105
N2970 X8.025 Y36.974 F#103
N2975 X8.017
N2980 G3 X7.5 Y36.492 Z-3.99 I-0.017 J-0.5
N2985 X9.138 Y33.863 I2.432 J-0.31 F#100
N2990 X14.026 Y33.743 I2.549 J4.229
N2995 X14.5 Y35.538 I-1.613 J1.386
N3000 X14.025 Y36.02 Z-3.895 I-0.5 J-0.017 F#104
N3005 G1 X13.983 Y36.022 Z-3.89
N3010 X13.205 Y36.061
N3015 X8.795 Y36.28 F#105
N3020 X8.025 Y36.318 F#103
N3025 X8.017 Y36.319
N3030 G3 X7.5 Y35.836 Z-3.99 I-0.017 J-0.5
N3035 X9.09 Y33.235 I2.42 J-0.307 F#100
N3040 X14.016 Y33.084 I2.596 J4.241
N3045 X14.5 Y34.887 I-1.589 J1.393
N3050 X14.028 Y35.368 Z-3.896 I-0.5 J-0.017 F#104
N3055 G1 X13.983 Y35.371 Z-3.89
N3060 X13.205 Y35.414
N3065 X8.795 Y35.66 F#105
N3070 X8.028 Y35.703 F#103
N3075 X8.017 Y35.704
N3080 G3 X7.5 Y35.221 Z-3.99 I-0.017 J-0.5
N3085 X9.096 Y32.58 I2.434 J-0.332 F#100
N3090 X14.017 Y32.433 I2.589 J4.245
N3095 X14.5 Y34.236 I-1.592 J1.393
N3100 X14.028 Y34.717 Z-3.896 I-0.5 J-0.017 F#104
N3105 G1 X13.983 Y34.72 Z-3.89
N3110 X13.205 Y34.763
N3115 X8.795 Y35.005 F#105
N3120 X8.027 Y35.047 F#103
N3125 X8.017 Y35.048
N3130 G3 X7.5 Y34.566 Z-3.99 I-0.017 J-0.5
N3135 X9.104 Y31.926 I2.434 J-0.328 F#100
N3140 X14.018 Y31.783 I2.582 J4.241
N3145 X14.5 Y33.585 I-1.595 J1.392
N3150 X14.027 Y34.066 Z-3.896 I-0.5 J-0.017 F#104
N3155 G1 X13.983 Y34.069 Z-3.89
N3160 X13.205 Y34.111
N3165 X8.795 Y34.35 F#105
N3170 X8.027 Y34.392 F#103
N3175 X8.017
N3180 G3 X7.5 Y33.91 Z-3.99 I-0.017 J-0.5
N3185 X9.11 Y31.272 I2.434 J-0.325 F#100
N3190 X14.02 Y31.133 I2.576 J4.237
N3195 X14.5 Y32.933 I-1.598 J1.391
N3200 X14.027 Y33.415 Z-3.896 I-0.5 J-0.017 F#104
N3205 G1 X13.983 Y33.418 Z-3.89
N3210 X13.205 Y33.459
N3215 X8.795 Y33.695 F#105
N3220 X8.026 Y33.736 F#103
N3225 X8.017
N3230 G3 X7.5 Y33.254 Z-3.99 I-0.017 J-0.5
N3235 X9.117 Y30.618 I2.434 J-0.321 F#100
N3240 X14.021 Y30.483 I2.57 J4.234
N3245 X14.5 Y32.282 I-1.601 J1.39
N3250 X14.027 Y32.764 Z-3.896 I-0.5 J-0.017 F#104
N3255 G1 X13.983 Y32.766 Z-3.89
N3260 X13.205 Y32.807
N3265 X8.795 Y33.04 F#105
N3270 X8.026 Y33.08 F#103
N3275 X8.017 Y33.081
N3280 G3 X7.5 Y32.598 Z-3.99 I-0.017 J-0.5
N3285 X9.123 Y29.964 I2.434 J-0.318 F#100
N3290 X14.022 Y29.833 I2.564 J4.232
N3295 X14.5 Y31.631 I-1.604 J1.389
N3300 X14.026 Y32.113 Z-3.895 I-0.5 J-0.017 F#104
N3305 G1 X13.983 Y32.115 Z-3.89
N3310 X13.205 Y32.156
N3315 X8.795 Y32.385 F#105
N3320 X8.026 Y32.424 F#103
N3325 X8.017 Y32.425
N3330 G3 X7.5 Y31.943 Z-3.99 I-0.017 J-0.5
N3335 X9.129 Y29.31 I2.434 J-0.314 F#100
N3340 X14.024 Y29.183 I2.559 J4.23
N3345 X14.5 Y30.98 I-1.607 J1.388
N3350 X14.026 Y31.462 Z-3.895 I-0.5 J-0.017 F#104
N3355 G1 X13.983 Y31.464 Z-3.89
N3360 X13.205 Y31.504
N3365 X8.795 Y31.729 F#105
N3370 X8.025 Y31.769 F#103
N3375 X8.017
N3380 G3 X7.5 Y31.287 Z-3.99 I-0.017 J-0.5
N3385 X9.135 Y28.656 I2.434 J-0.311 F#100
N3390 X14.025 Y28.533 I2.553 J4.228
N3395 X14.5 Y30.329 I-1.611 J1.386
N3400 X14.025 Y30.81 Z-3.895 I-0.5 J-0.017 F#104
N3405 G1 X13.983 Y30.813 Z-3.89
N3410 X13.205 Y30.852
N3415 X8.795 Y31.074 F#105
N3420 X8.025 Y31.113 F#103
N3425 X8.017
N3430 G3 X7.5 Y30.631 Z-3.99 I-0.017 J-0.5
N3435 X9.141 Y28.002 I2.433 J-0.308 F#100
N3440 X14.027 Y27.883 I2.547 J4.226
N3445 X14.5 Y29.677 I-1.614 J1.385
N3450 X14.025 Y30.159 Z-3.895 I-0.5 J-0.017 F#104
N3455 G1 X13.983 Y30.161 Z-3.89
N3460 X13.205 Y30.2
N3465 X8.795 Y30.419 F#105
N3470 X8.025 Y30.457 F#103
N3475 X8.017 Y30.458
N3480 G3 X7.5 Y29.975 Z-3.99 I-0.017 J-0.5
N3485 X9.147 Y27.348 I2.433 J-0.305 F#100
N3490 X14.028 Y27.232 I2.542 J4.224
N3495 X14.5 Y29.026 I-1.617 J1.384
N3500 X14.025 Y29.508 Z-3.895 I-0.5 J-0.017 F#104
N3505 G1 X13.983 Y29.51 Z-3.89
N3510 X13.205 Y29.548
N3515 X8.795 Y29.764 F#105
N3520 X8.024 Y29.802 F#103
N3525 X8.017
N3530 G3 X7.5 Y29.32 Z-3.99 I-0.017 J-0.5
N3535 X9.098 Y26.72 I2.421 J-0.303 F#100
N3540 X14.018 Y26.573 I2.589 J4.237
N3545 X14.5 Y28.375 I-1.594 J1.392
N3550 X14.028 Y28.856 Z-3.896 I-0.5 J-0.017 F#104
N3555 G1 X13.983 Y28.859 Z-3.89
N3560 X13.205 Y28.902
N3565 X8.795 Y29.144 F#105
N3570 X8.027 Y29.186 F#103
N3575 X8.017 Y29.187
N3580 G3 X7.5 Y28.704 Z-3.99 I-0.017 J-0.5
N3585 X9.104 Y26.065 I2.434 J-0.328 F#100
N3590 X14.019 Y25.923 I2.583 J4.242
N3595 X14.5 Y27.724 I-1.596 J1.392
N3600 X14.027 Y28.205 Z-3.896 I-0.5 J-0.017 F#104
N3605 G1 X13.983 Y28.208 Z-3.89
N3610 X13.205 Y28.25
N3615 X8.795 Y28.489 F#105
N3620 X8.027 Y28.531 F#103
N3625 X8.017
N3630 G3 X7.5 Y28.049 Z-3.99 I-0.017 J-0.5
N3635 X9.111 Y25.411 I2.434 J-0.324 F#100
N3640 X14.02 Y25.273 I2.576 J4.238
N3645 X14.5 Y27.073 I-1.599 J1.39
N3650 X14.027 Y27.554 Z-3.896 I-0.5 J-0.017 F#104
N3655 G1 X13.983 Y27.557 Z-3.89
N3660 X13.205 Y27.598
N3665 X8.795 Y27.834 F#105
N3670 X8.026 Y27.875 F#103
N3675 X8.017
N3680 G3 X7.5 Y27.393 Z-3.99 I-0.017 J-0.5
N3685 X9.118 Y24.757 I2.434 J-0.321 F#100
N3690 X14.021 Y24.623 I2.569 J4.234
N3695 X14.5 Y26.422 I-1.602 J1.389
N3700 X14.027 Y26.903 Z-3.896 I-0.5 J-0.017 F#104
N3705 G1 X13.983 Y26.906 Z-3.89
N3710 X13.205 Y26.947
N3715 X8.795 Y27.179 F#105
N3720 X8.026 Y27.219 F#103
N3725 X8.017 Y27.22
N3730 G3 X7.5 Y26.737 Z-3.99 I-0.017 J-0.5
N3735 X9.124 Y24.103 I2.434 J-0.317 F#100
N3740 X14.023 Y23.973 I2.563 J4.232
N3745 X14.5 Y25.77 I-1.605 J1.388
N3750 X14.026 Y26.252 Z-3.895 I-0.5 J-0.017 F#104
N3755 G1 X13.983 Y26.255 Z-3.89
N3760 X13.205 Y26.295
N3765 X8.795 Y26.524 F#105
N3770 X8.026 Y26.563 F#103
N3775 X8.017 Y26.564
N3780 G3 X7.5 Y26.082 Z-3.99 I-0.017 J-0.5
N3785 X9.13 Y23.449 I2.434 J-0.314 F#100
N3790 X14.024 Y23.323 I2.558 J4.23
N3795 X14.5 Y25.119 I-1.608 J1.387
N3800 X14.026 Y25.601 Z-3.895 I-0.5 J-0.017 F#104
N3805 G1 X13.983 Y25.603 Z-3.89
N3810 X13.205 Y25.643
N3815 X8.795 Y25.868 F#105
N3820 X8.025 Y25.908 F#103
N3825 X8.017
N3830 G3 X7.5 Y25.426 Z-3.99 I-0.017 J-0.5
N3835 X9.136 Y22.795 I2.434 J-0.311 F#100
N3840 X14.025 Y22.672 I2.552 J4.228
N3845 X14.5 Y24.468 I-1.611 J1.386
N3850 X14.025 Y24.95 Z-3.895 I-0.5 J-0.017 F#104
N3855 G1 X13.983 Y24.952 Z-3.89
N3860 X13.205 Y24.991
N3865 X8.795 Y25.213 F#105
N3870 X8.025 Y25.252 F#103
N3875 X8.017
N3880 G3 X7.5 Y24.77 Z-3.99 I-0.017 J-0.5
N3885 X9.142 Y22.141 I2.433 J-0.308 F#100
N3890 X14.027 Y22.022 I2.547 J4.226
N3895 X14.5 Y23.817 I-1.615 J1.385
N3900 X14.025 Y24.299 Z-3.895 I-0.5 J-0.017 F#104
N3905 G1 X13.983 Y24.301 Z-3.89
N3910 X13.205 Y24.339
N3915 X8.795 Y24.558 F#105
N3920 X8.024 Y24.596 F#103
N3925 X8.017 Y24.597
N3930 G3 X7.5 Y24.114 Z-3.99 I-0.017 J-0.5
N3935 X9.148 Y21.487 I2.433 J-0.304 F#100
N3940 X14.028 Y21.372 I2.541 J4.224
N3945 X14.5 Y23.165 I-1.618 J1.384
N3950 X14.025 Y23.647 Z-3.895 I-0.5 J-0.017 F#104
N3955 G1 X13.983 Y23.649 Z-3.89
N3960 X13.205 Y23.687
N3965 X8.795 Y23.903 F#105
N3970 X8.024 Y23.941 F#103
N3975 X8.017
N3980 G3 X7.5 Y23.459 Z-3.99 I-0.017 J-0.5
N3985 X9.154 Y20.833 I2.433 J-0.301 F#100
N3990 X14.03 Y20.722 I2.536 J4.222
N3995 X14.5 Y22.514 I-1.621 J1.383
N4000 X14.024 Y22.996 Z-3.895 I-0.5 J-0.017 F#104
N4005 G1 X13.983 Y22.998 Z-3.89
N4010 X13.205 Y23.035
N4015 X8.795 Y23.248 F#105
N4020 X8.017 Y23.285 F#103
N4025 G3 X7.5 Y22.803 Z-3.99 I-0.017 J-0.5
N4030 X9.093 Y20.211 I2.418 J-0.299 F#100
N4035 X14.017 Y20.06 I2.594 J4.238
N4040 X14.5 Y21.863 I-1.591 J1.393
N4045 X14.028 Y22.344 Z-3.896 I-0.5 J-0.017 F#104
N4050 G1 X13.983 Y22.347 Z-3.89
N4055 X13.205 Y22.39
N4060 X8.795 Y22.636 F#105
N4065 X8.027 Y22.678 F#103
N4070 X8.017 Y22.679
N4075 G3 X7.5 Y22.197 Z-3.99 I-0.017 J-0.5
N4080 X9.098 Y19.556 I2.434 J-0.331 F#100
N4085 X14.017 Y19.41 I2.588 J4.244
N4090 X14.5 Y21.212 I-1.594 J1.392
N4095 X14.028 Y21.694 Z-3.896 I-0.5 J-0.017 F#104
N4100 G1 X13.983 Y21.696 Z-3.89
N4105 X13.205 Y21.739
N4110 X8.795 Y21.981 F#105
N4115 X8.027 Y22.023 F#103
N4120 X8.017
N4125 G3 X7.5 Y21.541 Z-3.99 I-0.017 J-0.5
N4130 X9.106 Y18.902 I2.434 J-0.327 F#100
N4135 X14.019 Y18.76 I2.581 J4.24
N4140 X14.5 Y20.561 I-1.596 J1.391
N4145 X14.027 Y21.043 Z-3.896 I-0.5 J-0.017 F#104
N4150 G1 X13.983 Y21.045 Z-3.89
N4155 X13.205 Y21.087
N4160 X8.795 Y21.325 F#105
N4165 X8.027 Y21.367 F#103
N4170 X8.017
N4175 G3 X7.5 Y20.885 Z-3.99 I-0.017 J-0.5
N4180 X9.113 Y18.248 I2.434 J-0.323 F#100
N4185 X14.02 Y18.11 I2.574 J4.236
N4190 X14.5 Y19.91 I-1.599 J1.39
N4195 X14.027 Y20.392 Z-3.896 I-0.5 J-0.017 F#104
N4200 G1 X13.983 Y20.394 Z-3.89
N4205 X13.205 Y20.435
N4210 X8.795 Y20.67 F#105
N4215 X8.026 Y20.711 F#103
N4220 X8.017 Y20.712
N4225 G3 X7.5 Y20.229 Z-3.99 I-0.017 J-0.5
N4230 X9.119 Y17.593 I2.434 J-0.32 F#100
N4235 X14.021 Y17.46 I2.568 J4.233
N4240 X14.5 Y19.259 I-1.602 J1.389
N4245 X14.027 Y19.741 Z-3.896 I-0.5 J-0.017 F#104
N4250 G1 X13.983 Y19.743 Z-3.89
N4255 X13.205 Y19.784
N4260 X8.795 Y20.015 F#105
N4265 X8.026 Y20.056 F#103
N4270 X8.017
N4275 G3 X7.5 Y19.574 Z-3.99 I-0.017 J-0.5
N4280 X9.125 Y16.939 I2.434 J-0.317 F#100
N4285 X14.023 Y16.81 I2.563 J4.231
N4290 X14.5 Y18.607 I-1.605 J1.388
N4295 X14.026 Y19.089 Z-3.895 I-0.5 J-0.017 F#104
N4300 G1 X13.983 Y19.092 Z-3.89
N4305 X13.205 Y19.132
N4310 X8.795 Y19.36 F#105
N4315 X8.026 Y19.4 F#103
N4320 X8.017
N4325 G3 X7.5 Y18.918 Z-3.99 I-0.017 J-0.5
N4330 X9.131 Y16.286 I2.434 J-0.313 F#100
N4335 X14.024 Y16.16 I2.557 J4.229
N4340 X14.5 Y17.956 I-1.608 J1.387
N4345 X14.026 Y18.438 Z-3.895 I-0.5 J-0.017 F#104
N4350 G1 X13.983 Y18.44 Z-3.89
N4355 X13.205 Y18.48
N4360 X8.795 Y18.705 F#105
N4365 X8.025 Y18.744 F#103
N4370 X8.017
N4375 G3 X7.5 Y18.262 Z-3.99 I-0.017 J-0.5
N4380 X9.137 Y15.632 I2.434 J-0.31 F#100
N4385 X14.026 Y15.51 I2.551 J4.227
N4390 X14.5 Y17.305 I-1.612 J1.386
N4395 X14.025 Y17.787 Z-3.895 I-0.5 J-0.017 F#104
N4400 G1 X13.983 Y17.789 Z-3.89
N4405 X13.205 Y17.828
N4410 X8.795 Y18.05 F#105
N4415 X8.025 Y18.088 F#103
N4420 X8.017 Y18.089
N4425 G3 X7.5 Y17.606 Z-3.99 I-0.017 J-0.5
N4430 X9.143 Y14.978 I2.433 J-0.307 F#100
N4435 X14.027 Y14.859 I2.546 J4.225
N4440 X14.5 Y16.654 I-1.615 J1.385
N4445 X14.025 Y17.136 Z-3.895 I-0.5 J-0.017 F#104
N4450 G1 X13.983 Y17.138 Z-3.89
N4455 X13.205 Y17.176
N4460 X8.795 Y17.395 F#105
N4465 X8.024 Y17.433 F#103
N4470 X8.017
N4475 G3 X7.5 Y16.951 Z-3.99 I-0.017 J-0.5
N4480 X9.149 Y14.324 I2.433 J-0.304 F#100
N4485 X14.028 Y14.209 I2.54 J4.224
N4490 X14.5 Y16.002 I-1.618 J1.384
N4495 X14.025 Y16.484 Z-3.895 I-0.5 J-0.017 F#104
N4500 G1 X13.983 Y16.486 Z-3.89
N4505 X13.205 Y16.524
N4510 X8.795 Y16.739 F#105
N4515 X8.024 Y16.777 F#103
N4520 X8.017
N4525 G3 X7.5 Y16.295 Z-3.99 I-0.017 J-0.5
N4530 X9.11 Y13.691 I2.423 J-0.302 F#100
N4535 X14.02 Y13.552 I2.578 J4.235
N4540 X14.5 Y15.351 I-1.6 J1.39
N4545 X14.027 Y15.833 Z-3.896 I-0.5 J-0.017 F#104
N4550 G1 X13.983 Y15.835 Z-3.89
N4555 X13.205 Y15.877
N4560 X8.795 Y16.113 F#105
N4565 X8.026 Y16.154 F#103
N4570 X8.017 Y16.155
N4575 G3 X7.5 Y15.672 Z-3.99 I-0.017 J-0.5
N4580 X9.116 Y13.036 I2.433 J-0.322 F#100
N4585 X14.021 Y12.901 I2.572 J4.238
N4590 X14.5 Y14.7 I-1.602 J1.39
N4595 X14.027 Y15.182 Z-3.896 I-0.5 J-0.017 F#104
N4600 G1 X13.983 Y15.184 Z-3.89
N4605 X13.205 Y15.225
N4610 X8.795 Y15.458 F#105
N4615 X8.026 Y15.499 F#103
N4620 X8.017
N4625 G3 X7.5 Y15.017 Z-3.99 I-0.017 J-0.5
N4630 X9.123 Y12.382 I2.434 J-0.318 F#100
N4635 X14.023 Y12.251 I2.565 J4.234
N4640 X14.5 Y14.049 I-1.605 J1.389
N4645 X14.026 Y14.531 Z-3.895 I-0.5 J-0.017 F#104
N4650 G1 X13.983 Y14.533 Z-3.89
N4655 X13.205 Y14.574
N4660 X8.795 Y14.803 F#105
N4665 X8.026 Y14.843 F#103
N4670 X8.017
N4675 G3 X7.5 Y14.361 Z-3.99 I-0.017 J-0.5
N4680 X9.129 Y11.728 I2.434 J-0.315 F#100
N4685 X14.024 Y11.601 I2.559 J4.231
N4690 X14.5 Y13.398 I-1.608 J1.388
N4695 X14.026 Y13.88 Z-3.895 I-0.5 J-0.017 F#104
N4700 G1 X13.983 Y13.882 Z-3.89
N4705 X13.205 Y13.922
N4710 X8.795 Y14.148 F#105
N4715 X8.025 Y14.187 F#103
N4720 X8.017 Y14.188
N4725 G3 X7.5 Y13.705 Z-3.99 I-0.017 J-0.5
N4730 X9.135 Y11.074 I2.433 J-0.311 F#100
N4735 X14.025 Y10.951 I2.553 J4.228
N4740 X14.5 Y12.747 I-1.611 J1.386
N4745 X14.026 Y13.229 Z-3.895 I-0.5 J-0.017 F#104
N4750 G1 X13.983 Y13.231 Z-3.89
N4755 X13.205 Y13.27
N4760 X8.795 Y13.493 F#105
N4765 X8.025 Y13.531 F#103
N4770 X8.017 Y13.532
N4775 G3 X7.5 Y13.05 Z-3.99 I-0.017 J-0.5
N4780 X9.086 Y10.447 I2.421 J-0.309 F#100
N4785 X14.015 Y10.292 I2.6 J4.24
N4790 X14.5 Y12.095 I-1.587 J1.394
N4795 X14.029 Y12.577 Z-3.896 I-0.5 J-0.017 F#104
N4800 G1 X13.983 Y12.58 Z-3.89
N4805 X13.205 Y12.624
N4810 X8.795 Y12.873 F#105
N4815 X8.028 Y12.916 F#103
N4820 X8.017 Y12.917
N4825 G3 X7.5 Y12.434 Z-3.99 I-0.017 J-0.5
N4830 X9.092 Y9.792 I2.435 J-0.334 F#100
N4835 X14.016 Y9.641 I2.594 J4.245
N4840 X14.5 Y11.445 I-1.59 J1.393
N4845 X14.028 Y11.926 Z-3.896 I-0.5 J-0.017 F#104
N4850 G1 X13.983 Y11.929 Z-3.89
N4855 X13.205 Y11.972
N4860 X8.795 Y12.218 F#105
N4865 X8.027 Y12.26 F#103
N4870 X8.017 Y12.261
N4875 G3 X7.5 Y11.779 Z-3.99 I-0.017 J-0.5
N4880 X9.82 Y8.863 I2.672 J-0.255 F#100
N4885 G1 X10.024 Y8.799
N4890 G3 X10.506 Y9.316 Z-3.89 I-0.017 J0.5 F#104
N4895 X10.341 Y9.67 I-0.5 J-0.017
N4900 G1 X10.06 Y9.923
N4905 X8.654 Y11.189 F#105
N4910 X8.334 Y11.477 F#103
N4915 G3 X8.017 Y11.605 I-0.335 J-0.372
N4920 X7.5 Y11.123 Z-3.99 I-0.017 J-0.5
N4925 X9.106 Y8.762 I1.894 J-0.438 F#100
N4930 G1 X9.189 Y8.774 Z-3.98 F#104
N4935 X9.27 Y8.799 Z-3.97
N4940 X9.344 Y8.837 Z-3.96
N4945 X9.412 Y8.885 Z-3.95
N4950 X9.47 Y8.943 Z-3.94
N4955 X9.519 Y9.008 Z-3.93
N4960 X9.556 Y9.081 Z-3.92
N4965 X9.581 Y9.157 Z-3.91
N4970 X9.593 Y9.236 Z-3.9
N4975 Y9.316 Z-3.89
N4980 G3 X9.456 Y9.643 I-0.5 J-0.017
N4985 G1 X9.169 Y9.945
N4990 X8.632 Y10.511 F#105
N4995 X8.362 Y10.794 F#103
N5000 G3 X8.017 Y10.949 I-0.362 J-0.344
N5005 X7.5 Y10.467 Z-3.99 I-0.017 J-0.5
N5010 X7.692 Y9.216 I1.77 J-0.369 F#100
N5015 X8.537 Y8.798 I0.859 J0.674
N5020 G1 X8.648 Y8.808 Z-3.976 F#104
N5025 X8.758 Y8.832 Z-3.961
N5030 X8.865 Y8.867 Z-3.947
N5035 X8.966 Y8.914 Z-3.933
N5040 X9.062 Y8.973 Z-3.919
N5045 X9.15 Y9.042 Z-3.904
N5050 X9.23 Y9.121 Z-3.89
N5055 G3 X9.482 Y9.837 I-0.727 J0.659
N5060 X9.446 Y10.05 I-0.98 J-0.057 F#105
N5065 X8.532 Y10.769 I-0.954 J-0.273
N5070 X7.819 Y10.506 I-0.04 J-0.992 F#103
N5075 X7.5 Y9.811 Z-3.99 I0.673 J-0.73
N5080 X7.606 Y8.988 I1.32 J-0.249 F#100
N5085 G1 X7.676 Y8.924 Z-3.978 F#104
N5090 X7.755 Y8.873 Z-3.966
N5095 X7.842 Y8.834 Z-3.954
N5100 X7.933 Y8.811 Z-3.942
N5105 X8.027 Y8.802 Z-3.931
N5110 X8.121 Y8.808 Z-3.919
N5115 X8.212 Y8.829 Z-3.907
N5120 G3 X8.332 Y8.882 Z-3.89 I-0.16 J0.526
N5125 X7.977 Y9.901 I-0.28 J0.473
N5130 G1 X7.95 Y9.896 Z-3.894 F#103
N5135 G3 X7.501 Y9.36 Z-3.99 I0.102 J-0.541
N5140 X8.056 Y8.798 I0.517 J-0.044 F#100
N5145 G1 X12.799 Y8.799
N5150 G3 X14.511 Y10.286 I0.152 J1.554
N5155 G1 X14.499 Y10.375 Z-3.979 F#104
N5160 X14.472 Y10.459 Z-3.968
N5165 X14.431 Y10.538 Z-3.957
N5170 X14.377 Y10.608 Z-3.946
N5175 X14.312 Y10.667 Z-3.934
N5180 X14.237 Y10.714 Z-3.923
N5185 X14.156 Y10.747 Z-3.912
N5190 X14.071 Y10.766 Z-3.901
N5195 X13.983 Y10.769 Z-3.89
N5200 G3 X13.683 Y10.656 I0.017 J-0.5
N5205 G1 X13.333 Y10.369
N5210 X12.774 Y9.91 F#105
N5215 X12.5 Y9.685 F#103
N5220 G3 X12.317 Y9.316 I0.317 J-0.387
N5225 X12.799 Y8.799 Z-3.99 I0.5 J-0.017
N5230 G1 X13.667 F#100
N5235 G3 X14.497 Y9.685 I-0.032 J0.862
N5240 G1 X14.486 Y9.796 Z-3.976 F#104
N5245 X14.459 Y9.905 Z-3.961
N5250 X14.418 Y10.009 Z-3.947
N5255 X14.363 Y10.106 Z-3.933
N5260 X14.295 Y10.195 Z-3.919
N5265 X14.216 Y10.274 Z-3.904
N5270 X14.126 Y10.341 Z-3.89
N5275 G3 X13.431 Y10.427 I-0.438 J-0.684
N5280 G1 X13.379 Y10.408
N5285 G3 X12.906 Y9.909 I0.317 J-0.774 F#105
N5290 X13.004 Y9.164 I0.789 J-0.275 F#103
N5295 X13.667 Y8.799 Z-3.99 I0.691 J0.47
N5300 X14.5 Y9.41 I0.237 J0.551 F#100
N5305 G1 Y10.794
N5310 G3 X13.716 Y11.187 I-0.5 J-0.017 F#104
N5315 G1 X13.669 Y11.138 Z-3.985
N5320 X13.623 Y11.091 Z-3.971
N5325 X13.579 Y11.045 Z-3.949
N5330 X13.552 Y10.975 Z-3.908
N5335 X13.528 Y10.913 Z-3.856
N5340 X13.507 Y10.86 Z-3.793
N5345 X13.504 Y10.825 Z-3.739
N5350 X13.502 Y10.797 Z-3.682
N5355 X13.5 Y10.776 Z-3.621
N5360 Y10.769 Z-3.593
N5365 X13.501 Y10.761 Z-3.542
N5370 Y10.759 Z-3.49
N5375 G0 Z2.
N5380 X14.914 Y55.006
N5385 Z-3.39
N5390 G1 Z-3.89 F#103
N5395 X15.225 Y54.354
N5400 X15.238 Y54.329
N5405 X15.253 Y54.304
N5410 G3 X15.941 Y54.145 Z-3.99 I0.424 J0.265
N5415 X17. Y55.624 I-0.56 J1.519 F#100
N5420 X16.483 Y56.106 Z-3.89 I-0.5 J-0.017 F#104
N5425 X16.053 Y55.829 I0.017 J-0.5
N5430 G1 X15.945 Y55.612
N5435 X15.811 Y55.343 F#105
N5440 X15.689 Y55.098 F#103
N5445 G3 X15.711 Y54.614 I0.448 J-0.223
N5450 X16.398 Y54.449 Z-3.99 I0.426 J0.262
N5455 X16.997 Y55.066 I-0.186 J0.781 F#100
N5460 X16.715 Y57.811 I-5.849 J0.786
N5465 X15.305 Y58.805 I-1.465 J-0.582
N5470 G1 X15.218 Y58.793 Z-3.979 F#104
N5475 X15.134 Y58.767 Z-3.968
N5480 X15.056 Y58.727 Z-3.957
N5485 X14.986 Y58.673 Z-3.946
N5490 X14.927 Y58.609 Z-3.934
N5495 X14.879 Y58.535 Z-3.923
N5500 X14.846 Y58.454 Z-3.912
N5505 X14.827 Y58.369 Z-3.901
N5510 X14.823 Y58.282 Z-3.89
N5515 G3 X14.902 Y58.028 I0.5 J0.017
N5520 G1 X15.179 Y57.6
N5525 X15.919 Y56.455 F#105
N5530 X16.08 Y56.205 F#103
N5535 G3 X16.483 Y55.977 I0.42 J0.271
N5540 X17. Y56.459 Z-3.99 I0.017 J0.5
N5545 G1 Y57.655 F#100
N5550 G3 X15.851 Y58.798 I-1.144 J-0.001
N5555 G1 X15.764 Y58.788 Z-3.979 F#104
N5560 X15.681 Y58.762 Z-3.968
N5565 X15.603 Y58.723 Z-3.957
N5570 X15.534 Y58.67 Z-3.946
N5575 X15.474 Y58.607 Z-3.934
N5580 X15.427 Y58.534 Z-3.923
N5585 X15.393 Y58.454 Z-3.912
N5590 X15.373 Y58.369 Z-3.901
N5595 X15.368 Y58.282 Z-3.89
N5600 G3 X15.516 Y57.944 I0.5 J0.017
N5605 G1 X15.802 Y57.662
N5610 X15.86 Y57.604 F#105
N5615 X16.149 Y57.318 F#103
N5620 G3 X16.483 Y57.174 I0.352 J0.355
N5625 X17. Y57.656 Z-3.99 I0.017 J0.5
N5630 G1 Y58.149 F#100
N5635 G3 X16.355 Y58.797 I-0.631 J0.017
N5640 G1 X16.261 Y58.787 Z-3.978 F#104
N5645 X16.17 Y58.763 Z-3.966
N5650 X16.083 Y58.726 Z-3.954
N5655 X16.003 Y58.677 Z-3.942
N5660 X15.931 Y58.616 Z-3.93
N5665 G3 X15.772 Y58.35 Z-3.89 I0.442 J-0.446
N5670 X16.549 Y57.568 I0.601 J-0.181
N5675 X17. Y58.148 Z-3.99 I-0.177 J0.602 F#103
N5680 X16.398 Y58.802 I-0.539 J0.107 F#100
N5685 G1 X14.644 Y58.799
N5690 G3 X14.342 Y58.684 I0.017 J-0.5 F#104
N5695 G1 X13.777 Y58.214
N5700 X13.71 Y58.158 Z-3.982
N5705 X13.645 Y58.105 Z-3.96
N5710 X13.584 Y58.054 Z-3.923
N5715 X13.53 Y58.008 Z-3.873
N5720 X13.482 Y57.969 Z-3.811
N5725 X13.444 Y57.937 Z-3.74
N5730 X13.415 Y57.914 Z-3.661
N5735 X13.398 Y57.899 Z-3.577
N5740 X13.392 Y57.894 Z-3.49
N5745 G0 Z-2.49
N5750 X8.988 Y54.948
N5755 G1 Z-2.99 F#103
N5760 S2600
N5765 G3 X11.076 Y52.43 Z-3.188 I2.012 J-0.456 F#107
N5770 X12.957 Y55.072 Z-3.386 I-0.075 J2.044
N5775 X9.946 Y56.202 Z-3.584 I-1.94 J-0.593
N5780 X9.63 Y53.029 Z-3.782 I1.062 J-1.708
N5785 X12.751 Y53.535 Z-3.979 I1.366 J1.452
N5790 X11.472 Y56.396 Z-4.177 I-1.739 J0.939
N5795 X9.057 Y54.442 Z-4.375 I-0.457 J-1.905
N5800 X11.543 Y52.626 Z-4.573 I1.942 J0.048
N5805 X12.65 Y55.47 Z-4.771 I-0.54 J1.848
N5810 X9.644 Y55.806 Z-4.969 I-1.632 J-0.987
N5815 X10.087 Y52.842 Z-5.167 I1.361 J-1.312
N5820 X12.813 Y54.02 Z-5.365 I0.91 J1.637
N5825 X10.991 Y56.331 Z-5.563 I-1.8 J0.455
N5830 X9.242 Y53.998 Z-5.761 I0.023 J-1.839
N5835 X11.921 Y52.917 Z-5.958 I1.755 J0.489
N5840 X12.274 Y55.756 Z-6.156 I-0.915 J1.555
N5845 X9.466 Y55.372 Z-6.354 I-1.256 J-1.271
N5850 X10.548 Y52.783 Z-6.552 I1.536 J-0.879
N5855 X12.751 Y54.477 Z-6.75 I0.45 J1.694
N5860 X9.246 I-1.753 J0.
N5865 X12.751 I1.753 J0.
N5870 S3000
N5875 X10.509 Y56.594 I-1.65 J0.498 F#100
N5880 G1 X10.327 Y56.546
N5885 X10.151 Y56.483
N5890 X9.98 Y56.405
N5895 X9.817 Y56.313
N5900 X9.662 Y56.207
N5905 X9.517 Y56.089
N5910 X9.382 Y55.959
N5915 X9.258 Y55.817
N5920 X9.148 Y55.666
N5925 X9.05 Y55.506
N5930 X8.967 Y55.338
N5935 X8.898 Y55.164
N5940 X8.844 Y54.984
N5945 X8.805 Y54.801
N5950 X8.782 Y54.614
N5955 X8.775 Y54.427
N5960 X8.785 Y54.24
N5965 X8.81 Y54.054
N5970 X8.85 Y53.871
N5975 X8.906 Y53.692
N5980 X8.977 Y53.519
N5985 X9.063 Y53.352
N5990 X9.162 Y53.193
N5995 X9.275 Y53.043
N6000 X9.4 Y52.903
N6005 X9.536 Y52.774
N6010 X9.683 Y52.658
N6015 X9.839 Y52.554
N6020 X10.004 Y52.464
N6025 X10.175 Y52.388
N6030 X10.353 Y52.327
N6035 X10.534 Y52.282
N6040 X10.72 Y52.252
N6045 X10.907 Y52.237
N6050 X11.094 Y52.239
N6055 X11.281 Y52.257
N6060 X11.465 Y52.29
N6065 X11.646 Y52.339
N6070 X11.822 Y52.404
N6075 X11.992 Y52.483
N6080 X12.155 Y52.576
N6085 X12.309 Y52.682
N6090 X12.454 Y52.802
N6095 X12.588 Y52.933
N6100 X12.71 Y53.075
N6105 X12.82 Y53.227
N6110 X12.916 Y53.388
N6115 X12.999 Y53.556
N6120 X13.067 Y53.731
N6125 G3 X9.847 Y56.905 I-2.062 J1.128
N6130 G1 X9.662 Y56.811
N6135 X9.484 Y56.703
N6140 X9.315 Y56.582
N6145 X9.156 Y56.448
N6150 X9.008 Y56.303
N6155 X8.871 Y56.147
N6160 X8.746 Y55.98
N6165 X8.635 Y55.805
N6170 X8.537 Y55.622
N6175 X8.454 Y55.431
N6180 X8.385 Y55.235
N6185 X8.332 Y55.034
N6190 X8.294 Y54.83
N6195 X8.271 Y54.624
N6200 X8.265 Y54.416
N6205 X8.274 Y54.208
N6210 X8.3 Y54.002
N6215 X8.341 Y53.799
N6220 X8.397 Y53.599
N6225 X8.469 Y53.404
N6230 X8.555 Y53.215
N6235 X8.656 Y53.033
N6240 X8.77 Y52.859
N6245 X8.897 Y52.695
N6250 X9.036 Y52.54
N6255 X9.186 Y52.397
N6260 X9.347 Y52.266
N6265 X9.518 Y52.147
N6270 X9.697 Y52.042
N6275 X9.884 Y51.951
N6280 X10.077 Y51.875
N6285 X10.276 Y51.813
N6290 X10.478 Y51.767
N6295 X10.684 Y51.736
N6300 X10.891 Y51.721
N6305 X11.099 Y51.722
N6310 X11.306 Y51.739
N6315 X11.511 Y51.772
N6320 X11.713 Y51.82
N6325 X11.911 Y51.883
N6330 X12.103 Y51.962
N6335 X12.289 Y52.055
N6340 X12.467 Y52.162
N6345 X12.637 Y52.282
N6350 X12.796 Y52.415
N6355 X12.946 Y52.559
N6360 X13.083 Y52.715
N6365 X13.209 Y52.88
N6370 X13.321 Y53.055
N6375 X13.42 Y53.238
N6380 G3 X9.411 Y57.29 I-2.442 J1.593
N6385 X12.538 Y51.57 I1.563 J-2.86
N6390 X13.564 Y52.45 I-1.563 J2.86
N6395 X8.976 Y57.706 I-2.609 J2.353
N6400 X8.049 Y51.942 I2. J-3.278
N6405 X13.887 Y51.923 I2.927 J2.485
N6410 X11.649 Y58.814 I-2.87 J2.877
N6415 X9.078 Y58.465 I-0.628 J-5.024
N6420 X6.645 Y53.488 I1.779 J-3.953
N6425 G2 X7.641 Y51.596 I-7.864 J-5.347
N6430 G3 X14.224 Y51.344 I3.404 J2.818
N6435 X14.61 Y51.802 I-3.179 J3.07 F#106
N6440 G2 X15.46 Y53.727 I4.085 J-0.654 F#100
N6445 G3 X13.495 Y58.74 I-4.249 J1.226
N6450 G1 X13.237 Y58.777
N6455 X12.987 Y58.799
N6460 X11.647
N6465 G3 X11.165 Y58.282 Z-6.65 I0.017 J-0.5 F#104
N6470 X11.242 Y58.031 I0.5 J0.017
N6475 G1 X11.518 Y57.597
N6480 X13.989 Y53.705 F#105
N6485 X14.305 Y53.206 F#103
N6490 G3 X14.434 Y53.069 I0.422 J0.268
N6495 X15.132 Y53.18 Z-6.75 I0.293 J0.405
N6500 X16.126 Y54.932 I-3.408 J3.093 F#100
N6505 X14.962 Y58.292 I-4.401 J0.356
N6510 X14.525 Y58.703 I-3.237 J-3.003 F#106
N6515 G1 X14.196 Y58.765 F#100
N6520 X13.883 Y58.799
N6525 X12.987
N6530 G3 X12.568 Y58.055 I0.017 J-0.5 F#104
N6535 G1 X12.588 Y58.019
N6540 X12.631 Y57.943 Z-6.742
N6545 X12.672 Y57.87 Z-6.72
N6550 X12.71 Y57.801 Z-6.683
N6555 X12.745 Y57.738 Z-6.633
N6560 X12.775 Y57.685 Z-6.571
N6565 X12.8 Y57.641 Z-6.5
N6570 X12.818 Y57.609 Z-6.421
N6575 X12.829 Y57.589 Z-6.337
N6580 X12.833 Y57.582 Z-6.25
N6585 G0 X11.387 Y58.691
N6590 G1 Z-6.75 F#103
N6595 G3 X10.673 Y58.799 I-0.825 J-3.056
N6600 X8.821 Y58.75 I-0.736 J-7.164 F#100
N6605 X5.953 Y54.575 I1.268 J-3.943
N6610 X6.804 Y53.315 I4.683 J2.244
N6615 G1 X6.856 Y53.25 Z-6.739 F#104
N6620 X6.92 Y53.195 Z-6.728
N6625 X6.993 Y53.152 Z-6.717
N6630 X7.072 Y53.121 Z-6.706
N6635 X7.156 Y53.105 Z-6.694
N6640 X7.242 Y53.104 Z-6.683
N6645 X7.327 Y53.118 Z-6.672
N6650 X7.409 Y53.147 Z-6.661
N6655 X7.485 Y53.189 Z-6.65
N6660 G3 X7.65 Y53.393 I-0.294 J0.405
N6665 G1 X7.857 Y53.864
N6670 X9.478 Y57.558 F#105
N6675 X9.715 Y58.098 F#103
N6680 G3 X9.756 Y58.282 I-0.458 J0.201
N6685 X9.274 Y58.799 Z-6.75 I-0.5 J0.017
N6690 X7.745 Y58.693 I-0.551 J-3.144 F#100
N6695 G1 X7.527 Y58.587
N6700 X7.315 Y58.467
N6705 X7.111 Y58.335
N6710 X6.915 Y58.191
N6715 X6.728 Y58.035
N6720 X6.551 Y57.869
N6725 X6.385 Y57.692
N6730 X6.229 Y57.505
N6735 X6.085 Y57.309
N6740 X5.953 Y57.104
N6745 X5.834 Y56.893
N6750 X5.728 Y56.674
N6755 X5.635 Y56.449
N6760 X5.556 Y56.219
N6765 X5.491 Y55.985
N6770 X5.44 Y55.747
N6775 X5.404 Y55.507
N6780 X5.382 Y55.265
N6785 G3 X6.032 Y54.162 I1.516 J0.151
N6790 G1 X6.56 Y53.725 Z-6.65 F#104
N6795 X7.074 Y53.298 F#103
N6800 X7.097 Y53.19
N6805 X7.261 Y52.422 Z-6.75
N6810 G3 X10.179 Y49.51 I3.138 J0.227 F#100
N6815 X13.886 Y50.265 I1.04 J4.368
N6820 X14.343 Y50.652 I-2.666 J3.613 F#106
N6825 X14.666 Y52.097 I-14.442 J3.989 F#100
N6830 G1 X14.673 Y52.184 Z-6.739 F#104
N6835 X14.664 Y52.272 Z-6.728
N6840 X14.64 Y52.356 Z-6.717
N6845 X14.602 Y52.435 Z-6.706
N6850 X14.551 Y52.506 Z-6.694
N6855 X14.488 Y52.567 Z-6.683
N6860 X14.416 Y52.616 Z-6.672
N6865 X14.337 Y52.652 Z-6.661
N6870 X14.252 Y52.673 Z-6.65
N6875 G3 X14.132 Y52.679 I-0.083 J-0.493
N6880 G1 X13.475 Y52.63
N6885 X8.636 Y52.272 F#105
N6890 X7.884 Y52.216 F#103
N6895 X7.858 Y52.214
N6900 G3 X7.425 Y51.655 Z-6.75 I0.063 J-0.496
N6905 X9.527 Y49.072 I2.591 J-0.038 F#100
N6910 G1 X9.776 Y48.985
N6915 X10.03 Y48.911
N6920 X10.287 Y48.851
N6925 X10.547 Y48.805
N6930 X10.808 Y48.773
N6935 X11.072 Y48.756
N6940 X11.335 Y48.752
N6945 X11.599 Y48.763
N6950 X11.862 Y48.789
N6955 X12.123 Y48.828
N6960 X12.381 Y48.882
N6965 X12.636 Y48.949
N6970 X12.887 Y49.03
N6975 X13.133 Y49.125
N6980 X13.374 Y49.232
N6985 X13.609 Y49.353
N6990 X13.837 Y49.486
N6995 X14.057 Y49.631
N7000 G3 X14.514 Y51.241 I-1.859 J1.398
N7005 X14.071 Y51.792 Z-6.65 I-0.497 J0.053 F#104
N7010 X13.995 Y51.794 I-0.054 J-0.497
N7015 G1 X13.292 Y51.764
N7020 X8.792 Y51.569 F#105
N7025 X8.013 Y51.535 F#103
N7030 X7.977 Y51.533 Z-6.655
N7035 G3 X7.498 Y51.049 Z-6.75 I0.022 J-0.5
N7040 X9.105 Y48.633 I2.223 J-0.264 F#100
N7045 G1 X9.352 Y48.518
N7050 X9.606 Y48.417
N7055 X9.864 Y48.33
N7060 X10.127 Y48.256
N7065 X10.394 Y48.198
N7070 X10.663 Y48.154
N7075 X10.934 Y48.125
N7080 X11.207 Y48.11
N7085 X11.48 Y48.111
N7090 X11.752 Y48.126
N7095 X12.024 Y48.157
N7100 X12.293 Y48.202
N7105 X12.559 Y48.261
N7110 X12.822 Y48.335
N7115 X13.08 Y48.424
N7120 X13.333 Y48.526
N7125 X13.58 Y48.642
N7130 X13.82 Y48.772
N7135 X14.053 Y48.914
N7140 G3 X14.494 Y50.698 I-1.634 J1.351
N7145 G1 X14.485 Y50.784 Z-6.739 F#104
N7150 X14.46 Y50.867 Z-6.728
N7155 X14.422 Y50.944 Z-6.717
N7160 X14.371 Y51.014 Z-6.706
N7165 X14.308 Y51.074 Z-6.694
N7170 X14.236 Y51.122 Z-6.683
N7175 X14.156 Y51.157 Z-6.672
N7180 X14.071 Y51.177 Z-6.661
N7185 X13.984 Y51.183 Z-6.65
N7190 X13.205 Y51.153
N7195 X8.796 Y50.981 F#105
N7200 X8.017 Y50.951 F#103
N7205 X7.98 Y50.949 Z-6.655
N7210 G3 X7.5 Y50.467 Z-6.75 I0.019 J-0.5
N7215 X9.125 Y48.01 I2.237 J-0.287 F#100
N7220 X14.06 Y48.22 I2.28 J4.493
N7225 X14.5 Y50.002 I-1.655 J1.354
N7230 X13.988 Y50.485 Z-6.651 I-0.5 J-0.017 F#104
N7235 G1 X13.983 Y50.484 Z-6.65
N7240 X13.204 Y50.465
N7245 X8.796 Y50.355 F#105
N7250 X8.017 Y50.335 F#103
N7255 X7.987 Y50.334 Z-6.654
N7260 G3 X7.5 Y49.852 Z-6.75 I0.012 J-0.5
N7265 X9.127 Y47.39 I2.251 J-0.281 F#100
N7270 X14.06 Y47.534 I2.338 J4.48
N7275 X14.5 Y49.314 I-1.674 J1.358
N7280 X13.995 Y49.797 Z-6.651 I-0.5 J-0.017 F#104
N7285 G1 X13.983 Z-6.65
N7290 X13.204 Y49.788
N7295 X8.796 Y49.738 F#105
N7300 X8.017 Y49.729 F#103
N7305 X7.994 Y49.728 Z-6.653
N7310 G3 X7.5 Y49.246 Z-6.75 I0.006 J-0.5
N7315 X9.096 Y46.779 I2.265 J-0.284 F#100
N7320 X14.049 Y46.848 I2.415 J4.455
N7325 X14.5 Y48.636 I-1.654 J1.368
N7330 X14.003 Y49.118 Z-6.652 I-0.5 J-0.017 F#104
N7335 G1 X13.983 Z-6.65
N7340 X13.204 Y49.122
N7345 X8.796 Y49.143 F#105
N7350 X8.017 Y49.146 F#103
N7355 X8.002 Y49.147 Z-6.652
N7360 G3 X7.5 Y48.664 Z-6.75 I-0.002 J-0.5
N7365 X9.103 Y46.148 I2.296 J-0.306 F#100
N7370 X14.046 Y46.176 I2.446 J4.422
N7375 X14.5 Y47.964 I-1.653 J1.372
N7380 X14.007 Y48.447 Z-6.653 I-0.5 J-0.017 F#104
N7385 G1 X13.983 Z-6.65
N7390 X13.204 Y48.458
N7395 X8.796 Y48.52 F#105
N7400 X8.017 Y48.531 F#103
N7405 X8.007 Z-6.651
N7410 G3 X7.5 Y48.049 Z-6.75 I-0.007 J-0.5
N7415 X9.158 Y45.491 I2.329 J-0.306 F#100
N7420 X14.053 Y45.516 I2.425 J4.371
N7425 X14.5 Y47.297 I-1.674 J1.367
N7430 X14.008 Y47.78 Z-6.653 I-0.5 J-0.017 F#104
N7435 G1 X13.983 Z-6.65
N7440 X13.204 Y47.793
N7445 X8.796 Y47.863 F#105
N7450 X8.017 Y47.875 F#103
N7455 X8.008 Y47.876 Z-6.651
N7460 G3 X7.5 Y47.393 Z-6.75 I-0.008 J-0.5
N7465 X9.135 Y44.866 I2.334 J-0.282 F#100
N7470 X14.044 Y44.847 I2.472 J4.344
N7475 X14.5 Y46.633 I-1.652 J1.373
N7480 X14.013 Y47.116 Z-6.654 I-0.5 J-0.017 F#104
N7485 G1 X13.983 Y47.117 Z-6.65
N7490 X13.204 Y47.136
N7495 X8.796 Y47.249 F#105
N7500 X8.017 Y47.269 F#103
N7505 X8.012 Z-6.651
N7510 G3 X7.5 Y46.787 Z-6.75 I-0.013 J-0.5
N7515 X9.127 Y44.23 I2.355 J-0.298 F#100
N7520 X14.039 Y44.183 I2.497 J4.327
N7525 X14.5 Y45.973 I-1.641 J1.377
N7530 X14.016 Y46.455 Z-6.654 I-0.5 J-0.017 F#104
N7535 G1 X13.983 Y46.456 Z-6.65
N7540 X13.204 Y46.481
N7545 X8.796 Y46.622 F#105
N7550 X8.017 Y46.647 F#103
N7555 X8.016
N7560 G3 X7.5 Y46.164 Z-6.75 I-0.016 J-0.5
N7565 X9.103 Y43.599 I2.367 J-0.305 F#100
N7570 X14.03 Y43.52 I2.534 J4.315
N7575 X14.5 Y45.315 I-1.623 J1.383
N7580 X14.02 Y45.797 Z-6.655 I-0.5 J-0.017 F#104
N7585 G1 X13.983 Y45.798 Z-6.65
N7590 X13.204 Y45.829
N7595 X8.796 Y46.001 F#105
N7600 X8.019 Y46.031 F#103
N7605 G3 X7.5 Y45.549 Z-6.75 I-0.02 J-0.5
N7610 X9.129 Y42.943 I2.39 J-0.319 F#100
N7615 X14.033 Y42.866 I2.52 J4.294
N7620 X14.5 Y44.658 I-1.631 J1.381
N7625 X14.02 Y45.141 Z-6.655 I-0.5 J-0.017 F#104
N7630 G1 X13.983 Y45.142 Z-6.65
N7635 X13.204 Y45.172
N7640 X8.796 Y45.345 F#105
N7645 X8.019 Y45.376 F#103
N7650 G3 X7.5 Y44.893 Z-6.75 I-0.02 J-0.5
N7655 X9.151 Y42.288 I2.399 J-0.306 F#100
N7660 X14.036 Y42.214 I2.508 J4.27
N7665 X14.5 Y44.003 I-1.637 J1.379
N7670 X14.02 Y44.485 Z-6.655 I-0.5 J-0.017 F#104
N7675 G1 X13.983 Y44.486 Z-6.65
N7680 X13.204 Y44.517
N7685 X8.796 Y44.69 F#105
N7690 X8.019 Y44.72 F#103
N7695 G3 X7.5 Y44.238 Z-6.75 I-0.02 J-0.5
N7700 X9.115 Y41.659 I2.394 J-0.296 F#100
N7705 X14.027 Y41.552 I2.55 J4.268
N7710 X14.5 Y43.348 I-1.615 J1.385
N7715 X14.023 Y43.83 Z-6.655 I-0.5 J-0.017 F#104
N7720 G1 X13.983 Y43.832 Z-6.65
N7725 X13.205 Y43.868
N7730 X8.795 Y44.069 F#105
N7735 X8.017 Y44.105 F#103
N7740 G3 X7.5 Y43.623 Z-6.75 I-0.017 J-0.5
N7745 X9.13 Y41.003 I2.412 J-0.316 F#100
N7750 X14.029 Y40.9 I2.54 J4.261
N7755 X14.5 Y42.694 I-1.62 J1.384
N7760 X14.023 Y43.177 Z-6.655 I-0.5 J-0.017 F#104
N7765 G1 X13.983 Y43.178 Z-6.65
N7770 X13.205 Y43.214
N7775 X8.795 Y43.414 F#105
N7780 X8.017 Y43.449 F#103
N7785 G3 X7.5 Y42.967 Z-6.75 I-0.017 J-0.5
N7790 X9.144 Y40.348 I2.417 J-0.308 F#100
N7795 X14.031 Y40.249 I2.53 J4.248
N7800 X14.5 Y42.041 I-1.624 J1.383
N7805 X14.023 Y42.523 Z-6.655 I-0.5 J-0.017 F#104
N7810 G1 X13.983 Y42.525 Z-6.65
N7815 X13.205 Y42.56
N7820 X8.795 Y42.758 F#105
N7825 X8.017 Y42.793 F#103
N7830 G3 X7.5 Y42.311 Z-6.75 I-0.017 J-0.5
N7835 X9.156 Y39.694 I2.42 J-0.301 F#100
N7840 X14.033 Y39.598 I2.523 J4.238
N7845 X14.5 Y41.388 I-1.629 J1.381
N7850 X14.023 Y41.871 Z-6.655 I-0.5 J-0.017 F#104
N7855 G1 X13.983 Y41.872 Z-6.65
N7860 X13.205 Y41.907
N7865 X8.795 Y42.103 F#105
N7870 X8.017 Y42.138 F#103
N7875 G3 X7.5 Y41.655 Z-6.75 I-0.017 J-0.5
N7880 X9.099 Y39.071 I2.408 J-0.297 F#100
N7885 X14.02 Y38.936 I2.579 J4.249
N7890 X14.5 Y40.736 I-1.599 J1.39
N7895 X14.026 Y41.218 Z-6.655 I-0.5 J-0.017 F#104
N7900 G1 X13.983 Y41.22 Z-6.65
N7905 X13.205 Y41.261
N7910 X8.795 Y41.491 F#105
N7915 X8.026 Y41.531 F#103
N7920 X8.017
N7925 G3 X7.5 Y41.049 Z-6.75 I-0.017 J-0.5
N7930 X9.109 Y38.416 I2.426 J-0.326 F#100
N7935 X14.021 Y38.285 I2.572 J4.251
N7940 X14.5 Y40.084 I-1.602 J1.39
N7945 X14.026 Y40.566 Z-6.655 I-0.5 J-0.017 F#104
N7950 G1 X13.983 Y40.568 Z-6.65
N7955 X13.205 Y40.608
N7960 X8.795 Y40.836 F#105
N7965 X8.025 Y40.875 F#103
N7970 X8.017 Y40.876
N7975 G3 X7.5 Y40.393 Z-6.75 I-0.017 J-0.5
N7980 X9.119 Y37.761 I2.428 J-0.321 F#100
N7985 X14.023 Y37.634 I2.563 J4.243
N7990 X14.5 Y39.432 I-1.606 J1.388
N7995 X14.026 Y39.914 Z-6.655 I-0.5 J-0.017 F#104
N8000 G1 X13.983 Y39.916 Z-6.65
N8005 X13.205 Y39.956
N8010 X8.795 Y40.18 F#105
N8015 X8.025 Y40.22 F#103
N8020 X8.017
N8025 G3 X7.5 Y39.738 Z-6.75 I-0.017 J-0.5
N8030 X9.127 Y37.107 I2.429 J-0.316 F#100
N8035 X14.024 Y36.984 I2.557 J4.237
N8040 X14.5 Y38.781 I-1.609 J1.387
N8045 X14.025 Y39.263 Z-6.655 I-0.5 J-0.017 F#104
N8050 G1 X13.983 Y39.265 Z-6.65
N8055 X13.205 Y39.304
N8060 X8.795 Y39.525 F#105
N8065 X8.025 Y39.564 F#103
N8070 X8.017
N8075 G3 X7.5 Y39.082 Z-6.75 I-0.017 J-0.5
N8080 X9.135 Y36.453 I2.43 J-0.312 F#100
N8085 X14.026 Y36.334 I2.55 J4.233
N8090 X14.5 Y38.129 I-1.613 J1.386
N8095 X14.025 Y38.611 Z-6.655 I-0.5 J-0.017 F#104
N8100 G1 X13.983 Y38.613 Z-6.65
N8105 X13.205 Y38.652
N8110 X8.795 Y38.87 F#105
N8115 X8.024 Y38.908 F#103
N8120 X8.017 Y38.909
N8125 G3 X7.5 Y38.426 Z-6.75 I-0.017 J-0.5
N8130 X9.142 Y35.799 I2.431 J-0.308 F#100
N8135 X14.028 Y35.683 I2.544 J4.229
N8140 X14.5 Y37.477 I-1.616 J1.385
N8145 X14.025 Y37.959 Z-6.655 I-0.5 J-0.017 F#104
N8150 G1 X13.983 Y37.961 Z-6.65
N8155 X13.205 Y37.999
N8160 X8.795 Y38.215 F#105
N8165 X8.024 Y38.252 F#103
N8170 X8.017 Y38.253
N8175 G3 X7.5 Y37.771 Z-6.75 I-0.017 J-0.5
N8180 X9.149 Y35.145 I2.431 J-0.304 F#100
N8185 X14.029 Y35.033 I2.538 J4.226
N8190 X14.5 Y36.826 I-1.62 J1.384
N8195 X14.024 Y37.308 Z-6.655 I-0.5 J-0.017 F#104
N8200 G1 X13.983 Y37.31 Z-6.65
N8205 X13.205 Y37.347
N8210 X8.795 Y37.56 F#105
N8215 X8.024 Y37.597 F#103
N8220 X8.017
N8225 G3 X7.5 Y37.115 Z-6.75 I-0.017 J-0.5
N8230 X9.111 Y34.512 I2.421 J-0.301 F#100
N8235 X14.021 Y34.375 I2.575 J4.236
N8240 X14.5 Y36.174 I-1.601 J1.39
N8245 X14.027 Y36.656 Z-6.656 I-0.5 J-0.017 F#104
N8250 G1 X13.983 Y36.658 Z-6.65
N8255 X13.205 Y36.7
N8260 X8.795 Y36.933 F#105
N8265 X8.026 Y36.974 F#103
N8270 X8.017
N8275 G3 X7.5 Y36.492 Z-6.75 I-0.017 J-0.5
N8280 X9.117 Y33.857 I2.432 J-0.321 F#100
N8285 X14.022 Y33.725 I2.569 J4.239
N8290 X14.5 Y35.523 I-1.604 J1.389
N8295 X14.026 Y36.005 Z-6.655 I-0.5 J-0.017 F#104
N8300 G1 X13.983 Y36.007 Z-6.65
N8305 X13.205 Y36.048
N8310 X8.795 Y36.278 F#105
N8315 X8.026 Y36.318 F#103
N8320 X8.017 Y36.319
N8325 G3 X7.5 Y35.836 Z-6.75 I-0.017 J-0.5
N8330 X9.125 Y33.203 I2.433 J-0.317 F#100
N8335 X14.023 Y33.074 I2.562 J4.234
N8340 X14.5 Y34.872 I-1.606 J1.388
N8345 X14.026 Y35.354 Z-6.655 I-0.5 J-0.017 F#104
N8350 G1 X13.983 Y35.356 Z-6.65
N8355 X13.205 Y35.396
N8360 X8.795 Y35.623 F#105
N8365 X8.025 Y35.663 F#103
N8370 X8.017
N8375 G3 X7.5 Y35.181 Z-6.75 I-0.017 J-0.5
N8380 X9.131 Y32.549 I2.433 J-0.313 F#100
N8385 X14.025 Y32.424 I2.556 J4.231
N8390 X14.5 Y34.221 I-1.609 J1.387
N8395 X14.026 Y34.703 Z-6.655 I-0.5 J-0.017 F#104
N8400 G1 X13.983 Y34.705 Z-6.65
N8405 X13.205 Y34.744
N8410 X8.795 Y34.968 F#105
N8415 X8.025 Y35.007 F#103
N8420 X8.017
N8425 G3 X7.5 Y34.525 Z-6.75 I-0.017 J-0.5
N8430 X9.138 Y31.895 I2.433 J-0.31 F#100
N8435 X14.026 Y31.774 I2.55 J4.228
N8440 X14.5 Y33.569 I-1.613 J1.386
N8445 X14.025 Y34.051 Z-6.655 I-0.5 J-0.017 F#104
N8450 G1 X13.983 Y34.053 Z-6.65
N8455 X13.205 Y34.092
N8460 X8.795 Y34.313 F#105
N8465 X8.025 Y34.351 F#103
N8470 X8.017 Y34.352
N8475 G3 X7.5 Y33.869 Z-6.75 I-0.017 J-0.5
N8480 X9.089 Y31.267 I2.421 J-0.308 F#100
N8485 X14.016 Y31.115 I2.597 J4.24
N8490 X14.5 Y32.918 I-1.589 J1.393
N8495 X14.028 Y33.4 Z-6.656 I-0.5 J-0.017 F#104
N8500 G1 X13.983 Y33.402 Z-6.65
N8505 X13.205 Y33.446
N8510 X8.795 Y33.693 F#105
N8515 X8.028 Y33.736 F#103
N8520 X8.017
N8525 G3 X7.5 Y33.254 Z-6.75 I-0.017 J-0.5
N8530 X9.095 Y30.612 I2.434 J-0.333 F#100
N8535 X14.017 Y30.464 I2.591 J4.245
N8540 X14.5 Y32.267 I-1.592 J1.393
N8545 X14.028 Y32.749 Z-6.656 I-0.5 J-0.017 F#104
N8550 G1 X13.983 Y32.751 Z-6.65
N8555 X13.205 Y32.794
N8560 X8.795 Y33.038 F#105
N8565 X8.027 Y33.08 F#103
N8570 X8.017 Y33.081
N8575 G3 X7.5 Y32.598 Z-6.75 I-0.017 J-0.5
N8580 X9.103 Y29.958 I2.434 J-0.329 F#100
N8585 X14.018 Y29.815 I2.584 J4.24
N8590 X14.5 Y31.616 I-1.595 J1.392
N8595 X14.027 Y32.098 Z-6.656 I-0.5 J-0.017 F#104
N8600 G1 X13.983 Y32.1 Z-6.65
N8605 X13.205 Y32.143
N8610 X8.795 Y32.383 F#105
N8615 X8.027 Y32.424 F#103
N8620 X8.017 Y32.425
N8625 G3 X7.5 Y31.943 Z-6.75 I-0.017 J-0.5
N8630 X9.109 Y29.304 I2.434 J-0.325 F#100
N8635 X14.019 Y29.165 I2.577 J4.237
N8640 X14.5 Y30.965 I-1.598 J1.391
N8645 X14.027 Y31.447 Z-6.656 I-0.5 J-0.017 F#104
N8650 G1 X13.983 Y31.449 Z-6.65
N8655 X13.205 Y31.491
N8660 X8.795 Y31.727 F#105
N8665 X8.026 Y31.769 F#103
N8670 X8.017
N8675 G3 X7.5 Y31.287 Z-6.75 I-0.017 J-0.5
N8680 X9.116 Y28.65 I2.435 J-0.322 F#100
N8685 X14.021 Y28.515 I2.571 J4.234
N8690 X14.5 Y30.314 I-1.601 J1.39
N8695 X14.027 Y30.796 Z-6.656 I-0.5 J-0.017 F#104
N8700 G1 X13.983 Y30.798 Z-6.65
N8705 X13.205 Y30.839
N8710 X8.795 Y31.072 F#105
N8715 X8.026 Y31.113 F#103
N8720 X8.017
N8725 G3 X7.5 Y30.631 Z-6.75 I-0.017 J-0.5
N8730 X9.122 Y27.996 I2.434 J-0.318 F#100
N8735 X14.022 Y27.865 I2.565 J4.232
N8740 X14.5 Y29.663 I-1.604 J1.389
N8745 X14.026 Y30.145 Z-6.655 I-0.5 J-0.017 F#104
N8750 G1 X13.983 Y30.147 Z-6.65
N8755 X13.205 Y30.187
N8760 X8.795 Y30.417 F#105
N8765 X8.026 Y30.457 F#103
N8770 X8.017 Y30.458
N8775 G3 X7.5 Y29.975 Z-6.75 I-0.017 J-0.5
N8780 X9.128 Y27.342 I2.434 J-0.315 F#100
N8785 X14.024 Y27.214 I2.56 J4.23
N8790 X14.5 Y29.012 I-1.607 J1.388
N8795 X14.026 Y29.493 Z-6.655 I-0.5 J-0.017 F#104
N8800 G1 X13.983 Y29.496 Z-6.65
N8805 X13.205 Y29.536
N8810 X8.795 Y29.762 F#105
N8815 X8.025 Y29.802 F#103
N8820 X8.017
N8825 G3 X7.5 Y29.32 Z-6.75 I-0.017 J-0.5
N8830 X9.134 Y26.688 I2.434 J-0.312 F#100
N8835 X14.025 Y26.564 I2.554 J4.228
N8840 X14.5 Y28.36 I-1.61 J1.387
N8845 X14.026 Y28.842 Z-6.655 I-0.5 J-0.017 F#104
N8850 G1 X13.983 Y28.844 Z-6.65
N8855 X13.205 Y28.884
N8860 X8.795 Y29.107 F#105
N8865 X8.025 Y29.146 F#103
N8870 X8.017
N8875 G3 X7.5 Y28.664 Z-6.75 I-0.017 J-0.5
N8880 X9.14 Y26.034 I2.433 J-0.309 F#100
N8885 X14.026 Y25.914 I2.549 J4.226
N8890 X14.5 Y27.709 I-1.613 J1.386
N8895 X14.025 Y28.191 Z-6.655 I-0.5 J-0.017 F#104
N8900 G1 X13.983 Y28.193 Z-6.65
N8905 X13.205 Y28.232
N8910 X8.795 Y28.452 F#105
N8915 X8.025 Y28.49 F#103
N8920 X8.017
N8925 G3 X7.5 Y28.008 Z-6.75 I-0.017 J-0.5
N8930 X9.146 Y25.38 I2.433 J-0.306 F#100
N8935 X14.028 Y25.264 I2.543 J4.225
N8940 X14.5 Y27.058 I-1.617 J1.385
N8945 X14.025 Y27.54 Z-6.655 I-0.5 J-0.017 F#104
N8950 G1 X13.983 Y27.542 Z-6.65
N8955 X13.205 Y27.58
N8960 X8.795 Y27.797 F#105
N8965 X8.024 Y27.834 F#103
N8970 X8.017 Y27.835
N8975 G3 X7.5 Y27.352 Z-6.75 I-0.017 J-0.5
N8980 X9.097 Y24.753 I2.421 J-0.303 F#100
N8985 X14.018 Y24.605 I2.59 J4.238
N8990 X14.5 Y26.406 I-1.593 J1.392
N8995 X14.028 Y26.888 Z-6.656 I-0.5 J-0.017 F#104
N9000 G1 X13.983 Y26.891 Z-6.65
N9005 X13.205 Y26.933
N9010 X8.795 Y27.177 F#105
N9015 X8.027 Y27.219 F#103
N9020 X8.017 Y27.22
N9025 G3 X7.5 Y26.737 Z-6.75 I-0.017 J-0.5
N9030 X9.103 Y24.098 I2.434 J-0.329 F#100
N9035 X14.018 Y23.954 I2.584 J4.243
N9040 X14.5 Y25.755 I-1.596 J1.392
N9045 X14.027 Y26.237 Z-6.656 I-0.5 J-0.017 F#104
N9050 G1 X13.983 Y26.24 Z-6.65
N9055 X13.205 Y26.282
N9060 X8.795 Y26.522 F#105
N9065 X8.027 Y26.563 F#103
N9070 X8.017 Y26.564
N9075 G3 X7.5 Y26.082 Z-6.75 I-0.017 J-0.5
N9080 X9.11 Y23.443 I2.434 J-0.325 F#100
N9085 X14.02 Y23.304 I2.577 J4.238
N9090 X14.5 Y25.104 I-1.598 J1.391
N9095 X14.027 Y25.586 Z-6.656 I-0.5 J-0.017 F#104
N9100 G1 X13.983 Y25.589 Z-6.65
N9105 X13.205 Y25.63
N9110 X8.795 Y25.866 F#105
N9115 X8.026 Y25.908 F#103
N9120 X8.017
N9125 G3 X7.5 Y25.426 Z-6.75 I-0.017 J-0.5
N9130 X9.116 Y22.789 I2.434 J-0.321 F#100
N9135 X14.021 Y22.654 I2.571 J4.235
N9140 X14.5 Y24.453 I-1.601 J1.39
N9145 X14.027 Y24.935 Z-6.656 I-0.5 J-0.017 F#104
N9150 G1 X13.983 Y24.938 Z-6.65
N9155 X13.205 Y24.979
N9160 X8.795 Y25.211 F#105
N9165 X8.026 Y25.252 F#103
N9170 X8.017
N9175 G3 X7.5 Y24.77 Z-6.75 I-0.017 J-0.5
N9180 X9.123 Y22.135 I2.434 J-0.318 F#100
N9185 X14.022 Y22.004 I2.565 J4.232
N9190 X14.5 Y23.802 I-1.604 J1.389
N9195 X14.026 Y24.284 Z-6.655 I-0.5 J-0.017 F#104
N9200 G1 X13.983 Y24.286 Z-6.65
N9205 X13.205 Y24.327
N9210 X8.795 Y24.556 F#105
N9215 X8.026 Y24.596 F#103
N9220 X8.017 Y24.597
N9225 G3 X7.5 Y24.114 Z-6.75 I-0.017 J-0.5
N9230 X9.129 Y21.481 I2.434 J-0.315 F#100
N9235 X14.024 Y21.354 I2.559 J4.23
N9240 X14.5 Y23.151 I-1.607 J1.388
N9245 X14.026 Y23.633 Z-6.655 I-0.5 J-0.017 F#104
N9250 G1 X13.983 Y23.635 Z-6.65
N9255 X13.205 Y23.675
N9260 X8.795 Y23.901 F#105
N9265 X8.025 Y23.94 F#103
N9270 X8.017 Y23.941
N9275 G3 X7.5 Y23.459 Z-6.75 I-0.017 J-0.5
N9280 X9.135 Y20.827 I2.434 J-0.311 F#100
N9285 X14.025 Y20.704 I2.553 J4.228
N9290 X14.5 Y22.5 I-1.611 J1.387
N9295 X14.026 Y22.982 Z-6.655 I-0.5 J-0.017 F#104
N9300 G1 X13.983 Y22.984 Z-6.65
N9305 X13.205 Y23.023
N9310 X8.795 Y23.246 F#105
N9315 X8.025 Y23.285 F#103
N9320 X8.017
N9325 G3 X7.5 Y22.803 Z-6.75 I-0.017 J-0.5
N9330 X9.141 Y20.173 I2.433 J-0.308 F#100
N9335 X14.027 Y20.054 I2.548 J4.226
N9340 X14.5 Y21.848 I-1.614 J1.385
N9345 X14.025 Y22.33 Z-6.655 I-0.5 J-0.017 F#104
N9350 G1 X13.983 Y22.333 Z-6.65
N9355 X13.205 Y22.371
N9360 X8.795 Y22.591 F#105
N9365 X8.025 Y22.629 F#103
N9370 X8.017
N9375 G3 X7.5 Y22.147 Z-6.75 I-0.017 J-0.5
N9380 X9.147 Y19.519 I2.433 J-0.305 F#100
N9385 X14.028 Y19.404 I2.542 J4.224
N9390 X14.5 Y21.197 I-1.617 J1.384
N9395 X14.025 Y21.679 Z-6.655 I-0.5 J-0.017 F#104
N9400 G1 X13.983 Y21.681 Z-6.65
N9405 X13.205 Y21.719
N9410 X8.795 Y21.935 F#105
N9415 X8.024 Y21.973 F#103
N9420 X8.017 Y21.974
N9425 G3 X7.5 Y21.491 Z-6.75 I-0.017 J-0.5
N9430 X9.152 Y18.865 I2.433 J-0.302 F#100
N9435 X14.029 Y18.753 I2.537 J4.223
N9440 X14.5 Y20.546 I-1.62 J1.383
N9445 X14.024 Y21.028 Z-6.655 I-0.5 J-0.017 F#104
N9450 G1 X13.983 Y21.03 Z-6.65
N9455 X13.205 Y21.067
N9460 X8.795 Y21.28 F#105
N9465 X8.017 Y21.318 F#103
N9470 G3 X7.5 Y20.836 Z-6.75 I-0.017 J-0.5
N9475 X9.091 Y18.244 I2.418 J-0.3 F#100
N9480 X14.016 Y18.092 I2.595 J4.239
N9485 X14.5 Y19.894 I-1.59 J1.393
N9490 X14.028 Y20.376 Z-6.656 I-0.5 J-0.017 F#104
N9495 G1 X13.983 Y20.379 Z-6.65
N9500 X13.205 Y20.422
N9505 X8.795 Y20.668 F#105
N9510 X8.028 Y20.711 F#103
N9515 X8.017 Y20.712
N9520 G3 X7.5 Y20.229 Z-6.75 I-0.017 J-0.5
N9525 X9.097 Y17.588 I2.434 J-0.332 F#100
N9530 X14.017 Y17.441 I2.589 J4.245
N9535 X14.5 Y19.244 I-1.593 J1.393
N9540 X14.028 Y19.725 Z-6.656 I-0.5 J-0.017 F#104
N9545 G1 X13.983 Y19.728 Z-6.65
N9550 X13.205 Y19.771
N9555 X8.795 Y20.013 F#105
N9560 X8.027 Y20.056 F#103
N9565 X8.017
N9570 G3 X7.5 Y19.574 Z-6.75 I-0.017 J-0.5
N9575 X9.105 Y16.934 I2.434 J-0.328 F#100
N9580 X14.018 Y16.792 I2.582 J4.24
N9585 X14.5 Y18.593 I-1.596 J1.392
N9590 X14.027 Y19.074 Z-6.656 I-0.5 J-0.017 F#104
N9595 G1 X13.983 Y19.077 Z-6.65
N9600 X13.205 Y19.119
N9605 X8.795 Y19.358 F#105
N9610 X8.027 Y19.4 F#103
N9615 X8.017
N9620 G3 X7.5 Y18.918 Z-6.75 I-0.017 J-0.5
N9625 X9.111 Y16.28 I2.434 J-0.324 F#100
N9630 X14.02 Y16.142 I2.576 J4.236
N9635 X14.5 Y17.942 I-1.599 J1.39
N9640 X14.027 Y18.423 Z-6.656 I-0.5 J-0.017 F#104
N9645 G1 X13.983 Y18.426 Z-6.65
N9650 X13.205 Y18.467
N9655 X8.795 Y18.703 F#105
N9660 X8.026 Y18.744 F#103
N9665 X8.017
N9670 G3 X7.5 Y18.262 Z-6.75 I-0.017 J-0.5
N9675 X9.118 Y15.626 I2.434 J-0.321 F#100
N9680 X14.021 Y15.492 I2.57 J4.234
N9685 X14.5 Y17.291 I-1.602 J1.389
N9690 X14.027 Y17.772 Z-6.656 I-0.5 J-0.017 F#104
N9695 G1 X13.983 Y17.775 Z-6.65
N9700 X13.205 Y17.816
N9705 X8.795 Y18.048 F#105
N9710 X8.026 Y18.088 F#103
N9715 X8.017 Y18.089
N9720 G3 X7.5 Y17.606 Z-6.75 I-0.017 J-0.5
N9725 X9.124 Y14.972 I2.434 J-0.317 F#100
N9730 X14.023 Y14.842 I2.564 J4.232
N9735 X14.5 Y16.639 I-1.605 J1.388
N9740 X14.026 Y17.121 Z-6.655 I-0.5 J-0.017 F#104
N9745 G1 X13.983 Y17.123 Z-6.65
N9750 X13.205 Y17.164
N9755 X8.795 Y17.393 F#105
N9760 X8.026 Y17.433 F#103
N9765 X8.017
N9770 G3 X7.5 Y16.951 Z-6.75 I-0.017 J-0.5
N9775 X9.13 Y14.318 I2.434 J-0.314 F#100
N9780 X14.024 Y14.191 I2.558 J4.23
N9785 X14.5 Y15.988 I-1.608 J1.387
N9790 X14.026 Y16.47 Z-6.655 I-0.5 J-0.017 F#104
N9795 G1 X13.983 Y16.472 Z-6.65
N9800 X13.205 Y16.512
N9805 X8.795 Y16.738 F#105
N9810 X8.025 Y16.777 F#103
N9815 X8.017
N9820 G3 X7.5 Y16.295 Z-6.75 I-0.017 J-0.5
N9825 X9.136 Y13.664 I2.434 J-0.311 F#100
N9830 X14.025 Y13.541 I2.552 J4.228
N9835 X14.5 Y15.337 I-1.611 J1.386
N9840 X14.025 Y15.819 Z-6.655 I-0.5 J-0.017 F#104
N9845 G1 X13.983 Y15.821 Z-6.65
N9850 X13.205 Y15.86
N9855 X8.795 Y16.082 F#105
N9860 X8.025 Y16.121 F#103
N9865 X8.017 Y16.122
N9870 G3 X7.5 Y15.639 Z-6.75 I-0.017 J-0.5
N9875 X9.142 Y13.01 I2.433 J-0.308 F#100
N9880 X14.027 Y12.891 I2.547 J4.226
N9885 X14.5 Y14.686 I-1.614 J1.385
N9890 X14.025 Y15.168 Z-6.655 I-0.5 J-0.017 F#104
N9895 G1 X13.983 Y15.17 Z-6.65
N9900 X13.205 Y15.208
N9905 X8.795 Y15.427 F#105
N9910 X8.024 Y15.465 F#103
N9915 X8.017 Y15.466
N9920 G3 X7.5 Y14.984 Z-6.75 I-0.017 J-0.5
N9925 X9.147 Y12.356 I2.433 J-0.305 F#100
N9930 X14.028 Y12.241 I2.541 J4.224
N9935 X14.5 Y14.034 I-1.618 J1.384
N9940 X14.025 Y14.516 Z-6.655 I-0.5 J-0.017 F#104
N9945 G1 X13.983 Y14.518 Z-6.65
N9950 X13.205 Y14.556
N9955 X8.795 Y14.772 F#105
N9960 X8.024 Y14.81 F#103
N9965 X8.017
N9970 G3 X7.5 Y14.328 Z-6.75 I-0.017 J-0.5
N9975 X9.108 Y11.724 I2.423 J-0.302 F#100
N9980 X14.02 Y11.583 I2.579 J4.235
N9985 X14.5 Y13.383 I-1.599 J1.39
N9990 X14.027 Y13.865 Z-6.656 I-0.5 J-0.017 F#104
N9995 G1 X13.983 Y13.867 Z-6.65
N10000 X13.205 Y13.909
N10005 X8.795 Y14.146 F#105
N10010 X8.027 Y14.187 F#103
N10015 X8.017 Y14.188
N10020 G3 X7.5 Y13.705 Z-6.75 I-0.017 J-0.5
N10025 X9.114 Y11.069 I2.434 J-0.322 F#100
N10030 X14.021 Y10.933 I2.573 J4.238
N10035 X14.5 Y12.732 I-1.602 J1.39
N10040 X14.027 Y13.214 Z-6.656 I-0.5 J-0.017 F#104
N10045 G1 X13.983 Y13.216 Z-6.65
N10050 X13.205 Y13.257
N10055 X8.795 Y13.491 F#105
N10060 X8.026 Y13.531 F#103
N10065 X8.017 Y13.532
N10070 G3 X7.5 Y13.05 Z-6.75 I-0.017 J-0.5
N10075 X9.121 Y10.415 I2.434 J-0.319 F#100
N10080 X14.022 Y10.283 I2.566 J4.234
N10085 X14.5 Y12.081 I-1.604 J1.389
N10090 X14.026 Y12.563 Z-6.655 I-0.5 J-0.017 F#104
N10095 G1 X13.983 Y12.565 Z-6.65
N10100 X13.205 Y12.606
N10105 X8.795 Y12.836 F#105
N10110 X8.026 Y12.876 F#103
N10115 X8.017
N10120 G3 X7.5 Y12.394 Z-6.75 I-0.017 J-0.5
N10125 X9.128 Y9.761 I2.434 J-0.315 F#100
N10130 X14.024 Y9.633 I2.56 J4.231
N10135 X14.5 Y11.43 I-1.607 J1.388
N10140 X14.026 Y11.912 Z-6.655 I-0.5 J-0.017 F#104
N10145 G1 X13.983 Y11.914 Z-6.65
N10150 X13.205 Y11.954
N10155 X8.795 Y12.18 F#105
N10160 X8.025 Y12.22 F#103
N10165 X8.017
N10170 G3 X7.5 Y11.738 Z-6.75 I-0.017 J-0.5
N10175 X9.79 Y8.858 I2.653 J-0.241 F#100
N10180 G1 X9.99 Y8.799
N10185 G3 X10.472 Y9.316 Z-6.65 I-0.017 J0.5 F#104
N10190 X10.306 Y9.671 I-0.5 J-0.017
N10195 G1 X10.026 Y9.922
N10200 X8.655 Y11.15 F#105
N10205 X8.333 Y11.437 F#103
N10210 G3 X8.017 Y11.565 I-0.334 J-0.372
N10215 X7.5 Y11.082 Z-6.75 I-0.017 J-0.5
N10220 X9.092 Y8.764 I1.858 J-0.43 F#100
N10225 G1 X9.175 Y8.776 Z-6.74 F#104
N10230 X9.255 Y8.801 Z-6.73
N10235 X9.329 Y8.838 Z-6.72
N10240 X9.397 Y8.886 Z-6.71
N10245 X9.455 Y8.944 Z-6.7
N10250 X9.504 Y9.009 Z-6.69
N10255 X9.541 Y9.081 Z-6.68
N10260 X9.566 Y9.157 Z-6.67
N10265 X9.579 Y9.236 Z-6.66
N10270 Y9.316 Z-6.65
N10275 G3 X9.438 Y9.647 I-0.5 J-0.017
N10280 G1 X9.151 Y9.942
N10285 X8.635 Y10.473 F#105
N10290 X8.358 Y10.758 F#103
N10295 G3 X8.017 Y10.909 I-0.359 J-0.349
N10300 X7.5 Y10.427 Z-6.75 I-0.017 J-0.5
N10305 X7.69 Y9.22 I1.595 J-0.367 F#100
N10310 X8.517 Y8.799 I0.827 J0.6
N10315 X9.21 Y9.121 Z-6.65 I-0.034 J0.979 F#104
N10320 X9.46 Y9.838 I-0.727 J0.656
N10325 X9.43 Y10.027 I-0.978 J-0.06 F#105
N10330 X8.538 Y10.757 I-0.949 J-0.25
N10335 X7.822 Y10.504 I-0.057 J-0.98 F#103
N10340 X7.5 Y9.811 Z-6.75 I0.659 J-0.727
N10345 G1 X7.476 Y9.693 F#100
N10350 X7.466 Y9.572
N10355 X7.47 Y9.451
N10360 X7.487 Y9.331
N10365 X7.518 Y9.214
N10370 X7.562 Y9.102
N10375 X7.618 Y8.995
N10380 X7.686 Y8.931 Z-6.738 F#104
N10385 X7.762 Y8.88 Z-6.726
N10390 X7.847 Y8.841 Z-6.714
N10395 X7.936 Y8.816 Z-6.702
N10400 X8.028 Y8.806 Z-6.691
N10405 X8.121 Y8.81 Z-6.679
N10410 X8.212 Y8.829 Z-6.667
N10415 G3 X8.332 Y8.882 Z-6.65 I-0.16 J0.526
N10420 X7.977 Y9.901 I-0.28 J0.473
N10425 G1 X7.95 Y9.896 Z-6.654 F#103
N10430 G3 X7.501 Y9.36 Z-6.75 I0.102 J-0.541
N10435 X8.056 Y8.798 I0.517 J-0.044 F#100
N10440 G1 X12.889 Y8.799
N10445 G3 X14.507 Y10.282 I0.091 J1.524
N10450 G1 X14.495 Y10.369 Z-6.739 F#104
N10455 X14.469 Y10.453 Z-6.728
N10460 X14.428 Y10.531 Z-6.717
N10465 X14.375 Y10.601 Z-6.706
N10470 X14.31 Y10.661 Z-6.694
N10475 X14.236 Y10.708 Z-6.683
N10480 X14.156 Y10.741 Z-6.672
N10485 X14.07 Y10.76 Z-6.661
N10490 X13.983 Y10.764 Z-6.65
N10495 G3 X13.669 Y10.639 I0.017 J-0.5
N10500 G1 X13.343 Y10.351
N10505 X12.855 Y9.92 F#105
N10510 X12.576 Y9.673 F#103
N10515 G3 X12.407 Y9.316 I0.331 J-0.375
N10520 X12.889 Y8.799 Z-6.75 I0.5 J-0.017
N10525 G1 X13.667 F#100
N10530 G3 X14.497 Y9.675 I-0.024 J0.855
N10535 G1 X14.486 Y9.786 Z-6.736 F#104
N10540 X14.459 Y9.895 Z-6.721
N10545 X14.418 Y9.999 Z-6.707
N10550 X14.363 Y10.096 Z-6.693
N10555 X14.295 Y10.185 Z-6.679
N10560 X14.215 Y10.264 Z-6.664
N10565 X14.126 Y10.331 Z-6.65
N10570 G3 X13.443 Y10.419 I-0.436 J-0.684
N10575 G1 X13.379 Y10.396
N10580 G3 X12.915 Y9.912 I0.317 J-0.767 F#105
N10585 X13.006 Y9.166 I0.78 J-0.284 F#103
N10590 X13.667 Y8.799 Z-6.75 I0.69 J0.462
N10595 X14.5 Y9.41 I0.237 J0.551 F#100
N10600 G1 Y10.779
N10605 G3 X13.716 Y11.172 I-0.5 J-0.017 F#104
N10610 G1 X13.669 Y11.123 Z-6.745
N10615 X13.623 Y11.076 Z-6.731
N10620 X13.579 Y11.03 Z-6.709
N10625 X13.552 Y10.96 Z-6.668
N10630 X13.528 Y10.898 Z-6.616
N10635 X13.507 Y10.845 Z-6.553
N10640 X13.504 Y10.81 Z-6.499
N10645 X13.502 Y10.782 Z-6.442
N10650 X13.5 Y10.761 Z-6.381
N10655 Y10.754 Z-6.353
N10660 X13.501 Y10.746 Z-6.302
N10665 Y10.744 Z-6.25
N10670 G0 Z-6.15
N10675 X8.494 Y57.579
N10680 G1 Z-6.65 F#103
N10685 X8.755 Y58.06
N10690 G3 X8.816 Y58.282 I-0.439 J0.239
N10695 X8.333 Y58.799 Z-6.75 I-0.5 J0.017
N10700 G1 X8.12 Y58.817 F#100
N10705 X7.905 Y58.82
N10710 X7.691 Y58.807
N10715 X7.479 Y58.779
N10720 X7.269 Y58.736
N10725 X7.063 Y58.677
N10730 X6.861 Y58.604
N10735 X6.665 Y58.517
N10740 X6.476 Y58.416
N10745 X6.295 Y58.301
N10750 X6.123 Y58.174
N10755 X5.96 Y58.034
N10760 X5.807 Y57.884
N10765 X5.666 Y57.722
N10770 X5.537 Y57.551
N10775 X5.42 Y57.371
N10780 X5.317 Y57.184
N10785 X5.228 Y56.989
N10790 X5.152 Y56.788
N10795 X5.092 Y56.583
N10800 X5.046 Y56.373
N10805 X5.016 Y56.161
N10810 X5.025 Y56.077 Z-6.739 F#104
N10815 X5.048 Y55.996 Z-6.728
N10820 X5.085 Y55.92 Z-6.717
N10825 X5.135 Y55.851 Z-6.706
N10830 X5.197 Y55.791 Z-6.694
N10835 X5.268 Y55.743 Z-6.683
N10840 X5.346 Y55.708 Z-6.672
N10845 X5.43 Y55.687 Z-6.661
N10850 X5.517 Y55.68 Z-6.65
N10855 G3 X5.859 Y55.833 I-0.017 J0.5
N10860 G1 X6.134 Y56.117
N10865 X7.62 Y57.655 F#105
N10870 X7.907 Y57.952 F#103
N10875 G3 X8.047 Y58.282 I-0.36 J0.347
N10880 X7.565 Y58.799 Z-6.75 I-0.5 J0.017
N10885 X5.102 Y57.7 I-0.462 J-2.273 F#100
N10890 G1 X5.03 Y57.406
N10895 X5. Y57.109
N10900 G3 X5.517 Y56.627 Z-6.65 I0.5 J0.017 F#104
N10905 X5.834 Y56.755 I-0.017 J0.5
N10910 G1 X6.154 Y57.043
N10915 X6.857 Y57.675 F#105
N10920 X7.137 Y57.927 F#103
N10925 G3 X7.303 Y58.282 I-0.334 J0.372
N10930 X6.821 Y58.799 Z-6.75 I-0.5 J0.017
N10935 G1 X6.093 F#100
N10940 G3 X5.002 Y57.669 I0.026 J-1.117
N10945 G1 X5.011 Y57.557 Z-6.736 F#104
N10950 X5.033 Y57.447 Z-6.721
N10955 X5.065 Y57.34 Z-6.707
N10960 X5.109 Y57.237 Z-6.693
N10965 X5.164 Y57.14 Z-6.679
N10970 X5.228 Y57.048 Z-6.664
N10975 X5.302 Y56.964 Z-6.65
N10980 G3 X5.996 Y56.647 I0.758 J0.742
N10985 X6.363 Y56.69 I0.064 J1.059 F#105
N10990 X7.129 Y57.812 I-0.308 J1.032
N10995 X6.8 Y58.5 I-1.074 J-0.09 F#103
N11000 X6.093 Y58.799 Z-6.75 I-0.745 J-0.778
N11005 X5.136 Y58.564 I-0.293 J-0.874 F#100
N11010 G1 X5.035 Y58.378
N11015 X5. Y58.17
N11020 G3 X5.179 Y57.756 Z-6.691 I0.618 J0.022 F#104
N11025 X5.455 Y57.596 Z-6.65 I0.435 J0.431
N11030 X6.206 Y58.341 I0.158 J0.591
N11035 X5.635 Y58.799 Z-6.75 I-0.593 J-0.154 F#103
N11040 X4.997 Y58.262 I-0.098 J-0.531 F#100
N11045 G1 X5. Y55.312
N11050 G3 X5.333 Y54.625 I0.767 J-0.052
N11055 G1 X5.412 Y54.586 Z-6.739 F#104
N11060 X5.495 Y54.562 Z-6.728
N11065 X5.582 Y54.552 Z-6.717
N11070 X5.669 Y54.558 Z-6.706
N11075 X5.754 Y54.578 Z-6.694
N11080 X5.834 Y54.614 Z-6.683
N11085 X5.906 Y54.662 Z-6.672
N11090 X5.969 Y54.722 Z-6.661
N11095 X6.021 Y54.792 Z-6.65
N11100 G3 X6.06 Y55.235 I-0.427 J0.261
N11105 G1 X6.037 Y55.292
N11110 X5.965 Y55.476 F#103
N11115 G3 X5.517 Y55.794 I-0.466 J-0.182
N11120 X5. Y55.312 Z-6.75 I-0.017 J-0.5
N11125 G1 X4.994 Y55.208 F#100
N11130 X5.002 Y55.104
N11135 X5.024 Y55.003
N11140 X5.06 Y54.905
N11145 X5.108 Y54.813
N11150 X5.169 Y54.728
N11155 X5.24 Y54.653
N11160 X5.321 Y54.587
N11165 X5.41 Y54.534
N11170 X5.505 Y54.492
N11175 X5.605 Y54.464
N11180 X6.033 Y54.163
N11185 X6.298 Y54.087 Z-6.715 F#104
N11190 X6.807 Y54.068 Z-6.65
N11195 X7.586 Y54.039
N11200 X14.09 Y53.794 F#105
N11205 X14.869 Y53.765 F#103
N11210 X15.417 Y53.744 Z-6.72
N11215 X15.623 Y53.86 Z-6.75
N11220 G3 X16.449 Y56.725 I-1.34 J1.937 F#100
N11225 X14.996 Y58.794 I-2.517 J-0.222
N11230 G1 X14.649 Y58.799
N11235 X13.883
N11240 G3 X13.401 Y58.282 Z-6.65 I0.017 J-0.5 F#104
N11245 X13.451 Y58.08 I0.5 J0.017
N11250 G1 X13.701 Y57.568
N11255 X14.938 Y55.027 F#105
N11260 X15.258 Y54.371 F#103
N11265 X15.269 Y54.349
N11270 X15.281 Y54.328
N11275 G3 X15.969 Y54.164 Z-6.75 I0.426 J0.262
N11280 X17. Y55.601 I-0.53 J1.469 F#100
N11285 X16.483 Y56.084 Z-6.65 I-0.5 J-0.017 F#104
N11290 X16.049 Y55.8 I0.017 J-0.5
N11295 G1 X15.948 Y55.588
N11300 X15.843 Y55.368 F#105
N11305 X15.721 Y55.115 F#103
N11310 G3 X15.746 Y54.637 I0.451 J-0.216
N11315 X16.434 Y54.473 Z-6.75 I0.426 J0.262
N11320 X17. Y55.148 I-0.148 J0.7 F#100
N11325 X16.718 Y57.808 I-5.739 J0.738
N11330 X15.308 Y58.799 I-1.43 J-0.537
N11335 X14.826 Y58.282 Z-6.65 I0.017 J-0.5 F#104
N11340 X14.905 Y58.028 I0.5 J0.017
N11345 G1 X15.181 Y57.599
N11350 X15.919 Y56.456 F#105
N11355 X16.08 Y56.206 F#103
N11360 G3 X16.483 Y55.977 I0.42 J0.271
N11365 X17. Y56.459 Z-6.75 I0.017 J0.5
N11370 G1 Y57.657 F#100
N11375 G3 X15.854 Y58.798 I-1.141 J0.
N11380 G1 X15.768 Y58.788 Z-6.739 F#104
N11385 X15.685 Y58.762 Z-6.728
N11390 X15.607 Y58.723 Z-6.717
N11395 X15.538 Y58.671 Z-6.706
N11400 X15.478 Y58.607 Z-6.694
N11405 X15.431 Y58.534 Z-6.683
N11410 X15.397 Y58.454 Z-6.672
N11415 X15.377 Y58.369 Z-6.661
N11420 X15.372 Y58.282 Z-6.65
N11425 G3 X15.519 Y57.945 I0.5 J0.017
N11430 G1 X15.805 Y57.661
N11435 X15.861 Y57.605 F#105
N11440 X16.148 Y57.319 F#103
N11445 G3 X16.483 Y57.174 I0.353 J0.354
N11450 X17. Y57.656 Z-6.75 I0.017 J0.5
N11455 G1 Y58.149 F#100
N11460 G3 X16.356 Y58.797 I-0.63 J0.018
N11465 G1 X16.263 Y58.787 Z-6.738 F#104
N11470 X16.172 Y58.763 Z-6.726
N11475 X16.085 Y58.726 Z-6.714
N11480 X16.004 Y58.677 Z-6.702
N11485 X15.932 Y58.616 Z-6.69
N11490 G3 X15.773 Y58.351 Z-6.65 I0.441 J-0.446
N11495 X16.549 Y57.568 I0.6 J-0.181
N11500 X17. Y58.148 Z-6.75 I-0.176 J0.602 F#103
N11505 X16.398 Y58.802 I-0.539 J0.107 F#100
N11510 G1 X14.649 Y58.799
N11515 G3 X14.347 Y58.684 I0.017 J-0.5 F#104
N11520 G1 X13.782 Y58.214
N11525 X13.715 Y58.159 Z-6.742
N11530 X13.65 Y58.105 Z-6.72
N11535 X13.589 Y58.054 Z-6.683
N11540 X13.534 Y58.009 Z-6.633
N11545 X13.487 Y57.969 Z-6.571
N11550 X13.448 Y57.937 Z-6.5
N11555 X13.42 Y57.914 Z-6.421
N11560 X13.403 Y57.899 Z-6.337
N11565 X13.397 Y57.895 Z-6.25
N11570 G0 Z4.
(2D ADAPTIVE1)
N11580 M9
N11585 G0 X37.16 Y54.691
N11590 Z4.
N11595 Z1.5
N11600 G1 Z1. F#103
N11605 S2600
N11610 G3 X34.097 Y56.464 Z0.783 I-2.16 J-0.199 F#107
N11615 X33.443 Y53.017 Z0.566 I0.895 J-1.955
N11620 X36.882 Y53.537 Z0.349 I1.535 J1.479
N11625 X35.267 Y56.583 Z0.132 I-1.887 J0.95
N11630 X32.949 Y54.073 Z-0.085 I-0.27 J-2.076
N11635 X36.057 Y52.729 Z-0.302 I2.03 J0.429
N11640 X36.294 Y56.075 Z-0.519 I-1.067 J1.757
N11645 X33.087 Y55.199 Z-0.736 I-1.293 J-1.574
N11650 X34.958 Y52.489 Z-0.953 I1.896 J-0.692
N11655 X36.878 Y55.127 Z-1.17 I0.025 J1.999
N11660 X33.783 Y56.056 Z-1.387 I-1.877 J-0.632
N11665 X33.93 Y52.859 Z-1.603 I1.207 J-1.547
N11670 X36.869 Y54.044 Z-1.82 I1.05 J1.635
N11675 X34.798 Y56.402 Z-2.037 I-1.872 J0.445
N11680 X33.273 Y53.693 Z-2.254 I0.198 J-1.895
N11685 X36.304 Y53.158 Z-2.471 I1.705 J0.806
N11690 X35.811 Y56.164 Z-2.688 I-1.312 J1.329
N11695 X33.164 Y54.718 Z-2.905 I-0.811 J-1.661
N11700 X35.382 Y52.72 Z-3.122 I1.817 J-0.213
N11705 X36.521 Y55.446 Z-3.339 I-0.397 J1.767
N11710 X33.603 Y55.617 Z-3.556 I-1.52 J-0.949
N11715 X34.4 Y52.836 Z-3.773 I1.384 J-1.108
N11720 X36.734 Y54.491 Z-3.99 I0.581 J1.655
N11725 X33.227 I-1.754 J0.
N11730 X36.734 I1.754 J0.
N11735 S3000
N11740 X34.493 Y56.609 I-1.651 J0.498 F#100
N11745 G1 X34.312 Y56.562
N11750 X34.135 Y56.499
N11755 X33.965 Y56.422
N11760 X33.801 Y56.33
N11765 X33.646 Y56.225
N11770 X33.501 Y56.107
N11775 X33.366 Y55.977
N11780 X33.242 Y55.836
N11785 X33.131 Y55.685
N11790 X33.034 Y55.525
N11795 X32.95 Y55.357
N11800 X32.88 Y55.183
N11805 X32.826 Y55.004
N11810 X32.787 Y54.821
N11815 X32.764 Y54.635
N11820 X32.756 Y54.448
N11825 X32.765 Y54.261
N11830 X32.789 Y54.075
N11835 X32.829 Y53.892
N11840 X32.885 Y53.713
N11845 X32.955 Y53.539
N11850 X33.04 Y53.372
N11855 X33.139 Y53.213
N11860 X33.251 Y53.063
N11865 X33.375 Y52.923
N11870 X33.511 Y52.793
N11875 X33.657 Y52.676
N11880 X33.813 Y52.572
N11885 X33.977 Y52.481
N11890 X34.148 Y52.405
N11895 X34.324 Y52.343
N11900 X34.506 Y52.297
N11905 X34.691 Y52.266
N11910 X34.878 Y52.251
N11915 X35.065
N11920 X35.251 Y52.268
N11925 X35.436 Y52.301
N11930 X35.617 Y52.349
N11935 X35.793 Y52.412
N11940 X35.964 Y52.49
N11945 X36.127 Y52.582
N11950 X36.282 Y52.688
N11955 X36.427 Y52.806
N11960 X36.561 Y52.936
N11965 X36.685 Y53.078
N11970 X36.795 Y53.229
N11975 X36.893 Y53.389
N11980 X36.976 Y53.557
N11985 X37.045 Y53.731
N11990 G3 X33.71 Y56.858 I-2.067 J1.138
N11995 G1 X33.532 Y56.757
N12000 X33.362 Y56.643
N12005 X33.202 Y56.516
N12010 X33.051 Y56.377
N12015 X32.911 Y56.228
N12020 X32.783 Y56.068
N12025 X32.667 Y55.899
N12030 X32.564 Y55.722
N12035 X32.475 Y55.538
N12040 X32.4 Y55.347
N12045 X32.34 Y55.152
N12050 X32.294 Y54.952
N12055 X32.264 Y54.75
N12060 X32.249 Y54.546
N12065 Y54.341
N12070 X32.265 Y54.137
N12075 X32.296 Y53.934
N12080 X32.342 Y53.735
N12085 X32.404 Y53.54
N12090 X32.479 Y53.349
N12095 X32.569 Y53.165
N12100 X32.673 Y52.989
N12105 X32.789 Y52.82
N12110 X32.918 Y52.661
N12115 X33.058 Y52.512
N12120 X33.21 Y52.374
N12125 X33.371 Y52.248
N12130 X33.541 Y52.134
N12135 X33.719 Y52.034
N12140 X33.905 Y51.947
N12145 X34.096 Y51.874
N12150 X34.292 Y51.816
N12155 X34.493 Y51.773
N12160 X34.695 Y51.745
N12165 X34.9 Y51.733
N12170 X35.105 Y51.736
N12175 X35.308 Y51.754
N12180 X35.51 Y51.787
N12185 X35.709 Y51.836
N12190 X35.904 Y51.9
N12195 X36.093 Y51.978
N12200 X36.276 Y52.07
N12205 X36.451 Y52.176
N12210 X36.618 Y52.294
N12215 X36.776 Y52.425
N12220 X36.923 Y52.567
N12225 X37.059 Y52.72
N12230 X37.183 Y52.883
N12235 X37.295 Y53.054
N12240 X37.393 Y53.234
N12245 G3 X33.411 Y57.317 I-2.434 J1.61
N12250 X36.503 Y51.573 I1.546 J-2.872
N12255 X37.532 Y52.443 I-1.546 J2.872
N12260 X32.827 Y57.634 I-2.6 J2.371
N12265 X32.074 Y51.906 I2.131 J-3.194
N12270 X37.851 Y51.915 I2.885 J2.535
N12275 X35.691 Y58.819 I-2.852 J2.897
N12280 X33.407 Y58.621 I-0.556 J-6.857
N12285 X30.621 Y53.519 I1.437 J-4.097
N12290 G2 X31.638 Y51.596 I-7.533 J-5.214
N12295 G3 X38.232 Y51.381 I3.393 J2.828
N12300 X38.615 Y51.842 I-3.202 J3.043 F#106
N12305 G2 X39.438 Y53.693 I4.053 J-0.695 F#100
N12310 G3 X37.502 Y58.74 I-4.252 J1.264
N12315 G1 X37.241 Y58.777
N12320 X36.99 Y58.799
N12325 X35.687
N12330 X34.509 F#103
N12335 G3 X32.755 Y58.744 I-0.692 J-6.003 F#100
N12340 X29.941 Y55.052 I1.297 J-3.907
N12345 X29.953 Y54.453 I4.111 J-0.215 F#106
N12350 G1 X30.766 Y53.332 F#100
N12355 G3 X31.464 Y53.221 Z-3.89 I0.405 J0.294 F#104
N12360 X31.63 Y53.428 I-0.294 J0.405
N12365 G1 X31.832 Y53.898
N12370 X33.408 Y57.557 F#105
N12375 X33.642 Y58.101 F#103
N12380 G3 X33.683 Y58.282 I-0.459 J0.198
N12385 X33.201 Y58.799 Z-3.99 I-0.5 J0.017
N12390 X31.566 Y58.636 I-0.536 J-2.893 F#100
N12395 X29.359 Y55.262 I1.87 J-3.632
N12400 X30.023 Y54.168 I1.557 J0.195
N12405 G1 X30.101 Y54.129 Z-3.979 F#104
N12410 X30.185 Y54.104 Z-3.968
N12415 X30.271 Y54.094 Z-3.957
N12420 X30.358 Y54.099 Z-3.946
N12425 X30.443 Y54.12 Z-3.934
N12430 X30.523 Y54.154 Z-3.923
N12435 X30.596 Y54.203 Z-3.912
N12440 X30.659 Y54.263 Z-3.901
N12445 X30.711 Y54.333 Z-3.89
N12450 X31.1 Y54.535
N12455 X31.401 Y54.416
N12460 X31.408 Y54.4
N12465 X31.541 Y54.093 F#105
N12470 X31.52 Y53.965
N12475 X31.391 Y53.196 F#103
N12480 X31.261 Y52.422 Z-3.99
N12485 G3 X34.18 Y49.52 I3.125 J0.224 F#100
N12490 X37.891 Y50.292 I1.026 J4.374
N12495 X38.347 Y50.682 I-2.685 J3.602 F#106
N12500 X38.673 Y52.134 I-13.737 J3.848 F#100
N12505 G2 X39.135 Y53.178 I2.264 J-0.377 F#103
N12510 G3 X40.118 Y54.936 I-3.396 J3.053 F#100
N12515 X38.771 Y58.517 I-4.585 J0.318
N12520 G1 X38.49 Y58.666
N12525 X38.193 Y58.765
N12530 X37.881 Y58.799
N12535 X36.99
N12540 G3 X36.508 Y58.282 Z-3.89 I0.017 J-0.5 F#104
N12545 X36.571 Y58.055 I0.5 J0.017
N12550 G1 X36.835 Y57.582
N12555 X38.525 Y54.558 F#105
N12560 G3 X38.917 Y53.885 I2.306 J0.894 F#103
N12565 X39.623 Y53.86 Z-3.99 I0.366 J0.341
N12570 X40.452 Y56.69 I-1.353 J1.933 F#100
N12575 X39.45 Y58.518 I-2.496 J-0.18
N12580 X38.93 Y58.815 I-1.494 J-2.008 F#106
N12585 G1 X38.644 Y58.799 F#100
N12590 X37.881
N12595 X37.168 Y58.471 Z-3.89 F#104
N12600 X36.46 Y58.145
N12605 X34.509 Y57.248 F#105
N12610 G2 X33.038 Y57.557 I-0.559 J0.994
N12615 X32.852 Y57.935 I0.912 J0.685 F#103
N12620 G1 X32.775 Y58.282
N12625 G3 X32.293 Y58.799 Z-3.99 I-0.5 J0.017
N12630 G1 X32.083 Y58.817 F#100
N12635 X31.872 Y58.82
N12640 X31.661 Y58.808
N12645 X31.452 Y58.781
N12650 X31.245 Y58.739
N12655 X31.042 Y58.682
N12660 X30.843 Y58.611
N12665 X30.65 Y58.526
N12670 X30.464 Y58.427
N12675 X30.285 Y58.315
N12680 X30.115 Y58.19
N12685 X29.954 Y58.054
N12690 X29.803 Y57.906
N12695 X29.663 Y57.748
N12700 X29.535 Y57.581
N12705 X29.419 Y57.404
N12710 X29.317 Y57.22
N12715 X29.227 Y57.029
N12720 X29.152 Y56.832
N12725 X29.091 Y56.63
N12730 X29.045 Y56.424
N12735 X29.013 Y56.215
N12740 X29.022 Y56.131 Z-3.979 F#104
N12745 X29.046 Y56.05 Z-3.968
N12750 X29.084 Y55.973 Z-3.957
N12755 X29.134 Y55.904 Z-3.946
N12760 X29.196 Y55.845 Z-3.934
N12765 X29.267 Y55.797 Z-3.923
N12770 X29.346 Y55.762 Z-3.912
N12775 X29.43 Y55.741 Z-3.901
N12780 X29.517 Y55.735 Z-3.89
N12785 G3 X29.859 Y55.887 I-0.017 J0.5
N12790 G1 X30.134 Y56.171
N12795 X31.571 Y57.655 F#105
N12800 X31.857 Y57.951 F#103
N12805 G3 X31.998 Y58.282 I-0.359 J0.348
N12810 X31.515 Y58.799 Z-3.99 I-0.5 J0.017
N12815 X29.117 Y57.749 I-0.453 J-2.229 F#100
N12820 G1 X29.033 Y57.442
N12825 X29. Y57.131
N12830 G3 X29.517 Y56.649 Z-3.89 I0.5 J0.017 F#104
N12835 X29.836 Y56.779 I-0.017 J0.5
N12840 G1 X30.152 Y57.066
N12845 X30.818 Y57.673 F#105
N12850 X31.099 Y57.93 F#103
N12855 G3 X31.262 Y58.282 I-0.337 J0.37
N12860 X30.78 Y58.799 Z-3.99 I-0.5 J0.017
N12865 X29.461 Y58.595 I-0.403 J-1.759 F#100
N12870 X29. Y57.694 I0.649 J-0.9
N12875 X29.303 Y56.989 Z-3.89 I1.057 J0.037 F#104
N12880 X29.997 Y56.675 I0.754 J0.742
N12885 X30.334 Y56.71 I0.06 J1.056 F#105
N12890 X31.116 Y57.805 I-0.278 J1.026
N12895 X30.798 Y58.497 I-1.061 J-0.068 F#103
N12900 X30.093 Y58.799 Z-3.99 I-0.743 J-0.761
N12905 G1 X29.602 F#100
N12910 G3 X29. Y58.184 I0.006 J-0.608
N12915 X29.473 Y57.632 Z-3.89 I0.583 J0.02 F#104
N12920 X29.742 Y57.643 I0.11 J0.573
N12925 X29.838 Y57.68 I-0.16 J0.567
N12930 X30.158 Y58.329 I-0.257 J0.53 F#103
N12935 X29.602 Y58.799 Z-3.99 I-0.577 J-0.119
N12940 X28.998 Y58.262 I-0.075 J-0.524 F#100
N12945 G1 X29. Y55.312
N12950 G3 X29.324 Y54.631 I0.754 J-0.059
N12955 G1 X29.402 Y54.592 Z-3.979 F#104
N12960 X29.486 Y54.568 Z-3.968
N12965 X29.572 Y54.558 Z-3.957
N12970 X29.66 Y54.564 Z-3.946
N12975 X29.744 Y54.585 Z-3.934
N12980 X29.824 Y54.62 Z-3.923
N12985 X29.897 Y54.668 Z-3.912
N12990 X29.96 Y54.728 Z-3.901
N12995 X30.011 Y54.798 Z-3.89
N13000 G3 X30.055 Y55.229 I-0.427 J0.261
N13005 G1 X30.033 Y55.29
N13010 X29.97 Y55.464 F#103
N13015 G3 X29.517 Y55.794 I-0.47 J-0.17
N13020 X29. Y55.312 Z-3.99 I-0.017 J-0.5
N13025 G1 X28.994 Y55.208 F#100
N13030 X29.002 Y55.104
N13035 X29.024 Y55.003
N13040 X29.06 Y54.905
N13045 X29.108 Y54.813
N13050 X29.169 Y54.728
N13055 X29.24 Y54.653
N13060 X29.321 Y54.587
N13065 X29.41 Y54.534
N13070 X29.505 Y54.492
N13075 X29.605 Y54.464
N13080 X30.024 Y54.169
N13085 X30.637 Y53.679 Z-3.89 F#104
N13090 X31.231 Y53.205
N13095 X31.238 Y53.2 F#103
N13100 X31.33 Y52.435
N13105 X31.425 Y51.655 Z-3.99
N13110 G3 X33.532 Y49.08 I2.582 J-0.037 F#100
N13115 G1 X33.781 Y48.994
N13120 X34.035 Y48.921
N13125 X34.292 Y48.862
N13130 X34.552 Y48.817
N13135 X34.814 Y48.786
N13140 X35.077 Y48.769
N13145 X35.341 Y48.767
N13150 X35.605 Y48.778
N13155 X35.867 Y48.805
N13160 X36.128 Y48.845
N13165 X36.386 Y48.899
N13170 X36.641 Y48.968
N13175 X36.892 Y49.049
N13180 X37.138 Y49.145
N13185 X37.378 Y49.254
N13190 X37.612 Y49.375
N13195 X37.84 Y49.509
N13200 X38.059 Y49.655
N13205 G3 X38.518 Y51.267 I-1.909 J1.414
N13210 X38.075 Y51.818 Z-3.89 I-0.497 J0.053 F#104
N13215 X37.997 Y51.82 I-0.054 J-0.497
N13220 G1 X37.296 Y51.787
N13225 X32.792 Y51.572 F#105
N13230 X32.013 Y51.535 F#103
N13235 X31.974 Y51.533 Z-3.895
N13240 G3 X31.498 Y51.049 Z-3.99 I0.024 J-0.499
N13245 X33.112 Y48.64 I2.217 J-0.26 F#100
N13250 G1 X33.36 Y48.526
N13255 X33.613 Y48.425
N13260 X33.872 Y48.339
N13265 X34.135 Y48.267
N13270 X34.401 Y48.209
N13275 X34.671 Y48.166
N13280 X34.942 Y48.137
N13285 X35.214 Y48.124
N13290 X35.487 Y48.125
N13295 X35.759 Y48.142
N13300 X36.03 Y48.173
N13305 X36.299 Y48.219
N13310 X36.565 Y48.279
N13315 X36.827 Y48.354
N13320 X37.085 Y48.443
N13325 X37.338 Y48.546
N13330 X37.584 Y48.663
N13335 X37.824 Y48.793
N13340 X38.056 Y48.936
N13345 G3 X38.494 Y50.719 I-1.641 J1.348
N13350 G1 X38.485 Y50.804 Z-3.979 F#104
N13355 X38.46 Y50.887 Z-3.968
N13360 X38.422 Y50.965 Z-3.957
N13365 X38.371 Y51.034 Z-3.946
N13370 X38.308 Y51.094 Z-3.934
N13375 X38.236 Y51.142 Z-3.923
N13380 X38.156 Y51.177 Z-3.912
N13385 X38.071 Y51.198 Z-3.901
N13390 X37.984 Y51.203 Z-3.89
N13395 X37.206 Y51.17
N13400 X32.795 Y50.984 F#105
N13405 X32.017 Y50.951 F#103
N13410 X31.979 Y50.949 Z-3.895
N13415 G3 X31.5 Y50.467 Z-3.99 I0.021 J-0.5
N13420 X33.134 Y48.017 I2.232 J-0.282 F#100
N13425 X38.063 Y48.241 I2.265 J4.498
N13430 X38.5 Y50.021 I-1.663 J1.351
N13435 X37.986 Y50.503 Z-3.89 I-0.5 J-0.017 F#104
N13440 G1 X37.983
N13445 X37.204 Y50.481
N13450 X32.796 Y50.357 F#105
N13455 X32.017 Y50.335 F#103
N13460 X31.986 Y50.334 Z-3.894
N13465 G3 X31.5 Y49.852 Z-3.99 I0.014 J-0.5
N13470 X33.093 Y47.415 I2.238 J-0.276 F#100
N13475 X38.052 Y47.546 I2.363 J4.49
N13480 X38.5 Y49.332 I-1.649 J1.363
N13485 X37.996 Y49.815 Z-3.892 I-0.5 J-0.017 F#104
N13490 G1 X37.983 Z-3.89
N13495 X37.204 Y49.808
N13500 X32.796 Y49.769 F#105
N13505 X32.017 Y49.762 F#103
N13510 X31.995 Z-3.893
N13515 G3 X31.5 Y49.279 Z-3.99 I0.004 J-0.5
N13520 X33.109 Y46.785 I2.271 J-0.301 F#100
N13525 X38.053 Y46.868 I2.397 J4.461
N13530 X38.5 Y48.653 I-1.664 J1.366
N13535 X38.001 Y49.136 Z-3.892 I-0.5 J-0.017 F#104
N13540 G1 X37.983 Z-3.89
N13545 X37.204 Y49.137
N13550 X32.796 Y49.145 F#105
N13555 X32.017 Y49.147 F#103
N13560 X32.001 Z-3.892
N13565 G3 X31.5 Y48.664 Z-3.99 I-0.001 J-0.5
N13570 X33.117 Y46.154 I2.293 J-0.298 F#100
N13575 X38.05 Y46.195 I2.429 J4.421
N13580 X38.5 Y47.981 I-1.662 J1.369
N13585 X38.006 Y48.463 Z-3.893 I-0.5 J-0.017 F#104
N13590 G1 X37.983 Z-3.89
N13595 X37.204 Y48.472
N13600 X32.796 Y48.522 F#105
N13605 X32.017 Y48.531 F#103
N13610 X32.005 Z-3.891
N13615 G3 X31.5 Y48.049 Z-3.99 I-0.006 J-0.5
N13620 X33.104 Y45.528 I2.313 J-0.299 F#100
N13625 X38.042 Y45.523 I2.472 J4.39
N13630 X38.5 Y47.313 I-1.646 J1.375
N13635 X38.011 Y47.796 Z-3.894 I-0.5 J-0.017 F#104
N13640 G1 X37.983 Z-3.89
N13645 X37.204 Y47.813
N13650 X32.796 Y47.908 F#105
N13655 X32.017 Y47.925 F#103
N13660 X32.01 Z-3.891
N13665 G3 X31.5 Y47.443 Z-3.99 I-0.011 J-0.5
N13670 X33.151 Y44.871 I2.346 J-0.31 F#100
N13675 X38.048 Y44.866 I2.453 J4.348
N13680 X38.5 Y46.65 I-1.663 J1.371
N13685 X38.012 Y47.132 Z-3.894 I-0.5 J-0.017 F#104
N13690 G1 X37.983 Y47.133 Z-3.89
N13695 X37.204 Y47.151
N13700 X32.796 Y47.251 F#105
N13705 X32.017 Y47.269 F#103
N13710 X32.011 Z-3.891
N13715 G3 X31.5 Y46.787 Z-3.99 I-0.011 J-0.5
N13720 X33.144 Y44.236 I2.354 J-0.288 F#100
N13725 X38.043 Y44.202 I2.479 J4.321
N13730 X38.5 Y45.989 I-1.65 J1.374
N13735 X38.015 Y46.471 Z-3.894 I-0.5 J-0.017 F#104
N13740 G1 X37.983 Y46.472 Z-3.89
N13745 X37.204 Y46.495
N13750 X32.796 Y46.624 F#105
N13755 X32.017 Y46.647 F#103
N13760 X32.014
N13765 G3 X31.5 Y46.164 Z-3.99 I-0.015 J-0.5
N13770 X33.12 Y43.605 I2.365 J-0.295 F#100
N13775 X38.035 Y43.538 I2.516 J4.31
N13780 X38.5 Y45.33 I-1.632 J1.38
N13785 X38.019 Y45.812 Z-3.894 I-0.5 J-0.017 F#104
N13790 G1 X37.983 Y45.813 Z-3.89
N13795 X37.204 Y45.842
N13800 X32.796 Y46.003 F#105
N13805 X32.018 Y46.031 F#103
N13810 G3 X31.5 Y45.549 Z-3.99 I-0.018 J-0.5
N13815 X33.146 Y42.949 I2.389 J-0.309 F#100
N13820 X38.038 Y42.884 I2.503 J4.289
N13825 X38.5 Y44.673 I-1.641 J1.378
N13830 X38.019 Y45.155 Z-3.895 I-0.5 J-0.017 F#104
N13835 G1 X37.983 Y45.157 Z-3.89
N13840 X37.204 Y45.185
N13845 X32.796 Y45.347 F#105
N13850 X32.018 Y45.376 F#103
N13855 G3 X31.5 Y44.893 Z-3.99 I-0.018 J-0.5
N13860 X33.114 Y42.319 I2.386 J-0.297 F#100
N13865 X38.029 Y42.222 I2.543 J4.281
N13870 X38.5 Y44.017 I-1.619 J1.384
N13875 X38.022 Y44.5 Z-3.895 I-0.5 J-0.017 F#104
N13880 G1 X37.983 Y44.501 Z-3.89
N13885 X37.205 Y44.535
N13890 X32.795 Y44.727 F#105
N13895 X32.021 Y44.76 F#103
N13900 G3 X31.5 Y44.278 Z-3.99 I-0.022 J-0.5
N13905 X33.132 Y41.663 I2.406 J-0.315 F#100
N13910 X38.031 Y41.57 I2.531 J4.27
N13915 X38.5 Y43.363 I-1.625 J1.383
N13920 X38.022 Y43.845 Z-3.895 I-0.5 J-0.017 F#104
N13925 G1 X37.983 Y43.847 Z-3.89
N13930 X37.205 Y43.881
N13935 X32.795 Y44.071 F#105
N13940 X32.021 Y44.105 F#103
N13945 G3 X31.5 Y43.623 Z-3.99 I-0.022 J-0.5
N13950 X33.149 Y41.008 I2.411 J-0.306 F#100
N13955 X38.033 Y40.919 I2.521 J4.253
N13960 X38.5 Y42.709 I-1.63 J1.381
N13965 X38.022 Y43.191 Z-3.895 I-0.5 J-0.017 F#104
N13970 G1 X37.983 Y43.193 Z-3.89
N13975 X37.205 Y43.226
N13980 X32.795 Y43.416 F#105
N13985 X32.021 Y43.449 F#103
N13990 G3 X31.5 Y42.967 Z-3.99 I-0.021 J-0.5
N13995 X33.096 Y40.386 I2.401 J-0.299 F#100
N14000 X38.021 Y40.256 I2.577 J4.26
N14005 X38.5 Y42.056 I-1.6 J1.39
N14010 X38.026 Y42.538 Z-3.895 I-0.5 J-0.017 F#104
N14015 G1 X37.983 Y42.54 Z-3.89
N14020 X37.205 Y42.579
N14025 X32.795 Y42.803 F#105
N14030 X32.025 Y42.843 F#103
N14035 X32.017
N14040 G3 X31.5 Y42.361 Z-3.99 I-0.017 J-0.5
N14045 X33.108 Y39.73 I2.421 J-0.327 F#100
N14050 X38.022 Y39.604 I2.568 J4.258
N14055 X38.5 Y41.403 I-1.604 J1.389
N14060 X38.025 Y41.885 Z-3.895 I-0.5 J-0.017 F#104
N14065 G1 X37.983 Y41.887 Z-3.89
N14070 X37.205 Y41.927
N14075 X32.795 Y42.148 F#105
N14080 X32.025 Y42.187 F#103
N14085 X32.017
N14090 G3 X31.5 Y41.705 Z-3.99 I-0.017 J-0.5
N14095 X33.12 Y39.075 I2.424 J-0.321 F#100
N14100 X38.024 Y38.954 I2.559 J4.248
N14105 X38.5 Y40.751 I-1.608 J1.388
N14110 X38.025 Y41.233 Z-3.895 I-0.5 J-0.017 F#104
N14115 G1 X37.983 Y41.235 Z-3.89
N14120 X37.205 Y41.274
N14125 X32.795 Y41.493 F#105
N14130 X32.024 Y41.531 F#103
N14135 X32.017
N14140 G3 X31.5 Y41.049 Z-3.99 I-0.017 J-0.5
N14145 X33.13 Y38.421 I2.426 J-0.315 F#100
N14150 X38.026 Y38.303 I2.552 J4.241
N14155 X38.5 Y40.099 I-1.612 J1.386
N14160 X38.025 Y40.581 Z-3.895 I-0.5 J-0.017 F#104
N14165 G1 X37.983 Y40.583 Z-3.89
N14170 X37.205 Y40.621
N14175 X32.795 Y40.838 F#105
N14180 X32.024 Y40.875 F#103
N14185 X32.017 Y40.876
N14190 G3 X31.5 Y40.393 Z-3.99 I-0.017 J-0.5
N14195 X33.139 Y37.767 I2.428 J-0.31 F#100
N14200 X38.027 Y37.653 I2.545 J4.235
N14205 X38.5 Y39.447 I-1.616 J1.385
N14210 X38.024 Y39.929 Z-3.895 I-0.5 J-0.017 F#104
N14215 G1 X37.983 Y39.931 Z-3.89
N14220 X37.205 Y39.969
N14225 X32.795 Y40.182 F#105
N14230 X32.017 Y40.22 F#103
N14235 G3 X31.5 Y39.738 Z-3.99 I-0.017 J-0.5
N14240 X33.147 Y37.113 I2.429 J-0.306 F#100
N14245 X38.029 Y37.002 I2.538 J4.23
N14250 X38.5 Y38.795 I-1.619 J1.384
N14255 X38.024 Y39.277 Z-3.895 I-0.5 J-0.017 F#104
N14260 G1 X37.983 Y39.279 Z-3.89
N14265 X37.205 Y39.316
N14270 X32.795 Y39.527 F#105
N14275 X32.017 Y39.564 F#103
N14280 G3 X31.5 Y39.082 Z-3.99 I-0.017 J-0.5
N14285 X33.109 Y36.48 I2.42 J-0.302 F#100
N14290 X38.021 Y36.344 I2.575 J4.239
N14295 X38.5 Y38.143 I-1.601 J1.39
N14300 X38.027 Y38.625 Z-3.896 I-0.5 J-0.017 F#104
N14305 G1 X37.983 Y38.628 Z-3.89
N14310 X37.205 Y38.669
N14315 X32.795 Y38.901 F#105
N14320 X32.026 Y38.941 F#103
N14325 X32.017 Y38.942
N14330 G3 X31.5 Y38.459 Z-3.99 I-0.017 J-0.5
N14335 X33.116 Y35.825 I2.431 J-0.322 F#100
N14340 X38.022 Y35.693 I2.568 J4.241
N14345 X38.5 Y37.492 I-1.604 J1.389
N14350 X38.026 Y37.974 Z-3.895 I-0.5 J-0.017 F#104
N14355 G1 X37.983 Y37.976 Z-3.89
N14360 X37.205 Y38.017
N14365 X32.795 Y38.246 F#105
N14370 X32.026 Y38.286 F#103
N14375 X32.017
N14380 G3 X31.5 Y37.804 Z-3.99 I-0.017 J-0.5
N14385 X33.124 Y35.171 I2.431 J-0.317 F#100
N14390 X38.023 Y35.043 I2.562 J4.236
N14395 X38.5 Y36.841 I-1.607 J1.388
N14400 X38.026 Y37.323 Z-3.895 I-0.5 J-0.017 F#104
N14405 G1 X37.983 Y37.325 Z-3.89
N14410 X37.205 Y37.365
N14415 X32.795 Y37.59 F#105
N14420 X32.025 Y37.63 F#103
N14425 X32.017
N14430 G3 X31.5 Y37.148 Z-3.99 I-0.017 J-0.5
N14435 X33.131 Y34.517 I2.432 J-0.314 F#100
N14440 X38.025 Y34.393 I2.555 J4.232
N14445 X38.5 Y36.189 I-1.61 J1.387
N14450 X38.026 Y36.671 Z-3.895 I-0.5 J-0.017 F#104
N14455 G1 X37.983 Y36.673 Z-3.89
N14460 X37.205 Y36.713
N14465 X32.795 Y36.935 F#105
N14470 X32.025 Y36.974 F#103
N14475 X32.017
N14480 G3 X31.5 Y36.492 Z-3.99 I-0.017 J-0.5
N14485 X33.138 Y33.863 I2.432 J-0.31 F#100
N14490 X38.026 Y33.743 I2.549 J4.229
N14495 X38.5 Y35.538 I-1.613 J1.386
N14500 X38.025 Y36.02 Z-3.895 I-0.5 J-0.017 F#104
N14505 G1 X37.983 Y36.022 Z-3.89
N14510 X37.205 Y36.061
N14515 X32.795 Y36.28 F#105
N14520 X32.025 Y36.318 F#103
N14525 X32.017 Y36.319
N14530 G3 X31.5 Y35.836 Z-3.99 I-0.017 J-0.5
N14535 X33.09 Y33.235 I2.42 J-0.307 F#100
N14540 X38.016 Y33.084 I2.596 J4.241
N14545 X38.5 Y34.887 I-1.589 J1.393
N14550 X38.028 Y35.368 Z-3.896 I-0.5 J-0.017 F#104
N14555 G1 X37.983 Y35.371 Z-3.89
N14560 X37.205 Y35.414
N14565 X32.795 Y35.66 F#105
N14570 X32.028 Y35.703 F#103
N14575 X32.017 Y35.704
N14580 G3 X31.5 Y35.221 Z-3.99 I-0.017 J-0.5
N14585 X33.096 Y32.58 I2.434 J-0.332 F#100
N14590 X38.017 Y32.433 I2.589 J4.245
N14595 X38.5 Y34.236 I-1.592 J1.393
N14600 X38.028 Y34.717 Z-3.896 I-0.5 J-0.017 F#104
N14605 G1 X37.983 Y34.72 Z-3.89
N14610 X37.205 Y34.763
N14615 X32.795 Y35.005 F#105
N14620 X32.027 Y35.047 F#103
N14625 X32.017 Y35.048
N14630 G3 X31.5 Y34.566 Z-3.99 I-0.017 J-0.5
N14635 X33.104 Y31.926 I2.434 J-0.328 F#100
N14640 X38.018 Y31.783 I2.582 J4.241
N14645 X38.5 Y33.585 I-1.595 J1.392
N14650 X38.027 Y34.066 Z-3.896 I-0.5 J-0.017 F#104
N14655 G1 X37.983 Y34.069 Z-3.89
N14660 X37.205 Y34.111
N14665 X32.795 Y34.35 F#105
N14670 X32.027 Y34.392 F#103
N14675 X32.017
N14680 G3 X31.5 Y33.91 Z-3.99 I-0.017 J-0.5
N14685 X33.11 Y31.272 I2.434 J-0.325 F#100
N14690 X38.02 Y31.133 I2.576 J4.237
N14695 X38.5 Y32.933 I-1.598 J1.391
N14700 X38.027 Y33.415 Z-3.896 I-0.5 J-0.017 F#104
N14705 G1 X37.983 Y33.418 Z-3.89
N14710 X37.205 Y33.459
N14715 X32.795 Y33.695 F#105
N14720 X32.026 Y33.736 F#103
N14725 X32.017
N14730 G3 X31.5 Y33.254 Z-3.99 I-0.017 J-0.5
N14735 X33.117 Y30.618 I2.434 J-0.321 F#100
N14740 X38.021 Y30.483 I2.57 J4.234
N14745 X38.5 Y32.282 I-1.601 J1.39
N14750 X38.027 Y32.764 Z-3.896 I-0.5 J-0.017 F#104
N14755 G1 X37.983 Y32.766 Z-3.89
N14760 X37.205 Y32.807
N14765 X32.795 Y33.04 F#105
N14770 X32.026 Y33.08 F#103
N14775 X32.017 Y33.081
N14780 G3 X31.5 Y32.598 Z-3.99 I-0.017 J-0.5
N14785 X33.123 Y29.964 I2.434 J-0.318 F#100
N14790 X38.022 Y29.833 I2.564 J4.232
N14795 X38.5 Y31.631 I-1.604 J1.389
N14800 X38.026 Y32.113 Z-3.895 I-0.5 J-0.017 F#104
N14805 G1 X37.983 Y32.115 Z-3.89
N14810 X37.205 Y32.156
N14815 X32.795 Y32.385 F#105
N14820 X32.026 Y32.424 F#103
N14825 X32.017 Y32.425
N14830 G3 X31.5 Y31.943 Z-3.99 I-0.017 J-0.5
N14835 X33.129 Y29.31 I2.434 J-0.314 F#100
N14840 X38.024 Y29.183 I2.559 J4.23
N14845 X38.5 Y30.98 I-1.607 J1.388
N14850 X38.026 Y31.462 Z-3.895 I-0.5 J-0.017 F#104
N14855 G1 X37.983 Y31.464 Z-3.89
N14860 X37.205 Y31.504
N14865 X32.795 Y31.729 F#105
N14870 X32.025 Y31.769 F#103
N14875 X32.017
N14880 G3 X31.5 Y31.287 Z-3.99 I-0.017 J-0.5
N14885 X33.135 Y28.656 I2.434 J-0.311 F#100
N14890 X38.025 Y28.533 I2.553 J4.228
N14895 X38.5 Y30.329 I-1.611 J1.386
N14900 X38.025 Y30.81 Z-3.895 I-0.5 J-0.017 F#104
N14905 G1 X37.983 Y30.813 Z-3.89
N14910 X37.205 Y30.852
N14915 X32.795 Y31.074 F#105
N14920 X32.025 Y31.113 F#103
N14925 X32.017
N14930 G3 X31.5 Y30.631 Z-3.99 I-0.017 J-0.5
N14935 X33.141 Y28.002 I2.433 J-0.308 F#100
N14940 X38.027 Y27.883 I2.547 J4.226
N14945 X38.5 Y29.677 I-1.614 J1.385
N14950 X38.025 Y30.159 Z-3.895 I-0.5 J-0.017 F#104
N14955 G1 X37.983 Y30.161 Z-3.89
N14960 X37.205 Y30.2
N14965 X32.795 Y30.419 F#105
N14970 X32.025 Y30.457 F#103
N14975 X32.017 Y30.458
N14980 G3 X31.5 Y29.975 Z-3.99 I-0.017 J-0.5
N14985 X33.147 Y27.348 I2.433 J-0.305 F#100
N14990 X38.028 Y27.232 I2.542 J4.224
N14995 X38.5 Y29.026 I-1.617 J1.384
N15000 X38.025 Y29.508 Z-3.895 I-0.5 J-0.017 F#104
N15005 G1 X37.983 Y29.51 Z-3.89
N15010 X37.205 Y29.548
N15015 X32.795 Y29.764 F#105
N15020 X32.024 Y29.802 F#103
N15025 X32.017
N15030 G3 X31.5 Y29.32 Z-3.99 I-0.017 J-0.5
N15035 X33.098 Y26.72 I2.421 J-0.303 F#100
N15040 X38.018 Y26.573 I2.589 J4.237
N15045 X38.5 Y28.375 I-1.594 J1.392
N15050 X38.028 Y28.856 Z-3.896 I-0.5 J-0.017 F#104
N15055 G1 X37.983 Y28.859 Z-3.89
N15060 X37.205 Y28.902
N15065 X32.795 Y29.144 F#105
N15070 X32.027 Y29.186 F#103
N15075 X32.017 Y29.187
N15080 G3 X31.5 Y28.704 Z-3.99 I-0.017 J-0.5
N15085 X33.104 Y26.065 I2.434 J-0.328 F#100
N15090 X38.019 Y25.923 I2.583 J4.242
N15095 X38.5 Y27.724 I-1.596 J1.392
N15100 X38.027 Y28.205 Z-3.896 I-0.5 J-0.017 F#104
N15105 G1 X37.983 Y28.208 Z-3.89
N15110 X37.205 Y28.25
N15115 X32.795 Y28.489 F#105
N15120 X32.027 Y28.531 F#103
N15125 X32.017
N15130 G3 X31.5 Y28.049 Z-3.99 I-0.017 J-0.5
N15135 X33.111 Y25.411 I2.434 J-0.324 F#100
N15140 X38.02 Y25.273 I2.576 J4.238
N15145 X38.5 Y27.073 I-1.599 J1.39
N15150 X38.027 Y27.554 Z-3.896 I-0.5 J-0.017 F#104
N15155 G1 X37.983 Y27.557 Z-3.89
N15160 X37.205 Y27.598
N15165 X32.795 Y27.834 F#105
N15170 X32.026 Y27.875 F#103
N15175 X32.017
N15180 G3 X31.5 Y27.393 Z-3.99 I-0.017 J-0.5
N15185 X33.118 Y24.757 I2.434 J-0.321 F#100
N15190 X38.021 Y24.623 I2.569 J4.234
N15195 X38.5 Y26.422 I-1.602 J1.389
N15200 X38.027 Y26.903 Z-3.896 I-0.5 J-0.017 F#104
N15205 G1 X37.983 Y26.906 Z-3.89
N15210 X37.205 Y26.947
N15215 X32.795 Y27.179 F#105
N15220 X32.026 Y27.219 F#103
N15225 X32.017 Y27.22
N15230 G3 X31.5 Y26.737 Z-3.99 I-0.017 J-0.5
N15235 X33.124 Y24.103 I2.434 J-0.317 F#100
N15240 X38.023 Y23.973 I2.563 J4.232
N15245 X38.5 Y25.77 I-1.605 J1.388
N15250 X38.026 Y26.252 Z-3.895 I-0.5 J-0.017 F#104
N15255 G1 X37.983 Y26.255 Z-3.89
N15260 X37.205 Y26.295
N15265 X32.795 Y26.524 F#105
N15270 X32.026 Y26.563 F#103
N15275 X32.017 Y26.564
N15280 G3 X31.5 Y26.082 Z-3.99 I-0.017 J-0.5
N15285 X33.13 Y23.449 I2.434 J-0.314 F#100
N15290 X38.024 Y23.323 I2.558 J4.23
N15295 X38.5 Y25.119 I-1.608 J1.387
N15300 X38.026 Y25.601 Z-3.895 I-0.5 J-0.017 F#104
N15305 G1 X37.983 Y25.603 Z-3.89
N15310 X37.205 Y25.643
N15315 X32.795 Y25.868 F#105
N15320 X32.025 Y25.908 F#103
N15325 X32.017
N15330 G3 X31.5 Y25.426 Z-3.99 I-0.017 J-0.5
N15335 X33.136 Y22.795 I2.434 J-0.311 F#100
N15340 X38.025 Y22.672 I2.552 J4.228
N15345 X38.5 Y24.468 I-1.611 J1.386
N15350 X38.025 Y24.95 Z-3.895 I-0.5 J-0.017 F#104
N15355 G1 X37.983 Y24.952 Z-3.89
N15360 X37.205 Y24.991
N15365 X32.795 Y25.213 F#105
N15370 X32.025 Y25.252 F#103
N15375 X32.017
N15380 G3 X31.5 Y24.77 Z-3.99 I-0.017 J-0.5
N15385 X33.142 Y22.141 I2.433 J-0.308 F#100
N15390 X38.027 Y22.022 I2.547 J4.226
N15395 X38.5 Y23.817 I-1.615 J1.385
N15400 X38.025 Y24.299 Z-3.895 I-0.5 J-0.017 F#104
N15405 G1 X37.983 Y24.301 Z-3.89
N15410 X37.205 Y24.339
N15415 X32.795 Y24.558 F#105
N15420 X32.024 Y24.596 F#103
N15425 X32.017 Y24.597
N15430 G3 X31.5 Y24.114 Z-3.99 I-0.017 J-0.5
N15435 X33.148 Y21.487 I2.433 J-0.304 F#100
N15440 X38.028 Y21.372 I2.541 J4.224
N15445 X38.5 Y23.165 I-1.618 J1.384
N15450 X38.025 Y23.647 Z-3.895 I-0.5 J-0.017 F#104
N15455 G1 X37.983 Y23.649 Z-3.89
N15460 X37.205 Y23.687
N15465 X32.795 Y23.903 F#105
N15470 X32.024 Y23.941 F#103
N15475 X32.017
N15480 G3 X31.5 Y23.459 Z-3.99 I-0.017 J-0.5
N15485 X33.154 Y20.833 I2.433 J-0.301 F#100
N15490 X38.03 Y20.722 I2.536 J4.222
N15495 X38.5 Y22.514 I-1.621 J1.383
N15500 X38.024 Y22.996 Z-3.895 I-0.5 J-0.017 F#104
N15505 G1 X37.983 Y22.998 Z-3.89
N15510 X37.205 Y23.035
N15515 X32.795 Y23.248 F#105
N15520 X32.017 Y23.285 F#103
N15525 G3 X31.5 Y22.803 Z-3.99 I-0.017 J-0.5
N15530 X33.093 Y20.211 I2.418 J-0.299 F#100
N15535 X38.017 Y20.06 I2.594 J4.238
N15540 X38.5 Y21.863 I-1.591 J1.393
N15545 X38.028 Y22.344 Z-3.896 I-0.5 J-0.017 F#104
N15550 G1 X37.983 Y22.347 Z-3.89
N15555 X37.205 Y22.39
N15560 X32.795 Y22.636 F#105
N15565 X32.027 Y22.678 F#103
N15570 X32.017 Y22.679
N15575 G3 X31.5 Y22.197 Z-3.99 I-0.017 J-0.5
N15580 X33.098 Y19.556 I2.434 J-0.331 F#100
N15585 X38.017 Y19.41 I2.588 J4.244
N15590 X38.5 Y21.212 I-1.594 J1.392
N15595 X38.028 Y21.694 Z-3.896 I-0.5 J-0.017 F#104
N15600 G1 X37.983 Y21.696 Z-3.89
N15605 X37.205 Y21.739
N15610 X32.795 Y21.981 F#105
N15615 X32.027 Y22.023 F#103
N15620 X32.017
N15625 G3 X31.5 Y21.541 Z-3.99 I-0.017 J-0.5
N15630 X33.106 Y18.902 I2.434 J-0.327 F#100
N15635 X38.019 Y18.76 I2.581 J4.24
N15640 X38.5 Y20.561 I-1.596 J1.391
N15645 X38.027 Y21.043 Z-3.896 I-0.5 J-0.017 F#104
N15650 G1 X37.983 Y21.045 Z-3.89
N15655 X37.205 Y21.087
N15660 X32.795 Y21.325 F#105
N15665 X32.027 Y21.367 F#103
N15670 X32.017
N15675 G3 X31.5 Y20.885 Z-3.99 I-0.017 J-0.5
N15680 X33.113 Y18.248 I2.434 J-0.323 F#100
N15685 X38.02 Y18.11 I2.574 J4.236
N15690 X38.5 Y19.91 I-1.599 J1.39
N15695 X38.027 Y20.392 Z-3.896 I-0.5 J-0.017 F#104
N15700 G1 X37.983 Y20.394 Z-3.89
N15705 X37.205 Y20.435
N15710 X32.795 Y20.67 F#105
N15715 X32.026 Y20.711 F#103
N15720 X32.017 Y20.712
N15725 G3 X31.5 Y20.229 Z-3.99 I-0.017 J-0.5
N15730 X33.119 Y17.593 I2.434 J-0.32 F#100
N15735 X38.021 Y17.46 I2.568 J4.233
N15740 X38.5 Y19.259 I-1.602 J1.389
N15745 X38.027 Y19.741 Z-3.896 I-0.5 J-0.017 F#104
N15750 G1 X37.983 Y19.743 Z-3.89
N15755 X37.205 Y19.784
N15760 X32.795 Y20.015 F#105
N15765 X32.026 Y20.056 F#103
N15770 X32.017
N15775 G3 X31.5 Y19.574 Z-3.99 I-0.017 J-0.5
N15780 X33.125 Y16.939 I2.434 J-0.317 F#100
N15785 X38.023 Y16.81 I2.563 J4.231
N15790 X38.5 Y18.607 I-1.605 J1.388
N15795 X38.026 Y19.089 Z-3.895 I-0.5 J-0.017 F#104
N15800 G1 X37.983 Y19.092 Z-3.89
N15805 X37.205 Y19.132
N15810 X32.795 Y19.36 F#105
N15815 X32.026 Y19.4 F#103
N15820 X32.017
N15825 G3 X31.5 Y18.918 Z-3.99 I-0.017 J-0.5
N15830 X33.131 Y16.286 I2.434 J-0.313 F#100
N15835 X38.024 Y16.16 I2.557 J4.229
N15840 X38.5 Y17.956 I-1.608 J1.387
N15845 X38.026 Y18.438 Z-3.895 I-0.5 J-0.017 F#104
N15850 G1 X37.983 Y18.44 Z-3.89
N15855 X37.205 Y18.48
N15860 X32.795 Y18.705 F#105
N15865 X32.025 Y18.744 F#103
N15870 X32.017
N15875 G3 X31.5 Y18.262 Z-3.99 I-0.017 J-0.5
N15880 X33.137 Y15.632 I2.434 J-0.31 F#100
N15885 X38.026 Y15.51 I2.551 J4.227
