%
(3MM DRILL)
(T3  D=3. CR=0. TAPER=118DEG - ZMIN=-20. - DRILL)
N10 G90 G94 G17 G91.1
N15 G21
N20 G53 G0 Z0.
(DRILL4)
N25 M9
N30 T3 M6
N35 S2500 M3
N40 G54
N45 M9
N55 G0 X28.5 Y3.
N60 G43 Z4. H3
N70 G0 Z2.
N75 G1 Z-1. F125.
N80 G0 Z1.
N85 G1 Z-2. F125.
N90 G0 Z0.
N95 G1 Z-3. F125.
N100 G0 Z-1.
N105 G1 Z-4. F125.
N110 G0 Z-2.
N115 G1 Z-5. F125.
N120 G0 Z-3.
N125 G1 Z-6. F125.
N130 G0 Z2.
N135 Z-4.
N140 G1 Z-7. F125.
N145 G0 Z-5.
N150 G1 Z-8. F125.
N155 G0 Z-6.
N160 G1 Z-9. F125.
N165 G0 Z-7.
N170 G1 Z-10. F125.
N175 G0 Z-8.
N180 G1 Z-11. F125.
N185 G0 Z-9.
N190 G1 Z-12. F125.
N195 G0 Z2.
N200 Z-10.
N205 G1 Z-13. F125.
N210 G0 Z-11.
N215 G1 Z-14. F125.
N220 G0 Z-12.
N225 G1 Z-15. F125.
N230 G0 Z-13.
N235 G1 Z-16. F125.
N240 G0 Z-14.
N245 G1 Z-17. F125.
N250 G0 Z-15.
N255 G1 Z-18. F125.
N260 G0 Z2.
N265 Z-16.
N270 G1 Z-19. F125.
N275 G0 Z-17.
N280 G1 Z-20. F125.
N285 G0 Z2.
N290 X47.
N295 G1 Z-1. F125.
N300 G0 Z1.
N305 G1 Z-2. F125.
N310 G0 Z0.
N315 G1 Z-3. F125.
N320 G0 Z-1.
N325 G1 Z-4. F125.
N330 G0 Z-2.
N335 G1 Z-5. F125.
N340 G0 Z-3.
N345 G1 Z-6. F125.
N350 G0 Z2.
N355 Z-4.
N360 G1 Z-7. F125.
N365 G0 Z-5.
N370 G1 Z-8. F125.
N375 G0 Z-6.
N380 G1 Z-9. F125.
N385 G0 Z-7.
N390 G1 Z-10. F125.
N395 G0 Z-8.
N400 G1 Z-11. F125.
N405 G0 Z-9.
N410 G1 Z-12. F125.
N415 G0 Z2.
N420 Z-10.
N425 G1 Z-13. F125.
N430 G0 Z-11.
N435 G1 Z-14. F125.
N440 G0 Z-12.
N445 G1 Z-15. F125.
N450 G0 Z-13.
N455 G1 Z-16. F125.
N460 G0 Z-14.
N465 G1 Z-17. F125.
N470 G0 Z-15.
N475 G1 Z-18. F125.
N480 G0 Z2.
N485 Z-16.
N490 G1 Z-19. F125.
N495 G0 Z-17.
N500 G1 Z-20. F125.
N505 G0 Z2.
N510 X10.
N515 G1 Z-1. F125.
N520 G0 Z1.
N525 G1 Z-2. F125.
N530 G0 Z0.
N535 G1 Z-3. F125.
N540 G0 Z-1.
N545 G1 Z-4. F125.
N550 G0 Z-2.
N555 G1 Z-5. F125.
N560 G0 Z-3.
N565 G1 Z-6. F125.
N570 G0 Z2.
N575 Z-4.
N580 G1 Z-7. F125.
N585 G0 Z-5.
N590 G1 Z-8. F125.
N595 G0 Z-6.
N600 G1 Z-9. F125.
N605 G0 Z-7.
N610 G1 Z-10. F125.
N615 G0 Z-8.
N620 G1 Z-11. F125.
N625 G0 Z-9.
N630 G1 Z-12. F125.
N635 G0 Z2.
N640 Z-10.
N645 G1 Z-13. F125.
N650 G0 Z-11.
N655 G1 Z-14. F125.
N660 G0 Z-12.
N665 G1 Z-15. F125.
N670 G0 Z-13.
N675 G1 Z-16. F125.
N680 G0 Z-14.
N685 G1 Z-17. F125.
N690 G0 Z-15.
N695 G1 Z-18. F125.
N700 G0 Z2.
N705 Z-16.
N710 G1 Z-19. F125.
N715 G0 Z-17.
N720 G1 Z-20. F125.
N725 G0 Z2.
N730 Z4.
(DRILL4)
N740 M9
N745 G0 X28.5 Y9.
N750 Z4.
N760 Z2.
N765 G1 Z-1. F125.
N770 G0 Z1.
N775 G1 Z-2. F125.
N780 G0 Z0.
N785 G1 Z-3. F125.
N790 G0 Z-1.
N795 G1 Z-4. F125.
N800 G0 Z-2.
N805 G1 Z-5. F125.
N810 G0 Z-3.
N815 G1 Z-6. F125.
N820 G0 Z2.
N825 Z-4.
N830 G1 Z-7. F125.
N835 G0 Z-5.
N840 G1 Z-8. F125.
N845 G0 Z-6.
N850 G1 Z-9. F125.
N855 G0 Z-7.
N860 G1 Z-10. F125.
N865 G0 Z-8.
N870 G1 Z-11. F125.
N875 G0 Z-9.
N880 G1 Z-12. F125.
N885 G0 Z2.
N890 Z-10.
N895 G1 Z-13. F125.
N900 G0 Z-11.
N905 G1 Z-14. F125.
N910 G0 Z-12.
N915 G1 Z-15. F125.
N920 G0 Z-13.
N925 G1 Z-16. F125.
N930 G0 Z-14.
N935 G1 Z-17. F125.
N940 G0 Z-15.
N945 G1 Z-18. F125.
N950 G0 Z2.
N955 Z-16.
N960 G1 Z-19. F125.
N965 G0 Z-17.
N970 G1 Z-20. F125.
N975 G0 Z2.
N980 X47.
N985 G1 Z-1. F125.
N990 G0 Z1.
N995 G1 Z-2. F125.
N1000 G0 Z0.
N1005 G1 Z-3. F125.
N1010 G0 Z-1.
N1015 G1 Z-4. F125.
N1020 G0 Z-2.
N1025 G1 Z-5. F125.
N1030 G0 Z-3.
N1035 G1 Z-6. F125.
N1040 G0 Z2.
N1045 Z-4.
N1050 G1 Z-7. F125.
N1055 G0 Z-5.
N1060 G1 Z-8. F125.
N1065 G0 Z-6.
N1070 G1 Z-9. F125.
N1075 G0 Z-7.
N1080 G1 Z-10. F125.
N1085 G0 Z-8.
N1090 G1 Z-11. F125.
N1095 G0 Z-9.
N1100 G1 Z-12. F125.
N1105 G0 Z2.
N1110 Z-10.
N1115 G1 Z-13. F125.
N1120 G0 Z-11.
N1125 G1 Z-14. F125.
N1130 G0 Z-12.
N1135 G1 Z-15. F125.
N1140 G0 Z-13.
N1145 G1 Z-16. F125.
N1150 G0 Z-14.
N1155 G1 Z-17. F125.
N1160 G0 Z-15.
N1165 G1 Z-18. F125.
N1170 G0 Z2.
N1175 Z-16.
N1180 G1 Z-19. F125.
N1185 G0 Z-17.
N1190 G1 Z-20. F125.
N1195 G0 Z2.
N1200 X10.
N1205 G1 Z-1. F125.
N1210 G0 Z1.
N1215 G1 Z-2. F125.
N1220 G0 Z0.
N1225 G1 Z-3. F125.
N1230 G0 Z-1.
N1235 G1 Z-4. F125.
N1240 G0 Z-2.
N1245 G1 Z-5. F125.
N1250 G0 Z-3.
N1255 G1 Z-6. F125.
N1260 G0 Z2.
N1265 Z-4.
N1270 G1 Z-7. F125.
N1275 G0 Z-5.
N1280 G1 Z-8. F125.
N1285 G0 Z-6.
N1290 G1 Z-9. F125.
N1295 G0 Z-7.
N1300 G1 Z-10. F125.
N1305 G0 Z-8.
N1310 G1 Z-11. F125.
N1315 G0 Z-9.
N1320 G1 Z-12. F125.
N1325 G0 Z2.
N1330 Z-10.
N1335 G1 Z-13. F125.
N1340 G0 Z-11.
N1345 G1 Z-14. F125.
N1350 G0 Z-12.
N1355 G1 Z-15. F125.
N1360 G0 Z-13.
N1365 G1 Z-16. F125.
N1370 G0 Z-14.
N1375 G1 Z-17. F125.
N1380 G0 Z-15.
N1385 G1 Z-18. F125.
N1390 G0 Z2.
N1395 Z-16.
N1400 G1 Z-19. F125.
N1405 G0 Z-17.
N1410 G1 Z-20. F125.
N1415 G0 Z2.
N1420 Z4.
(DRILL4)
N1430 M9
N1435 G0 X28.5 Y15.
N1440 Z4.
N1450 Z2.
N1455 G1 Z-1. F125.
N1460 G0 Z1.
N1465 G1 Z-2. F125.
N1470 G0 Z0.
N1475 G1 Z-3. F125.
N1480 G0 Z-1.
N1485 G1 Z-4. F125.
N1490 G0 Z-2.
N1495 G1 Z-5. F125.
N1500 G0 Z-3.
N1505 G1 Z-6. F125.
N1510 G0 Z2.
N1515 Z-4.
N1520 G1 Z-7. F125.
N1525 G0 Z-5.
N1530 G1 Z-8. F125.
N1535 G0 Z-6.
N1540 G1 Z-9. F125.
N1545 G0 Z-7.
N1550 G1 Z-10. F125.
N1555 G0 Z-8.
N1560 G1 Z-11. F125.
N1565 G0 Z-9.
N1570 G1 Z-12. F125.
N1575 G0 Z2.
N1580 Z-10.
N1585 G1 Z-13. F125.
N1590 G0 Z-11.
N1595 G1 Z-14. F125.
N1600 G0 Z-12.
N1605 G1 Z-15. F125.
N1610 G0 Z-13.
N1615 G1 Z-16. F125.
N1620 G0 Z-14.
N1625 G1 Z-17. F125.
N1630 G0 Z-15.
N1635 G1 Z-18. F125.
N1640 G0 Z2.
N1645 Z-16.
N1650 G1 Z-19. F125.
N1655 G0 Z-17.
N1660 G1 Z-20. F125.
N1665 G0 Z2.
N1670 X47.
N1675 G1 Z-1. F125.
N1680 G0 Z1.
N1685 G1 Z-2. F125.
N1690 G0 Z0.
N1695 G1 Z-3. F125.
N1700 G0 Z-1.
N1705 G1 Z-4. F125.
N1710 G0 Z-2.
N1715 G1 Z-5. F125.
N1720 G0 Z-3.
N1725 G1 Z-6. F125.
N1730 G0 Z2.
N1735 Z-4.
N1740 G1 Z-7. F125.
N1745 G0 Z-5.
N1750 G1 Z-8. F125.
N1755 G0 Z-6.
N1760 G1 Z-9. F125.
N1765 G0 Z-7.
N1770 G1 Z-10. F125.
N1775 G0 Z-8.
N1780 G1 Z-11. F125.
N1785 G0 Z-9.
N1790 G1 Z-12. F125.
N1795 G0 Z2.
N1800 Z-10.
N1805 G1 Z-13. F125.
N1810 G0 Z-11.
N1815 G1 Z-14. F125.
N1820 G0 Z-12.
N1825 G1 Z-15. F125.
N1830 G0 Z-13.
N1835 G1 Z-16. F125.
N1840 G0 Z-14.
N1845 G1 Z-17. F125.
N1850 G0 Z-15.
N1855 G1 Z-18. F125.
N1860 G0 Z2.
N1865 Z-16.
N1870 G1 Z-19. F125.
N1875 G0 Z-17.
N1880 G1 Z-20. F125.
N1885 G0 Z2.
N1890 X10.
N1895 G1 Z-1. F125.
N1900 G0 Z1.
N1905 G1 Z-2. F125.
N1910 G0 Z0.
N1915 G1 Z-3. F125.
N1920 G0 Z-1.
N1925 G1 Z-4. F125.
N1930 G0 Z-2.
N1935 G1 Z-5. F125.
N1940 G0 Z-3.
N1945 G1 Z-6. F125.
N1950 G0 Z2.
N1955 Z-4.
N1960 G1 Z-7. F125.
N1965 G0 Z-5.
N1970 G1 Z-8. F125.
N1975 G0 Z-6.
N1980 G1 Z-9. F125.
N1985 G0 Z-7.
N1990 G1 Z-10. F125.
N1995 G0 Z-8.
N2000 G1 Z-11. F125.
N2005 G0 Z-9.
N2010 G1 Z-12. F125.
N2015 G0 Z2.
N2020 Z-10.
N2025 G1 Z-13. F125.
N2030 G0 Z-11.
N2035 G1 Z-14. F125.
N2040 G0 Z-12.
N2045 G1 Z-15. F125.
N2050 G0 Z-13.
N2055 G1 Z-16. F125.
N2060 G0 Z-14.
N2065 G1 Z-17. F125.
N2070 G0 Z-15.
N2075 G1 Z-18. F125.
N2080 G0 Z2.
N2085 Z-16.
N2090 G1 Z-19. F125.
N2095 G0 Z-17.
N2100 G1 Z-20. F125.
N2105 G0 Z2.
N2110 Z4.
(DRILL4)
N2120 M9
N2125 G0 X28.5 Y21.
N2130 Z4.
N2140 Z2.
N2145 G1 Z-1. F125.
N2150 G0 Z1.
N2155 G1 Z-2. F125.
N2160 G0 Z0.
N2165 G1 Z-3. F125.
N2170 G0 Z-1.
N2175 G1 Z-4. F125.
N2180 G0 Z-2.
N2185 G1 Z-5. F125.
N2190 G0 Z-3.
N2195 G1 Z-6. F125.
N2200 G0 Z2.
N2205 Z-4.
N2210 G1 Z-7. F125.
N2215 G0 Z-5.
N2220 G1 Z-8. F125.
N2225 G0 Z-6.
N2230 G1 Z-9. F125.
N2235 G0 Z-7.
N2240 G1 Z-10. F125.
N2245 G0 Z-8.
N2250 G1 Z-11. F125.
N2255 G0 Z-9.
N2260 G1 Z-12. F125.
N2265 G0 Z-10.
N2270 G1 Z-13. F125.
N2275 G0 Z2.
N2280 Z-11.
N2285 G1 Z-14. F125.
N2290 G0 Z-12.
N2295 G1 Z-15. F125.
N2300 G0 Z-13.
N2305 G1 Z-16. F125.
N2310 G0 Z-14.
N2315 G1 Z-17. F125.
N2320 G0 Z-15.
N2325 G1 Z-18. F125.
N2330 G0 Z-16.
N2335 G1 Z-19. F125.
N2340 G0 Z2.
N2345 Z-17.
N2350 G1 Z-20. F125.
N2355 G0 Z2.
N2360 X47.
N2365 G1 Z-1. F125.
N2370 G0 Z1.
N2375 G1 Z-2. F125.
N2380 G0 Z0.
N2385 G1 Z-3. F125.
N2390 G0 Z-1.
N2395 G1 Z-4. F125.
N2400 G0 Z-2.
N2405 G1 Z-5. F125.
N2410 G0 Z-3.
N2415 G1 Z-6. F125.
N2420 G0 Z2.
N2425 Z-4.
N2430 G1 Z-7. F125.
N2435 G0 Z-5.
N2440 G1 Z-8. F125.
N2445 G0 Z-6.
N2450 G1 Z-9. F125.
N2455 G0 Z-7.
N2460 G1 Z-10. F125.
N2465 G0 Z-8.
N2470 G1 Z-11. F125.
N2475 G0 Z-9.
N2480 G1 Z-12. F125.
N2485 G0 Z-10.
N2490 G1 Z-13. F125.
N2495 G0 Z2.
N2500 Z-11.
N2505 G1 Z-14. F125.
N2510 G0 Z-12.
N2515 G1 Z-15. F125.
N2520 G0 Z-13.
N2525 G1 Z-16. F125.
N2530 G0 Z-14.
N2535 G1 Z-17. F125.
N2540 G0 Z-15.
N2545 G1 Z-18. F125.
N2550 G0 Z-16.
N2555 G1 Z-19. F125.
N2560 G0 Z2.
N2565 Z-17.
N2570 G1 Z-20. F125.
N2575 G0 Z2.
N2580 X10.
N2585 G1 Z-1. F125.
N2590 G0 Z1.
N2595 G1 Z-2. F125.
N2600 G0 Z0.
N2605 G1 Z-3. F125.
N2610 G0 Z-1.
N2615 G1 Z-4. F125.
N2620 G0 Z-2.
N2625 G1 Z-5. F125.
N2630 G0 Z-3.
N2635 G1 Z-6. F125.
N2640 G0 Z2.
N2645 Z-4.
N2650 G1 Z-7. F125.
N2655 G0 Z-5.
N2660 G1 Z-8. F125.
N2665 G0 Z-6.
N2670 G1 Z-9. F125.
N2675 G0 Z-7.
N2680 G1 Z-10. F125.
N2685 G0 Z-8.
N2690 G1 Z-11. F125.
N2695 G0 Z-9.
N2700 G1 Z-12. F125.
N2705 G0 Z-10.
N2710 G1 Z-13. F125.
N2715 G0 Z2.
N2720 Z-11.
N2725 G1 Z-14. F125.
N2730 G0 Z-12.
N2735 G1 Z-15. F125.
N2740 G0 Z-13.
N2745 G1 Z-16. F125.
N2750 G0 Z-14.
N2755 G1 Z-17. F125.
N2760 G0 Z-15.
N2765 G1 Z-18. F125.
N2770 G0 Z-16.
N2775 G1 Z-19. F125.
N2780 G0 Z2.
N2785 Z-17.
N2790 G1 Z-20. F125.
N2795 G0 Z2.
N2800 Z4.
N2810 M9
N2815 G53 Z0.
N2820 M30
%
