%
(SPOT-DRILL)
(T70  D=10. CR=0. TAPER=90DEG - ZMIN=-7. - SPOT DRILL)
N10 G90 G94 G17 G91.1
N15 G21
N20 G53 G0 Z0.
(DRILL1)
N25 M9
N30 T70 M6
N35 S5000 M3
N40 G54
N45 M9
N55 G0 X6. Y6.
N60 G43 Z10. H70
N70 G0 Z5.
N75 G98 G81 X6. Y6. Z-3. R3. F500.
N80 X13.
N85 X20.
N90 G80
N100 G0 X15.5 Y13. Z5.
N105 G81 X15.5 Y13. Z-7. R-1. F500.
N110 X10.5
N115 Y53.
N120 X15.5
N125 G80
N135 G0 X16.25 Y60. Z5.
N140 G81 X16.25 Y60. Z-3. R3. F500.
N145 X9.75
N150 G80
N155 G0 Z10.
N165 M9
N170 G53 Z0.
N175 M30
%
