%
(SPOT DRILL)
(T70  D=10. CR=0. TAPER=90DEG - ZMIN=-7.75 - SPOT DRILL)
N10 G90 G94 G17 G91.1
N15 G21
N20 G53 G0 Z0.
(DRILL1)
N25 M9
N30 T70 M6
N35 S2200 M3
N40 G54
N45 M8
N55 G0 X18. Y4.
N60 G43 Z10. H70
N70 G0 Z5.
N75 G98 G81 X18. Y4. Z-3. R3. F250.
N80 X4.
N85 G80
N95 G0 X8.5 Y17. Z5.
N100 G81 X8.5 Y17. Z-7.75 R-1.75 F250.
N105 X13.5
N110 X8.5 Y57.
N115 X13.5
N120 G80
N130 G0 X14.25 Y64. Z5.
N135 G81 X14.25 Y64. Z-3. R3. F250.
N140 X7.75
N145 G80
N150 G0 Z10.
(DRILL1)
N160 M8
N165 G0 X42. Y4.
N170 Z10.
N180 Z5.
N185 G81 X42. Y4. Z-3. R3. F250.
N190 X28.
N195 G80
N205 G0 X32.5 Y17. Z5.
N210 G81 X32.5 Y17. Z-7.75 R-1.75 F250.
N215 X37.5
N220 X32.5 Y57.
N225 X37.5
N230 G80
N240 G0 X38.25 Y64. Z5.
N245 G81 X38.25 Y64. Z-3. R3. F250.
N250 X31.75
N255 G80
N260 G0 Z10.
(DRILL1)
N270 M8
N275 G0 X66. Y4.
N280 Z10.
N290 Z5.
N295 G81 X66. Y4. Z-3. R3. F250.
N300 X52.
N305 G80
N315 G0 X56.5 Y17. Z5.
N320 G81 X56.5 Y17. Z-7.75 R-1.75 F250.
N325 X61.5
N330 X56.5 Y57.
N335 X61.5
N340 G80
N350 G0 X62.25 Y64. Z5.
N355 G81 X62.25 Y64. Z-3. R3. F250.
N360 X55.75
N365 G80
N370 G0 Z10.
(DRILL1)
N380 M8
N385 G0 X90. Y4.
N390 Z10.
N400 Z5.
N405 G81 X90. Y4. Z-3. R3. F250.
N410 X76.
N415 G80
N425 G0 X80.5 Y17. Z5.
N430 G81 X80.5 Y17. Z-7.75 R-1.75 F250.
N435 X85.5
N440 X80.5 Y57.
N445 X85.5
N450 G80
N460 G0 X86.25 Y64. Z5.
N465 G81 X86.25 Y64. Z-3. R3. F250.
N470 X79.75
N475 G80
N480 G0 Z10.
N490 M9
N495 G53 Z0.
N500 M30
%
