%
(TOPMOST-POCKET-ROUGH-4MM)
(T2  D=4. CR=0. - ZMIN=-5.8 - FLAT END MILL)
N10 G90 G94 G17 G91.1
N15 G21
N20 G53 G0 Z0.
(2D ADAPTIVE2 2)
N25 M9
N30 T2 M6
N35 S5500 M3
N40 G54
N45 M8
N55 G0 X17.858 Y54.494
N60 G43 Z4. H2
N65 G0 Z1.7
N70 G1 Z1.2 F150.
N75 S5000
N80 G3 X16.921 Y51.506 Z0.942 I-0.468 J-1.494 F220.
N85 X17.858 Y54.494 Z0.684 I0.468 J1.494
N90 X16.921 Y51.506 Z0.427 I-0.468 J-1.494
N95 X17.858 Y54.494 Z0.169 I0.468 J1.494
N100 X16.921 Y51.506 Z-0.089 I-0.468 J-1.494
N105 X17.858 Y54.494 Z-0.347 I0.468 J1.494
N110 X16.921 Y51.506 Z-0.605 I-0.468 J-1.494
N115 X17.858 Y54.494 Z-0.863 I0.468 J1.494
N120 X16.921 Y51.506 Z-1.12 I-0.468 J-1.494
N125 X17.858 Y54.494 Z-1.378 I0.468 J1.494
N130 X16.921 Y51.506 Z-1.636 I-0.468 J-1.494
N135 X18.955 Y53. Z-1.79 I0.468 J1.494
N140 X15.823 I-1.566 J0.
N145 X18.955 I1.566 J0.
N150 S5500
N155 G1 X18.976 Y53.757 F275.
N160 X18.977 Y53.852
N165 X18.963 Y54.001
N170 G3 X17.929 Y54.8 I-1.034 J-0.27
N175 G1 X16.778
N180 G3 X15.391 Y53.811 I0.083 J-1.584
N185 X15.751 Y51.521 I1.838 J-0.884
N190 G1 X16.007 Y51.348
N195 X16.295 Y51.238
N200 X16.601 Y51.2
N205 X18.
N210 G3 X19.302 Y52.48 I0.003 J1.299
N215 G1 X19.292 Y52.567 Z-1.779 F150.
N220 X19.266 Y52.651 Z-1.768
N225 X19.226 Y52.728 Z-1.757
N230 X19.173 Y52.798 Z-1.746
N235 X19.109 Y52.857 Z-1.734
N240 X19.036 Y52.905 Z-1.723
N245 X18.955 Y52.939 Z-1.712
N250 X18.87 Y52.958 Z-1.701
N255 X18.783 Y52.963 Z-1.69
N260 G3 X18.451 Y52.821 I0.017 J-0.5
N265 G1 X18.158 Y52.534
N270 X17.953 Y52.335 F3000.
N275 X17.669 Y52.058 F150.
N280 G3 X17.518 Y51.717 I0.349 J-0.358
N285 X18. Y51.2 Z-1.79 I0.5 J-0.017
N290 G1 X18.689 F275.
N295 G3 X19.299 Y51.785 I0.033 J0.576
N300 G1 X19.29 Y51.873 Z-1.779 F150.
N305 X19.267 Y51.959 Z-1.767
N310 X19.233 Y52.041 Z-1.756
N315 X19.187 Y52.117 Z-1.745
N320 X19.131 Y52.186 Z-1.733
N325 G3 X18.84 Y52.351 Z-1.69 I-0.422 J-0.403
N330 X18.136 Y51.673 I-0.131 J-0.569
N335 X18.689 Y51.2 Z-1.79 I0.573 J0.11
N340 G1 X18.766 F275.
N345 X18.938 Y51.203
N350 X18.981 Y51.211
N355 X19.024 Y51.224
N360 X19.067 Y51.242
N365 X19.11 Y51.268
N370 X19.147 Y51.296
N375 X19.184 Y51.332
N380 X19.235 Y51.396
N385 G3 X19.3 Y51.74 I-0.433 J0.26
N390 G1 Y54.069
N395 G3 X18.573 Y54.798 I-0.715 J0.014
N400 G1 X18.468 Y54.787 Z-1.776 F150.
N405 X18.366 Y54.76 Z-1.763
N410 X18.268 Y54.718 Z-1.749
N415 X18.178 Y54.663 Z-1.736
N420 X18.098 Y54.594 Z-1.722
N425 G3 X17.953 Y54.386 Z-1.69 I0.497 J-0.5
N430 X18.045 Y53.652 I0.642 J-0.293
N435 X18.15 Y53.546 I0.55 J0.442 F3000.
N440 X18.885 Y53.451 I0.445 J0.548 F150.
N445 X19.3 Y54.069 Z-1.79 I-0.29 J0.643
N450 G1 X19.299 Y54.404 F275.
N455 X19.295 Y54.447
N460 X19.285 Y54.49
N465 X19.283 Y54.499
N470 X19.268 Y54.54
N475 X19.247 Y54.581
N480 X19.221 Y54.622
N485 X19.19 Y54.662
N490 X19.15 Y54.702
N495 X19.11 Y54.732
N500 X19.067 Y54.757
N505 G3 X18.766 Y54.8 I-0.22 J-0.467
N510 G1 X17.929
N515 X17.926 F150.
N520 X17.667 Y54.761
N525 G2 X17.615 Y54.758 I-0.052 J0.497
N530 X17.04 Y54.761 I-0.268 J4.145
N535 G1 X16.781 Y54.8
N540 X16.778
N545 X16.047 F275.
N550 G3 X15.023 Y54.259 I0.04 J-1.315
N555 X14.738 Y51.832 I1.805 J-1.442
N560 X15.839 Y51.2 I1.107 J0.651
N565 G1 X16.601
N570 G3 X17.084 Y51.717 Z-1.69 I-0.017 J0.5 F150.
N575 X17.073 Y51.804 I-0.5 J-0.017
N580 G1 X16.929 Y52.48
N585 X16.707 Y53.523 F3000.
N590 X16.544 Y54.285 F150.
N595 X16.519 Y54.405 Z-1.706
N600 G3 X16.047 Y54.8 Z-1.79 I-0.489 J-0.104
N605 G1 X15.401 F275.
N610 G3 X14.376 Y54.261 I0.033 J-1.307
N615 X13.905 Y52.101 I1.883 J-1.542
N620 X15.116 Y51.2 I1.209 J0.36
N625 G1 X15.839
N630 G3 X16.321 Y51.717 Z-1.69 I-0.017 J0.5 F150.
N635 X16.314 Y51.783 I-0.5 J-0.017
N640 G1 X16.196 Y52.486
N645 X16.023 Y53.516 F3000.
N650 X15.893 Y54.284 F150.
N655 X15.877 Y54.383 Z-1.703
N660 G3 X15.401 Y54.8 Z-1.79 I-0.493 J-0.083
N665 G1 X14.713 F275.
N670 G3 X13.792 Y54.356 I0.082 J-1.345
N675 X13.173 Y52.196 I1.803 J-1.686
N680 X14.412 Y51.2 I1.241 J0.275
N685 G1 X15.116
N690 G3 X15.599 Y51.717 Z-1.69 I-0.017 J0.5 F150.
N695 X15.593 Y51.776 I-0.5 J-0.017
N700 G1 X15.483 Y52.487
N705 X15.323 Y53.514 F3000.
N710 X15.204 Y54.284 F150.
N715 X15.189 Y54.377 Z-1.702
N720 G3 X14.713 Y54.8 Z-1.79 I-0.494 J-0.077
N725 G1 X14.067 F275.
N730 G3 X13.038 Y54.262 I0.06 J-1.367
N735 X12.487 Y52.13 I1.804 J-1.603
N740 X13.709 Y51.2 I1.223 J0.339
N745 G1 X14.412
N750 G3 X14.894 Y51.717 Z-1.69 I-0.017 J0.5 F150.
N755 X14.89 Y51.765 I-0.5 J-0.017
N760 G1 X14.794 Y52.49
N765 X14.658 Y53.511 F3000.
N770 X14.556 Y54.284 F150.
N775 X14.545 Y54.366 Z-1.701
N780 G3 X14.067 Y54.8 Z-1.79 I-0.496 J-0.066
N785 G1 X13.378 F275.
N790 G3 X12.348 Y54.261 I0.07 J-1.389
N795 X11.785 Y52.138 I1.798 J-1.613
N800 X13.01 Y51.2 I1.226 J0.332
N805 G1 X13.709
N810 G3 X14.191 Y51.717 Z-1.69 I-0.017 J0.5 F150.
N815 X14.188 Y51.763 I-0.5 J-0.017
N820 G1 X14.095 Y52.49
N825 X13.965 Y53.511 F3000.
N830 X13.867 Y54.284 F150.
N835 X13.857 Y54.363 Z-1.7
N840 G3 X13.378 Y54.8 Z-1.79 I-0.496 J-0.063
N845 G1 X12.69 F275.
N850 G3 X11.658 Y54.264 I0.07 J-1.397
N855 X11.086 Y52.143 I1.786 J-1.619
N860 X12.312 Y51.2 I1.227 J0.327
N865 G1 X13.01
N870 G3 X13.492 Y51.717 Z-1.69 I-0.017 J0.5 F150.
N875 X13.488 Y51.761 I-0.5 J-0.017
N880 G1 X13.399 Y52.491
N885 X13.273 Y53.51 F3000.
N890 X13.178 Y54.284 F150.
N895 X13.169 Y54.361 Z-1.7
N900 G3 X12.69 Y54.8 Z-1.79 I-0.496 J-0.061
N905 G1 X12.001 F275.
N910 G3 X10.966 Y54.269 I0.065 J-1.401
N915 X10.387 Y52.148 I1.778 J-1.625
N920 X11.614 Y51.2 I1.229 J0.322
N925 G1 X12.312
N930 G3 X12.794 Y51.717 Z-1.69 I-0.017 J0.5 F150.
N935 G1 X12.791 Y51.759
N940 X12.703 Y52.491
N945 X12.582 Y53.51 F3000.
N950 X12.489 Y54.284 F150.
N955 X12.48 Y54.36 Z-1.7
N960 G3 X12.001 Y54.8 Z-1.79 I-0.496 J-0.059
N965 G1 X11.313 F275.
N970 G3 X10.275 Y54.274 I0.059 J-1.404
N975 X9.689 Y52.153 I1.771 J-1.631
N980 X10.917 Y51.2 I1.23 J0.317
N985 G1 X11.614
N990 G3 X12.096 Y51.717 Z-1.69 I-0.017 J0.5 F150.
N995 G1 X12.093 Y51.757
N1000 X12.008 Y52.491
N1005 X11.89 Y53.509 F3000.
N1010 X11.801 Y54.284 F150.
N1015 X11.792 Y54.358 Z-1.7
N1020 G3 X11.313 Y54.8 Z-1.79 I-0.497 J-0.058
N1025 G1 X10.624 F275.
N1030 G3 X9.584 Y54.28 I0.053 J-1.406
N1035 X8.991 Y52.158 I1.765 J-1.637
N1040 X10.221 Y51.2 I1.231 J0.312
N1045 G1 X10.917
N1050 G3 X11.399 Y51.717 Z-1.69 I-0.017 J0.5 F150.
N1055 G1 X11.397 Y51.756
N1060 X11.314 Y52.491
N1065 X11.199 Y53.509 F3000.
N1070 X11.112 Y54.284 F150.
N1075 X11.104 Y54.356 Z-1.699
N1080 G3 X10.624 Y54.8 Z-1.79 I-0.497 J-0.056
N1085 G1 X9.936 F275.
N1090 G3 X8.892 Y54.285 I0.045 J-1.407
N1095 X8.293 Y52.163 I1.759 J-1.642
N1100 X9.524 Y51.2 I1.233 J0.307
N1105 G1 X10.221
N1110 G3 X10.703 Y51.717 Z-1.69 I-0.017 J0.5 F150.
N1115 G1 X10.7 Y51.754
N1120 X10.619 Y52.492
N1125 X10.508 Y53.509 F3000.
N1130 X10.423 Y54.284 F150.
N1135 X10.415 Y54.355 Z-1.699
N1140 G3 X9.936 Y54.8 Z-1.79 I-0.497 J-0.054
N1145 G1 X9.247 F275.
N1150 G3 X8.201 Y54.291 I0.038 J-1.408
N1155 X7.596 Y52.168 I1.754 J-1.647
N1160 X8.828 Y51.2 I1.234 J0.303
N1165 G1 X9.524
N1170 G3 X10.006 Y51.717 Z-1.69 I-0.017 J0.5 F150.
N1175 G1 X10.004 Y51.753
N1180 X9.925 Y52.492
N1185 X9.817 Y53.508 F3000.
N1190 X9.734 Y54.284 F150.
N1195 X9.727 Y54.353 Z-1.699
N1200 G3 X9.247 Y54.8 Z-1.79 I-0.497 J-0.053
N1205 G1 X8.516 F275.
N1210 G3 X7.482 Y54.268 I0.069 J-1.405
N1215 X6.904 Y52.147 I1.774 J-1.623
N1220 X8.13 Y51.2 I1.228 J0.323
N1225 G1 X8.828
N1230 G3 X9.31 Y51.717 Z-1.69 I-0.017 J0.5 F150.
N1235 G1 X9.307 Y51.759
N1240 X9.219 Y52.491
N1245 X9.097 Y53.51 F3000.
N1250 X9.004 Y54.284 F150.
N1255 X8.995 Y54.36 Z-1.7
N1260 G3 X8.516 Y54.8 Z-1.79 I-0.496 J-0.06
N1265 G1 X7.828 F275.
N1270 X7.678 Y54.792
N1275 X7.531 Y54.762
N1280 G3 X6.7 Y53.594 I0.406 J-1.168
N1285 X7.217 Y53.112 Z-1.69 I0.5 J0.017 F150.
N1290 X7.574 Y53.28 I-0.017 J0.5
N1295 G1 X7.822 Y53.559
N1300 X7.897 Y53.644 F3000.
N1305 X8.184 Y53.969 F150.
N1310 G3 X8.31 Y54.283 I-0.374 J0.332
N1315 X7.828 Y54.8 Z-1.79 I-0.5 J0.017
N1320 G1 X7.233 F275.
N1325 G3 X6.701 Y54.29 I-0.03 J-0.502
N1330 G1 X6.709 Y54.212 Z-1.78 F150.
N1335 X6.728 Y54.137 Z-1.77
N1340 X6.758 Y54.065 Z-1.76
N1345 X6.799 Y53.999 Z-1.75
N1350 X6.848 Y53.939 Z-1.74
N1355 G3 X7.2 Y53.782 Z-1.69 I0.368 J0.352
N1360 G1 X7.234
N1365 G3 X7.725 Y54.288 I-0.018 J0.509
N1370 X7.234 Y54.8 Z-1.79 I-0.509 J0.003
N1375 G1 X7.062 Y54.797 F275.
N1380 X7.019 Y54.789
N1385 X6.976 Y54.776
N1390 X6.933 Y54.757
N1395 X6.89 Y54.732
N1400 X6.85 Y54.702
N1405 X6.81 Y54.662
N1410 X6.779 Y54.622
N1415 X6.753 Y54.581
N1420 X6.732 Y54.54
N1425 X6.717 Y54.499
N1430 X6.715 Y54.49
N1435 X6.705 Y54.447
N1440 G3 X6.707 Y51.797 I90.836 J-1.249
N1445 X7.42 Y51.2 I0.712 J0.127
N1450 X7.909 Y51.408 Z-1.721 I-0.026 J0.742 F150.
N1455 X8.052 Y51.601 Z-1.69 I-0.496 J0.514
N1460 X7.992 Y52.34 I-0.638 J0.32
N1465 X7.849 Y52.487 I-0.578 J-0.419 F3000.
N1470 X7.112 Y52.568 I-0.435 J-0.566 F150.
N1475 X6.7 Y51.946 Z-1.79 I0.302 J-0.647
N1480 X6.731 Y51.446 I1.516 J-0.158 F275.
N1485 G1 X6.765 Y51.396
N1490 X6.816 Y51.332
N1495 X6.853 Y51.296
N1500 X6.89 Y51.268
N1505 X6.933 Y51.242
N1510 G3 X7.234 Y51.2 I0.219 J0.467
N1515 G1 X8.13
N1520 G3 X8.524 Y51.984 I-0.017 J0.5 F150.
N1525 G1 X8.475 Y52.031 Z-1.785
N1530 X8.428 Y52.077 Z-1.771
N1535 X8.382 Y52.121 Z-1.749
N1540 X8.312 Y52.148 Z-1.708
N1545 X8.25 Y52.172 Z-1.656
N1550 X8.197 Y52.193 Z-1.593
N1555 X8.162 Y52.196 Z-1.539
N1560 X8.134 Y52.198 Z-1.482
N1565 X8.113 Y52.2 Z-1.421
N1570 X8.106 Z-1.393
N1575 X8.098 Y52.199 Z-1.342
N1580 X8.096 Z-1.29
N1585 G0 Z2.2
N1590 X17.858 Y54.494
N1595 Z-0.29
N1600 G1 Z-0.79 F150.
N1605 S5000
N1610 G3 X16.921 Y51.506 Z-1.048 I-0.468 J-1.494 F220.
N1615 X17.858 Y54.494 Z-1.306 I0.468 J1.494
N1620 X16.921 Y51.506 Z-1.563 I-0.468 J-1.494
N1625 X17.858 Y54.494 Z-1.821 I0.468 J1.494
N1630 X16.921 Y51.506 Z-2.079 I-0.468 J-1.494
N1635 X17.858 Y54.494 Z-2.337 I0.468 J1.494
N1640 X16.921 Y51.506 Z-2.595 I-0.468 J-1.494
N1645 X17.858 Y54.494 Z-2.853 I0.468 J1.494
N1650 X16.921 Y51.506 Z-3.11 I-0.468 J-1.494
N1655 X17.858 Y54.494 Z-3.368 I0.468 J1.494
N1660 X16.921 Y51.506 Z-3.626 I-0.468 J-1.494
N1665 X18.955 Y53. Z-3.78 I0.468 J1.494
N1670 X15.823 I-1.566 J0.
N1675 X18.955 I1.566 J0.
N1680 S5500
N1685 G1 X18.976 Y53.757 F275.
N1690 X18.977 Y53.852
N1695 X18.963 Y54.001
N1700 G3 X17.929 Y54.8 I-1.034 J-0.27
N1705 G1 X16.778
N1710 G3 X15.391 Y53.811 I0.083 J-1.584
N1715 X15.751 Y51.521 I1.838 J-0.884
N1720 G1 X16.007 Y51.348
N1725 X16.295 Y51.238
N1730 X16.601 Y51.2
N1735 X18.
N1740 G3 X19.302 Y52.48 I0.003 J1.299
N1745 G1 X19.292 Y52.567 Z-3.769 F150.
N1750 X19.266 Y52.651 Z-3.758
N1755 X19.226 Y52.728 Z-3.747
N1760 X19.173 Y52.798 Z-3.736
N1765 X19.109 Y52.857 Z-3.724
N1770 X19.036 Y52.905 Z-3.713
N1775 X18.955 Y52.939 Z-3.702
N1780 X18.87 Y52.958 Z-3.691
N1785 X18.783 Y52.963 Z-3.68
N1790 G3 X18.451 Y52.821 I0.017 J-0.5
N1795 G1 X18.158 Y52.534
N1800 X17.953 Y52.335 F3000.
N1805 X17.669 Y52.058 F150.
N1810 G3 X17.518 Y51.717 I0.349 J-0.358
N1815 X18. Y51.2 Z-3.78 I0.5 J-0.017
N1820 G1 X18.689 F275.
N1825 G3 X19.299 Y51.785 I0.033 J0.576
N1830 G1 X19.29 Y51.873 Z-3.769 F150.
N1835 X19.267 Y51.959 Z-3.757
N1840 X19.233 Y52.041 Z-3.746
N1845 X19.187 Y52.117 Z-3.735
N1850 X19.131 Y52.186 Z-3.723
N1855 G3 X18.84 Y52.351 Z-3.68 I-0.422 J-0.403
N1860 X18.136 Y51.673 I-0.131 J-0.569
N1865 X18.689 Y51.2 Z-3.78 I0.573 J0.11
N1870 G1 X18.766 F275.
N1875 X18.938 Y51.203
N1880 X18.981 Y51.211
N1885 X19.024 Y51.224
N1890 X19.067 Y51.242
N1895 X19.11 Y51.268
N1900 X19.147 Y51.296
N1905 X19.184 Y51.332
N1910 X19.235 Y51.396
N1915 G3 X19.3 Y51.74 I-0.433 J0.26
N1920 G1 Y54.069
N1925 G3 X18.573 Y54.798 I-0.715 J0.014
N1930 G1 X18.468 Y54.787 Z-3.766 F150.
N1935 X18.366 Y54.76 Z-3.753
N1940 X18.268 Y54.718 Z-3.739
N1945 X18.178 Y54.663 Z-3.726
N1950 X18.098 Y54.594 Z-3.712
N1955 G3 X17.953 Y54.386 Z-3.68 I0.497 J-0.5
N1960 X18.045 Y53.652 I0.642 J-0.293
N1965 X18.15 Y53.546 I0.55 J0.442 F3000.
N1970 X18.885 Y53.451 I0.445 J0.548 F150.
N1975 X19.3 Y54.069 Z-3.78 I-0.29 J0.643
N1980 G1 X19.299 Y54.404 F275.
N1985 X19.295 Y54.447
N1990 X19.285 Y54.49
N1995 X19.283 Y54.499
N2000 X19.268 Y54.54
N2005 X19.247 Y54.581
N2010 X19.221 Y54.622
N2015 X19.19 Y54.662
N2020 X19.15 Y54.702
N2025 X19.11 Y54.732
N2030 X19.067 Y54.757
N2035 G3 X18.766 Y54.8 I-0.22 J-0.467
N2040 G1 X17.929
N2045 X17.926 F150.
N2050 X17.667 Y54.761
N2055 G2 X17.615 Y54.758 I-0.052 J0.497
N2060 X17.04 Y54.761 I-0.268 J4.145
N2065 G1 X16.781 Y54.8
N2070 X16.778
N2075 X16.047 F275.
N2080 G3 X15.023 Y54.259 I0.04 J-1.315
N2085 X14.738 Y51.832 I1.805 J-1.442
N2090 X15.839 Y51.2 I1.107 J0.651
N2095 G1 X16.601
N2100 G3 X17.084 Y51.717 Z-3.68 I-0.017 J0.5 F150.
N2105 X17.073 Y51.804 I-0.5 J-0.017
N2110 G1 X16.929 Y52.48
N2115 X16.707 Y53.523 F3000.
N2120 X16.544 Y54.285 F150.
N2125 X16.519 Y54.405 Z-3.696
N2130 G3 X16.047 Y54.8 Z-3.78 I-0.489 J-0.104
N2135 G1 X15.401 F275.
N2140 G3 X14.376 Y54.261 I0.033 J-1.307
N2145 X13.905 Y52.101 I1.883 J-1.542
N2150 X15.116 Y51.2 I1.209 J0.36
N2155 G1 X15.839
N2160 G3 X16.321 Y51.717 Z-3.68 I-0.017 J0.5 F150.
N2165 X16.314 Y51.783 I-0.5 J-0.017
N2170 G1 X16.196 Y52.486
N2175 X16.023 Y53.516 F3000.
N2180 X15.893 Y54.284 F150.
N2185 X15.877 Y54.383 Z-3.693
N2190 G3 X15.401 Y54.8 Z-3.78 I-0.493 J-0.083
N2195 G1 X14.713 F275.
N2200 G3 X13.792 Y54.356 I0.082 J-1.345
N2205 X13.173 Y52.196 I1.803 J-1.686
N2210 X14.412 Y51.2 I1.241 J0.275
N2215 G1 X15.116
N2220 G3 X15.599 Y51.717 Z-3.68 I-0.017 J0.5 F150.
N2225 X15.593 Y51.776 I-0.5 J-0.017
N2230 G1 X15.483 Y52.487
N2235 X15.323 Y53.514 F3000.
N2240 X15.204 Y54.284 F150.
N2245 X15.189 Y54.377 Z-3.692
N2250 G3 X14.713 Y54.8 Z-3.78 I-0.494 J-0.077
N2255 G1 X14.067 F275.
N2260 G3 X13.038 Y54.262 I0.06 J-1.367
N2265 X12.487 Y52.13 I1.804 J-1.603
N2270 X13.709 Y51.2 I1.223 J0.339
N2275 G1 X14.412
N2280 G3 X14.894 Y51.717 Z-3.68 I-0.017 J0.5 F150.
N2285 X14.89 Y51.765 I-0.5 J-0.017
N2290 G1 X14.794 Y52.49
N2295 X14.658 Y53.511 F3000.
N2300 X14.556 Y54.284 F150.
N2305 X14.545 Y54.366 Z-3.691
N2310 G3 X14.067 Y54.8 Z-3.78 I-0.496 J-0.066
N2315 G1 X13.378 F275.
N2320 G3 X12.348 Y54.261 I0.07 J-1.389
N2325 X11.785 Y52.138 I1.798 J-1.613
N2330 X13.01 Y51.2 I1.226 J0.332
N2335 G1 X13.709
N2340 G3 X14.191 Y51.717 Z-3.68 I-0.017 J0.5 F150.
N2345 X14.188 Y51.763 I-0.5 J-0.017
N2350 G1 X14.095 Y52.49
N2355 X13.965 Y53.511 F3000.
N2360 X13.867 Y54.284 F150.
N2365 X13.857 Y54.363 Z-3.69
N2370 G3 X13.378 Y54.8 Z-3.78 I-0.496 J-0.063
N2375 G1 X12.69 F275.
N2380 G3 X11.658 Y54.264 I0.07 J-1.397
N2385 X11.086 Y52.143 I1.786 J-1.619
N2390 X12.312 Y51.2 I1.227 J0.327
N2395 G1 X13.01
N2400 G3 X13.492 Y51.717 Z-3.68 I-0.017 J0.5 F150.
N2405 X13.488 Y51.761 I-0.5 J-0.017
N2410 G1 X13.399 Y52.491
N2415 X13.273 Y53.51 F3000.
N2420 X13.178 Y54.284 F150.
N2425 X13.169 Y54.361 Z-3.69
N2430 G3 X12.69 Y54.8 Z-3.78 I-0.496 J-0.061
N2435 G1 X12.001 F275.
N2440 G3 X10.966 Y54.269 I0.065 J-1.401
N2445 X10.387 Y52.148 I1.778 J-1.625
N2450 X11.614 Y51.2 I1.229 J0.322
N2455 G1 X12.312
N2460 G3 X12.794 Y51.717 Z-3.68 I-0.017 J0.5 F150.
N2465 G1 X12.791 Y51.759
N2470 X12.703 Y52.491
N2475 X12.582 Y53.51 F3000.
N2480 X12.489 Y54.284 F150.
N2485 X12.48 Y54.36 Z-3.69
N2490 G3 X12.001 Y54.8 Z-3.78 I-0.496 J-0.059
N2495 G1 X11.313 F275.
N2500 G3 X10.275 Y54.274 I0.059 J-1.404
N2505 X9.689 Y52.153 I1.771 J-1.631
N2510 X10.917 Y51.2 I1.23 J0.317
N2515 G1 X11.614
N2520 G3 X12.096 Y51.717 Z-3.68 I-0.017 J0.5 F150.
N2525 G1 X12.093 Y51.757
N2530 X12.008 Y52.491
N2535 X11.89 Y53.509 F3000.
N2540 X11.801 Y54.284 F150.
N2545 X11.792 Y54.358 Z-3.69
N2550 G3 X11.313 Y54.8 Z-3.78 I-0.497 J-0.058
N2555 G1 X10.624 F275.
N2560 G3 X9.584 Y54.28 I0.053 J-1.406
N2565 X8.991 Y52.158 I1.765 J-1.637
N2570 X10.221 Y51.2 I1.231 J0.312
N2575 G1 X10.917
N2580 G3 X11.399 Y51.717 Z-3.68 I-0.017 J0.5 F150.
N2585 G1 X11.397 Y51.756
N2590 X11.314 Y52.491
N2595 X11.199 Y53.509 F3000.
N2600 X11.112 Y54.284 F150.
N2605 X11.104 Y54.356 Z-3.689
N2610 G3 X10.624 Y54.8 Z-3.78 I-0.497 J-0.056
N2615 G1 X9.936 F275.
N2620 G3 X8.892 Y54.285 I0.045 J-1.407
N2625 X8.293 Y52.163 I1.759 J-1.642
N2630 X9.524 Y51.2 I1.233 J0.307
N2635 G1 X10.221
N2640 G3 X10.703 Y51.717 Z-3.68 I-0.017 J0.5 F150.
N2645 G1 X10.7 Y51.754
N2650 X10.619 Y52.492
N2655 X10.508 Y53.509 F3000.
N2660 X10.423 Y54.284 F150.
N2665 X10.415 Y54.355 Z-3.689
N2670 G3 X9.936 Y54.8 Z-3.78 I-0.497 J-0.054
N2675 G1 X9.247 F275.
N2680 G3 X8.201 Y54.291 I0.038 J-1.408
N2685 X7.596 Y52.168 I1.754 J-1.647
N2690 X8.828 Y51.2 I1.234 J0.303
N2695 G1 X9.524
N2700 G3 X10.006 Y51.717 Z-3.68 I-0.017 J0.5 F150.
N2705 G1 X10.004 Y51.753
N2710 X9.925 Y52.492
N2715 X9.817 Y53.508 F3000.
N2720 X9.734 Y54.284 F150.
N2725 X9.727 Y54.353 Z-3.689
N2730 G3 X9.247 Y54.8 Z-3.78 I-0.497 J-0.053
N2735 G1 X8.516 F275.
N2740 G3 X7.482 Y54.268 I0.069 J-1.405
N2745 X6.904 Y52.147 I1.774 J-1.623
N2750 X8.13 Y51.2 I1.228 J0.323
N2755 G1 X8.828
N2760 G3 X9.31 Y51.717 Z-3.68 I-0.017 J0.5 F150.
N2765 G1 X9.307 Y51.759
N2770 X9.219 Y52.491
N2775 X9.097 Y53.51 F3000.
N2780 X9.004 Y54.284 F150.
N2785 X8.995 Y54.36 Z-3.69
N2790 G3 X8.516 Y54.8 Z-3.78 I-0.496 J-0.06
N2795 G1 X7.828 F275.
N2800 X7.678 Y54.792
N2805 X7.531 Y54.762
N2810 G3 X6.7 Y53.594 I0.406 J-1.168
N2815 X7.217 Y53.112 Z-3.68 I0.5 J0.017 F150.
N2820 X7.574 Y53.28 I-0.017 J0.5
N2825 G1 X7.822 Y53.559
N2830 X7.897 Y53.644 F3000.
N2835 X8.184 Y53.969 F150.
N2840 G3 X8.31 Y54.283 I-0.374 J0.332
N2845 X7.828 Y54.8 Z-3.78 I-0.5 J0.017
N2850 G1 X7.233 F275.
N2855 G3 X6.701 Y54.29 I-0.03 J-0.502
N2860 G1 X6.709 Y54.212 Z-3.77 F150.
N2865 X6.728 Y54.137 Z-3.76
N2870 X6.758 Y54.065 Z-3.75
N2875 X6.799 Y53.999 Z-3.74
N2880 X6.848 Y53.939 Z-3.73
N2885 G3 X7.2 Y53.782 Z-3.68 I0.368 J0.352
N2890 G1 X7.234
N2895 G3 X7.725 Y54.288 I-0.018 J0.509
N2900 X7.234 Y54.8 Z-3.78 I-0.509 J0.003
N2905 G1 X7.062 Y54.797 F275.
N2910 X7.019 Y54.789
N2915 X6.976 Y54.776
N2920 X6.933 Y54.757
N2925 X6.89 Y54.732
N2930 X6.85 Y54.702
N2935 X6.81 Y54.662
N2940 X6.779 Y54.622
N2945 X6.753 Y54.581
N2950 X6.732 Y54.54
N2955 X6.717 Y54.499
N2960 X6.715 Y54.49
N2965 X6.705 Y54.447
N2970 G3 X6.707 Y51.797 I90.836 J-1.249
N2975 X7.42 Y51.2 I0.712 J0.127
N2980 X7.909 Y51.408 Z-3.711 I-0.026 J0.742 F150.
N2985 X8.052 Y51.601 Z-3.68 I-0.496 J0.514
N2990 X7.992 Y52.34 I-0.638 J0.32
N2995 X7.849 Y52.487 I-0.578 J-0.419 F3000.
N3000 X7.112 Y52.568 I-0.435 J-0.566 F150.
N3005 X6.7 Y51.946 Z-3.78 I0.302 J-0.647
N3010 X6.731 Y51.446 I1.516 J-0.158 F275.
N3015 G1 X6.765 Y51.396
N3020 X6.816 Y51.332
N3025 X6.853 Y51.296
N3030 X6.89 Y51.268
N3035 X6.933 Y51.242
N3040 G3 X7.234 Y51.2 I0.219 J0.467
N3045 G1 X8.13
N3050 G3 X8.524 Y51.984 I-0.017 J0.5 F150.
N3055 G1 X8.475 Y52.031 Z-3.775
N3060 X8.428 Y52.077 Z-3.761
N3065 X8.382 Y52.121 Z-3.739
N3070 X8.312 Y52.148 Z-3.698
N3075 X8.25 Y52.172 Z-3.646
N3080 X8.197 Y52.193 Z-3.583
N3085 X8.162 Y52.196 Z-3.529
N3090 X8.134 Y52.198 Z-3.472
N3095 X8.113 Y52.2 Z-3.411
N3100 X8.106 Z-3.383
N3105 X8.098 Y52.199 Z-3.332
N3110 X8.096 Z-3.28
N3115 G0 Z-2.28
N3120 X18.361 Y54.228
N3125 G1 Z-2.78 F150.
N3130 S5000
N3135 G3 X16.418 Y51.772 Z-3.038 I-0.972 J-1.228 F220.
N3140 X18.361 Y54.228 Z-3.296 I0.972 J1.228
N3145 X16.418 Y51.772 Z-3.553 I-0.972 J-1.228
N3150 X18.361 Y54.228 Z-3.811 I0.972 J1.228
N3155 X16.418 Y51.772 Z-4.069 I-0.972 J-1.228
N3160 X18.361 Y54.228 Z-4.327 I0.972 J1.228
N3165 X16.418 Y51.772 Z-4.585 I-0.972 J-1.228
N3170 X18.361 Y54.228 Z-4.843 I0.972 J1.228
N3175 X16.418 Y51.772 Z-5.1 I-0.972 J-1.228
N3180 X18.361 Y54.228 Z-5.358 I0.972 J1.228
N3185 X16.418 Y51.772 Z-5.616 I-0.972 J-1.228
N3190 X18.955 Y53. Z-5.8 I0.972 J1.228
N3195 X15.823 I-1.566 J0.
N3200 X18.955 I1.566 J0.
N3205 S5500
N3210 G1 X18.976 Y53.757 F275.
N3215 X18.977 Y53.852
N3220 X18.963 Y54.001
N3225 G3 X17.929 Y54.8 I-1.034 J-0.27
N3230 G1 X16.778
N3235 G3 X15.391 Y53.811 I0.083 J-1.584
N3240 X15.751 Y51.521 I1.838 J-0.884
N3245 G1 X16.007 Y51.348
N3250 X16.295 Y51.238
N3255 X16.601 Y51.2
N3260 X18.
N3265 G3 X19.302 Y52.48 I0.003 J1.299
N3270 G1 X19.292 Y52.567 Z-5.789 F150.
N3275 X19.266 Y52.651 Z-5.778
N3280 X19.226 Y52.728 Z-5.767
N3285 X19.173 Y52.798 Z-5.756
N3290 X19.109 Y52.857 Z-5.744
N3295 X19.036 Y52.905 Z-5.733
N3300 X18.955 Y52.939 Z-5.722
N3305 X18.87 Y52.958 Z-5.711
N3310 X18.783 Y52.963 Z-5.7
N3315 G3 X18.451 Y52.821 I0.017 J-0.5
N3320 G1 X18.158 Y52.534
N3325 X17.953 Y52.335 F3000.
N3330 X17.669 Y52.058 F150.
N3335 G3 X17.518 Y51.717 I0.349 J-0.358
N3340 X18. Y51.2 Z-5.8 I0.5 J-0.017
N3345 G1 X18.689 F275.
N3350 G3 X19.299 Y51.785 I0.033 J0.576
N3355 G1 X19.29 Y51.873 Z-5.789 F150.
N3360 X19.267 Y51.959 Z-5.777
N3365 X19.233 Y52.041 Z-5.766
N3370 X19.187 Y52.117 Z-5.755
N3375 X19.131 Y52.186 Z-5.743
N3380 G3 X18.84 Y52.351 Z-5.7 I-0.422 J-0.403
N3385 X18.136 Y51.673 I-0.131 J-0.569
N3390 X18.689 Y51.2 Z-5.8 I0.573 J0.11
N3395 G1 X18.766 F275.
N3400 X18.938 Y51.203
N3405 X18.981 Y51.211
N3410 X19.024 Y51.224
N3415 X19.067 Y51.242
N3420 X19.11 Y51.268
N3425 X19.147 Y51.296
N3430 X19.184 Y51.332
N3435 X19.235 Y51.396
N3440 G3 X19.3 Y51.74 I-0.433 J0.26
N3445 G1 Y54.069
N3450 G3 X18.573 Y54.798 I-0.715 J0.014
N3455 G1 X18.468 Y54.787 Z-5.786 F150.
N3460 X18.366 Y54.76 Z-5.773
N3465 X18.268 Y54.718 Z-5.759
N3470 X18.178 Y54.663 Z-5.746
N3475 X18.098 Y54.594 Z-5.732
N3480 G3 X17.953 Y54.386 Z-5.7 I0.497 J-0.5
N3485 X18.045 Y53.652 I0.642 J-0.293
N3490 X18.15 Y53.546 I0.55 J0.442 F3000.
N3495 X18.885 Y53.451 I0.445 J0.548 F150.
N3500 X19.3 Y54.069 Z-5.8 I-0.29 J0.643
N3505 G1 X19.299 Y54.404 F275.
N3510 X19.295 Y54.447
N3515 X19.285 Y54.49
N3520 X19.283 Y54.499
N3525 X19.268 Y54.54
N3530 X19.247 Y54.581
N3535 X19.221 Y54.622
N3540 X19.19 Y54.662
N3545 X19.15 Y54.702
N3550 X19.11 Y54.732
N3555 X19.067 Y54.757
N3560 G3 X18.766 Y54.8 I-0.22 J-0.467
N3565 G1 X17.929
N3570 X17.926 F150.
N3575 X17.667 Y54.761
N3580 G2 X17.615 Y54.758 I-0.052 J0.497
N3585 X17.04 Y54.761 I-0.268 J4.145
N3590 G1 X16.781 Y54.8
N3595 X16.778
N3600 X16.047 F275.
N3605 G3 X15.023 Y54.259 I0.04 J-1.315
N3610 X14.738 Y51.832 I1.805 J-1.442
N3615 X15.839 Y51.2 I1.107 J0.651
N3620 G1 X16.601
N3625 G3 X17.084 Y51.717 Z-5.7 I-0.017 J0.5 F150.
N3630 X17.073 Y51.804 I-0.5 J-0.017
N3635 G1 X16.929 Y52.48
N3640 X16.707 Y53.523 F3000.
N3645 X16.544 Y54.285 F150.
N3650 X16.519 Y54.405 Z-5.716
N3655 G3 X16.047 Y54.8 Z-5.8 I-0.489 J-0.104
N3660 G1 X15.401 F275.
N3665 G3 X14.376 Y54.261 I0.033 J-1.307
N3670 X13.905 Y52.101 I1.883 J-1.542
N3675 X15.116 Y51.2 I1.209 J0.36
N3680 G1 X15.839
N3685 G3 X16.321 Y51.717 Z-5.7 I-0.017 J0.5 F150.
N3690 X16.314 Y51.783 I-0.5 J-0.017
N3695 G1 X16.196 Y52.486
N3700 X16.023 Y53.516 F3000.
N3705 X15.893 Y54.284 F150.
N3710 X15.877 Y54.383 Z-5.713
N3715 G3 X15.401 Y54.8 Z-5.8 I-0.493 J-0.083
N3720 G1 X14.713 F275.
N3725 G3 X13.792 Y54.356 I0.082 J-1.345
N3730 X13.173 Y52.196 I1.803 J-1.686
N3735 X14.412 Y51.2 I1.241 J0.275
N3740 G1 X15.116
N3745 G3 X15.599 Y51.717 Z-5.7 I-0.017 J0.5 F150.
N3750 X15.593 Y51.776 I-0.5 J-0.017
N3755 G1 X15.483 Y52.487
N3760 X15.323 Y53.514 F3000.
N3765 X15.204 Y54.284 F150.
N3770 X15.189 Y54.377 Z-5.712
N3775 G3 X14.713 Y54.8 Z-5.8 I-0.494 J-0.077
N3780 G1 X14.067 F275.
N3785 G3 X13.038 Y54.262 I0.06 J-1.367
N3790 X12.487 Y52.13 I1.804 J-1.603
N3795 X13.709 Y51.2 I1.223 J0.339
N3800 G1 X14.412
N3805 G3 X14.894 Y51.717 Z-5.7 I-0.017 J0.5 F150.
N3810 X14.89 Y51.765 I-0.5 J-0.017
N3815 G1 X14.794 Y52.49
N3820 X14.658 Y53.511 F3000.
N3825 X14.556 Y54.284 F150.
N3830 X14.545 Y54.366 Z-5.711
N3835 G3 X14.067 Y54.8 Z-5.8 I-0.496 J-0.066
N3840 G1 X13.378 F275.
N3845 G3 X12.348 Y54.261 I0.07 J-1.389
N3850 X11.785 Y52.138 I1.798 J-1.613
N3855 X13.01 Y51.2 I1.226 J0.332
N3860 G1 X13.709
N3865 G3 X14.191 Y51.717 Z-5.7 I-0.017 J0.5 F150.
N3870 X14.188 Y51.763 I-0.5 J-0.017
N3875 G1 X14.095 Y52.49
N3880 X13.965 Y53.511 F3000.
N3885 X13.867 Y54.284 F150.
N3890 X13.857 Y54.363 Z-5.71
N3895 G3 X13.378 Y54.8 Z-5.8 I-0.496 J-0.063
N3900 G1 X12.69 F275.
N3905 G3 X11.658 Y54.264 I0.07 J-1.397
N3910 X11.086 Y52.143 I1.786 J-1.619
N3915 X12.312 Y51.2 I1.227 J0.327
N3920 G1 X13.01
N3925 G3 X13.492 Y51.717 Z-5.7 I-0.017 J0.5 F150.
N3930 X13.488 Y51.761 I-0.5 J-0.017
N3935 G1 X13.399 Y52.491
N3940 X13.273 Y53.51 F3000.
N3945 X13.178 Y54.284 F150.
N3950 X13.169 Y54.361 Z-5.71
N3955 G3 X12.69 Y54.8 Z-5.8 I-0.496 J-0.061
N3960 G1 X12.001 F275.
N3965 G3 X10.966 Y54.269 I0.065 J-1.401
N3970 X10.387 Y52.148 I1.778 J-1.625
N3975 X11.614 Y51.2 I1.229 J0.322
N3980 G1 X12.312
N3985 G3 X12.794 Y51.717 Z-5.7 I-0.017 J0.5 F150.
N3990 G1 X12.791 Y51.759
N3995 X12.703 Y52.491
N4000 X12.582 Y53.51 F3000.
N4005 X12.489 Y54.284 F150.
N4010 X12.48 Y54.36 Z-5.71
N4015 G3 X12.001 Y54.8 Z-5.8 I-0.496 J-0.059
N4020 G1 X11.313 F275.
N4025 G3 X10.275 Y54.274 I0.059 J-1.404
N4030 X9.689 Y52.153 I1.771 J-1.631
N4035 X10.917 Y51.2 I1.23 J0.317
N4040 G1 X11.614
N4045 G3 X12.096 Y51.717 Z-5.7 I-0.017 J0.5 F150.
N4050 G1 X12.093 Y51.757
N4055 X12.008 Y52.491
N4060 X11.89 Y53.509 F3000.
N4065 X11.801 Y54.284 F150.
N4070 X11.792 Y54.358 Z-5.71
N4075 G3 X11.313 Y54.8 Z-5.8 I-0.497 J-0.058
N4080 G1 X10.624 F275.
N4085 G3 X9.584 Y54.28 I0.053 J-1.406
N4090 X8.991 Y52.158 I1.765 J-1.637
N4095 X10.221 Y51.2 I1.231 J0.312
N4100 G1 X10.917
N4105 G3 X11.399 Y51.717 Z-5.7 I-0.017 J0.5 F150.
N4110 G1 X11.397 Y51.756
N4115 X11.314 Y52.491
N4120 X11.199 Y53.509 F3000.
N4125 X11.112 Y54.284 F150.
N4130 X11.104 Y54.356 Z-5.709
N4135 G3 X10.624 Y54.8 Z-5.8 I-0.497 J-0.056
N4140 G1 X9.936 F275.
N4145 G3 X8.892 Y54.285 I0.045 J-1.407
N4150 X8.293 Y52.163 I1.759 J-1.642
N4155 X9.524 Y51.2 I1.233 J0.307
N4160 G1 X10.221
N4165 G3 X10.703 Y51.717 Z-5.7 I-0.017 J0.5 F150.
N4170 G1 X10.7 Y51.754
N4175 X10.619 Y52.492
N4180 X10.508 Y53.509 F3000.
N4185 X10.423 Y54.284 F150.
N4190 X10.415 Y54.355 Z-5.709
N4195 G3 X9.936 Y54.8 Z-5.8 I-0.497 J-0.054
N4200 G1 X9.247 F275.
N4205 G3 X8.201 Y54.291 I0.038 J-1.408
N4210 X7.596 Y52.168 I1.754 J-1.647
N4215 X8.828 Y51.2 I1.234 J0.303
N4220 G1 X9.524
N4225 G3 X10.006 Y51.717 Z-5.7 I-0.017 J0.5 F150.
N4230 G1 X10.004 Y51.753
N4235 X9.925 Y52.492
N4240 X9.817 Y53.508 F3000.
N4245 X9.734 Y54.284 F150.
N4250 X9.727 Y54.353 Z-5.709
N4255 G3 X9.247 Y54.8 Z-5.8 I-0.497 J-0.053
N4260 G1 X8.516 F275.
N4265 G3 X7.482 Y54.268 I0.069 J-1.405
N4270 X6.904 Y52.147 I1.774 J-1.623
N4275 X8.13 Y51.2 I1.228 J0.323
N4280 G1 X8.828
N4285 G3 X9.31 Y51.717 Z-5.7 I-0.017 J0.5 F150.
N4290 G1 X9.307 Y51.759
N4295 X9.219 Y52.491
N4300 X9.097 Y53.51 F3000.
N4305 X9.004 Y54.284 F150.
N4310 X8.995 Y54.36 Z-5.71
N4315 G3 X8.516 Y54.8 Z-5.8 I-0.496 J-0.06
N4320 G1 X7.828 F275.
N4325 X7.678 Y54.792
N4330 X7.531 Y54.762
N4335 G3 X6.7 Y53.594 I0.406 J-1.168
N4340 X7.217 Y53.112 Z-5.7 I0.5 J0.017 F150.
N4345 X7.574 Y53.28 I-0.017 J0.5
N4350 G1 X7.822 Y53.559
N4355 X7.897 Y53.644 F3000.
N4360 X8.184 Y53.969 F150.
N4365 G3 X8.31 Y54.283 I-0.374 J0.332
N4370 X7.828 Y54.8 Z-5.8 I-0.5 J0.017
N4375 G1 X7.233 F275.
N4380 G3 X6.701 Y54.29 I-0.03 J-0.502
N4385 G1 X6.709 Y54.212 Z-5.79 F150.
N4390 X6.728 Y54.137 Z-5.78
N4395 X6.758 Y54.065 Z-5.77
N4400 X6.799 Y53.999 Z-5.76
N4405 X6.848 Y53.939 Z-5.75
N4410 G3 X7.2 Y53.782 Z-5.7 I0.368 J0.352
N4415 G1 X7.234
N4420 G3 X7.725 Y54.288 I-0.018 J0.509
N4425 X7.234 Y54.8 Z-5.8 I-0.509 J0.003
N4430 G1 X7.062 Y54.797 F275.
N4435 X7.019 Y54.789
N4440 X6.976 Y54.776
N4445 X6.933 Y54.757
N4450 X6.89 Y54.732
N4455 X6.85 Y54.702
N4460 X6.81 Y54.662
N4465 X6.779 Y54.622
N4470 X6.753 Y54.581
N4475 X6.732 Y54.54
N4480 X6.717 Y54.499
N4485 X6.715 Y54.49
N4490 X6.705 Y54.447
N4495 G3 X6.707 Y51.797 I90.836 J-1.249
N4500 X7.42 Y51.2 I0.712 J0.127
N4505 X7.909 Y51.408 Z-5.731 I-0.026 J0.742 F150.
N4510 X8.052 Y51.601 Z-5.7 I-0.496 J0.514
N4515 X7.992 Y52.34 I-0.638 J0.32
N4520 X7.849 Y52.487 I-0.578 J-0.419 F3000.
N4525 X7.112 Y52.568 I-0.435 J-0.566 F150.
N4530 X6.7 Y51.946 Z-5.8 I0.302 J-0.647
N4535 X6.731 Y51.446 I1.516 J-0.158 F275.
N4540 G1 X6.765 Y51.396
N4545 X6.816 Y51.332
N4550 X6.853 Y51.296
N4555 X6.89 Y51.268
N4560 X6.933 Y51.242
N4565 G3 X7.234 Y51.2 I0.219 J0.467
N4570 G1 X8.13
N4575 G3 X8.106 Y52.2 I-0.017 J0.5 F150.
N4580 G1 X8.096 Y52.199
N4585 X8.009 Y52.196 Z-5.792
N4590 X7.925 Y52.193 Z-5.77
N4595 X7.846 Y52.191 Z-5.733
N4600 X7.774 Y52.188 Z-5.683
N4605 X7.713 Y52.186 Z-5.621
N4610 X7.663 Y52.184 Z-5.55
N4615 X7.626 Y52.183 Z-5.471
N4620 X7.603 Y52.182 Z-5.387
N4625 X7.596 Z-5.3
N4630 G0 Z4.
N4640 M9
N4645 G53 Z0.
N4650 M30
%
