%
(1001)
(T1  D=6. CR=0. - ZMIN=-10.1 - FLAT END MILL)
N10 G90 G94 G17 G91.1
N15 G21
N20 G53 G0 Z0.
(2D ADAPTIVE3)
N25 M9
N30 T1 M6
N35 S3200 M3
N40 G54
N45 M8
N55 G0 X-34.444 Y-3.435
N60 G43 Z4. H1
N65 #100=330. (CUTTING)
N70 #103=200. (ENTRY)
N75 #104=200. (EXIT)
N80 #105=3000. (DIRECT)
N85 G0 Z-8.7
N90 G1 Z-9.4 F#103
N95 X-34.439 Y-3.429 Z-9.5
N100 X-34.425 Y-3.414 Z-9.597
N105 X-34.402 Y-3.387 Z-9.691
N110 X-34.37 Y-3.352 Z-9.778
N115 X-34.331 Y-3.307 Z-9.858
N120 X-34.284 Y-3.254 Z-9.929
N125 X-34.231 Y-3.194 Z-9.989
N130 X-34.172 Y-3.129 Z-10.037
N135 X-34.11 Y-3.059 Z-10.072
N140 X-34.045 Y-2.986 Z-10.093
N145 X-33.979 Y-2.911 Z-10.1
N150 G3 X-32.973 Y-0.956 I-3.314 J2.942
N155 G2 X-29.964 Y2.687 I4.931 J-1.008 F#100
N160 G1 X-29.874 Y2.741 Z-10.09 F#104
N165 X-29.793 Y2.807 Z-10.081
N170 X-29.724 Y2.884 Z-10.071
N175 X-29.666 Y2.972 Z-10.062
N180 X-29.622 Y3.066 Z-10.052
N185 X-29.592 Y3.167 Z-10.043
N190 X-29.578 Y3.27 Z-10.033
N195 G2 X-29.464 Y3.614 Z-10. I0.699 J-0.041
N200 X-29.078 Y3.9 I0.585 J-0.384
N205 G1 X-28.573 Y4.05
N210 X-28.535 Y4.06
N215 X-28.497 Y4.068
N220 G2 X-27.926 Y3.916 I0.123 J-0.689 F#105
N225 G1 X-27.904 Y3.899
N230 G3 X-26.982 Y3.313 I2.817 J3.42 F#103
N235 X-25.94 Y2.971 Z-10.1 I1.895 J4.006
N240 X-21.247 Y2.508 I3.78 J14.318 F#100
N245 X-15.501 Y2.47 I3.96 J163.552
N250 G1 X-6.018
N255 G3 X-4.909 Y2.711 I-0.003 J2.686
N260 G1 X-4.822 Y2.759 Z-10.091 F#104
N265 X-4.743 Y2.819 Z-10.082
N270 X-4.672 Y2.89 Z-10.073
N275 X-4.613 Y2.97 Z-10.064
N280 X-4.566 Y3.058 Z-10.055
N285 X-4.531 Y3.152 Z-10.045
N290 X-4.511 Y3.25 Z-10.036
N295 X-4.504 Y3.349 Z-10.027
N300 X-4.512 Y3.449 Z-10.018
N305 X-4.533 Y3.546 Z-10.009
N310 X-4.569 Y3.639 Z-10.
N315 G3 X-5.14 Y4.042 I-0.635 J-0.294
N320 G1 X-5.497 Y4.11
N325 X-23.99 Y7.606 F#105
N330 G3 X-26.838 Y4.433 I-0.452 J-2.459
N335 X-26.309 Y3.484 I2.396 J0.714 F#103
N340 X-25.423 Y2.848 Z-10.1 I1.866 J1.663
N345 X-21.19 Y2.054 I3.639 J7.719 F#100
N350 X-13.529 Y1.97 I5.422 J146.07
N355 G1 X-7.145
N360 G3 X-4.993 Y2.697 I-0.136 J3.953
N365 G1 X-4.902 Y2.744 Z-10.09 F#104
N370 X-4.819 Y2.804 Z-10.081
N375 X-4.745 Y2.876 Z-10.071
N380 X-4.683 Y2.959 Z-10.062
N385 X-4.634 Y3.051 Z-10.052
N390 X-4.598 Y3.15 Z-10.043
N395 X-4.578 Y3.253 Z-10.033
N400 G3 X-4.64 Y3.609 Z-10. I-0.697 J0.062
N405 X-5.236 Y4.014 I-0.635 J-0.294
N410 G1 X-5.575 Y4.033
N415 X-25.803 Y5.176 F#105
N420 G3 X-26.435 Y4.104 I-0.039 J-0.699
N425 G1 X-26.42 Y4.08
N430 G3 X-25.722 Y3.24 I3.732 J2.389 F#103
N435 X-24.836 Y2.594 Z-10.1 I3.034 J3.23
N440 X-21.021 Y1.606 I3.544 J5.828 F#100
N445 X-7.15 Y1.513 I8.273 J199.391
N450 X-5.616 Y2.367 I-2.395 J6.103
N455 G1 X-5.537 Y2.426 Z-10.091 F#104
N460 X-5.467 Y2.496 Z-10.082
N465 X-5.407 Y2.575 Z-10.073
N470 X-5.36 Y2.662 Z-10.064
N475 X-5.325 Y2.754 Z-10.055
N480 X-5.304 Y2.851 Z-10.045
N485 X-5.297 Y2.95 Z-10.036
N490 X-5.304 Y3.049 Z-10.027
N495 X-5.325 Y3.147 Z-10.018
N500 X-5.359 Y3.24 Z-10.009
N505 X-5.407 Y3.328 Z-10.
N510 G3 X-5.997 Y3.645 I-0.586 J-0.383
N515 G1 X-6.394 Y3.643
N520 X-23.443 Y3.549 F#105
N525 X-23.848 Y3.547 F#103
N530 G3 X-24.43 Y3.229 I0.004 J-0.7
N535 X-24.228 Y2.261 Z-10.1 I0.586 J-0.383
N540 X-20.948 Y1.189 I3.199 J4.233 F#100
N545 X-13.326 Y1. I5.322 J61.033
N550 X-7.541 Y1.068 I2.408 J41.688
N555 X-6.094 Y2.063 I-1.512 J3.748
N560 G1 X-6.023 Y2.131 Z-10.091 F#104
N565 X-5.962 Y2.209 Z-10.082
N570 X-5.912 Y2.294 Z-10.073
N575 X-5.876 Y2.386 Z-10.064
N580 X-5.853 Y2.483 Z-10.055
N585 X-5.844 Y2.582 Z-10.045
N590 X-5.849 Y2.681 Z-10.036
N595 X-5.868 Y2.779 Z-10.027
N600 X-5.901 Y2.873 Z-10.018
N605 X-5.947 Y2.961 Z-10.009
N610 X-6.005 Y3.042 Z-10.
N615 G3 X-6.543 Y3.29 I-0.535 J-0.452
N620 G1 X-7.027 Y3.288
N625 X-22.823 Y3.203 F#105
N630 X-23.355 Y3.2 F#103
N635 G3 X-23.858 Y2.982 I0.004 J-0.7
N640 X-23.834 Y1.993 Z-10.1 I0.507 J-0.483
N645 X-20.881 Y0.794 I2.948 J3.023 F#100
N650 X-15.415 Y0.505 I4.222 J28.026
N655 X-8.297 Y0.543 I3.061 J92.085
N660 X-6.446 Y1.749 I-0.787 J3.23
N665 G1 X-6.381 Y1.823 Z-10.091 F#104
N670 X-6.328 Y1.905 Z-10.082
N675 X-6.286 Y1.995 Z-10.073
N680 X-6.258 Y2.089 Z-10.064
N685 X-6.243 Y2.187 Z-10.055
N690 Y2.286 Z-10.045
N695 X-6.256 Y2.384 Z-10.036
N700 X-6.284 Y2.479 Z-10.027
N705 X-6.325 Y2.57 Z-10.018
N710 X-6.378 Y2.654 Z-10.009
N715 X-6.444 Y2.73 Z-10.
N720 G3 X-6.936 Y2.931 I-0.491 J-0.499
N725 G1 X-7.486 Y2.93
N730 X-22.463 Y2.892 F#105
N735 X-23.027 Y2.891 F#103
N740 G3 X-23.508 Y2.697 I0.002 J-0.7
N745 X-23.532 Y1.708 Z-10.1 I0.483 J-0.506
N750 X-20.696 Y0.374 I3.014 J2.725 F#100
N755 X-13.599 Y0.013 I5.266 J33.657
N760 X-8.758 Y0.069 I2.004 J36.536
N765 X-7.065 Y1.073 I-0.571 J2.891
N770 G1 X-7.01 Y1.157 Z-10.091 F#104
N775 X-6.969 Y1.248 Z-10.082
N780 X-6.941 Y1.344 Z-10.073
N785 X-6.927 Y1.443 Z-10.064
N790 Y1.544 Z-10.055
N795 X-6.941 Y1.642 Z-10.045
N800 X-6.969 Y1.738 Z-10.036
N805 X-7.01 Y1.829 Z-10.027
N810 X-7.064 Y1.913 Z-10.018
N815 X-7.13 Y1.989 Z-10.009
N820 X-7.205 Y2.054 Z-10.
N825 G3 X-7.611 Y2.195 I-0.421 J-0.559
N830 G1 X-8.27 Y2.208
N835 X-22.067 Y2.498 F#105
N840 X-22.635 Y2.51 F#103
N845 G3 X-23.118 Y2.33 I-0.015 J-0.7
N850 X-23.17 Y1.342 Z-10.1 I0.468 J-0.52
N855 X-20.394 Y-0.058 I2.959 J2.414 F#100
N860 X-14.672 Y-0.479 I4.555 J22.817
N865 X-8.783 Y-0.346 I2.196 J33.151
N870 X-7.199 Y0.862 I-0.955 J2.893
N875 G1 X-7.156 Y0.953 Z-10.091 F#104
N880 X-7.127 Y1.049 Z-10.082
N885 X-7.111 Y1.148 Z-10.073
N890 X-7.109 Y1.249 Z-10.064
N895 X-7.122 Y1.348 Z-10.055
N900 X-7.149 Y1.445 Z-10.045
N905 X-7.189 Y1.536 Z-10.036
N910 X-7.242 Y1.621 Z-10.027
N915 X-7.306 Y1.698 Z-10.018
N920 X-7.381 Y1.764 Z-10.009
N925 X-7.464 Y1.82 Z-10.
N930 G3 X-7.801 Y1.912 I-0.347 J-0.608
N935 G1 X-8.543 Y1.923
N940 X-21.624 Y2.12 F#105
N945 X-22.32 Y2.13 F#103
N950 G3 X-22.7 Y2.025 I-0.011 J-0.7
N955 X-22.925 Y1.061 Z-10.1 I0.37 J-0.594
N960 X-20.648 Y-0.369 I2.638 J1.673 F#100
N965 X-14.485 Y-0.961 I4.938 J19.045
N970 X-9.053 Y-0.8 I2.016 J23.791
N975 X-7.215 Y0.87 I-0.98 J2.926
N980 G1 X-7.171 Y0.958 Z-10.091 F#104
N985 X-7.14 Y1.052 Z-10.082
N990 X-7.123 Y1.149 Z-10.073
N995 X-7.12 Y1.247 Z-10.064
N1000 X-7.131 Y1.346 Z-10.055
N1005 X-7.156 Y1.442 Z-10.045
N1010 X-7.194 Y1.533 Z-10.036
N1015 X-7.246 Y1.618 Z-10.027
N1020 X-7.308 Y1.696 Z-10.018
N1025 X-7.382 Y1.763 Z-10.009
N1030 X-7.464 Y1.82 Z-10.
N1035 G3 X-7.815 Y1.912 I-0.347 J-0.608
N1040 G1 X-8.543 Y1.908
N1045 X-21.414 Y1.847 F#105
N1050 X-22.15 Y1.844 F#103
N1055 G3 X-22.494 Y1.751 I0.003 J-0.7
N1060 X-22.754 Y0.797 Z-10.1 I0.347 J-0.608
N1065 X-20.589 Y-0.743 I2.646 J1.429 F#100
N1070 X-14.26 Y-1.447 I5.132 J17.333
N1075 X-9.124 Y-1.201 I1.775 J16.658
N1080 X-7.428 Y0.496 I-1.108 J2.803
N1085 G1 X-7.393 Y0.588 Z-10.091 F#104
N1090 X-7.37 Y0.685 Z-10.082
N1095 X-7.362 Y0.784 Z-10.073
N1100 X-7.368 Y0.884 Z-10.064
N1105 X-7.388 Y0.981 Z-10.055
N1110 X-7.422 Y1.075 Z-10.045
N1115 X-7.469 Y1.163 Z-10.036
N1120 X-7.527 Y1.243 Z-10.027
N1125 X-7.597 Y1.315 Z-10.018
N1130 X-7.676 Y1.376 Z-10.009
N1135 X-7.763 Y1.424 Z-10.
N1140 G3 X-8.061 Y1.49 I-0.296 J-0.634
N1145 G1 X-8.849 Y1.489
N1150 X-21.14 Y1.471 F#105
N1155 X-21.931 Y1.47 F#103
N1160 G3 X-22.226 Y1.404 I0.001 J-0.7
N1165 X-22.564 Y0.474 Z-10.1 I0.296 J-0.634
N1170 X-20.319 Y-1.184 I2.714 J1.326 F#100
N1175 X-15.266 Y-1.917 I4.522 J13.374
N1180 X-9.25 Y-1.638 I2.133 J18.996
N1185 X-7.608 Y0.146 I-1.25 J2.799
N1190 G1 X-7.572 Y0.238 Z-10.091 F#104
N1195 X-7.55 Y0.335 Z-10.082
N1200 X-7.541 Y0.434 Z-10.073
N1205 X-7.547 Y0.533 Z-10.064
N1210 X-7.567 Y0.631 Z-10.055
N1215 X-7.601 Y0.725 Z-10.045
N1220 X-7.647 Y0.813 Z-10.036
N1225 X-7.706 Y0.893 Z-10.027
N1230 X-7.776 Y0.965 Z-10.018
N1235 X-7.855 Y1.025 Z-10.009
N1240 X-7.942 Y1.074 Z-10.
N1245 G3 X-8.239 Y1.14 I-0.296 J-0.634
N1250 G1 X-9.028 Y1.139
N1255 X-20.953 Y1.127 F#105
N1260 X-21.756 Y1.126 F#103
N1265 G3 X-22.041 Y1.066 I0.001 J-0.7
N1270 X-22.395 Y0.142 Z-10.1 I0.285 J-0.639
N1275 X-20.363 Y-1.531 I2.629 J1.124 F#100
N1280 X-14.606 Y-2.41 I5.027 J13.632
N1285 X-9.361 Y-2.05 I1.685 J13.845
N1290 X-7.745 Y-0.149 I-1.217 J2.672
N1295 G1 X-7.715 Y-0.055 Z-10.091 F#104
N1300 X-7.698 Y0.042 Z-10.082
N1305 X-7.696 Y0.141 Z-10.073
N1310 X-7.708 Y0.239 Z-10.064
N1315 X-7.733 Y0.335 Z-10.055
N1320 X-7.772 Y0.426 Z-10.045
N1325 X-7.824 Y0.511 Z-10.036
N1330 X-7.887 Y0.588 Z-10.027
N1335 X-7.961 Y0.655 Z-10.018
N1340 X-8.043 Y0.711 Z-10.009
N1345 X-8.133 Y0.755 Z-10.
N1350 G3 X-8.389 Y0.803 I-0.255 J-0.652
N1355 G1 X-9.223 Y0.802
N1360 X-20.772 Y0.791 F#105
N1365 X-21.607 F#103
N1370 G3 X-21.862 Y0.743 I0.001 J-0.7
N1375 X-22.259 Y-0.164 Z-10.1 I0.255 J-0.652
N1380 X-20.294 Y-1.914 I2.623 J0.968 F#100
N1385 X-14.228 Y-2.896 I5.27 J13.317
N1390 X-9.374 Y-2.432 I1.378 J11.199
N1395 X-7.894 Y-0.593 I-1.304 J2.564
N1400 G1 X-7.882 Y-0.493 Z-10.091 F#104
N1405 X-7.884 Y-0.393 Z-10.082
N1410 X-7.9 Y-0.294 Z-10.073
N1415 X-7.931 Y-0.198 Z-10.064
N1420 X-7.974 Y-0.108 Z-10.055
N1425 X-8.03 Y-0.025 Z-10.045
N1430 X-8.097 Y0.05 Z-10.036
N1435 X-8.174 Y0.113 Z-10.027
N1440 X-8.26 Y0.166 Z-10.018
N1445 X-8.351 Y0.205 Z-10.009
N1450 X-8.448 Y0.231 Z-10.
N1455 G3 X-8.574 Y0.245 I-0.137 J-0.686
N1460 G1 X-9.542 Y0.26
N1465 X-20.567 Y0.436 F#105
N1470 X-21.462 Y0.45 F#103
N1475 G3 X-21.66 Y0.424 I-0.011 J-0.7
N1480 X-22.148 Y-0.437 Z-10.1 I0.187 J-0.675
N1485 X-20.441 Y-2.2 I2.424 J0.639 F#100
N1490 X-14.558 Y-3.357 I5.295 J11.384
N1495 X-9.334 Y-2.792 I1.493 J10.618
N1500 X-7.953 Y-0.869 I-1.451 J2.5
N1505 G1 X-7.946 Y-0.769 Z-10.091 F#104
N1510 X-7.954 Y-0.669 Z-10.082
N1515 X-7.976 Y-0.571 Z-10.073
N1520 X-8.011 Y-0.477 Z-10.064
N1525 X-8.06 Y-0.389 Z-10.055
N1530 X-8.12 Y-0.309 Z-10.045
N1535 X-8.191 Y-0.239 Z-10.036
N1540 X-8.272 Y-0.179 Z-10.027
N1545 X-8.36 Y-0.132 Z-10.018
N1550 X-8.454 Y-0.098 Z-10.009
N1555 X-8.551 Y-0.077 Z-10.
N1560 G3 X-8.639 Y-0.07 I-0.099 J-0.693
N1565 G1 X-9.646 Y-0.054
N1570 X-20.42 Y0.118 F#105
N1575 G3 X-21.514 Y0.124 I-0.573 J-5.266 F#103
N1580 G1 X-21.611 Y0.099 Z-10.009
N1585 X-21.704 Y0.061 Z-10.018
N1590 X-21.79 Y0.009 Z-10.027
N1595 X-21.867 Y-0.053 Z-10.036
N1600 X-21.935 Y-0.126 Z-10.045
N1605 X-21.992 Y-0.209 Z-10.055
N1610 X-22.037 Y-0.298 Z-10.064
N1615 X-22.068 Y-0.393 Z-10.073
N1620 X-22.086 Y-0.491 Z-10.082
N1625 X-22.09 Y-0.591 Z-10.091
N1630 X-22.079 Y-0.69 Z-10.1
N1635 G3 X-20.481 Y-2.53 I2.363 J0.439 F#100
N1640 X-15.16 Y-3.795 I5.12 J9.707
N1645 X-9.313 Y-3.172 I1.785 J10.98
N1650 X-7.962 Y-0.868 I-1.634 J2.507
N1655 G1 X-7.954 Y-0.769 Z-10.091 F#104
N1660 X-7.961 Y-0.67 Z-10.082
N1665 X-7.982 Y-0.573 Z-10.073
N1670 X-8.017 Y-0.48 Z-10.064
N1675 X-8.064 Y-0.392 Z-10.055
N1680 X-8.123 Y-0.312 Z-10.045
N1685 X-8.194 Y-0.242 Z-10.036
N1690 X-8.273 Y-0.182 Z-10.027
N1695 X-8.361 Y-0.134 Z-10.018
N1700 X-8.454 Y-0.098 Z-10.009
N1705 X-8.551 Y-0.077 Z-10.
N1710 G3 X-8.657 Y-0.07 I-0.099 J-0.693
N1715 G1 X-9.647 Y-0.08
N1720 X-20.319 Y-0.184 F#105
N1725 X-21.335 Y-0.194 F#103
N1730 X-21.375 Y-0.196
N1735 X-21.415 Y-0.2
N1740 G3 X-22.023 Y-0.98 Z-10.1 I0.086 J-0.695
N1745 X-20.39 Y-2.936 I2.446 J0.382 F#100
N1750 X-15.823 Y-4.203 I4.808 J8.469
N1755 X-9.425 Y-3.631 I2.17 J11.798
N1760 X-8.021 Y-1.237 I-1.602 J2.548
N1765 G1 X-8.016 Y-1.138 Z-10.091 F#104
N1770 X-8.024 Y-1.039 Z-10.082
N1775 X-8.047 Y-0.942 Z-10.073
N1780 X-8.084 Y-0.849 Z-10.064
N1785 X-8.133 Y-0.763 Z-10.055
N1790 X-8.194 Y-0.684 Z-10.045
N1795 X-8.265 Y-0.615 Z-10.036
N1800 X-8.346 Y-0.556 Z-10.027
N1805 X-8.434 Y-0.51 Z-10.018
N1810 X-8.528 Y-0.477 Z-10.009
N1815 X-8.626 Y-0.457 Z-10.
N1820 G3 X-8.715 Y-0.452 I-0.086 J-0.695
N1825 G1 X-9.722 Y-0.455
N1830 X-20.265 Y-0.488 F#105
N1835 X-21.284 Y-0.491 F#103
N1840 X-21.322 Y-0.492
N1845 X-21.361 Y-0.495
N1850 G3 X-21.977 Y-1.269 Z-10.1 I0.079 J-0.696
N1855 X-20.385 Y-3.304 I2.474 J0.296 F#100
N1860 X-15.587 Y-4.68 I5.018 J8.441
N1865 X-9.371 Y-3.99 I1.947 J10.802
N1870 X-8.07 Y-1.574 I-1.522 J2.378
N1875 G1 X-8.067 Y-1.475 Z-10.091 F#104
N1880 X-8.079 Y-1.376 Z-10.082
N1885 X-8.104 Y-1.281 Z-10.073
N1890 X-8.143 Y-1.189 Z-10.064
N1895 X-8.195 Y-1.104 Z-10.055
N1900 X-8.258 Y-1.027 Z-10.045
N1905 X-8.331 Y-0.96 Z-10.036
N1910 X-8.414 Y-0.904 Z-10.027
N1915 X-8.503 Y-0.86 Z-10.018
N1920 X-8.598 Y-0.83 Z-10.009
N1925 X-8.696 Y-0.813 Z-10.
N1930 G3 X-8.762 Y-0.81 I-0.064 J-0.697
N1935 G1 X-9.792 Y-0.812
N1940 X-20.205 Y-0.831 F#105
N1945 X-21.238 Y-0.833 F#103
N1950 X-21.269 Y-0.834
N1955 X-21.301 Y-0.836
N1960 G3 X-21.933 Y-1.597 Z-10.1 I0.064 J-0.697
N1965 X-20.537 Y-3.582 I2.38 J0.191 F#100
N1970 X-14.871 Y-5.185 I5.519 J8.694
N1975 X-9.335 Y-4.35 I1.414 J9.402
N1980 X-8.095 Y-1.826 I-1.602 J2.352
N1985 G1 X-8.105 Y-1.728 Z-10.091 F#104
N1990 X-8.127 Y-1.632 Z-10.082
N1995 X-8.163 Y-1.541 Z-10.073
N2000 X-8.212 Y-1.455 Z-10.064
N2005 X-8.272 Y-1.377 Z-10.055
N2010 X-8.342 Y-1.308 Z-10.046
N2015 X-8.422 Y-1.25 Z-10.037
N2020 X-8.508 Y-1.203 Z-10.028
N2025 X-8.601 Y-1.17 Z-10.019
N2030 X-8.697 Y-1.149 Z-10.01
N2035 X-8.796 Y-1.142 Z-10.001
N2040 X-8.81 Z-10.
N2045 X-9.905 Y-1.144
N2050 X-20.094 Y-1.164 F#105
N2055 X-21.19 Y-1.166 F#103
N2060 X-21.207 Z-10.002
N2065 G3 X-21.905 Y-1.85 Z-10.1 I0.001 J-0.7
N2070 X-20.608 Y-3.899 I2.29 J0.015 F#100
N2075 X-15.45 Y-5.586 I5.351 J7.634
N2080 X-9.214 Y-4.685 I1.79 J9.651
N2085 X-8.103 Y-2.097 I-1.852 J2.327
N2090 G1 X-8.111 Y-1.999 Z-10.091 F#104
N2095 X-8.134 Y-1.904 Z-10.082
N2100 X-8.169 Y-1.813 Z-10.073
N2105 X-8.217 Y-1.727 Z-10.064
N2110 X-8.277 Y-1.649 Z-10.055
N2115 X-8.347 Y-1.58 Z-10.046
N2120 X-8.426 Y-1.521 Z-10.037
N2125 X-8.513 Y-1.475 Z-10.028
N2130 X-8.605 Y-1.441 Z-10.019
N2135 X-8.702 Y-1.42 Z-10.01
N2140 X-8.8 Y-1.413 Z-10.001
N2145 X-8.813 Z-10.
N2150 X-9.909 Y-1.417
N2155 X-20.091 Y-1.452 F#105
N2160 X-21.186 Y-1.456 F#103
N2165 X-21.204 Z-10.002
N2170 G3 X-21.902 Y-2.14 Z-10.1 I0.002 J-0.7
N2175 X-20.636 Y-4.259 I2.342 J-0.038 F#100
N2180 X-15.279 Y-6.045 I5.495 J7.553
N2185 X-9.132 Y-5.028 I1.639 J9.178
N2190 X-8.102 Y-2.462 I-1.968 J2.28
N2195 G1 X-8.112 Y-2.365 Z-10.091 F#104
N2200 X-8.135 Y-2.271 Z-10.082
N2205 X-8.172 Y-2.18 Z-10.073
N2210 X-8.22 Y-2.096 Z-10.064
N2215 X-8.28 Y-2.019 Z-10.056
N2220 X-8.35 Y-1.951 Z-10.047
N2225 X-8.429 Y-1.893 Z-10.038
N2230 X-8.515 Y-1.847 Z-10.029
N2235 X-8.607 Y-1.814 Z-10.02
N2240 X-8.702 Y-1.793 Z-10.011
N2245 X-8.8 Y-1.787 Z-10.002
N2250 X-8.823 Z-10.
N2255 X-9.919
N2260 X-20.081 Y-1.791 F#105
N2265 X-21.177 F#103
N2270 X-21.201 Z-10.002
N2275 G3 X-21.9 Y-2.467 Z-10.1 I0. J-0.7
N2280 X-20.644 Y-4.638 I2.396 J-0.063 F#100
N2285 X-15.046 Y-6.507 I5.631 J7.552
N2290 X-9.103 Y-5.41 I1.441 J8.845
N2295 X-8.103 Y-2.867 I-1.982 J2.248
N2300 G1 X-8.113 Y-2.77 Z-10.091 F#104
N2305 X-8.136 Y-2.676 Z-10.082
N2310 X-8.172 Y-2.586 Z-10.073
N2315 X-8.22 Y-2.501 Z-10.065
N2320 X-8.28 Y-2.425 Z-10.056
N2325 X-8.349 Y-2.357 Z-10.047
N2330 X-8.427 Y-2.299 Z-10.038
N2335 X-8.513 Y-2.253 Z-10.029
N2340 X-8.604 Y-2.219 Z-10.02
N2345 X-8.699 Y-2.198 Z-10.011
N2350 X-8.797 Y-2.191 Z-10.002
N2355 X-8.823 Z-10.
N2360 X-9.919 Y-2.186
N2365 X-20.081 Y-2.141 F#105
N2370 X-21.177 Y-2.136 F#103
N2375 X-21.197 Z-10.002
N2380 G3 X-21.9 Y-2.812 Z-10.1 I-0.003 J-0.7
N2385 X-20.64 Y-5.033 I2.457 J-0.074 F#100
N2390 X-15.171 Y-6.937 I5.615 J7.321
N2395 X-9.123 Y-5.839 I1.493 J8.976
N2400 X-8.103 Y-3.276 I-1.958 J2.265
N2405 G1 X-8.113 Y-3.18 Z-10.091 F#104
N2410 X-8.136 Y-3.086 Z-10.082
N2415 X-8.172 Y-2.996 Z-10.073
N2420 X-8.22 Y-2.912 Z-10.065
N2425 X-8.279 Y-2.835 Z-10.056
N2430 X-8.348 Y-2.767 Z-10.047
N2435 X-8.426 Y-2.709 Z-10.038
N2440 X-8.511 Y-2.663 Z-10.029
N2445 X-8.602 Y-2.629 Z-10.02
N2450 X-8.697 Y-2.608 Z-10.012
N2455 X-8.794 Y-2.6 Z-10.003
N2460 X-8.823 Z-10.
N2465 X-9.919 Y-2.591
N2470 X-20.081 Y-2.509 F#105
N2475 X-21.177 Y-2.5 F#103
N2480 X-21.195 Z-10.002
N2485 G3 X-21.9 Y-3.175 Z-10.1 I-0.006 J-0.7
N2490 X-20.523 Y-5.516 I2.582 J-0.057 F#100
N2495 X-15.332 Y-7.362 I5.483 J7.197
N2500 X-9.086 Y-6.228 I1.582 J9.05
N2505 X-8.102 Y-3.688 I-2.024 J2.244
N2510 G1 X-8.112 Y-3.592 Z-10.091 F#104
N2515 X-8.135 Y-3.498 Z-10.082
N2520 X-8.171 Y-3.408 Z-10.074
N2525 X-8.219 Y-3.324 Z-10.065
N2530 X-8.278 Y-3.248 Z-10.056
N2535 X-8.347 Y-3.18 Z-10.047
N2540 X-8.424 Y-3.122 Z-10.038
N2545 X-8.509 Y-3.076 Z-10.029
N2550 X-8.6 Y-3.042 Z-10.021
N2555 X-8.695 Y-3.021 Z-10.012
N2560 X-8.791 Y-3.012 Z-10.003
N2565 X-8.823 Z-10.
N2570 X-9.919 Y-2.999
N2575 X-20.081 Y-2.875 F#105
N2580 X-21.177 Y-2.862 F#103
N2585 X-21.192 Z-10.001
N2590 G3 X-21.9 Y-3.537 Z-10.1 I-0.009 J-0.7
N2595 X-20.551 Y-5.899 I2.61 J-0.076 F#100
N2600 X-15.113 Y-7.816 I5.604 J7.226
N2605 X-9.051 Y-6.621 I1.397 J8.89
N2610 X-8.102 Y-4.104 I-2.092 J2.227
N2615 G1 X-8.112 Y-4.008 Z-10.091 F#104
N2620 X-8.135 Y-3.914 Z-10.082
N2625 X-8.17 Y-3.824 Z-10.074
N2630 X-8.218 Y-3.741 Z-10.065
N2635 X-8.277 Y-3.664 Z-10.056
N2640 X-8.345 Y-3.596 Z-10.047
N2645 X-8.423 Y-3.539 Z-10.038
N2650 X-8.507 Y-3.492 Z-10.03
N2655 X-8.598 Y-3.458 Z-10.021
N2660 X-8.692 Y-3.436 Z-10.012
N2665 X-8.788 Y-3.428 Z-10.003
N2670 X-8.823 Y-3.427 Z-10.
N2675 X-9.919 Y-3.409
N2680 X-20.081 Y-3.243 F#105
N2685 X-21.177 Y-3.225 F#103
N2690 X-21.189 Z-10.001
N2695 G3 X-21.9 Y-3.9 Z-10.1 I-0.011 J-0.7
N2700 X-20.544 Y-6.312 I2.653 J-0.095 F#100
N2705 X-14.794 Y-8.271 I5.71 J7.341
N2710 X-9.066 Y-7.038 I1.149 J8.583
N2715 X-8.104 Y-4.522 I-1.997 J2.206
N2720 G1 X-8.114 Y-4.426 Z-10.091 F#104
N2725 X-8.136 Y-4.333 Z-10.082
N2730 X-8.171 Y-4.244 Z-10.074
N2735 X-8.219 Y-4.16 Z-10.065
N2740 X-8.277 Y-4.084 Z-10.056
N2745 X-8.345 Y-4.016 Z-10.047
N2750 X-8.422 Y-3.958 Z-10.038
N2755 X-8.507 Y-3.911 Z-10.03
N2760 X-8.597 Y-3.877 Z-10.021
N2765 X-8.691 Y-3.855 Z-10.012
N2770 X-8.787 Y-3.846 Z-10.003
N2775 X-8.823 Y-3.845 Z-10.
N2780 X-9.919 Y-3.825
N2785 X-20.081 Y-3.637 F#105
N2790 X-21.177 Y-3.616 F#103
N2795 X-21.187 Z-10.001
N2800 G3 X-21.9 Y-4.292 Z-10.1 I-0.013 J-0.7
N2805 X-20.518 Y-6.741 I2.698 J-0.092 F#100
N2810 X-15.173 Y-8.677 I5.577 J7.052
N2815 X-9.063 Y-7.462 I1.408 J8.884
N2820 X-8.103 Y-4.941 I-2.032 J2.217
N2825 G1 X-8.113 Y-4.845 Z-10.091 F#104
N2830 X-8.135 Y-4.752 Z-10.082
N2835 X-8.171 Y-4.663 Z-10.074
N2840 X-8.218 Y-4.579 Z-10.065
N2845 X-8.276 Y-4.502 Z-10.056
N2850 X-8.345 Y-4.435 Z-10.047
N2855 X-8.422 Y-4.377 Z-10.039
N2860 X-8.506 Y-4.33 Z-10.03
N2865 X-8.596 Y-4.296 Z-10.021
N2870 X-8.69 Y-4.274 Z-10.012
N2875 X-8.786 Y-4.265 Z-10.003
N2880 X-8.823 Y-4.264 Z-10.
N2885 X-9.919 Y-4.243
N2890 X-20.081 Y-4.044 F#105
N2895 X-21.177 Y-4.022 F#103
N2900 X-21.187 Z-10.001
N2905 G3 X-21.9 Y-4.697 Z-10.1 I-0.014 J-0.7
N2910 X-20.518 Y-7.155 I2.725 J-0.085 F#100
N2915 X-14.848 Y-9.132 I5.685 J7.186
N2920 X-9.074 Y-7.885 I1.152 J8.658
N2925 X-8.104 Y-5.361 I-1.989 J2.213
N2930 G1 X-8.114 Y-5.266 Z-10.091 F#104
N2935 X-8.136 Y-5.173 Z-10.082
N2940 X-8.171 Y-5.083 Z-10.074
N2945 X-8.218 Y-5. Z-10.065
N2950 X-8.276 Y-4.923 Z-10.056
N2955 X-8.345 Y-4.856 Z-10.047
N2960 X-8.421 Y-4.798 Z-10.039
N2965 X-8.505 Y-4.751 Z-10.03
N2970 X-8.595 Y-4.716 Z-10.021
N2975 X-8.689 Y-4.694 Z-10.012
N2980 X-8.785 Y-4.685 Z-10.004
N2985 X-8.823 Y-4.684 Z-10.
N2990 X-9.919 Y-4.661
N2995 X-20.081 Y-4.445 F#105
N3000 X-21.177 Y-4.421 F#103
N3005 X-21.186 Z-10.001
N3010 G3 X-21.9 Y-5.097 Z-10.1 I-0.015 J-0.7
N3015 X-20.525 Y-7.565 I2.743 J-0.089 F#100
N3020 X-14.916 Y-9.557 I5.675 J7.087
N3025 X-9.084 Y-8.315 I1.189 J8.73
N3030 X-8.104 Y-5.782 I-1.979 J2.222
N3035 G1 X-8.113 Y-5.687 Z-10.091 F#104
N3040 X-8.136 Y-5.594 Z-10.082
N3045 X-8.171 Y-5.504 Z-10.074
N3050 X-8.218 Y-5.421 Z-10.065
N3055 X-8.276 Y-5.345 Z-10.056
N3060 X-8.344 Y-5.277 Z-10.047
N3065 X-8.421 Y-5.219 Z-10.039
N3070 X-8.505 Y-5.172 Z-10.03
N3075 X-8.594 Y-5.137 Z-10.021
N3080 X-8.688 Y-5.115 Z-10.012
N3085 X-8.783 Y-5.106 Z-10.004
N3090 X-8.823 Y-5.105 Z-10.
N3095 X-9.919 Y-5.08
N3100 X-20.081 Y-4.846 F#105
N3105 X-21.177 Y-4.821 F#103
N3110 X-21.184 Y-4.82 Z-10.001
N3115 G3 X-21.9 Y-5.496 Z-10.1 I-0.016 J-0.7
N3120 X-20.545 Y-7.967 I2.752 J-0.098 F#100
N3125 X-14.644 Y-10.001 I5.773 J7.174
N3130 X-9.101 Y-8.746 I0.98 J8.543
N3135 X-8.105 Y-6.204 I-1.933 J2.224
N3140 G1 X-8.116 Y-6.099 Z-10.09 F#104
N3145 X-8.142 Y-5.998 Z-10.081
N3150 X-8.184 Y-5.901 Z-10.071
N3155 X-8.24 Y-5.812 Z-10.062
N3160 X-8.308 Y-5.732 Z-10.052
N3165 X-8.388 Y-5.663 Z-10.042
N3170 X-8.478 Y-5.607 Z-10.033
N3175 X-8.575 Y-5.566 Z-10.023
N3180 X-8.677 Y-5.539 Z-10.013
N3185 X-8.782 Y-5.528 Z-10.004
N3190 X-8.823 Y-5.527 Z-10.
N3195 X-9.919 Y-5.499
N3200 X-20.081 Y-5.24 F#105
N3205 X-21.177 Y-5.212 F#103
N3210 X-21.183 Z-10.001
N3215 G3 X-21.9 Y-5.887 Z-10.1 I-0.018 J-0.7
N3220 X-20.545 Y-8.386 I2.771 J-0.115 F#100
N3225 X-14.679 Y-10.428 I5.767 J7.119
N3230 X-9.042 Y-9.131 I0.999 J8.558
N3235 X-8.103 Y-6.625 I-2.053 J2.197
N3240 G1 X-8.115 Y-6.521 Z-10.09 F#104
N3245 X-8.141 Y-6.419 Z-10.081
N3250 X-8.183 Y-6.323 Z-10.071
N3255 X-8.239 Y-6.234 Z-10.062
N3260 X-8.308 Y-6.154 Z-10.052
N3265 X-8.388 Y-6.085 Z-10.042
N3270 X-8.477 Y-6.029 Z-10.033
N3275 X-8.574 Y-5.988 Z-10.023
N3280 X-8.676 Y-5.961 Z-10.013
N3285 X-8.781 Y-5.95 Z-10.004
N3290 X-8.823 Y-5.949 Z-10.
N3295 X-9.919 Y-5.919
N3300 X-20.081 Y-5.647 F#105
N3305 X-21.177 Y-5.618 F#103
N3310 X-21.182 Y-5.617
N3315 G3 X-21.9 Y-6.293 Z-10.1 I-0.019 J-0.7
N3320 X-20.516 Y-8.828 I2.799 J-0.118 F#100
N3325 X-14.631 Y-10.859 I5.756 J7.136
N3330 X-9.034 Y-9.548 I0.955 J8.525
N3335 X-8.104 Y-7.05 I-2.058 J2.189
N3340 G1 X-8.115 Y-6.945 Z-10.09 F#104
N3345 X-8.142 Y-6.843 Z-10.081
N3350 X-8.183 Y-6.747 Z-10.071
N3355 X-8.239 Y-6.658 Z-10.062
N3360 X-8.308 Y-6.578 Z-10.052
N3365 X-8.388 Y-6.509 Z-10.042
N3370 X-8.477 Y-6.453 Z-10.033
N3375 X-8.574 Y-6.412 Z-10.023
N3380 X-8.676 Y-6.385 Z-10.013
N3385 X-8.781 Y-6.374 Z-10.004
N3390 X-8.823 Y-6.373 Z-10.
N3395 X-9.919 Y-6.344
N3400 X-20.081 Y-6.081 F#105
N3405 X-21.177 Y-6.053 F#103
N3410 X-21.182 Y-6.052 Z-10.001
N3415 G3 X-21.9 Y-6.728 Z-10.1 I-0.018 J-0.7
N3420 X-20.543 Y-9.229 I2.794 J-0.103 F#100
N3425 X-14.367 Y-11.294 I5.848 J7.221
N3430 X-9.053 Y-9.976 I0.767 J8.277
N3435 X-8.105 Y-7.474 I-1.976 J2.179
N3440 G1 X-8.116 Y-7.37 Z-10.09 F#104
N3445 X-8.143 Y-7.268 Z-10.081
N3450 X-8.184 Y-7.172 Z-10.071
N3455 X-8.24 Y-7.083 Z-10.062
N3460 X-8.308 Y-7.003 Z-10.052
N3465 X-8.388 Y-6.935 Z-10.042
N3470 X-8.477 Y-6.879 Z-10.033
N3475 X-8.573 Y-6.837 Z-10.023
N3480 X-8.675 Y-6.81 Z-10.014
N3485 X-8.78 Y-6.798 Z-10.004
N3490 X-8.823 Y-6.797 Z-10.
N3495 X-9.919 Y-6.766
N3500 X-20.081 Y-6.482 F#105
N3505 X-21.177 Y-6.452 F#103
N3510 X-21.181
N3515 G3 X-21.9 Y-7.127 Z-10.1 I-0.02 J-0.7
N3520 X-20.512 Y-9.675 I2.82 J-0.116 F#100
N3525 X-14.666 Y-11.713 I5.745 J7.075
N3530 X-9.041 Y-10.396 I0.974 J8.506
N3535 X-8.105 Y-7.898 I-2.016 J2.181
N3540 G1 X-8.116 Y-7.794 Z-10.09 F#104
N3545 X-8.142 Y-7.692 Z-10.081
N3550 X-8.184 Y-7.596 Z-10.071
N3555 X-8.24 Y-7.506 Z-10.062
N3560 X-8.308 Y-7.427 Z-10.052
N3565 X-8.388 Y-7.358 Z-10.042
N3570 X-8.477 Y-7.302 Z-10.033
N3575 X-8.574 Y-7.26 Z-10.023
N3580 X-8.676 Y-7.233 Z-10.014
N3585 X-8.781 Y-7.222 Z-10.004
N3590 X-8.823 Y-7.221 Z-10.
N3595 X-9.919 Y-7.191
N3600 X-20.081 Y-6.917 F#105
N3605 X-21.177 Y-6.887 F#103
N3610 X-21.182
N3615 G3 X-21.9 Y-7.562 Z-10.1 I-0.019 J-0.7
N3620 X-20.542 Y-10.075 I2.811 J-0.104 F#100
N3625 X-14.399 Y-12.148 I5.839 J7.167
N3630 X-9.057 Y-10.829 I0.779 J8.321
N3635 X-8.105 Y-8.323 I-1.973 J2.184
N3640 G1 X-8.116 Y-8.219 Z-10.09 F#104
N3645 X-8.143 Y-8.117 Z-10.081
N3650 X-8.184 Y-8.021 Z-10.071
N3655 X-8.239 Y-7.932 Z-10.062
N3660 X-8.308 Y-7.852 Z-10.052
N3665 X-8.387 Y-7.783 Z-10.042
N3670 X-8.476 Y-7.727 Z-10.033
N3675 X-8.573 Y-7.685 Z-10.023
N3680 X-8.674 Y-7.658 Z-10.014
N3685 X-8.779 Y-7.647 Z-10.004
N3690 X-8.823 Y-7.646 Z-10.
N3695 X-9.919 Y-7.614
N3700 X-20.081 Y-7.318 F#105
N3705 X-21.177 Y-7.286 F#103
N3710 X-21.18
N3715 G3 X-21.9 Y-7.961 Z-10.1 I-0.02 J-0.7
N3720 X-20.523 Y-10.513 I2.828 J-0.121 F#100
N3725 X-14.719 Y-12.564 I5.741 J7.01
N3730 X-9.049 Y-11.252 I1.005 J8.564
N3735 X-8.104 Y-8.747 I-2.008 J2.188
N3740 G1 X-8.115 Y-8.643 Z-10.09 F#104
N3745 X-8.142 Y-8.541 Z-10.081
N3750 X-8.184 Y-8.445 Z-10.071
N3755 X-8.239 Y-8.356 Z-10.062
N3760 X-8.308 Y-8.276 Z-10.052
N3765 X-8.387 Y-8.207 Z-10.042
N3770 X-8.477 Y-8.151 Z-10.033
N3775 X-8.573 Y-8.109 Z-10.023
N3780 X-8.675 Y-8.082 Z-10.014
N3785 X-8.78 Y-8.071 Z-10.004
N3790 X-8.823 Y-8.07 Z-10.
N3795 X-9.919 Y-8.039
N3800 X-20.081 Y-7.752 F#105
N3805 X-21.177 Y-7.721 F#103
N3810 X-21.181
N3815 G3 X-21.9 Y-8.396 Z-10.1 I-0.02 J-0.7
N3820 X-20.536 Y-10.927 I2.825 J-0.11 F#100
N3825 X-14.407 Y-13.002 I5.833 J7.141
N3830 X-9.058 Y-11.679 I0.777 J8.337
N3835 X-8.105 Y-9.172 I-1.973 J2.185
N3840 G1 X-8.116 Y-9.068 Z-10.09 F#104
N3845 X-8.143 Y-8.966 Z-10.081
N3850 X-8.184 Y-8.87 Z-10.071
N3855 X-8.239 Y-8.781 Z-10.062
N3860 X-8.308 Y-8.701 Z-10.052
N3865 X-8.387 Y-8.632 Z-10.042
N3870 X-8.476 Y-8.576 Z-10.033
N3875 X-8.573 Y-8.534 Z-10.023
N3880 X-8.675 Y-8.507 Z-10.014
N3885 X-8.779 Y-8.496 Z-10.004
N3890 X-8.823 Y-8.495 Z-10.
N3895 X-9.919 Y-8.463
N3900 X-20.081 Y-8.168 F#105
N3905 X-21.177 Y-8.137 F#103
N3910 X-21.18 Y-8.136
N3915 G3 X-21.9 Y-8.812 Z-10.1 I-0.02 J-0.7
N3920 X-20.542 Y-11.346 I2.828 J-0.116 F#100
N3925 X-14.432 Y-13.428 I5.834 J7.117
N3930 X-9.062 Y-12.107 I0.791 J8.362
N3935 X-8.105 Y-9.596 I-1.969 J2.188
N3940 G1 X-8.116 Y-9.492 Z-10.09 F#104
N3945 X-8.143 Y-9.391 Z-10.081
N3950 X-8.184 Y-9.295 Z-10.071
N3955 X-8.239 Y-9.206 Z-10.062
N3960 X-8.307 Y-9.126 Z-10.052
N3965 X-8.387 Y-9.057 Z-10.042
N3970 X-8.476 Y-9.001 Z-10.033
N3975 X-8.572 Y-8.959 Z-10.023
N3980 X-8.674 Y-8.932 Z-10.014
N3985 X-8.779 Y-8.921 Z-10.004
N3990 X-8.823 Y-8.919 Z-10.
N3995 X-9.919 Y-8.886
N4000 X-20.081 Y-8.58 F#105
N4005 X-21.177 Y-8.548 F#103
N4010 X-21.179 Y-8.547
N4015 G3 X-21.9 Y-9.223 Z-10.1 I-0.021 J-0.7
N4020 X-20.533 Y-11.778 I2.836 J-0.126 F#100
N4025 X-14.415 Y-13.855 I5.83 J7.125
N4030 X-9.059 Y-12.53 I0.777 J8.35
N4035 X-8.105 Y-10.021 I-1.972 J2.186
N4040 G1 X-8.116 Y-9.917 Z-10.09 F#104
N4045 X-8.143 Y-9.816 Z-10.081
N4050 X-8.184 Y-9.72 Z-10.071
N4055 X-8.239 Y-9.631 Z-10.062
N4060 X-8.308 Y-9.551 Z-10.052
N4065 X-8.387 Y-9.482 Z-10.042
N4070 X-8.476 Y-9.426 Z-10.033
N4075 X-8.573 Y-9.384 Z-10.023
N4080 X-8.674 Y-9.357 Z-10.014
N4085 X-8.779 Y-9.345 Z-10.004
N4090 X-8.823 Y-9.344 Z-10.
N4095 X-9.919 Y-9.312
N4100 X-20.081 Y-9.015 F#105
N4105 X-21.177 Y-8.983 F#103
N4110 X-21.18
N4115 G3 X-21.9 Y-9.658 Z-10.1 I-0.02 J-0.7
N4120 X-20.509 Y-12.222 I2.85 J-0.113 F#100
N4125 X-14.714 Y-14.271 I5.732 J6.991
N4130 X-9.048 Y-12.951 I0.991 J8.567
N4135 X-8.104 Y-10.446 I-2.01 J2.187
N4140 G1 X-8.116 Y-10.342 Z-10.09 F#104
N4145 X-8.142 Y-10.241 Z-10.081
N4150 X-8.184 Y-10.144 Z-10.071
N4155 X-8.239 Y-10.055 Z-10.062
N4160 X-8.308 Y-9.975 Z-10.052
N4165 X-8.387 Y-9.907 Z-10.042
N4170 X-8.476 Y-9.851 Z-10.033
N4175 X-8.573 Y-9.809 Z-10.023
N4180 X-8.675 Y-9.782 Z-10.014
N4185 X-8.78 Y-9.771 Z-10.004
N4190 X-8.823 Y-9.769 Z-10.
N4195 X-9.919 Y-9.738
N4200 X-20.081 Y-9.449 F#105
N4205 X-21.177 Y-9.418 F#103
N4210 X-21.181
N4215 G3 X-21.9 Y-10.093 Z-10.1 I-0.02 J-0.7
N4220 X-20.54 Y-12.623 I2.835 J-0.107 F#100
N4225 X-14.447 Y-14.706 I5.826 J7.088
N4230 X-9.063 Y-13.384 I0.797 J8.382
N4235 X-8.105 Y-10.872 I-1.968 J2.19
N4240 G1 X-8.116 Y-10.768 Z-10.09 F#104
N4245 X-8.143 Y-10.667 Z-10.081
N4250 X-8.184 Y-10.57 Z-10.071
N4255 X-8.239 Y-10.481 Z-10.062
N4260 X-8.307 Y-10.402 Z-10.052
N4265 X-8.387 Y-10.333 Z-10.042
N4270 X-8.476 Y-10.277 Z-10.033
N4275 X-8.572 Y-10.235 Z-10.023
N4280 X-8.674 Y-10.208 Z-10.014
N4285 X-8.779 Y-10.196 Z-10.004
N4290 X-8.823 Y-10.195 Z-10.
N4295 X-9.919 Y-10.162
N4300 X-20.081 Y-9.856 F#105
N4305 X-21.177 Y-9.823 F#103
N4310 X-21.179
N4315 G3 X-21.9 Y-10.499 Z-10.1 I-0.021 J-0.7
N4320 X-20.524 Y-13.06 I2.846 J-0.122 F#100
N4325 X-14.41 Y-15.133 I5.82 J7.114
N4330 X-9.057 Y-13.804 I0.769 J8.345
N4335 X-8.105 Y-11.297 I-1.974 J2.184
N4340 G1 X-8.116 Y-11.193 Z-10.09 F#104
N4345 X-8.143 Y-11.092 Z-10.081
N4350 X-8.184 Y-10.995 Z-10.071
N4355 X-8.239 Y-10.906 Z-10.062
N4360 X-8.308 Y-10.827 Z-10.052
N4365 X-8.387 Y-10.758 Z-10.042
N4370 X-8.476 Y-10.702 Z-10.033
N4375 X-8.573 Y-10.66 Z-10.023
N4380 X-8.674 Y-10.633 Z-10.014
N4385 X-8.779 Y-10.621 Z-10.004
N4390 X-8.823 Y-10.62 Z-10.
N4395 X-9.919 Y-10.588
N4400 X-20.081 Y-10.291 F#105
N4405 X-21.177 Y-10.259 F#103
N4410 X-21.18 Y-10.258
N4415 G3 X-21.9 Y-10.934 Z-10.1 I-0.02 J-0.7
N4420 X-20.537 Y-13.476 I2.84 J-0.114 F#100
N4425 X-14.444 Y-15.559 I5.824 J7.085
N4430 X-9.063 Y-14.235 I0.791 J8.38
N4435 X-8.105 Y-11.722 I-1.969 J2.189
N4440 G1 X-8.116 Y-11.618 Z-10.09 F#104
N4445 X-8.143 Y-11.517 Z-10.081
N4450 X-8.184 Y-11.421 Z-10.071
N4455 X-8.239 Y-11.332 Z-10.062
N4460 X-8.308 Y-11.252 Z-10.052
N4465 X-8.387 Y-11.183 Z-10.042
N4470 X-8.476 Y-11.127 Z-10.033
N4475 X-8.572 Y-11.085 Z-10.023
N4480 X-8.674 Y-11.058 Z-10.014
N4485 X-8.779 Y-11.047 Z-10.004
N4490 X-8.823 Y-11.045 Z-10.
N4495 X-9.919 Y-11.013
N4500 X-20.081 Y-10.71 F#105
N4505 X-21.177 Y-10.677 F#103
N4510 X-21.18
N4515 G3 X-21.9 Y-11.353 Z-10.1 I-0.021 J-0.7
N4520 X-20.542 Y-13.898 I2.841 J-0.119 F#100
N4525 X-14.458 Y-15.984 I5.826 J7.074
N4530 X-9.065 Y-14.662 I0.8 J8.395
N4535 X-8.105 Y-12.148 I-1.966 J2.192
N4540 G1 X-8.116 Y-12.044 Z-10.09 F#104
N4545 X-8.143 Y-11.943 Z-10.081
N4550 X-8.184 Y-11.846 Z-10.071
N4555 X-8.239 Y-11.757 Z-10.062
N4560 X-8.307 Y-11.678 Z-10.052
N4565 X-8.387 Y-11.609 Z-10.042
N4570 X-8.476 Y-11.553 Z-10.033
N4575 X-8.572 Y-11.511 Z-10.023
N4580 X-8.674 Y-11.484 Z-10.014
N4585 X-8.778 Y-11.472 Z-10.004
N4590 X-8.823 Y-11.471 Z-10.
N4595 X-9.918 Y-11.437
N4600 X-20.081 Y-11.126 F#105
N4605 X-21.177 Y-11.093 F#103
N4610 X-21.179
N4615 G3 X-21.9 Y-11.768 Z-10.1 I-0.021 J-0.7
N4620 X-20.535 Y-14.328 I2.845 J-0.127 F#100
N4625 X-14.445 Y-16.411 I5.824 J7.084
N4630 X-9.063 Y-15.086 I0.789 J8.383
N4635 X-8.105 Y-12.573 I-1.969 J2.189
N4640 G1 X-8.116 Y-12.469 Z-10.09 F#104
N4645 X-8.143 Y-12.368 Z-10.081
N4650 X-8.184 Y-12.272 Z-10.071
N4655 X-8.239 Y-12.183 Z-10.062
N4660 X-8.308 Y-12.103 Z-10.052
N4665 X-8.387 Y-12.034 Z-10.042
N4670 X-8.476 Y-11.978 Z-10.033
N4675 X-8.572 Y-11.936 Z-10.023
N4680 X-8.674 Y-11.909 Z-10.014
N4685 X-8.779 Y-11.897 Z-10.004
N4690 X-8.823 Y-11.896 Z-10.
N4695 X-9.919 Y-11.863
N4700 X-20.081 Y-11.561 F#105
N4705 X-21.177 Y-11.528 F#103
N4710 X-21.18
N4715 G3 X-21.9 Y-12.203 Z-10.1 I-0.021 J-0.7
N4720 X-20.515 Y-14.77 I2.856 J-0.116 F#100
N4725 X-14.397 Y-16.838 I5.815 J7.119
N4730 X-9.055 Y-15.504 I0.755 J8.338
N4735 X-8.105 Y-12.999 I-1.977 J2.182
N4740 G1 X-8.116 Y-12.895 Z-10.09 F#104
N4745 X-8.143 Y-12.793 Z-10.081
N4750 X-8.184 Y-12.697 Z-10.071
N4755 X-8.24 Y-12.608 Z-10.062
N4760 X-8.308 Y-12.528 Z-10.052
N4765 X-8.387 Y-12.459 Z-10.042
N4770 X-8.476 Y-12.403 Z-10.033
N4775 X-8.573 Y-12.361 Z-10.023
N4780 X-8.675 Y-12.334 Z-10.014
N4785 X-8.779 Y-12.323 Z-10.004
N4790 X-8.823 Y-12.322 Z-10.
N4795 X-9.919 Y-12.29
N4800 X-20.081 Y-11.995 F#105
N4805 X-21.177 Y-11.963 F#103
N4810 X-21.18
N4815 G3 X-21.9 Y-12.638 Z-10.1 I-0.02 J-0.7
N4820 X-20.507 Y-15.202 I2.86 J-0.107 F#100
N4825 X-14.378 Y-17.265 I5.813 J7.134
N4830 X-9.051 Y-15.927 I0.741 J8.321
N4835 X-8.105 Y-13.425 I-1.98 J2.179
N4840 G1 X-8.116 Y-13.32 Z-10.09 F#104
N4845 X-8.143 Y-13.219 Z-10.081
N4850 X-8.184 Y-13.123 Z-10.071
N4855 X-8.24 Y-13.034 Z-10.062
N4860 X-8.308 Y-12.954 Z-10.052
N4865 X-8.387 Y-12.885 Z-10.042
N4870 X-8.476 Y-12.829 Z-10.033
N4875 X-8.573 Y-12.787 Z-10.023
N4880 X-8.675 Y-12.76 Z-10.014
N4885 X-8.779 Y-12.749 Z-10.004
N4890 X-8.823 Y-12.747 Z-10.
N4895 X-9.919 Y-12.716
N4900 X-20.081 Y-12.424 F#105
N4905 X-21.177 Y-12.393 F#103
N4910 X-21.18
N4915 G3 X-21.9 Y-13.068 Z-10.1 I-0.02 J-0.7
N4920 X-20.539 Y-15.603 I2.842 J-0.107 F#100
N4925 X-14.462 Y-17.688 I5.821 J7.064
N4930 X-9.065 Y-16.365 I0.8 J8.402
N4935 X-8.105 Y-13.85 I-1.967 J2.191
N4940 G1 X-8.116 Y-13.746 Z-10.09 F#104
N4945 X-8.143 Y-13.645 Z-10.081
N4950 X-8.184 Y-13.549 Z-10.071
N4955 X-8.239 Y-13.46 Z-10.062
N4960 X-8.307 Y-13.38 Z-10.052
N4965 X-8.387 Y-13.311 Z-10.042
N4970 X-8.476 Y-13.255 Z-10.033
N4975 X-8.572 Y-13.213 Z-10.023
N4980 X-8.674 Y-13.186 Z-10.014
N4985 X-8.778 Y-13.175 Z-10.004
N4990 X-8.823 Y-13.173 Z-10.
N4995 X-9.919 Y-13.14
N5000 X-20.081 Y-12.831 F#105
N5005 X-21.177 Y-12.797 F#103
N5010 X-21.179
N5015 G3 X-21.9 Y-13.472 Z-10.1 I-0.021 J-0.7
N5020 X-20.53 Y-16.035 I2.849 J-0.125 F#100
N5025 X-14.438 Y-18.115 I5.818 J7.082
N5030 X-9.062 Y-16.787 I0.783 J8.379
N5035 X-8.105 Y-14.276 I-1.97 J2.188
N5040 G1 X-8.116 Y-14.172 Z-10.09 F#104
N5045 X-8.143 Y-14.07 Z-10.081
N5050 X-8.184 Y-13.974 Z-10.071
N5055 X-8.239 Y-13.885 Z-10.062
N5060 X-8.308 Y-13.805 Z-10.052
N5065 X-8.387 Y-13.737 Z-10.042
N5070 X-8.476 Y-13.681 Z-10.033
N5075 X-8.572 Y-13.639 Z-10.023
N5080 X-8.674 Y-13.612 Z-10.014
N5085 X-8.779 Y-13.6 Z-10.004
N5090 X-8.823 Y-13.599 Z-10.
N5095 X-9.919 Y-13.566
N5100 X-20.081 Y-13.265 F#105
N5105 X-21.177 Y-13.232 F#103
N5110 X-21.18
N5115 G3 X-21.9 Y-13.908 Z-10.1 I-0.021 J-0.7
N5120 X-20.511 Y-16.476 I2.859 J-0.114 F#100
N5125 X-14.391 Y-18.542 I5.811 J7.118
N5130 X-9.053 Y-17.206 I0.75 J8.334
N5135 X-8.105 Y-14.701 I-1.978 J2.181
N5140 G1 X-8.116 Y-14.597 Z-10.09 F#104
N5145 X-8.143 Y-14.496 Z-10.081
N5150 X-8.184 Y-14.4 Z-10.071
N5155 X-8.24 Y-14.311 Z-10.062
N5160 X-8.308 Y-14.231 Z-10.052
N5165 X-8.387 Y-14.162 Z-10.042
N5170 X-8.476 Y-14.106 Z-10.033
N5175 X-8.573 Y-14.064 Z-10.023
N5180 X-8.675 Y-14.037 Z-10.014
N5185 X-8.779 Y-14.026 Z-10.004
N5190 X-8.823 Y-14.024 Z-10.
N5195 X-9.919 Y-13.993
N5200 X-20.081 Y-13.699 F#105
N5205 X-21.177 Y-13.668 F#103
N5210 X-21.18 Y-13.667
N5215 G3 X-21.9 Y-14.343 Z-10.1 I-0.02 J-0.7
N5220 X-20.533 Y-16.885 I2.846 J-0.108 F#100
N5225 X-14.448 Y-18.966 I5.817 J7.071
N5230 X-9.063 Y-17.639 I0.79 J8.388
N5235 X-8.105 Y-15.127 I-1.969 J2.189
N5240 G1 X-8.116 Y-15.023 Z-10.09 F#104
N5245 X-8.143 Y-14.922 Z-10.081
N5250 X-8.184 Y-14.826 Z-10.071
N5255 X-8.239 Y-14.737 Z-10.062
N5260 X-8.308 Y-14.657 Z-10.052
N5265 X-8.387 Y-14.588 Z-10.042
N5270 X-8.476 Y-14.532 Z-10.033
N5275 X-8.572 Y-14.49 Z-10.023
N5280 X-8.674 Y-14.463 Z-10.014
N5285 X-8.779 Y-14.452 Z-10.004
N5290 X-8.823 Y-14.45 Z-10.
N5295 X-9.919 Y-14.418
N5300 X-20.081 Y-14.115 F#105
N5305 X-21.177 Y-14.083 F#103
N5310 X-21.18
N5315 G3 X-21.9 Y-14.758 Z-10.1 I-0.021 J-0.7
N5320 X-20.541 Y-17.305 I2.845 J-0.118 F#100
N5325 X-14.117 Y-19.396 I5.901 J7.217
N5330 X-9.068 Y-18.065 I0.558 J8.121
N5335 X-8.106 Y-15.553 I-1.938 J2.183
N5340 G1 X-8.117 Y-15.449 Z-10.09 F#104
N5345 X-8.143 Y-15.348 Z-10.081
N5350 X-8.184 Y-15.252 Z-10.071
N5355 X-8.239 Y-15.163 Z-10.062
N5360 X-8.308 Y-15.083 Z-10.052
N5365 X-8.387 Y-15.014 Z-10.042
N5370 X-8.476 Y-14.958 Z-10.033
N5375 X-8.572 Y-14.916 Z-10.023
N5380 X-8.673 Y-14.889 Z-10.014
N5385 X-8.778 Y-14.877 Z-10.004
N5390 X-8.823 Y-14.876 Z-10.
N5395 X-9.918 Y-14.842
N5400 X-20.082 Y-14.528 F#105
N5405 X-21.177 Y-14.494 F#103
N5410 X-21.179
N5415 G3 X-21.9 Y-15.169 Z-10.1 I-0.022 J-0.7
N5420 X-20.543 Y-17.729 I2.844 J-0.132 F#100
N5425 X-14.123 Y-19.822 I5.903 J7.213
N5430 X-9.069 Y-18.491 I0.561 J8.129
N5435 X-8.106 Y-15.979 I-1.938 J2.184
N5440 G1 X-8.117 Y-15.875 Z-10.09 F#104
N5445 X-8.143 Y-15.773 Z-10.081
N5450 X-8.184 Y-15.677 Z-10.071
N5455 X-8.24 Y-15.588 Z-10.062
N5460 X-8.308 Y-15.508 Z-10.052
N5465 X-8.387 Y-15.44 Z-10.042
N5470 X-8.476 Y-15.384 Z-10.033
N5475 X-8.572 Y-15.342 Z-10.023
N5480 X-8.674 Y-15.314 Z-10.014
N5485 X-8.778 Y-15.303 Z-10.004
N5490 X-8.823 Y-15.301 Z-10.
N5495 X-9.919 Y-15.268
N5500 X-20.081 Y-14.962 F#105
N5505 X-21.177 Y-14.929 F#103
N5510 X-21.179
N5515 G3 X-21.9 Y-15.604 Z-10.1 I-0.021 J-0.7
N5520 X-20.524 Y-18.17 I2.853 J-0.122 F#100
N5525 X-14.428 Y-20.245 I5.815 J7.089
N5530 X-9.059 Y-18.914 I0.774 J8.37
N5535 X-8.105 Y-16.404 I-1.973 J2.186
N5540 G1 X-8.116 Y-16.3 Z-10.09 F#104
N5545 X-8.143 Y-16.199 Z-10.081
N5550 X-8.184 Y-16.102 Z-10.071
N5555 X-8.239 Y-16.013 Z-10.062
N5560 X-8.308 Y-15.934 Z-10.052
N5565 X-8.387 Y-15.865 Z-10.042
N5570 X-8.476 Y-15.809 Z-10.033
N5575 X-8.573 Y-15.767 Z-10.023
N5580 X-8.674 Y-15.74 Z-10.014
N5585 X-8.779 Y-15.728 Z-10.004
N5590 X-8.823 Y-15.727 Z-10.
N5595 X-9.919 Y-15.695
N5600 X-20.081 Y-15.396 F#105
N5605 X-21.177 Y-15.364 F#103
N5610 X-21.18
N5615 G3 X-21.9 Y-16.039 Z-10.1 I-0.021 J-0.7
N5620 X-20.506 Y-18.61 I2.863 J-0.111 F#100
N5625 X-14.382 Y-20.672 I5.808 J7.125
N5630 X-9.051 Y-19.333 I0.742 J8.326
N5635 X-8.105 Y-16.83 I-1.98 J2.179
N5640 G1 X-8.116 Y-16.726 Z-10.09 F#104
N5645 X-8.143 Y-16.624 Z-10.081
N5650 X-8.184 Y-16.528 Z-10.071
N5655 X-8.24 Y-16.439 Z-10.062
N5660 X-8.308 Y-16.359 Z-10.052
N5665 X-8.387 Y-16.291 Z-10.042
N5670 X-8.476 Y-16.235 Z-10.033
N5675 X-8.573 Y-16.193 Z-10.023
N5680 X-8.675 Y-16.166 Z-10.014
N5685 X-8.78 Y-16.154 Z-10.004
N5690 X-8.823 Y-16.153 Z-10.
N5695 X-9.919 Y-16.122
N5700 X-20.081 Y-15.83 F#105
N5705 X-21.177 Y-15.799 F#103
N5710 X-21.18
N5715 G3 X-21.9 Y-16.474 Z-10.1 I-0.02 J-0.7
N5720 X-20.539 Y-19.01 I2.844 J-0.107 F#100
N5725 X-14.468 Y-21.095 I5.817 J7.054
N5730 X-9.066 Y-19.771 I0.802 J8.408
N5735 X-8.105 Y-17.256 I-1.967 J2.192
N5740 G1 X-8.116 Y-17.152 Z-10.09 F#104
N5745 X-8.143 Y-17.051 Z-10.081
N5750 X-8.184 Y-16.954 Z-10.071
N5755 X-8.239 Y-16.865 Z-10.062
N5760 X-8.307 Y-16.786 Z-10.052
N5765 X-8.387 Y-16.717 Z-10.042
N5770 X-8.476 Y-16.661 Z-10.033
N5775 X-8.572 Y-16.619 Z-10.023
N5780 X-8.674 Y-16.592 Z-10.014
N5785 X-8.778 Y-16.58 Z-10.004
N5790 X-8.823 Y-16.579 Z-10.
N5795 X-9.919 Y-16.546
N5800 X-20.081 Y-16.238 F#105
N5805 X-21.177 Y-16.205 F#103
N5810 X-21.179
N5815 G3 X-21.9 Y-16.88 Z-10.1 I-0.021 J-0.7
N5820 X-20.529 Y-19.444 I2.851 J-0.124 F#100
N5825 X-14.439 Y-21.522 I5.814 J7.077
N5830 X-9.061 Y-20.193 I0.782 J8.38
N5835 X-8.105 Y-17.682 I-1.971 J2.188
N5840 G1 X-8.116 Y-17.578 Z-10.09 F#104
N5845 X-8.143 Y-17.476 Z-10.081
N5850 X-8.184 Y-17.38 Z-10.071
N5855 X-8.239 Y-17.291 Z-10.062
N5860 X-8.308 Y-17.211 Z-10.052
N5865 X-8.387 Y-17.142 Z-10.042
N5870 X-8.476 Y-17.086 Z-10.033
N5875 X-8.572 Y-17.044 Z-10.023
N5880 X-8.674 Y-17.017 Z-10.014
N5885 X-8.779 Y-17.006 Z-10.004
N5890 X-8.823 Y-17.004 Z-10.
N5895 X-9.919 Y-16.972
N5900 X-20.081 Y-16.672 F#105
N5905 X-21.177 Y-16.64 F#103
N5910 X-21.18
N5915 G3 X-21.9 Y-17.315 Z-10.1 I-0.021 J-0.7
N5920 X-20.51 Y-19.885 I2.861 J-0.113 F#100
N5925 X-14.392 Y-21.949 I5.808 J7.115
N5930 X-9.053 Y-20.612 I0.749 J8.336
N5935 X-8.105 Y-18.107 I-1.979 J2.181
N5940 G1 X-8.116 Y-18.003 Z-10.09 F#104
N5945 X-8.143 Y-17.902 Z-10.081
N5950 X-8.184 Y-17.806 Z-10.071
N5955 X-8.24 Y-17.716 Z-10.062
N5960 X-8.308 Y-17.637 Z-10.052
N5965 X-8.387 Y-17.568 Z-10.042
N5970 X-8.476 Y-17.512 Z-10.033
N5975 X-8.573 Y-17.47 Z-10.023
N5980 X-8.675 Y-17.443 Z-10.014
N5985 X-8.779 Y-17.431 Z-10.004
N5990 X-8.823 Y-17.43 Z-10.
N5995 X-9.919 Y-17.399
N6000 X-20.081 Y-17.107 F#105
N6005 X-21.177 Y-17.075 F#103
N6010 X-21.18
N6015 G3 X-21.9 Y-17.75 Z-10.1 I-0.02 J-0.7
N6020 X-20.526 Y-20.298 I2.851 J-0.107 F#100
N6025 X-14.432 Y-22.374 I5.813 J7.083
N6030 X-9.06 Y-21.043 I0.777 J8.374
N6035 X-8.105 Y-18.533 I-1.972 J2.186
N6040 G1 X-8.116 Y-18.429 Z-10.09 F#104
N6045 X-8.143 Y-18.328 Z-10.081
N6050 X-8.184 Y-18.232 Z-10.071
N6055 X-8.239 Y-18.143 Z-10.062
N6060 X-8.308 Y-18.063 Z-10.052
N6065 X-8.387 Y-17.994 Z-10.042
N6070 X-8.476 Y-17.938 Z-10.033
N6075 X-8.573 Y-17.896 Z-10.023
N6080 X-8.674 Y-17.869 Z-10.014
N6085 X-8.779 Y-17.857 Z-10.004
N6090 X-8.823 Y-17.856 Z-10.
N6095 X-9.919 Y-17.824
N6100 X-20.081 Y-17.526 F#105
N6105 X-21.177 Y-17.494 F#103
N6110 X-21.18
N6115 G3 X-21.9 Y-18.169 Z-10.1 I-0.021 J-0.7
N6120 X-20.542 Y-20.712 I2.843 J-0.115 F#100
N6125 X-14.472 Y-22.799 I5.818 J7.051
N6130 X-9.066 Y-21.475 I0.805 J8.412
N6135 X-8.105 Y-18.959 I-1.966 J2.193
N6140 G1 X-8.116 Y-18.855 Z-10.09 F#104
N6145 X-8.143 Y-18.754 Z-10.081
N6150 X-8.184 Y-18.658 Z-10.071
N6155 X-8.239 Y-18.568 Z-10.062
N6160 X-8.307 Y-18.489 Z-10.052
N6165 X-8.387 Y-18.42 Z-10.042
N6170 X-8.476 Y-18.364 Z-10.033
N6175 X-8.572 Y-18.322 Z-10.023
N6180 X-8.674 Y-18.295 Z-10.014
N6185 X-8.778 Y-18.283 Z-10.004
N6190 X-8.823 Y-18.282 Z-10.
N6195 X-9.919 Y-18.249
N6200 X-20.081 Y-17.942 F#105
N6205 X-21.177 Y-17.909 F#103
N6210 X-21.179
N6215 G3 X-21.9 Y-18.584 Z-10.1 I-0.021 J-0.7
N6220 X-20.527 Y-21.149 I2.852 J-0.123 F#100
N6225 X-14.435 Y-23.226 I5.814 J7.081
N6230 X-9.186 Y-21.989 I0.757 J8.544
N6235 X-8.106 Y-19.385 I-1.794 J2.27
N6240 G1 X-8.117 Y-19.281 Z-10.09 F#104
N6245 X-8.143 Y-19.18 Z-10.081
N6250 X-8.185 Y-19.083 Z-10.071
N6255 X-8.24 Y-18.994 Z-10.062
N6260 X-8.308 Y-18.915 Z-10.052
N6265 X-8.387 Y-18.846 Z-10.042
N6270 X-8.476 Y-18.79 Z-10.033
N6275 X-8.573 Y-18.748 Z-10.023
N6280 X-8.674 Y-18.721 Z-10.014
N6285 X-8.779 Y-18.709 Z-10.004
N6290 X-8.823 Y-18.708 Z-10.
N6295 X-9.919 Y-18.675
N6300 X-20.081 Y-18.377 F#105
N6305 X-21.177 Y-18.344 F#103
N6310 X-21.18
N6315 G3 X-21.9 Y-19.02 Z-10.1 I-0.021 J-0.7
N6320 X-20.508 Y-21.59 I2.861 J-0.112 F#100
N6325 X-14.389 Y-23.653 I5.807 J7.118
N6330 X-9.05 Y-22.318 I0.738 J8.392
N6335 X-8.104 Y-19.812 I-2.007 J2.189
N6340 G1 X-8.116 Y-19.707 Z-10.09 F#104
N6345 X-8.142 Y-19.606 Z-10.081
N6350 X-8.184 Y-19.51 Z-10.071
N6355 X-8.239 Y-19.42 Z-10.062
N6360 X-8.308 Y-19.341 Z-10.052
N6365 X-8.387 Y-19.272 Z-10.042
N6370 X-8.476 Y-19.216 Z-10.033
N6375 X-8.573 Y-19.174 Z-10.023
N6380 X-8.675 Y-19.147 Z-10.014
N6385 X-8.779 Y-19.136 Z-10.004
N6390 X-8.823 Y-19.134 Z-10.
N6395 X-9.919 Y-19.103
N6400 X-20.081 Y-18.811 F#105
N6405 X-21.177 Y-18.78 F#103
N6410 X-21.18 Y-18.779
N6415 G3 X-21.9 Y-19.455 Z-10.1 I-0.02 J-0.7
N6420 X-20.539 Y-21.992 I2.846 J-0.107 F#100
N6425 X-14.118 Y-24.08 I5.896 J7.214
N6430 X-9.068 Y-22.748 I0.558 J8.124
N6435 X-8.106 Y-20.237 I-1.938 J2.182
N6440 G1 X-8.117 Y-20.133 Z-10.09 F#104
N6445 X-8.143 Y-20.032 Z-10.081
N6450 X-8.184 Y-19.936 Z-10.071
N6455 X-8.24 Y-19.847 Z-10.062
N6460 X-8.308 Y-19.767 Z-10.052
N6465 X-8.387 Y-19.698 Z-10.042
N6470 X-8.476 Y-19.642 Z-10.033
N6475 X-8.572 Y-19.6 Z-10.023
N6480 X-8.673 Y-19.573 Z-10.014
N6485 X-8.778 Y-19.561 Z-10.004
N6490 X-8.823 Y-19.56 Z-10.
N6495 X-9.918 Y-19.526
N6500 X-20.082 Y-19.212 F#105
N6505 X-21.177 Y-19.179 F#103
N6510 X-21.179
N6515 G3 X-21.9 Y-19.854 Z-10.1 I-0.022 J-0.7
N6520 X-20.543 Y-22.415 I2.845 J-0.132 F#100
N6525 X-14.124 Y-24.506 I5.898 J7.207
N6530 X-9.069 Y-23.175 I0.561 J8.13
N6535 X-8.106 Y-20.662 I-1.937 J2.183
N6540 G1 X-8.117 Y-20.558 Z-10.09 F#104
N6545 X-8.143 Y-20.457 Z-10.081
N6550 X-8.184 Y-20.361 Z-10.071
N6555 X-8.24 Y-20.272 Z-10.062
N6560 X-8.308 Y-20.192 Z-10.052
N6565 X-8.387 Y-20.124 Z-10.042
N6570 X-8.476 Y-20.067 Z-10.033
N6575 X-8.572 Y-20.025 Z-10.023
N6580 X-8.674 Y-19.998 Z-10.014
N6585 X-8.779 Y-19.986 Z-10.004
N6590 X-8.823 Y-19.985 Z-10.
N6595 X-9.919 Y-19.952
N6600 X-20.081 Y-19.647 F#105
N6605 X-21.177 Y-19.614 F#103
N6610 X-21.179
N6615 G3 X-21.9 Y-20.289 Z-10.1 I-0.021 J-0.7
N6620 X-20.525 Y-22.854 I2.853 J-0.122 F#100
N6625 X-14.432 Y-24.929 I5.812 J7.084
N6630 X-9.06 Y-23.598 I0.775 J8.375
N6635 X-8.105 Y-21.088 I-1.972 J2.187
N6640 G1 X-8.116 Y-20.984 Z-10.09 F#104
N6645 X-8.143 Y-20.882 Z-10.081
N6650 X-8.184 Y-20.786 Z-10.071
N6655 X-8.239 Y-20.697 Z-10.062
N6660 X-8.308 Y-20.617 Z-10.052
N6665 X-8.387 Y-20.549 Z-10.042
N6670 X-8.476 Y-20.493 Z-10.033
N6675 X-8.573 Y-20.451 Z-10.023
N6680 X-8.674 Y-20.423 Z-10.014
N6685 X-8.779 Y-20.412 Z-10.004
N6690 X-8.823 Y-20.411 Z-10.
N6695 X-9.919 Y-20.379
N6700 X-20.081 Y-20.081 F#105
N6705 X-21.177 Y-20.049 F#103
N6710 X-21.18
N6715 G3 X-21.9 Y-20.724 Z-10.1 I-0.02 J-0.7
N6720 X-20.506 Y-23.295 I2.862 J-0.111 F#100
N6725 X-14.386 Y-25.356 I5.806 J7.12
N6730 X-9.052 Y-24.017 I0.743 J8.331
N6735 X-8.105 Y-21.514 I-1.98 J2.179
N6740 G1 X-8.116 Y-21.41 Z-10.09 F#104
N6745 X-8.143 Y-21.308 Z-10.081
N6750 X-8.184 Y-21.212 Z-10.071
N6755 X-8.24 Y-21.123 Z-10.062
N6760 X-8.308 Y-21.043 Z-10.052
N6765 X-8.387 Y-20.974 Z-10.042
N6770 X-8.476 Y-20.918 Z-10.033
N6775 X-8.573 Y-20.876 Z-10.023
N6780 X-8.675 Y-20.849 Z-10.014
N6785 X-8.78 Y-20.838 Z-10.004
N6790 X-8.823 Y-20.837 Z-10.
N6795 X-9.919 Y-20.805
N6800 X-20.081 Y-20.515 F#105
N6805 X-21.177 Y-20.484 F#103
N6810 X-21.18
N6815 G3 X-21.9 Y-21.159 Z-10.1 I-0.02 J-0.7
N6820 X-20.529 Y-23.703 I2.848 J-0.106 F#100
N6825 X-14.443 Y-25.78 I5.812 J7.073
N6830 X-9.061 Y-24.451 I0.784 J8.386
N6835 X-8.105 Y-21.94 I-1.971 J2.188
N6840 G1 X-8.116 Y-21.836 Z-10.09 F#104
N6845 X-8.143 Y-21.734 Z-10.081
N6850 X-8.184 Y-21.638 Z-10.071
N6855 X-8.239 Y-21.549 Z-10.062
N6860 X-8.308 Y-21.469 Z-10.052
N6865 X-8.387 Y-21.401 Z-10.042
N6870 X-8.476 Y-21.345 Z-10.033
N6875 X-8.573 Y-21.303 Z-10.023
N6880 X-8.674 Y-21.275 Z-10.014
N6885 X-8.779 Y-21.264 Z-10.004
N6890 X-8.823 Y-21.263 Z-10.
N6895 X-9.919 Y-21.23
N6900 X-20.081 Y-20.932 F#105
N6905 X-21.177 Y-20.899 F#103
N6910 X-21.18
N6915 G3 X-21.9 Y-21.575 Z-10.1 I-0.021 J-0.7
N6920 X-20.541 Y-24.119 I2.845 J-0.116 F#100
N6925 X-14.12 Y-26.21 I5.898 J7.212
N6930 X-9.068 Y-24.877 I0.559 J8.126
N6935 X-8.106 Y-22.366 I-1.938 J2.183
N6940 G1 X-8.117 Y-22.262 Z-10.09 F#104
N6945 X-8.143 Y-22.16 Z-10.081
N6950 X-8.184 Y-22.064 Z-10.071
N6955 X-8.24 Y-21.975 Z-10.062
N6960 X-8.308 Y-21.896 Z-10.052
N6965 X-8.387 Y-21.827 Z-10.042
N6970 X-8.476 Y-21.771 Z-10.033
N6975 X-8.572 Y-21.729 Z-10.023
N6980 X-8.674 Y-21.701 Z-10.014
N6985 X-8.778 Y-21.69 Z-10.004
N6990 X-8.823 Y-21.688 Z-10.
N6995 X-9.918 Y-21.655
N7000 X-20.081 Y-21.344 F#105
N7005 X-21.177 Y-21.31 F#103
N7010 X-21.179
N7015 G3 X-21.9 Y-21.985 Z-10.1 I-0.021 J-0.7
N7020 X-20.541 Y-24.546 I2.845 J-0.13 F#100
N7025 X-14.469 Y-26.632 I5.818 J7.056
N7030 X-9.066 Y-25.306 I0.801 J8.411
N7035 X-8.105 Y-22.791 I-1.966 J2.192
N7040 G1 X-8.116 Y-22.687 Z-10.09 F#104
N7045 X-8.143 Y-22.586 Z-10.081
N7050 X-8.184 Y-22.489 Z-10.071
N7055 X-8.239 Y-22.4 Z-10.062
N7060 X-8.308 Y-22.321 Z-10.052
N7065 X-8.387 Y-22.252 Z-10.042
N7070 X-8.476 Y-22.196 Z-10.033
N7075 X-8.572 Y-22.154 Z-10.023
N7080 X-8.674 Y-22.127 Z-10.014
N7085 X-8.779 Y-22.115 Z-10.004
N7090 X-8.823 Y-22.114 Z-10.
N7095 X-9.919 Y-22.081
N7100 X-20.081 Y-21.778 F#105
N7105 X-21.177 Y-21.745 F#103
N7110 X-21.18
N7115 G3 X-21.9 Y-22.421 Z-10.1 I-0.021 J-0.7
N7120 X-20.521 Y-24.987 I2.855 J-0.12 F#100
N7125 X-14.422 Y-27.059 I5.811 J7.092
N7130 X-9.058 Y-25.725 I0.768 J8.366
N7135 X-8.105 Y-23.217 I-1.974 J2.185
N7140 G1 X-8.116 Y-23.113 Z-10.09 F#104
N7145 X-8.143 Y-23.011 Z-10.081
N7150 X-8.184 Y-22.915 Z-10.071
N7155 X-8.239 Y-22.826 Z-10.062
N7160 X-8.308 Y-22.746 Z-10.052
N7165 X-8.387 Y-22.678 Z-10.042
N7170 X-8.476 Y-22.622 Z-10.033
N7175 X-8.573 Y-22.58 Z-10.023
N7180 X-8.674 Y-22.552 Z-10.014
N7185 X-8.779 Y-22.541 Z-10.004
N7190 X-8.823 Y-22.54 Z-10.
N7195 X-9.919 Y-22.508
N7200 X-20.081 Y-22.212 F#105
N7205 X-21.177 Y-22.18 F#103
N7210 X-21.18
N7215 G3 X-21.9 Y-22.856 Z-10.1 I-0.02 J-0.7
N7220 X-20.541 Y-25.398 I2.845 J-0.113 F#100
N7225 X-14.122 Y-27.487 I5.898 J7.212
N7230 X-9.068 Y-26.155 I0.559 J8.129
N7235 X-8.106 Y-23.643 I-1.939 J2.183
N7240 G1 X-8.117 Y-23.539 Z-10.09 F#104
N7245 X-8.143 Y-23.438 Z-10.081
N7250 X-8.184 Y-23.342 Z-10.071
N7255 X-8.24 Y-23.253 Z-10.062
N7260 X-8.308 Y-23.173 Z-10.052
N7265 X-8.387 Y-23.104 Z-10.042
N7270 X-8.476 Y-23.048 Z-10.033
N7275 X-8.572 Y-23.006 Z-10.023
N7280 X-8.673 Y-22.979 Z-10.014
N7285 X-8.778 Y-22.967 Z-10.004
N7290 X-8.823 Y-22.966 Z-10.
N7295 X-9.918 Y-22.932
N7300 X-20.081 Y-22.62 F#105
N7305 X-21.177 Y-22.586 F#103
N7310 X-21.179
N7315 G3 X-21.9 Y-23.261 Z-10.1 I-0.021 J-0.7
N7320 X-20.543 Y-25.822 I2.844 J-0.132 F#100
N7325 X-14.125 Y-27.913 I5.899 J7.208
N7330 X-9.069 Y-26.582 I0.561 J8.133
N7335 X-8.109 Y-24.069 I-1.932 J2.178
N7340 G1 X-8.12 Y-23.966 Z-10.09 F#104
N7345 X-8.146 Y-23.865 Z-10.081
N7350 X-8.186 Y-23.769 Z-10.071
N7355 X-8.241 Y-23.68 Z-10.062
N7360 X-8.309 Y-23.6 Z-10.052
N7365 X-8.388 Y-23.531 Z-10.042
N7370 X-8.476 Y-23.475 Z-10.033
N7375 X-8.572 Y-23.432 Z-10.023
N7380 X-8.674 Y-23.405 Z-10.014
N7385 X-8.779 Y-23.393 Z-10.004
N7390 X-8.823 Y-23.391 Z-10.
N7395 X-9.919 Y-23.359
N7400 X-20.081 Y-23.054 F#105
N7405 X-21.177 Y-23.021 F#103
N7410 X-21.179
N7415 G3 X-21.9 Y-23.696 Z-10.1 I-0.021 J-0.7
N7420 X-20.525 Y-26.262 I2.853 J-0.122 F#100
N7425 X-14.431 Y-28.336 I5.812 J7.085
N7430 X-9.068 Y-27.01 I0.773 J8.378
N7435 X-8.101 Y-24.516 I-2.158 J2.273
N7440 X-8.779 Y-23.835 Z-10.004 I-0.7 J-0.019 F#104
N7445 G1 X-8.818 Y-23.833 Z-10.
N7450 X-9.914 Y-23.8
N7455 X-20.081 Y-23.49 F#105
N7460 X-21.177 Y-23.456 F#103
N7465 X-21.179
N7470 G3 X-21.9 Y-24.132 Z-10.1 I-0.021 J-0.7
N7475 X-20.509 Y-26.7 I2.865 J-0.109 F#100
N7480 X-14.392 Y-28.763 I5.807 J7.119
N7485 X-9.157 Y-27.499 I0.734 J8.435
N7490 X-8.125 Y-25.109 I-1.91 J2.242
N7495 G1 X-8.128 Y-25.011 Z-10.091 F#104
N7500 X-8.144 Y-24.914 Z-10.082
N7505 X-8.174 Y-24.821 Z-10.073
N7510 X-8.218 Y-24.732 Z-10.064
N7515 X-8.273 Y-24.65 Z-10.055
N7520 X-8.339 Y-24.577 Z-10.046
N7525 X-8.416 Y-24.514 Z-10.037
N7530 X-8.5 Y-24.463 Z-10.028
N7535 X-8.591 Y-24.424 Z-10.019
N7540 X-8.687 Y-24.398 Z-10.009
N7545 X-8.786 Y-24.386 Z-10.
N7550 X-8.79
N7555 X-9.885 Y-24.341
N7560 X-20.086 Y-23.93 F#105
N7565 X-21.171 Y-23.886 F#103
N7570 X-21.181
N7575 G3 X-21.899 Y-24.567 Z-10.1 I-0.018 J-0.7
N7580 X-20.501 Y-27.136 I2.917 J-0.078 F#100
N7585 X-13.685 Y-29.184 I5.963 J7.482
N7590 X-8.974 Y-27.78 I0.275 J7.683
N7595 X-8.149 Y-25.587 I-2.816 J2.312
N7600 X-8.816 Y-24.857 Z-10. I-0.699 J0.031 F#104
N7605 G1 X-9.911 Y-24.811
N7610 X-20.088 Y-24.385 F#105
N7615 X-21.161 Y-24.34 F#103
N7620 X-21.183 Y-24.339
N7625 G3 X-21.891 Y-25.031 Z-10.1 I-0.008 J-0.7
N7630 X-20.277 Y-27.735 I3.123 J0.031 F#100
N7635 X-13.869 Y-29.62 I5.736 J7.665
N7640 X-9.217 Y-28.379 I0.35 J8.03
N7645 X-8.265 Y-26.39 I-2.869 J2.596
N7650 X-8.836 Y-25.581 Z-10. I-0.69 J0.119 F#104
N7655 X-8.912 Y-25.573 I-0.119 J-0.69
N7660 G1 X-9.929 Y-25.509
N7665 X-20.093 Y-24.879 F#105
N7670 X-21.112 Y-24.816 F#103
N7675 X-21.149 Y-24.815
N7680 X-21.187 Y-24.816
N7685 G3 X-21.855 Y-25.546 Z-10.1 I0.032 J-0.699
N7690 X-20.121 Y-28.274 I3.257 J0.156 F#100
N7695 X-12.906 Y-29.989 I5.77 J8.235
N7700 X-9.337 Y-28.81 I-0.131 J6.386
N7705 X-8.502 Y-27.243 I-3.691 J2.974
N7710 G1 X-8.478 Y-27.146 Z-10.091 F#104
N7715 X-8.469 Y-27.047 Z-10.082
N7720 X-8.474 Y-26.948 Z-10.073
N7725 X-8.492 Y-26.85 Z-10.064
N7730 X-8.525 Y-26.756 Z-10.055
N7735 X-8.571 Y-26.667 Z-10.045
N7740 X-8.629 Y-26.586 Z-10.036
N7745 X-8.697 Y-26.514 Z-10.027
N7750 X-8.776 Y-26.452 Z-10.018
N7755 X-8.862 Y-26.402 Z-10.009
N7760 X-8.955 Y-26.365 Z-10.
N7765 G3 X-9.113 Y-26.335 I-0.212 J-0.667
N7770 G1 X-10.044 Y-26.263
N7775 X-20.104 Y-25.49 F#105
N7780 X-21.023 Y-25.419 F#103
N7785 G3 X-21.196 Y-25.427 I-0.054 J-0.698
N7790 X-21.767 Y-26.235 Z-10.1 I0.119 J-0.69
N7795 X-19.748 Y-28.946 I3.539 J0.529 F#100
N7800 X-10.246 Y-29.789 I5.593 J9.067
N7805 X-8.872 Y-28.108 I-2.303 J3.284
N7810 G1 X-8.835 Y-28.016 Z-10.091 F#104
N7815 X-8.812 Y-27.919 Z-10.082
N7820 X-8.803 Y-27.821 Z-10.073
N7825 X-8.808 Y-27.721 Z-10.064
N7830 X-8.827 Y-27.624 Z-10.055
N7835 X-8.86 Y-27.53 Z-10.045
N7840 X-8.906 Y-27.442 Z-10.036
N7845 X-8.964 Y-27.361 Z-10.027
N7850 X-9.033 Y-27.289 Z-10.018
N7855 X-9.112 Y-27.227 Z-10.009
N7860 X-9.198 Y-27.178 Z-10.
N7865 G3 X-9.43 Y-27.113 I-0.301 J-0.632
N7870 G1 X-10.28 Y-27.03
N7875 X-19.994 Y-26.074 F#105
N7880 X-20.884 Y-25.987 F#103
N7885 G3 X-21.085 Y-25.996 I-0.069 J-0.697
N7890 X-21.639 Y-26.815 Z-10.1 I0.133 J-0.687
N7895 X-18.872 Y-29.844 I4.155 J1.018 F#100
N7900 X-10.968 Y-30.471 I4.738 J9.584
N7905 X-9.432 Y-29.032 I-2.298 J3.992
N7910 X-9.612 Y-28.059 Z-10. I-0.577 J0.397 F#104
N7915 X-9.937 Y-27.939 I-0.397 J-0.576
N7920 G1 X-10.678 Y-27.863
N7925 X-19.797 Y-26.919 F#105
N7930 X-20.56 Y-26.84 F#103
N7935 G3 X-20.883 Y-26.883 I-0.072 J-0.696
N7940 X-21.285 Y-27.787 Z-10.1 I0.251 J-0.653
N7945 X-17.852 Y-30.679 I4.555 J1.923 F#100
N7950 X-11.726 Y-31.073 I3.683 J9.445
N7955 X-10.13 Y-29.866 I-4.4 J7.476
N7960 G1 X-10.069 Y-29.786 Z-10.091 F#104
N7965 X-10.02 Y-29.698 Z-10.082
N7970 X-9.984 Y-29.605 Z-10.073
N7975 X-9.962 Y-29.507 Z-10.064
N7980 X-9.954 Y-29.407 Z-10.055
N7985 X-9.96 Y-29.307 Z-10.045
N7990 X-9.98 Y-29.209 Z-10.036
N7995 X-10.014 Y-29.115 Z-10.027
N8000 X-10.061 Y-29.027 Z-10.018
N8005 X-10.12 Y-28.946 Z-10.009
N8010 X-10.19 Y-28.875 Z-10.
N8015 G3 X-10.585 Y-28.701 I-0.466 J-0.523
N8020 G1 X-11.239 Y-28.635
N8025 X-19.416 Y-27.808 F#105
N8030 X-20.057 Y-27.744 F#103
N8035 G3 X-20.49 Y-27.841 I-0.07 J-0.696
N8040 X-20.727 Y-28.802 Z-10.1 I0.362 J-0.599
N8045 X-16.224 Y-31.532 I5.077 J3.295 F#100
N8050 X-13.518 Y-31.725 I1.83 J6.597
N8055 G1 X-13.422 Y-31.691 Z-10.091 F#104
N8060 X-13.332 Y-31.644 Z-10.082
N8065 X-13.25 Y-31.585 Z-10.073
N8070 X-13.177 Y-31.515 Z-10.064
N8075 X-13.116 Y-31.435 Z-10.055
N8080 X-13.066 Y-31.348 Z-10.045
N8085 X-13.029 Y-31.254 Z-10.036
N8090 X-13.006 Y-31.157 Z-10.027
N8095 X-12.997 Y-31.057 Z-10.018
N8100 X-13.002 Y-30.957 Z-10.009
N8105 X-13.022 Y-30.859 Z-10.
N8110 G3 X-13.51 Y-30.364 I-0.677 J-0.179
N8115 G1 X-13.864 Y-30.265
N8120 X-18.693 Y-28.915 F#105
N8125 X-19.074 Y-28.809 F#103
N8130 G3 X-19.728 Y-28.961 I-0.188 J-0.674
N8135 X-19.785 Y-29.948 Z-10.1 I0.466 J-0.523
N8140 X-11.434 Y-30.888 I4.786 J4.959 F#100
N8145 G1 X-11.351 Y-30.824 F#104
N8150 X-11.279 Y-30.748
N8155 X-11.219 Y-30.663
N8160 X-11.172 Y-30.569
N8165 X-11.139 Y-30.47
N8170 X-11.121 Y-30.367
N8175 X-11.119 Y-30.263
N8180 X-11.132 Y-30.159
N8185 X-11.16 Y-30.059
N8190 X-11.202 Y-29.964
N8195 X-11.259 Y-29.876
N8200 X-11.327 Y-29.798
N8205 X-11.407 Y-29.73
N8210 X-11.495 Y-29.676
N8215 X-11.591 Y-29.634
N8220 X-11.691 Y-29.608
N8225 X-11.794 Y-29.596
N8230 X-11.898 Y-29.6
N8235 X-12. Y-29.62
N8240 X-12.098 Y-29.654
N8245 X-12.19 Y-29.702
N8250 X-12.206 Y-29.712
N8255 X-12.29 Y-29.767 Z-10.093
N8260 X-12.371 Y-29.82 Z-10.072
N8265 X-12.449 Y-29.872 Z-10.037
N8270 X-12.523 Y-29.92 Z-9.989
N8275 X-12.589 Y-29.964 Z-9.929
N8280 X-12.648 Y-30.003 Z-9.858
N8285 X-12.698 Y-30.035 Z-9.778
N8290 X-12.738 Y-30.062 Z-9.691
N8295 X-12.768 Y-30.081 Z-9.597
N8300 X-12.785 Y-30.092 Z-9.5
N8305 X-12.791 Y-30.096 Z-9.4
N8310 G0 Z2.125
N8315 X-3.467 Y4.373
N8320 Z-8.7
N8325 G1 Z-9.4 F#103
N8330 X-3.461 Y4.369 Z-9.5
N8335 X-3.445 Y4.355 Z-9.597
N8340 X-3.418 Y4.333 Z-9.691
N8345 X-3.382 Y4.302 Z-9.778
N8350 X-3.336 Y4.263 Z-9.858
N8355 X-3.282 Y4.218 Z-9.929
N8360 X-3.22 Y4.166 Z-9.989
N8365 X-3.153 Y4.11 Z-10.037
N8370 X-3.082 Y4.05 Z-10.072
N8375 X-3.007 Y3.987 Z-10.093
N8380 X-2.931 Y3.923 Z-10.1
N8385 G3 X-0.949 Y2.97 I2.85 J3.393
N8390 G2 X2.705 Y-0.087 I-0.997 J-4.904 F#100
N8395 G1 X2.757 Y-0.177 F#104
N8400 X2.821 Y-0.259
N8405 X2.897 Y-0.331
N8410 X2.982 Y-0.39
N8415 X3.075 Y-0.436
N8420 X3.174 Y-0.468
N8425 X3.277 Y-0.485
N8430 X3.381 Y-0.487
N8435 X3.484 Y-0.473
N8440 X3.583 Y-0.444
N8445 X3.678 Y-0.401
N8450 X3.765 Y-0.344
N8455 X3.843 Y-0.275
N8460 X3.909 Y-0.196
N8465 X3.963 Y-0.107
N8470 X4.004 Y-0.011
N8475 X4.03 Y0.089
N8480 X4.04 Y0.192
N8485 X4.036 Y0.296
N8490 X4.016 Y0.398
N8495 X3.981 Y0.496
N8500 X3.973 Y0.513
N8505 X3.931 Y0.603 Z-10.093
N8510 X3.889 Y0.691 Z-10.072
N8515 X3.849 Y0.776 Z-10.037
N8520 X3.811 Y0.855 Z-9.989
N8525 X3.777 Y0.927 Z-9.929
N8530 X3.747 Y0.991 Z-9.858
N8535 X3.721 Y1.045 Z-9.778
N8540 X3.701 Y1.089 Z-9.691
N8545 X3.686 Y1.12 Z-9.597
N8550 X3.677 Y1.139 Z-9.5
N8555 X3.674 Y1.146 Z-9.4
N8560 G0 Z4.
N8570 M9
N8575 G53 Z0.
N8580 M30
%
