%
(1001)
(T1  D=6. CR=0. - ZMIN=-10.2 - FLAT END MILL)
N10 G90 G94 G17 G91.1
N15 G21
N20 G53 G0 Z0.
(2D CONTOUR2)
N25 M9
N30 T1 M6
N35 S3200 M3
N40 G54
N45 M8
N55 G0 X-34.5 Y-2.5
N60 G43 Z4. H1
N65 #100=330. (CUTTING)
N70 #103=200. (ENTRY)
N75 #104=200. (EXIT)
N80 #108=100. (PLUNGE)
N85 G0 Z2.
N90 G1 Z1. F#103
N95 Z-9.7 F#108
N100 G18 G2 X-34. Z-10.2 I0.5 K0.
N105 G1 X-33.5 F#103
N110 G17 G3 X-33. Y-2. I0. J0.5
N115 G2 X-28. Y3. I5. J0. F#100
N120 G1 X-27.
N125 G2 X-22. Y-2. I0. J-5.
N130 G1 Y-25.
N135 G3 X-8. I7. J0.
N140 G1 Y-2.
N145 G2 X-3. Y3. I5. J0.
N150 G1 X-2.
N155 G2 X3. Y-2. I0. J-5.
N160 G3 X3.5 Y-2.5 I0.5 J0. F#104
N165 G1 X4.
N170 G18 G2 X4.5 Z-9.7 I0. K0.5
N175 G0 Z4.
N180 G17
N185 M9
N190 G53 G0 Z0.
N195 M30
%
