%
(1001)
(T1  D=6. CR=0. - ZMIN=-6. - FLAT END MILL)
N10 G90 G94 G17 G91.1
N15 G21
N20 G53 G0 Z0.
(2D ADAPTIVE1)
N25 M9
N30 T1 M6
N35 S3200 M3
N40 G54
N45 M8
N55 G0 X5.082 Y-58.377
N60 G43 Z4. H1
N65 #100=330. (CUTTING)
N70 #103=200. (ENTRY)
N75 #104=200. (EXIT)
N80 #105=3000. (DIRECT)
N85 #106=82.5 (REDUCED)
N90 G0 Z-5.
N95 G1 Z-5.5 F#103
N100 X5.075 Y-58.375 Z-5.587
N105 X5.053 Y-58.37 Z-5.671
N110 X5.017 Y-58.36 Z-5.75
N115 X4.969 Y-58.348 Z-5.821
N120 X4.909 Y-58.333 Z-5.883
N125 X4.84 Y-58.315 Z-5.933
N130 X4.764 Y-58.295 Z-5.97
N135 X4.682 Y-58.275 Z-5.992
N140 X4.598 Y-58.253 Z-6.
N145 G3 X3.043 Y-58.029 I-1.809 J-7.063
N150 G1 X2.96 F#106
N155 G3 X3.533 Y-59. I0.573 J-0.316 F#100
N160 X3.509 Y-58. I-0.017 J0.5 F#104
N165 G1 X3.498 Y-58.001
N170 X3.411 Y-58.004 Z-5.992
N175 X3.327 Y-58.007 Z-5.97
N180 X3.248 Y-58.009 Z-5.933
N185 X3.177 Y-58.012 Z-5.883
N190 X3.115 Y-58.014 Z-5.821
N195 X3.065 Y-58.016 Z-5.75
N200 X3.029 Y-58.017 Z-5.671
N205 X3.006 Y-58.018 Z-5.587
N210 X2.998 Z-5.5
N215 G0 Z2.
N220 X4.207 Y-28.274
N225 Z-5.
N230 G1 Z-5.5 F#103
N235 X4.202 Y-28.279 Z-5.587
N240 X4.185 Y-28.294 Z-5.671
N245 X4.158 Y-28.319 Z-5.75
N250 X4.121 Y-28.352 Z-5.821
N255 X4.075 Y-28.394 Z-5.883
N260 X4.022 Y-28.442 Z-5.933
N265 X3.963 Y-28.495 Z-5.97
N270 X3.901 Y-28.551 Z-5.992
N275 X3.837 Y-28.609 Z-6.
N280 G3 X2.971 Y-29.92 I2.125 J-2.346
N285 X2.514 Y-35.113 I14.222 J-3.868 F#100
N290 G1 X2.473 Y-36.002
N295 X2.471 Y-37.774
N300 X2.47 Y-53.724
N305 Y-56.383
N310 G3 X2.734 Y-58.122 I2.401 J-0.525
N315 X4.327 Y-59. I1.594 J1.008
N320 X4.303 Y-58. I-0.017 J0.5 F#104
N325 G1 X4.293 Y-58.001
N330 X4.206 Y-58.004 Z-5.992
N335 X4.122 Y-58.007 Z-5.97
N340 X4.043 Y-58.009 Z-5.933
N345 X3.971 Y-58.012 Z-5.883
N350 X3.91 Y-58.014 Z-5.821
N355 X3.86 Y-58.016 Z-5.75
N360 X3.823 Y-58.017 Z-5.671
N365 X3.8 Y-58.018 Z-5.587
N370 X3.793 Z-5.5
N375 G0 Z-5.
N380 X4.07 Y-28.728
N385 G1 Z-5.5 F#103
N390 X4.065 Y-28.733 Z-5.587
N395 X4.048 Y-28.748 Z-5.671
N400 X4.02 Y-28.772 Z-5.75
N405 X3.983 Y-28.806 Z-5.821
N410 X3.938 Y-28.847 Z-5.883
N415 X3.885 Y-28.895 Z-5.933
N420 X3.826 Y-28.948 Z-5.97
N425 X3.764 Y-29.005 Z-5.992
N430 X3.699 Y-29.063 Z-6.
N435 G3 X2.832 Y-30.372 I2.122 J-2.348
N440 X2.028 Y-35.79 I10.802 J-4.37 F#100
N445 X1.97 Y-41.221 I93.431 J-3.711
N450 G1 Y-55.399
N455 G3 X2.843 Y-58.501 I3.665 J-0.642
N460 X4.379 Y-59. I1.617 J2.362
N465 X4.354 Y-58. I-0.017 J0.5 F#104
N470 G1 X4.344 Y-58.001
N475 X4.257 Y-58.004 Z-5.992
N480 X4.173 Y-58.007 Z-5.97
N485 X4.094 Y-58.009 Z-5.933
N490 X4.022 Y-58.012 Z-5.883
N495 X3.961 Y-58.014 Z-5.821
N500 X3.911 Y-58.016 Z-5.75
N505 X3.874 Y-58.017 Z-5.671
N510 X3.851 Y-58.018 Z-5.587
N515 X3.844 Z-5.5
N520 G0 Z-5.
N525 X3.795 Y-29.812
N530 G1 Z-5.5 F#103
N535 X3.789 Y-29.817 Z-5.587
N540 X3.772 Y-29.831 Z-5.671
N545 X3.743 Y-29.854 Z-5.75
N550 X3.704 Y-29.885 Z-5.821
N555 X3.655 Y-29.924 Z-5.883
N560 X3.6 Y-29.968 Z-5.933
N565 X3.538 Y-30.018 Z-5.97
N570 X3.472 Y-30.07 Z-5.992
N575 X3.404 Y-30.124 Z-6.
N580 G3 X2.458 Y-31.378 I1.975 J-2.474
N585 X1.531 Y-37.196 I11.036 J-4.742 F#100
N590 G2 X-0.965 Y-39.658 I-2.921 J0.466
N595 X-2.155 Y-39.588 I-0.425 J2.928 F#106
N600 G3 X-2.585 Y-43.44 I9.788 J-3.042 F#100
N605 X-2.63 Y-48.759 I122.192 J-3.683
N610 G1 Y-52.629
N615 Y-53.829 F#106
N620 G2 X0.405 Y-55.316 I0.291 J-3.245 F#100
N625 X1.866 Y-57.964 I-21.632 J-13.664
N630 G3 X3.925 Y-59.003 I2.096 J1.596
N635 G1 X4.011 Y-58.992 F#104
N640 X4.094 Y-58.967
N645 X4.172 Y-58.927
N650 X4.241 Y-58.875
N655 X4.301 Y-58.812
N660 X4.349 Y-58.739
N665 X4.383 Y-58.659
N670 X4.403 Y-58.575
N675 X4.409 Y-58.488
N680 X4.399 Y-58.402
N685 X4.374 Y-58.319
N690 X4.336 Y-58.241
N695 X4.285 Y-58.171
N700 X4.222 Y-58.111
N705 X4.15 Y-58.063
N710 X4.071 Y-58.028
N715 X3.987 Y-58.007
N720 X3.901 Y-58.
N725 X3.89 Y-58.001
N730 X3.803 Y-58.004 Z-5.992
N735 X3.719 Y-58.007 Z-5.97
N740 X3.64 Y-58.009 Z-5.933
N745 X3.569 Y-58.012 Z-5.883
N750 X3.507 Y-58.014 Z-5.821
N755 X3.457 Y-58.016 Z-5.75
N760 X3.42 Y-58.017 Z-5.671
N765 X3.398 Y-58.018 Z-5.587
N770 X3.39 Z-5.5
N775 G0 Z-5.
N780 X3.363 Y-31.041
N785 G1 Z-5.5 F#103
N790 X3.357 Y-31.046 Z-5.587
N795 X3.339 Y-31.06 Z-5.671
N800 X3.31 Y-31.082 Z-5.75
N805 X3.27 Y-31.113 Z-5.821
N810 X3.222 Y-31.151 Z-5.883
N815 X3.165 Y-31.194 Z-5.933
N820 X3.103 Y-31.242 Z-5.97
N825 X3.036 Y-31.294 Z-5.992
N830 X2.967 Y-31.347 Z-6.
N835 G3 X2.001 Y-32.585 I1.934 J-2.505
N840 X1.093 Y-35.961 I6.663 J-3.601 F#100
N845 G2 X-1.6 Y-38.712 I-4.101 J1.32
N850 G3 X-2.771 Y-40.666 I1.43 J-2.185
N855 X-3.088 Y-48.851 I41.578 J-5.71
N860 X-3.115 Y-53. I47.645 J-2.379
N865 G2 X-2.998 Y-53.566 I-45.319 J-9.617
N870 X-2.779 Y-54.746 I-45.435 J-9.051 F#106
N875 X0.732 Y-57.221 I-1.034 J-5.197 F#100
N880 G3 X2.201 Y-58.717 I3.284 J1.754
N885 G1 X2.583 Y-58.873
N890 X2.985 Y-58.968
N895 X3.397 Y-59.
N900 G3 X3.879 Y-58.483 Z-5.9 I-0.017 J0.5 F#104
N905 G1 Y-58.476
N910 X3.841 Y-57.705
N915 X2.651 Y-33.729 F#105
N920 X2.637 Y-33.437 F#103
N925 G3 X2.397 Y-33.035 I-0.499 J-0.025
N930 X1.71 Y-33.202 Z-6. I-0.26 J-0.427
N935 X0.774 Y-35.255 I6.589 J-4.244 F#100
N940 G2 X-1.997 Y-38.355 I-6.88 J3.36
N945 G3 X-3.438 Y-42.821 I5.691 J-4.303
N950 X-3.611 Y-49.766 I58.136 J-4.918
N955 X-3.368 Y-53.952 I14.841 J-1.238
N960 X-3.248 Y-54.492 I14.598 J2.948 F#106
N965 X-2.906 Y-55.041 I4.63 J2.499
N970 G2 X0.793 Y-58.166 I-4.515 J-9.099 F#100
N975 G3 X2.765 Y-59. I1.994 J1.967
N980 X3.248 Y-58.483 Z-5.9 I-0.017 J0.5 F#104
N985 G1 X3.213 Y-57.705
N990 X2.196 Y-34.537 F#105
N995 X2.183 Y-34.248 F#103
N1000 G3 X1.943 Y-33.843 I-0.5 J-0.022
N1005 X1.256 Y-34.01 Z-6. I-0.26 J-0.427
N1010 G2 X-2.768 Y-39.026 I-15.594 J8.388 F#100
N1015 G3 X-3.975 Y-43.83 I8.201 J-4.616
N1020 X-3.943 Y-53.515 I60.648 J-4.638
N1025 X-2.39 Y-55.776 I3.528 J0.759
N1030 G2 X0.225 Y-58.237 I-18.312 J-22.076
N1035 G3 X2.126 Y-59. I1.94 J2.082
N1040 X2.608 Y-58.483 Z-5.9 I-0.017 J0.5 F#104
N1045 X2.597 Y-58.394 I-0.5 J-0.017
N1050 G1 X2.451 Y-57.72
N1055 X-1.52 Y-39.495 F#105
N1060 X-1.631 Y-38.981 F#103
N1065 G3 X-1.745 Y-38.757 I-0.489 J-0.106
N1070 X-2.45 Y-38.712 Z-6. I-0.375 J-0.331
N1075 X-4.177 Y-42.057 I3.004 J-3.669 F#100
N1080 X-4.587 Y-49.515 I32.153 J-5.506
N1085 X-3.92 Y-54.667 I10.931 J-1.204
N1090 X0.197 Y-58.739 I23.387 J19.526
N1095 G1 X0.62 Y-58.865
N1100 X1.033 Y-58.966
N1105 X1.456 Y-59.
N1110 G3 X1.938 Y-58.483 Z-5.9 I-0.017 J0.5 F#104
N1115 X1.927 Y-58.394 I-0.5 J-0.017
N1120 G1 X1.781 Y-57.72
N1125 X-2.066 Y-40.01 F#105
N1130 X-2.178 Y-39.492 F#103
N1135 G3 X-2.289 Y-39.271 I-0.489 J-0.106
N1140 X-2.994 Y-39.22 Z-6. I-0.378 J-0.327
N1145 X-4.597 Y-42.189 I2.618 J-3.331 F#100
N1150 X-5.081 Y-49.193 I26.39 J-5.339
N1155 X-4.316 Y-54.65 I11.213 J-1.211
N1160 X-0.75 Y-58.536 I16.412 J11.483
N1165 X0.779 Y-59. I1.556 J2.375
N1170 X1.262 Y-58.483 Z-5.9 I-0.017 J0.5 F#104
N1175 X1.252 Y-58.399 I-0.5 J-0.017
N1180 G1 X1.111 Y-57.719
N1185 X-2.472 Y-40.428 F#105
N1190 X-2.591 Y-39.855 F#103
N1195 G3 X-2.666 Y-39.677 I-0.49 J-0.101
N1200 X-3.359 Y-39.541 Z-6. I-0.415 J-0.279
N1205 X-5.019 Y-42.365 I2.122 J-3.147 F#100
N1210 X-5.574 Y-48.165 I19.333 J-4.776
N1215 X-4.826 Y-54.479 I14.183 J-1.521
N1220 X-1.134 Y-58.742 I12.923 J7.461
N1225 G1 X-0.713 Y-58.866
N1230 X-0.301 Y-58.966
N1235 X0.121 Y-59.
N1240 G3 X0.603 Y-58.483 Z-5.9 I-0.017 J0.5 F#104
N1245 X0.594 Y-58.404 I-0.5 J-0.017
N1250 G1 X0.459 Y-57.718
N1255 X-2.879 Y-40.722 F#105
N1260 X-2.993 Y-40.144 F#103
N1265 G3 X-3.063 Y-39.969 I-0.491 J-0.096
N1270 X-3.754 Y-39.82 Z-6. I-0.42 J-0.271
N1275 X-5.477 Y-42.654 I2.074 J-3.201 F#100
N1280 X-6.075 Y-48.279 I19.208 J-4.888
N1285 X-4.998 Y-54.993 I13.182 J-1.329
N1290 X-2.141 Y-58.466 I13.072 J7.844
N1295 X-0.513 Y-59. I1.653 J2.292
N1300 X-0.031 Y-58.483 Z-5.9 I-0.017 J0.5 F#104
N1305 X-0.039 Y-58.408 I-0.5 J-0.017
N1310 G1 X-0.17 Y-57.717
N1315 X-3.318 Y-41.026 F#105
N1320 X-3.427 Y-40.449 F#103
N1325 G3 X-3.498 Y-40.271 I-0.491 J-0.093
N1330 X-4.188 Y-40.12 Z-6. I-0.421 J-0.27
N1335 X-5.946 Y-42.966 I2.087 J-3.255 F#100
N1340 X-6.551 Y-49.428 I19.869 J-5.118
N1345 X-2.765 Y-58.443 I11.243 J-0.581
N1350 X-1.123 Y-59.001 I1.659 J2.191
N1355 G1 X-1.036 Y-58.99 Z-5.989 F#104
N1360 X-0.953 Y-58.964 Z-5.978
N1365 X-0.875 Y-58.925 Z-5.967
N1370 X-0.806 Y-58.872 Z-5.956
N1375 X-0.746 Y-58.808 Z-5.944
N1380 X-0.699 Y-58.735 Z-5.933
N1385 X-0.665 Y-58.655 Z-5.922
N1390 X-0.645 Y-58.57 Z-5.911
N1395 X-0.641 Y-58.483 Z-5.9
N1400 G3 X-0.649 Y-58.41 I-0.5 J-0.017
N1405 G1 X-0.776 Y-57.716
N1410 X-3.775 Y-41.34 F#105
N1415 X-3.88 Y-40.765 F#103
N1420 G3 X-3.951 Y-40.585 I-0.492 J-0.09
N1425 X-4.642 Y-40.434 Z-6. I-0.421 J-0.27
N1430 X-6.42 Y-43.287 I2.107 J-3.295 F#100
N1435 X-6.362 Y-53.954 I19.803 J-5.224
N1440 X-3.158 Y-58.593 I10.56 J3.867
N1445 X-1.707 Y-59. I1.486 J2.509
N1450 X-1.225 Y-58.483 Z-5.9 I-0.017 J0.5 F#104
N1455 X-1.232 Y-58.412 I-0.5 J-0.017
N1460 G1 X-1.357 Y-57.715
N1465 X-4.237 Y-41.658 F#105
N1470 X-4.34 Y-41.085 F#103
N1475 G3 X-4.411 Y-40.903 I-0.492 J-0.088
N1480 X-5.102 Y-40.752 Z-6. I-0.421 J-0.27
N1485 X-6.829 Y-43.354 I1.9 J-3.136 F#100
N1490 X-6.636 Y-54.422 I18.052 J-5.221
N1495 X-4.016 Y-58.381 I11.892 J5.024
N1500 X-2.274 Y-59. I1.763 J2.201
N1505 X-1.792 Y-58.483 Z-5.9 I-0.017 J0.5 F#104
N1510 X-1.799 Y-58.416 I-0.5 J-0.017
N1515 G1 X-1.919 Y-57.714
N1520 X-4.621 Y-41.939 F#105
N1525 X-4.724 Y-41.336 F#103
N1530 G3 X-4.78 Y-41.179 I-0.493 J-0.084
N1535 X-5.459 Y-40.983 Z-6. I-0.438 J-0.242
N1540 X-7.252 Y-43.498 I1.649 J-3.073 F#100
N1545 X-6.526 Y-55.719 I16.463 J-5.154
N1550 X-4.315 Y-58.596 I9.828 J5.265
N1555 X-2.826 Y-59. I1.577 J2.869
N1560 X-2.344 Y-58.483 Z-5.9 I-0.017 J0.5 F#104
N1565 X-2.35 Y-58.419 I-0.5 J-0.017
N1570 G1 X-2.467 Y-57.714
N1575 X-5.03 Y-42.197 F#105
N1580 X-5.133 Y-41.576 F#103
N1585 G3 X-5.179 Y-41.434 I-0.493 J-0.081
N1590 X-5.85 Y-41.211 Z-6. I-0.447 J-0.224
N1595 X-7.651 Y-43.561 I1.412 J-2.947 F#100
N1600 X-8.239 Y-51.571 I15.45 J-5.161
N1605 X-5.147 Y-58.363 I12.402 J1.545
N1610 X-3.366 Y-59. I1.816 J2.272
N1615 X-2.884 Y-58.483 Z-5.9 I-0.017 J0.5 F#104
N1620 X-2.889 Y-58.423 I-0.5 J-0.017
N1625 G1 X-3.001 Y-57.713
N1630 X-5.405 Y-42.407 F#105
N1635 G3 X-5.541 Y-41.64 I-2.86 J-0.114 F#103
N1640 G1 X-5.584 Y-41.564 Z-5.911
N1645 X-5.639 Y-41.496 Z-5.922
N1650 X-5.705 Y-41.439 Z-5.933
N1655 X-5.78 Y-41.394 Z-5.944
N1660 X-5.861 Y-41.363 Z-5.956
N1665 X-5.947 Y-41.347 Z-5.967
N1670 X-6.034 Y-41.346 Z-5.978
N1675 X-6.12 Y-41.359 Z-5.989
N1680 X-6.202 Y-41.388 Z-6.
N1685 G3 X-8.064 Y-43.546 I1.425 J-3.112 F#100
N1690 X-6.534 Y-57.381 I15.4 J-5.299
N1695 X-4.29 Y-59.005 I3.369 J2.295
N1700 G1 X-3.896 Y-59.
N1705 G3 X-3.413 Y-58.483 Z-5.9 I-0.017 J0.5 F#104
N1710 X-3.419 Y-58.424 I-0.5 J-0.017
N1715 G1 X-3.528 Y-57.712
N1720 X-5.852 Y-42.624 F#105
N1725 G3 X-5.986 Y-41.858 I-2.828 J-0.101 F#103
N1730 G1 X-6.029 Y-41.781 Z-5.911
N1735 X-6.084 Y-41.714 Z-5.922
N1740 X-6.15 Y-41.656 Z-5.933
N1745 X-6.225 Y-41.612 Z-5.944
N1750 X-6.306 Y-41.58 Z-5.956
N1755 X-6.392 Y-41.564 Z-5.967
N1760 X-6.479 Y-41.563 Z-5.978
N1765 X-6.565 Y-41.576 Z-5.989
N1770 X-6.648 Y-41.605 Z-6.
N1775 G3 X-8.513 Y-43.745 I1.441 J-3.14 F#100
N1780 X-6.767 Y-57.761 I15.064 J-5.24
N1785 X-4.413 Y-59. I2.681 J2.238
N1790 X-3.931 Y-58.483 Z-5.9 I-0.017 J0.5 F#104
N1795 X-3.936 Y-58.426 I-0.5 J-0.017
N1800 G1 X-4.044 Y-57.712
N1805 X-6.291 Y-42.838 F#105
N1810 X-6.387 Y-42.2 F#103
N1815 G3 X-6.425 Y-42.071 I-0.494 J-0.075
N1820 X-7.085 Y-41.818 Z-6. I-0.457 J-0.204
N1825 X-9.102 Y-44.368 I1.612 J-3.348 F#100
N1830 X-7.205 Y-57.841 I14.973 J-4.763
N1835 X-4.927 Y-59. I2.395 J1.889
N1840 X-4.445 Y-58.483 Z-5.9 I-0.017 J0.5 F#104
N1845 X-4.45 Y-58.427 I-0.5 J-0.017
N1850 G1 X-4.555 Y-57.712
N1855 X-6.718 Y-43.045 F#105
N1860 X-6.812 Y-42.41 F#103
N1865 G3 X-6.85 Y-42.279 I-0.495 J-0.073
N1870 X-7.51 Y-42.026 Z-6. I-0.457 J-0.204
N1875 X-9.527 Y-44.481 I1.496 J-3.284 F#100
N1880 X-7.639 Y-57.928 I14.747 J-4.786
N1885 X-5.434 Y-59. I2.323 J1.975
N1890 X-4.952 Y-58.483 Z-5.9 I-0.017 J0.5 F#104
N1895 X-4.957 Y-58.429 I-0.5 J-0.017
N1900 G1 X-5.06 Y-57.711
N1905 X-7.143 Y-43.267 F#105
N1910 G3 X-7.265 Y-42.498 I-3.364 J-0.142 F#103
N1915 G1 X-7.304 Y-42.42 Z-5.911
N1920 X-7.356 Y-42.35 Z-5.922
N1925 X-7.419 Y-42.289 Z-5.933
N1930 X-7.491 Y-42.241 Z-5.944
N1935 X-7.571 Y-42.205 Z-5.956
N1940 X-7.655 Y-42.184 Z-5.967
N1945 X-7.742 Y-42.179 Z-5.978
N1950 X-7.829 Y-42.188 Z-5.989
N1955 X-7.913 Y-42.212 Z-6.
N1960 G3 X-9.83 Y-44.35 I1.065 J-2.884 F#100
N1965 X-10.47 Y-51.776 I12.036 J-4.779
N1970 X-7.833 Y-58.256 I12.48 J1.303
N1975 X-5.936 Y-59. I1.93 J2.128
N1980 X-5.453 Y-58.483 Z-5.9 I-0.017 J0.5 F#104
N1985 X-5.458 Y-58.432 I-0.5 J-0.017
N1990 G1 X-5.558 Y-57.711
N1995 X-7.538 Y-43.437 F#105
N2000 G3 X-7.656 Y-42.667 I-3.054 J-0.072 F#103
N2005 G1 X-7.692 Y-42.588 Z-5.911
N2010 X-7.741 Y-42.517 Z-5.922
N2015 X-7.802 Y-42.455 Z-5.933
N2020 X-7.873 Y-42.404 Z-5.944
N2025 X-7.952 Y-42.367 Z-5.956
N2030 X-8.036 Y-42.343 Z-5.967
N2035 X-8.123 Y-42.335 Z-5.978
N2040 X-8.209 Y-42.342 Z-5.989
N2045 X-8.294 Y-42.364 Z-6.
N2050 G3 X-10.243 Y-44.401 I1.008 J-2.915 F#100
N2055 X-10.572 Y-53.483 I12.865 J-5.013
N2060 X-8.294 Y-58.279 I10.345 J1.975
N2065 X-6.434 Y-59. I1.883 J2.098
N2070 X-5.952 Y-58.483 Z-5.9 I-0.017 J0.5 F#104
N2075 X-5.956 Y-58.434 I-0.5 J-0.017
N2080 G1 X-6.053 Y-57.71
N2085 X-7.939 Y-43.613 F#105
N2090 X-8.033 Y-42.908 F#103
N2095 X-8.039 Y-42.874
N2100 X-8.047 Y-42.841
N2105 G3 X-8.661 Y-42.492 Z-6. I-0.482 J-0.133
N2110 X-10.597 Y-44.311 I0.9 J-2.897 F#100
N2115 X-10.932 Y-53.866 I12.786 J-5.232
N2120 X-8.808 Y-58.248 I9.609 J1.951
N2125 X-6.929 Y-59. I1.894 J2.01
N2130 X-6.447 Y-58.483 Z-5.9 I-0.017 J0.5 F#104
N2135 X-6.451 Y-58.436 I-0.5 J-0.017
N2140 G1 X-6.544 Y-57.71
N2145 X-8.345 Y-43.739 F#105
N2150 X-8.435 Y-43.036 F#103
N2155 X-8.441 Y-43.001
N2160 X-8.449 Y-42.967
N2165 G3 X-9.064 Y-42.617 Z-6. I-0.482 J-0.133
N2170 X-10.999 Y-44.385 I0.866 J-2.892 F#100
N2175 X-11.662 Y-52.755 I11.878 J-5.152
N2180 X-9.34 Y-58.222 I11.163 J1.516
N2185 X-7.419 Y-59. I1.944 J2.04
N2190 X-6.937 Y-58.483 Z-5.9 I-0.017 J0.5 F#104
N2195 X-6.941 Y-58.439 I-0.5 J-0.017
N2200 G1 X-7.03 Y-57.709
N2205 X-8.729 Y-43.858 F#105
N2210 X-8.815 Y-43.157 F#103
N2215 X-8.821 Y-43.121
N2220 X-8.83 Y-43.086
N2225 G3 X-9.444 Y-42.736 Z-6. I-0.482 J-0.133
N2230 X-11.435 Y-44.52 I0.836 J-2.935 F#100
N2235 X-12.11 Y-52.811 I11.715 J-5.128
N2240 X-9.827 Y-58.223 I10.991 J1.451
N2245 X-7.907 Y-59. I1.944 J2.042
N2250 X-7.425 Y-58.483 Z-5.9 I-0.017 J0.5 F#104
N2255 G1 X-7.428 Y-58.441
N2260 X-7.516 Y-57.709
N2265 X-9.163 Y-43.994 F#105
N2270 X-9.248 Y-43.294 F#103
N2275 X-9.253 Y-43.257
N2280 X-9.262 Y-43.221
N2285 G3 X-9.876 Y-42.871 Z-6. I-0.482 J-0.133
N2290 X-12.025 Y-44.972 I0.991 J-3.164 F#100
N2295 X-11.711 Y-55.769 I13.431 J-5.012
N2300 X-9.654 Y-58.727 I5.452 J1.598
N2305 G1 X-9.236 Y-58.863
N2310 X-8.82 Y-58.966
N2315 X-8.393 Y-59.
N2320 G3 X-7.91 Y-58.483 Z-5.9 I-0.017 J0.5 F#104
N2325 G1 X-7.913 Y-58.443
N2330 X-7.998 Y-57.709
N2335 X-9.569 Y-44.12 F#105
N2340 X-9.65 Y-43.421 F#103
N2345 X-9.656 Y-43.384
N2350 X-9.665 Y-43.346
N2355 G3 X-10.279 Y-42.997 Z-6. I-0.482 J-0.133
N2360 X-12.365 Y-45.005 I0.707 J-2.823 F#100
N2365 X-13.214 Y-51.553 I10.072 J-4.634
N2370 X-10.798 Y-58.241 I12.191 J0.624
N2375 X-8.877 Y-59. I1.959 J2.145
N2380 X-8.395 Y-58.483 Z-5.9 I-0.017 J0.5 F#104
N2385 G1 X-8.397 Y-58.446
N2390 X-8.478 Y-57.708
N2395 X-9.953 Y-44.255 F#105
N2400 X-10.032 Y-43.529 F#103
N2405 X-10.036 Y-43.505
N2410 X-10.04 Y-43.481
N2415 G3 X-10.632 Y-43.094 Z-6. I-0.489 J-0.103
N2420 X-12.72 Y-44.868 I0.636 J-2.864 F#100
N2425 X-13.468 Y-52.893 I11.234 J-5.095
N2430 X-11.303 Y-58.196 I10.668 J1.263
N2435 X-9.358 Y-59. I1.968 J2.004
N2440 X-8.876 Y-58.483 Z-5.9 I-0.017 J0.5 F#104
N2445 G1 X-8.878 Y-58.448
N2450 X-8.956 Y-57.708
N2455 X-10.352 Y-44.373 F#105
N2460 X-10.43 Y-43.626 F#103
N2465 X-10.434 Y-43.598
N2470 G3 X-11.007 Y-43.184 Z-6. I-0.494 J-0.08
N2475 X-13.085 Y-44.858 I0.509 J-2.759 F#100
N2480 X-13.968 Y-52.628 I10.747 J-5.156
N2485 X-11.759 Y-58.225 I10.823 J1.037
N2490 X-9.838 Y-59. I1.948 J2.06
N2495 X-9.356 Y-58.483 Z-5.9 I-0.017 J0.5 F#104
N2500 G1 X-9.358 Y-58.452
N2505 X-9.429 Y-57.707
N2510 X-10.706 Y-44.456 F#105
N2515 X-10.78 Y-43.691 F#103
N2520 X-10.781 Y-43.68
N2525 G3 X-11.335 Y-43.242 Z-6. I-0.497 J-0.058
N2530 X-13.388 Y-44.743 I0.395 J-2.694 F#100
N2535 X-14.502 Y-52.044 I9.896 J-5.245
N2540 X-12.272 Y-58.195 I11.433 J0.665
N2545 X-10.315 Y-59. I1.988 J2.05
N2550 X-9.833 Y-58.483 Z-5.9 I-0.017 J0.5 F#104
N2555 G1 X-9.835 Y-58.455
N2560 X-9.902 Y-57.707
N2565 X-11.091 Y-44.514 F#105
N2570 X-11.16 Y-43.752 F#103
N2575 X-11.161 Y-43.738
N2580 G3 X-11.716 Y-43.3 Z-6. I-0.497 J-0.058
N2585 X-13.78 Y-44.777 I0.38 J-2.711 F#100
N2590 X-14.961 Y-51.95 I9.667 J-5.277
N2595 X-12.713 Y-58.245 I11.445 J0.539
N2600 X-10.792 Y-59. I1.962 J2.171
N2605 X-10.31 Y-58.483 Z-5.9 I-0.017 J0.5 F#104
N2610 G1 X-10.311 Y-58.459
N2615 X-10.374 Y-57.706
N2620 X-11.471 Y-44.572 F#105
N2625 X-11.535 Y-43.812 F#103
N2630 X-11.536 Y-43.795
N2635 G3 X-12.091 Y-43.357 Z-6. I-0.497 J-0.058
N2640 X-14.19 Y-44.837 I0.363 J-2.744 F#100
N2645 X-15.408 Y-51.966 I9.584 J-5.306
N2650 X-13.192 Y-58.24 I11.355 J0.482
N2655 X-11.267 Y-59. I1.965 J2.16
N2660 X-10.785 Y-58.483 Z-5.9 I-0.017 J0.5 F#104
N2665 G1 X-10.786 Y-58.461
N2670 X-10.846 Y-57.706
N2675 X-11.877 Y-44.634 F#105
N2680 X-11.937 Y-43.876 F#103
N2685 X-11.939 Y-43.857
N2690 G3 X-12.493 Y-43.419 Z-6. I-0.497 J-0.058
N2695 X-14.599 Y-44.891 I0.364 J-2.762 F#100
N2700 X-15.855 Y-51.976 I9.497 J-5.337
N2705 X-13.675 Y-58.229 I11.281 J0.425
N2710 X-11.74 Y-59. I1.974 J2.141
N2715 X-11.258 Y-58.483 Z-5.9 I-0.017 J0.5 F#104
N2720 G1 X-11.259 Y-58.463
N2725 X-11.315 Y-57.706
N2730 X-12.283 Y-44.695 F#105
N2735 X-12.339 Y-43.939 F#103
N2740 X-12.342 Y-43.918
N2745 G3 X-12.896 Y-43.48 Z-6. I-0.497 J-0.058
N2750 X-15.135 Y-45.237 I0.311 J-2.701 F#100
N2755 X-16.364 Y-50.979 I8.405 J-4.801
N2760 X-14.174 Y-58.203 I12.023 J-0.301
N2765 X-12.21 Y-59. I2.006 J2.125
N2770 X-11.728 Y-58.483 Z-5.9 I-0.017 J0.5 F#104
N2775 G1 X-11.729 Y-58.466
N2780 X-11.782 Y-57.706
N2785 X-12.677 Y-44.762 F#105
N2790 X-12.73 Y-43.995 F#103
N2795 X-12.731 Y-43.985
N2800 G3 X-13.273 Y-43.531 Z-6. I-0.498 J-0.044
N2805 X-15.461 Y-45.054 I0.295 J-2.757 F#100
N2810 X-16.669 Y-52.65 I9.822 J-5.456
N2815 X-14.603 Y-58.232 I10.337 J0.653
N2820 X-12.681 Y-59. I1.955 J2.101
N2825 X-12.199 Y-58.483 Z-5.9 I-0.017 J0.5 F#104
N2830 G1 Y-58.469
N2835 X-12.247 Y-57.705
N2840 X-13.061 Y-44.835 F#105
N2845 X-13.11 Y-44.057 F#103
N2850 X-13.111 Y-44.041 Z-5.902
N2855 G3 X-13.624 Y-43.572 Z-6. I-0.499 J-0.032
N2860 X-15.627 Y-44.747 I0.075 J-2.423 F#100
N2865 X-17.215 Y-51.515 I8.419 J-5.546
N2870 X-15.12 Y-58.185 I11.342 J-0.101
N2875 X-13.148 Y-59. I2.007 J2.064
N2880 X-12.665 Y-58.483 Z-5.9 I-0.017 J0.5 F#104
N2885 G1 X-12.666 Y-58.473
N2890 X-12.709 Y-57.705
N2895 X-13.422 Y-44.876 F#105
N2900 X-13.466 Y-44.098 F#103
N2905 X-13.468 Y-44.056 Z-5.905
N2910 G3 X-13.953 Y-43.584 Z-6. I-0.499 J-0.028
N2915 X-15.897 Y-44.607 I-0.006 J-2.347 F#100
N2920 X-17.673 Y-50.913 I7.675 J-5.564
N2925 X-15.662 Y-58.11 I11.923 J-0.549
N2930 X-13.615 Y-59. I2.121 J2.079
N2935 X-13.132 Y-58.483 Z-5.9 I-0.017 J0.5 F#104
N2940 G1 X-13.133 Y-58.477
N2945 X-13.169 Y-57.705
N2950 X-13.776 Y-44.879 F#105
N2955 X-13.812 Y-44.1 F#103
N2960 X-13.814 Y-44.062 Z-5.905
N2965 G3 X-14.298 Y-43.586 Z-6. I-0.499 J-0.024
N2970 X-16.444 Y-44.808 I0.042 J-2.57 F#100
N2975 X-18.093 Y-51.613 I8.435 J-5.646
N2980 X-16.055 Y-58.18 I11.107 J-0.155
N2985 X-14.079 Y-59. I2.011 J2.055
N2990 X-13.597 Y-58.483 Z-5.9 I-0.017 J0.5 F#104
N2995 G1 X-13.626 Y-57.704
N3000 X-14.117 Y-44.882 F#105
N3005 X-14.147 Y-44.103 F#103
N3010 X-14.149 Y-44.066 Z-5.905
N3015 G3 X-14.631 Y-43.586 Z-6. I-0.5 J-0.019
N3020 X-16.826 Y-44.795 I0. J-2.598 F#100
N3025 X-18.536 Y-51.542 I8.321 J-5.7
N3030 X-16.54 Y-58.157 I11.129 J-0.251
N3035 X-14.541 Y-59. I2.033 J2.029
N3040 X-14.059 Y-58.484 Z-5.9 I-0.017 J0.5 F#104
N3045 G1 Y-58.483
N3050 X-14.083 Y-57.704
N3055 X-14.492 Y-44.882 F#105
N3060 X-14.517 Y-44.103 F#103
N3065 X-14.518 Y-44.07 Z-5.904
N3070 G3 X-15. Y-43.586 Z-6. I-0.5 J-0.016
N3075 X-17.201 Y-44.771 I-0.014 J-2.61 F#100
N3080 X-18.979 Y-51.444 I8.181 J-5.753
N3085 X-16.963 Y-58.203 I11.034 J-0.39
N3090 X-15.004 Y-59. I1.998 J2.104
N3095 X-14.521 Y-58.488 Z-5.901 I-0.017 J0.5 F#104
N3100 G1 Y-58.483 Z-5.9
N3105 X-14.541 Y-57.704
N3110 X-14.859 Y-44.882 F#105
N3115 X-14.879 Y-44.103 F#103
N3120 Y-44.073 Z-5.904
N3125 G3 X-15.362 Y-43.586 Z-6. I-0.5 J-0.012
N3130 X-17.607 Y-44.781 I-0.031 J-2.649 F#100
N3135 X-19.417 Y-51.475 I8.195 J-5.806
N3140 X-17.432 Y-58.206 I11.048 J-0.4
N3145 X-15.465 Y-59. I2.011 J2.147
N3150 X-14.983 Y-58.49 Z-5.901 I-0.017 J0.5 F#104
N3155 G1 Y-58.483 Z-5.9
N3160 X-14.999 Y-57.704
N3165 X-15.267 Y-44.883 F#105
N3170 X-15.283 Y-44.104 F#103
N3175 X-15.284 Y-44.074 Z-5.904
N3180 G3 X-15.765 Y-43.585 Z-6. I-0.5 J-0.01
N3185 X-17.974 Y-44.74 I-0.03 J-2.634 F#100
N3190 X-19.858 Y-51.336 I8.022 J-5.857
N3195 X-17.917 Y-58.167 I11.053 J-0.551
N3200 X-15.924 Y-59. I2.03 J2.056
N3205 X-15.442 Y-58.494 Z-5.901 I-0.017 J0.5 F#104
N3210 G1 Y-58.483 Z-5.9
N3215 X-15.452 Y-57.704
N3220 X-15.627 Y-44.882 F#105
N3225 X-15.637 Y-44.103 F#103
N3230 X-15.638 Y-44.076 Z-5.903
N3235 G3 X-16.117 Y-43.583 Z-6. I-0.5 J-0.007
N3240 X-18.288 Y-44.691 I-0.195 J-2.298 F#100
N3245 X-20.259 Y-50.296 I6.745 J-5.521
N3250 X-18.552 Y-57.958 I11.923 J-1.365
N3255 X-16.383 Y-59. I2.226 J1.856
N3260 X-15.901 Y-58.496 Z-5.902 I-0.017 J0.5 F#104
N3265 G1 Y-58.483 Z-5.9
N3270 X-15.907 Y-57.704
N3275 X-16.014 Y-44.918 F#105
N3280 X-16.021 Y-44.138 F#103
N3285 Y-44.056 Z-5.911
N3290 G3 X-16.443 Y-43.566 Z-6. I-0.5 J-0.004
N3295 X-18.439 Y-44.359 I-0.267 J-2.236 F#100
N3300 X-20.7 Y-50.43 I6.726 J-5.962
N3305 X-18.872 Y-58.133 I11.512 J-1.336
N3310 X-16.839 Y-59. I2.076 J2.051
N3315 X-16.357 Y-58.502 Z-5.902 I-0.017 J0.5 F#104
N3320 G1 Y-58.483 Z-5.9
N3325 X-16.354 Y-57.704
N3330 X-16.319 Y-44.881 F#105
N3335 X-16.316 Y-44.102 F#103
N3340 Y-44.025 Z-5.91
N3345 G3 X-16.738 Y-43.53 Z-6. I-0.5 J0.001
N3350 X-18.947 Y-44.507 I-0.344 J-2.208 F#100
N3355 X-21.08 Y-49.805 I6.211 J-5.578
N3360 X-19.506 Y-57.909 I12.07 J-1.861
N3365 X-17.296 Y-59.013 I2.384 J2.009
N3370 G1 X-17.21 Y-59.001 Z-5.989 F#104
N3375 X-17.127 Y-58.976 Z-5.978
N3380 X-17.05 Y-58.936 Z-5.968
N3385 X-16.982 Y-58.885 Z-5.957
N3390 X-16.923 Y-58.822 Z-5.946
N3395 X-16.875 Y-58.751 Z-5.935
N3400 X-16.84 Y-58.673 Z-5.925
N3405 X-16.819 Y-58.591 Z-5.914
N3410 X-16.813 Y-58.506 Z-5.903
N3415 X-16.812 Y-58.483 Z-5.9
N3420 X-16.803 Y-57.704
N3425 X-16.65 Y-44.852 F#105
N3430 X-16.64 Y-44.073 F#103
N3435 X-16.639 Y-43.986 Z-5.911
N3440 G3 X-17.047 Y-43.489 Z-6. I-0.5 J0.006
N3445 X-19.325 Y-44.405 I-0.344 J-2.434 F#100
N3450 X-21.592 Y-50.845 I7.23 J-6.164
N3455 X-19.828 Y-58.079 I11.3 J-1.076
N3460 X-17.752 Y-59. I2.15 J2.047
N3465 X-17.269 Y-58.511 Z-5.903 I-0.017 J0.5 F#104
N3470 G1 Y-58.483 Z-5.9
N3475 X-17.253 Y-57.704
N3480 X-16.986 Y-44.802 F#105
N3485 X-16.97 Y-44.023 F#103
N3490 X-16.968 Y-43.94 Z-5.91
N3495 G3 X-17.375 Y-43.439 Z-6. I-0.5 J0.01
N3500 X-19.688 Y-44.339 I-0.372 J-2.465 F#100
N3505 X-22.015 Y-50.607 I7.078 J-6.194
N3510 X-20.228 Y-58.144 I11.238 J-1.316
N3515 X-18.205 Y-59. I2.066 J2.064
N3520 X-17.723 Y-58.514 Z-5.904 I-0.017 J0.5 F#104
N3525 G1 X-17.722 Y-58.483 Z-5.9
N3530 X-17.7 Y-57.704
N3535 X-17.344 Y-44.748 F#105
N3540 X-17.323 Y-43.969 F#103
N3545 X-17.321 Y-43.89 Z-5.91
N3550 G3 X-17.728 Y-43.385 Z-6. I-0.5 J0.014
N3555 X-20.052 Y-44.271 I-0.382 J-2.49 F#100
N3560 X-22.019 Y-47.879 I5.776 J-5.489
N3565 G1 X-22.034 Y-47.964 Z-5.989 F#104
N3570 X-22.033 Y-48.049 Z-5.978
N3575 X-22.017 Y-48.134 Z-5.967
N3580 X-21.987 Y-48.214 Z-5.956
N3585 X-21.943 Y-48.288 Z-5.944
N3590 X-21.887 Y-48.354 Z-5.933
N3595 X-21.82 Y-48.409 Z-5.922
N3600 X-21.745 Y-48.452 Z-5.911
N3605 X-21.663 Y-48.481 Z-5.9
N3610 G3 X-21.155 Y-48.309 I0.119 J0.486
N3615 G1 X-21.021 Y-48.143
N3620 X-18.122 Y-44.55 F#105
N3625 X-17.787 Y-44.136 F#103
N3630 G3 X-17.685 Y-43.914 I-0.389 J0.314
N3635 X-18.084 Y-43.331 Z-6. I-0.491 J0.092
N3640 X-20.43 Y-44.211 I-0.392 J-2.52 F#100
N3645 X-22.232 Y-47.014 I6.685 J-6.28
N3650 G2 X-24.978 Y-47.889 I-2.084 J1.793
N3655 X-26.044 Y-47.36 I0.661 J2.669 F#106
N3660 G3 X-26.538 Y-50.562 I10.532 J-3.263 F#100
N3665 X-26.479 Y-51.76 I11.026 J-0.06 F#106
N3670 G2 X-22.906 Y-53.866 I0.165 J-3.804 F#100
N3675 G3 X-21.186 Y-57.442 I68.117 J30.571
N3680 X-18.678 Y-59.02 I2.719 J1.538
N3685 G1 X-18.591 Y-59.008 Z-5.989 F#104
N3690 X-18.508 Y-58.981 Z-5.978
N3695 X-18.43 Y-58.94 Z-5.968
N3700 X-18.361 Y-58.888 Z-5.957
N3705 X-18.302 Y-58.824 Z-5.946
N3710 X-18.255 Y-58.752 Z-5.935
N3715 X-18.221 Y-58.673 Z-5.924
N3720 X-18.2 Y-58.59 Z-5.914
N3725 X-18.194 Y-58.505 Z-5.903
N3730 Y-58.483 Z-5.9
N3735 X-18.186 Y-57.704
N3740 X-18.057 Y-44.637 F#105
N3745 X-18.05 Y-43.858 F#103
N3750 X-18.049 Y-43.77 Z-5.911
N3755 G3 X-18.456 Y-43.274 Z-6. I-0.5 J0.005
N3760 X-20.69 Y-44.039 I-0.406 J-2.46 F#100
N3765 X-21.925 Y-45.506 I5.629 J-5.989
N3770 G2 X-25.136 Y-45.912 I-1.888 J2.026
N3775 X-26.035 Y-45.132 I1.324 J2.432 F#106
N3780 G3 X-26.943 Y-51.329 I16.475 J-5.579 F#100
N3785 G2 X-26.659 Y-52.801 I-9.525 J-2.602
N3790 X-26.594 Y-53.998 I-9.809 J-1.131 F#106
N3795 X-22.826 Y-55.933 I0.174 J-4.298 F#100
N3800 G3 X-20.712 Y-58.583 I10.834 J6.476
N3805 X-19.211 Y-59. I1.578 J2.769
N3810 X-18.728 Y-58.51 Z-5.903 I-0.017 J0.5 F#104
N3815 G1 Y-58.483 Z-5.9
N3820 X-18.712 Y-57.704
N3825 X-18.457 Y-44.598 F#105
N3830 X-18.441 Y-43.819 F#103
N3835 X-18.439 Y-43.714 Z-5.913
N3840 G3 X-18.825 Y-43.218 Z-6. I-0.5 J0.01
N3845 X-20.882 Y-43.815 I-0.475 J-2.203 F#100
N3850 G1 X-21.046 Y-43.982
N3855 X-21.221 Y-44.137
N3860 X-21.406 Y-44.281
N3865 X-21.601 Y-44.412
N3870 X-21.804 Y-44.529
N3875 X-22.014 Y-44.632
N3880 X-22.231 Y-44.721
N3885 X-22.453 Y-44.795
N3890 X-22.68 Y-44.854
N3895 X-22.91 Y-44.897
N3900 X-23.143 Y-44.925
N3905 X-23.377 Y-44.937
N3910 X-23.611 Y-44.934
N3915 X-23.845 Y-44.914
N3920 X-24.076 Y-44.879
N3925 X-24.305 Y-44.828
N3930 X-24.53 Y-44.762
N3935 X-24.75 Y-44.681
N3940 X-24.964 Y-44.586
N3945 X-25.17 Y-44.476
N3950 G2 X-25.695 Y-44.106 I1.731 J3.011 F#106
N3955 G1 X-25.973 Y-43.757
N3960 X-26.036 Y-43.665
N3965 G3 X-27.05 Y-53.553 I15.737 J-6.61 F#100
N3970 X-26.778 Y-54.722 I16.751 J3.278 F#106
N3975 G2 X-22.996 Y-56.819 I-0.578 J-5.503 F#100
N3980 G3 X-20.56 Y-58.935 I5.225 J3.553
N3985 G1 X-20.181 Y-58.974
N3990 X-19.813 Y-59.
N3995 G3 X-19.331 Y-58.52 I-0.017 J0.5 F#104
N4000 G1 X-19.319 Y-58.204
N4005 X-19.315 Y-58.117 Z-5.992
N4010 X-19.312 Y-58.033 Z-5.97
N4015 X-19.309 Y-57.954 Z-5.933
N4020 X-19.306 Y-57.883 Z-5.883
N4025 X-19.304 Y-57.821 Z-5.821
N4030 X-19.302 Y-57.771 Z-5.75
N4035 X-19.3 Y-57.735 Z-5.671
N4040 X-19.299 Y-57.712 Z-5.587
N4045 Y-57.704 Z-5.5
N4050 G0 Z2.
N4055 X-34.946 Y-58.302
N4060 Z-5.
N4065 G1 Z-5.5 F#103
N4070 X-34.939 Y-58.306 Z-5.587
N4075 X-34.92 Y-58.317 Z-5.671
N4080 X-34.888 Y-58.336 Z-5.75
N4085 X-34.845 Y-58.362 Z-5.821
N4090 X-34.792 Y-58.393 Z-5.883
N4095 X-34.731 Y-58.43 Z-5.933
N4100 X-34.663 Y-58.47 Z-5.97
N4105 X-34.591 Y-58.513 Z-5.992
N4110 X-34.516 Y-58.557 Z-6.
N4115 G3 X-33.009 Y-59. I1.618 J2.721
N4120 X-32.747 Y-58.429 I-0.374 J0.516 F#100
N4125 X-32.514 Y-55.862 I-13.89 J2.555
N4130 G2 X-28.107 Y-54.111 I2.692 J-0.355
N4135 G3 X-27.996 Y-54.219 I17.896 J18.229
N4140 X-27.115 Y-55.034 I17.785 J18.337 F#106
N4145 G2 X-22.613 Y-58.075 I-2.518 J-8.583 F#100
N4150 G1 X-22.433 Y-58.229
N4155 X-22.244 Y-58.372
N4160 X-22.046 Y-58.502
N4165 X-21.84 Y-58.618
N4170 X-21.626 Y-58.721
N4175 X-21.406 Y-58.81
N4180 X-21.182 Y-58.885
N4185 X-20.952 Y-58.944
N4190 X-20.719 Y-58.989
N4195 X-20.484 Y-59.018
N4200 X-20.126 Y-58.832 Z-5.95 F#104
N4205 X-20.014 Y-58.458 Z-5.9
N4210 X-20.005 Y-58.43
N4215 X-20.232 Y-57.715
N4220 X-21.04 Y-55.176 F#105
N4225 X-21.644 Y-54.369
N4230 X-23.053 Y-53.272
N4235 X-24.06 Y-52.745
N4240 X-29.294 Y-51.79
N4245 X-32.113 Y-51.69
N4250 G3 X-34.686 Y-53.601 I-0.143 J-2.496
N4255 G1 X-35.275 Y-55.814
N4260 G3 X-34.406 Y-58.475 I2.404 J-0.687
N4265 X-33.726 Y-58.851 I1.534 J1.974 F#103
N4270 X-32.959 Y-59. Z-6. I0.855 J2.349
N4275 X-32.541 Y-58.475 I-0.175 J0.568 F#100
N4280 G2 X-30.87 Y-55.946 I3.604 J-0.565
N4285 X-24.298 Y-57.31 I2.221 J-5.81
N4290 G3 X-21.99 Y-58.909 I6.021 J6.226
N4295 G1 X-21.603 Y-58.972
N4300 X-21.218 Y-59.
N4305 X-20.839 Y-58.804 Z-5.946 F#104
N4310 X-20.748 Y-58.458 Z-5.9
N4315 X-20.741 Y-58.43
N4320 X-21.009 Y-57.729
N4325 X-21.896 Y-55.412 F#105
N4330 G3 X-22.65 Y-54.367 I-2.335 J-0.892
N4335 X-28.324 Y-52.222 I-6.487 J-8.582
N4340 G1 X-29.496 Y-52.238
N4345 X-31.106 Y-52.521
N4350 X-32.516 Y-53.12
N4355 X-33.119 Y-53.526
N4360 G3 X-34.126 Y-56.449 I1.354 J-2.101
N4365 G1 X-33.632 Y-57.739
N4370 X-33.353 Y-58.467 F#103
N4375 X-33.213 Y-58.832 Z-5.95
N4380 X-32.857 Y-59. Z-6.
N4385 X-32.717 F#106
N4390 X-32.689 Y-58.999
N4395 X-32.585 Y-58.891 F#100
N4400 G2 X-26.377 Y-56.829 I4.151 J-2.123
N4405 G1 X-25.982 Y-57.019
N4410 X-25.593 Y-57.221
N4415 X-25.209 Y-57.433
N4420 X-24.833 Y-57.657
N4425 X-24.462 Y-57.892
N4430 X-24.099 Y-58.137
N4435 X-23.744 Y-58.393
N4440 X-23.396 Y-58.66
N4445 G3 X-22.05 Y-59. I1.39 J2.663
N4450 G1 X-21.694 Y-58.832 Z-5.95 F#104
N4455 X-21.581 Y-58.458 Z-5.9
N4460 X-21.573 Y-58.43
N4465 X-21.872 Y-57.742
N4470 X-22.799 Y-55.613 F#105
N4475 G3 X-23.858 Y-54.455 I-2.18 J-0.931
N4480 G1 X-25.268 Y-53.762
N4485 X-26.677 Y-53.349
N4490 X-28.489 Y-53.136
N4495 X-30.502 Y-53.387
N4500 X-31.509 Y-53.73
N4505 G3 X-33.146 Y-56.015 I0.733 J-2.254
N4510 G1 X-33.169 Y-57.688
N4515 X-33.18 Y-58.467 F#103
N4520 X-33.182 Y-58.631 Z-5.921
N4525 X-32.918 Y-58.95 Z-5.974
N4530 X-32.717 Y-59. Z-6.
N4535 X-32.516 F#106
N4540 G2 X-30.288 Y-57.504 I7.867 J-9.305 F#100
N4545 X-25.208 Y-58.187 I1.865 J-5.356
N4550 G3 X-23.448 Y-58.968 I2.96 J4.303
N4555 G1 X-23.035 Y-59.
N4560 X-22.65 Y-58.798 Z-5.945 F#104
N4565 X-22.565 Y-58.458 Z-5.9
N4570 X-22.557 Y-58.43
N4575 X-22.953 Y-57.792
N4580 X-24.432 Y-55.412 F#105
N4585 G3 X-25.57 Y-54.607 I-1.717 J-1.221
N4590 G1 X-27.482 Y-54.115
N4595 X-28.086 Y-54.116
N4600 X-32.717 Y-54.806
N4605 G3 X-33.92 Y-58.396 I0.275 J-2.089
N4610 X-33.277 Y-58.829 I1.478 J1.501 F#103
N4615 X-32.516 Y-59. Z-6. I0.835 J1.934
N4620 G1 X-32.154 F#106
N4625 G2 X-29.62 Y-57.994 I5.883 J-11.122 F#100
N4630 X-24.979 Y-58.927 I0.876 J-7.655
N4635 G1 X-24.619 Y-58.976
N4640 X-24.265 Y-59.
N4645 G3 X-23.704 Y-58.533 Z-5.9 I-0.021 J0.595 F#104
N4650 X-24.011 Y-57.877 I-0.581 J0.128
N4655 X-24.286 Y-57.81 I-0.274 J-0.528 F#105
N4660 G1 X-32.133
N4665 G3 X-32.407 Y-57.877 I0. J-0.595
N4670 X-32.714 Y-58.533 I0.274 J-0.528 F#103
N4675 X-32.154 Y-59. Z-6. I0.581 J0.128
N4680 G1 X-31.55 F#100
N4685 G2 X-26.268 Y-59.017 I2.615 J-7.899
N4690 G1 X-26.008 Y-59.
N4695 G3 X-25.526 Y-58.483 Z-5.9 I-0.017 J0.5 F#104
N4700 X-26.026 Y-58. I-0.5 J-0.017
N4705 G1 X-26.037
N4710 X-31.521 F#105
N4715 X-31.532 F#103
N4720 G3 X-32.032 Y-58.483 I0. J-0.5
N4725 X-31.55 Y-59. Z-6. I0.5 J-0.017
N4730 G1 X-27.019 F#100
N4735 X-27.016 F#104
N4740 X-26.941 Y-58.986 Z-5.99
N4745 X-26.865 Y-58.975 Z-5.98
N4750 X-26.789 Y-58.966 Z-5.97
N4755 G3 X-26.25 Y-58.848 Z-5.9 I-0.261 J2.486
N4760 X-25.562 Y-58.488 I-0.801 J2.368
N4765 X-24.736 Y-57.424 I-1.488 J2.009 F#105
N4770 G1 X-19.115 Y-44.49
N4775 X-18.804 Y-43.775 F#103
N4780 X-18.745 Y-43.639 Z-5.919
N4785 X-18.844 Y-43.34 Z-5.959
N4790 X-19.109 Y-43.158 Z-6.
N4795 G3 X-20.583 Y-43.303 I-0.579 J-1.674 F#100
N4800 G2 X-25.108 Y-43.368 I-2.313 J3.467
N4805 X-26.02 Y-42.595 I2.212 J3.532 F#106
N4810 G1 X-26.032 Y-42.532
N4815 G3 X-27.148 Y-45.561 I13.848 J-6.822 F#100
N4820 G1 X-27.074 Y-45.955 Z-5.949 F#104
N4825 X-26.779 Y-46.156 Z-5.903
N4830 X-26.754 Y-46.158 Z-5.9
N4835 X-25.977 Y-46.21
N4840 X-20.033 Y-46.603 F#105
N4845 G3 X-18.3 Y-44.09 I0.077 J1.801
N4850 X-18.751 Y-43.462 I-1.656 J-0.712 F#103
N4855 X-19.264 Y-43.138 Z-5.978 I-1.205 J-1.341
N4860 G1 X-19.429 Y-43.079 Z-6.
N4865 G3 X-20.285 Y-42.986 I-0.575 J-1.314 F#100
N4870 G2 X-23.773 Y-43.045 I-1.835 J5.347
N4875 G1 X-24.585 Y-42.69
N4880 X-25.09 Y-42.42
N4885 X-25.367 Y-42.272 F#106
N4890 X-26.014 Y-41.667
N4895 X-26.045 Y-41.622
N4900 G3 X-27.333 Y-44.318 I38.625 J-20.105 F#100
N4905 G2 X-32.196 Y-43.235 I-2.2 J1.583
N4910 X-32.445 Y-36.162 I42.288 J5.028
N4915 G1 X-32.47 Y-31.833
N4920 X-32.489 Y-31.514
N4925 X-32.547 Y-31.198
N4930 X-32.642 Y-30.892
N4935 G3 X-33.514 Y-30.801 I-0.461 J-0.193 F#104
N4940 G1 X-33.541 Y-30.863 Z-5.995
N4945 X-33.567 Y-30.924 Z-5.981
N4950 X-33.592 Y-30.983 Z-5.959
N4955 X-33.598 Y-31.036 Z-5.932
N4960 X-33.603 Y-31.085 Z-5.898
N4965 X-33.591 Y-31.149 Z-5.838
N4970 X-33.581 Y-31.202 Z-5.767
N4975 X-33.573 Y-31.242 Z-5.688
N4980 X-33.568 Y-31.268 Z-5.603
N4985 X-33.565 Y-31.275 Z-5.552
N4990 X-33.564 Y-31.278 Z-5.5
N4995 G0 Z2.
N5000 X-19.397 Y-44.425
N5005 Z-5.4
N5010 G1 Z-5.9 F#103
N5015 X-19.364 Y-43.646
N5020 X-19.357 Y-43.499 Z-5.919
N5025 G3 X-19.691 Y-43.006 Z-6. I-0.5 J0.021
N5030 X-21.617 Y-42.8 I-1.433 J-4.29 F#100
N5035 G2 X-25.125 Y-41.566 I0.521 J7.085
N5040 X-26.052 Y-40.805 I4.029 J5.851 F#106
N5045 X-27.898 Y-42.53 I-2.792 J1.138 F#100
N5050 X-31.201 Y-40.954 I-0.746 J2.686
N5055 X-31.921 Y-36.621 I9.306 J3.774
N5060 G3 X-32.018 Y-32.526 I-133.071 J-1.079
N5065 G1 X-32.14 Y-32.222
N5070 X-32.301 Y-31.795
N5075 X-32.516 Y-31.553 Z-5.959 F#104
N5080 X-32.918 Y-31.513 Z-5.907
N5085 X-32.965 Y-31.545 Z-5.9
N5090 X-33.148 Y-31.67
N5095 X-33.454 Y-32.137
N5100 X-34.859 Y-34.286 F#105
N5105 G3 X-35.263 Y-35.694 I2.096 J-1.363
N5110 G1 X-35.215 Y-37.907
N5115 X-34.929 Y-39.919
N5120 X-34.529 Y-40.94
N5125 X-34.054 Y-41.761
N5130 X-33.044 Y-42.937
N5135 X-31.456 Y-43.957
N5140 X-30.301 Y-44.369
N5145 X-24.261 Y-45.671
N5150 G3 X-22.366 Y-45.352 I0.565 J2.435
N5155 G1 X-20.308 Y-44.045
N5160 X-19.831 Y-43.742 F#103
N5165 X-19.754 Y-43.542
N5170 X-19.676 Y-43.34 Z-5.928
N5175 X-19.832 Y-43.014 Z-5.974
N5180 X-20.009 Y-42.907 Z-6.
N5185 G2 X-23.568 Y-41.775 I9.267 J35.297 F#100
N5190 G1 X-23.955 Y-41.575
N5195 X-24.337 Y-41.366
N5200 X-24.714 Y-41.147
N5205 X-25.086 Y-40.92
N5210 X-25.452 Y-40.684
N5215 X-25.783 Y-40.46 F#106
N5220 X-26.11 Y-40.228
N5225 X-26.431 Y-39.989
N5230 G2 X-30.054 Y-39.086 I-1.214 J2.846 F#100
N5235 X-31.366 Y-34.939 I5.362 J3.978
N5240 G3 X-31.755 Y-33.123 I-3.603 J0.179
N5245 G1 X-32.113 Y-32.887 Z-5.945 F#104
N5250 X-32.454 Y-32.991 Z-5.9
N5255 X-32.516 Y-33.01
N5260 X-32.9 Y-33.613
N5265 X-34.1 Y-35.493 F#105
N5270 G3 X-34.377 Y-37.505 I2.124 J-1.318
N5275 G1 X-33.853 Y-39.114
N5280 X-32.972 Y-40.688
N5285 X-32.113 Y-41.67
N5290 X-31.308 Y-42.335
N5295 X-29.898 Y-43.079
N5300 X-25.469 Y-44.465
N5305 G3 X-24.06 Y-44.447 I0.674 J2.407
N5310 G1 X-21.378 Y-43.632
N5315 X-21.04 Y-43.529 F#103
N5320 X-20.793 Y-43.34
N5325 X-20.772 Y-43.227
N5330 X-20.72 Y-42.937 Z-5.937
N5335 X-20.839 Y-42.717 Z-5.969
N5340 X-21.04 Y-42.585 Z-6.
N5345 G2 X-25.202 Y-40.571 I5.452 J16.573 F#100
N5350 X-26.18 Y-39.876 I9.614 J14.559 F#106
N5355 X-30.347 Y-36.66 I0.091 J4.426 F#100
N5360 G3 X-30.988 Y-34.456 I-15.454 J-3.3
N5365 G1 X-31.042 Y-34.385 Z-5.989 F#104
N5370 X-31.108 Y-34.324 Z-5.978
N5375 X-31.183 Y-34.275 Z-5.967
N5380 X-31.265 Y-34.241 Z-5.956
N5385 X-31.352 Y-34.221 Z-5.944
N5390 X-31.44 Y-34.217 Z-5.933
N5395 X-31.527 Y-34.228 Z-5.922
N5400 X-31.611 Y-34.254 Z-5.911
N5405 X-31.689 Y-34.295 Z-5.9
N5410 G3 X-31.928 Y-34.688 I0.26 J-0.427
N5415 G1 Y-34.989
N5420 X-31.925 Y-38.712 F#105
N5425 G3 X-31.308 Y-39.991 I1.674 J0.02
N5430 G1 X-27.915 Y-42.736
N5435 G3 X-25.258 Y-41.386 I0.983 J1.356
N5440 X-25.434 Y-40.634 I-1.675 J0.006 F#103
N5445 X-25.933 Y-40.037 Z-6. I-1.499 J-0.746
N5450 G2 X-28.558 Y-38.26 I7.236 J13.52 F#100
N5455 X-29.908 Y-36.107 I25.368 J17.407
N5460 G3 X-30.612 Y-36.045 Z-5.9 I-0.383 J-0.321 F#104
N5465 X-30.678 Y-36.745 I0.321 J-0.383
N5470 X-30.647 Y-36.78 I0.387 J0.316 F#105
N5475 G1 X-26.895 Y-40.576
N5480 X-26.865 Y-40.604
N5485 X-26.833 Y-40.629
N5490 G3 X-26.138 Y-40.524 I0.294 J0.404 F#103
N5495 X-26.24 Y-39.824 Z-6. I-0.401 J0.299
N5500 G2 X-29.292 Y-36.905 I9.61 J13.105 F#100
N5505 X-29.898 Y-36.12 I1.831 J2.039 F#103
N5510 G1 X-30.231 Y-35.694 F#100
N5515 X-30.301 Y-35.595
N5520 X-30.322 Y-35.564
N5525 G2 X-30.988 Y-34.487 I2.13 J2.063 F#103
N5530 G1 X-31.308 Y-33.919 F#100
N5535 G3 X-31.994 Y-33.752 Z-5.9 I-0.427 J-0.26 F#104
N5540 X-32.223 Y-34.286 I0.26 J-0.427
N5545 G1 X-32.195 Y-34.443
N5550 X-28.181 Y-57.021 F#105
N5555 G3 X-27.414 Y-58.365 I2.448 J0.506
N5560 X-26.766 Y-58.792 I1.682 J1.85 F#103
N5565 X-26.015 Y-59. Z-6. I1.034 J2.276
N5570 G1 X-26.012
N5575 X-25.234 F#100
N5580 G2 X-24.302 I0.466 J-2.553 F#103
N5585 G1 X-23.956 F#100
N5590 G3 X-23.98 Y-58. I-0.017 J0.5 F#104
N5595 G1 X-23.991 Y-58.001
N5600 X-24.078 Y-58.004 Z-5.992
N5605 X-24.162 Y-58.007 Z-5.97
N5610 X-24.241 Y-58.009 Z-5.933
N5615 X-24.312 Y-58.012 Z-5.883
N5620 X-24.374 Y-58.014 Z-5.821
N5625 X-24.424 Y-58.016 Z-5.75
N5630 X-24.461 Y-58.017 Z-5.671
N5635 X-24.483 Y-58.018 Z-5.587
N5640 X-24.491 Z-5.5
N5645 G0 Z4.
N5655 M9
N5660 G53 Z0.
N5665 M30
%
