%
(1001)
(T1  D=6. CR=0. - ZMIN=-6. - FLAT END MILL)
N10 G90 G94 G17 G91.1
N15 G21
N20 G53 G0 Z0.
(2D CONTOUR3)
N25 M9
N30 T1 M6
N35 S3200 M3
N40 G54
N45 M8
N55 G0 X3.326 Y-24.4
N60 G43 Z4. H1
N65 #100=330. (CUTTING)
N70 #103=200. (ENTRY)
N75 #104=200. (EXIT)
N80 #108=100. (PLUNGE)
N85 G0 Z2.
N90 G1 Z1.5 F#103
N95 Z0.1 F#108
N100 G18 G3 X2.726 Z-0.5 I-0.6 K0.
N105 G1 X2.126 F#103
N110 G17 G3 X1.526 Y-25. I0. J-0.6
N115 G2 X-31.526 I-16.526 J0. F#100
N120 G3 X-32.126 Y-24.4 I-0.6 J0. F#104
N125 G1 X-32.726
N130 G18 G3 X-33.326 Z0.1 I0. K0.6
N135 G0 Z2.
N140 X3.46
N145 G1 Z1. F#103
N150 Z-0.4 F#108
N155 G3 X2.86 Z-1. I-0.6 K0.
N160 G1 X2.26 F#103
N165 G17 G3 X1.66 Y-25. I0. J-0.6
N170 G2 X-31.66 I-16.66 J0. F#100
N175 G3 X-32.26 Y-24.4 I-0.6 J0. F#104
N180 G1 X-32.86
N185 G18 G3 X-33.46 Z-0.4 I0. K0.6
N190 G0 Z2.
N195 X3.594
N200 G1 Z0.5 F#103
N205 Z-0.9 F#108
N210 G3 X2.994 Z-1.5 I-0.6 K0.
N215 G1 X2.394 F#103
N220 G17 G3 X1.794 Y-25. I0. J-0.6
N225 G2 X-31.794 I-16.794 J0. F#100
N230 G3 X-32.394 Y-24.4 I-0.6 J0. F#104
N235 G1 X-32.994
N240 G18 G3 X-33.594 Z-0.9 I0. K0.6
N245 G0 Z2.
N250 X3.728
N255 G1 Z0. F#103
N260 Z-1.4 F#108
N265 G3 X3.128 Z-2. I-0.6 K0.
N270 G1 X2.528 F#103
N275 G17 G3 X1.928 Y-25. I0. J-0.6
N280 G2 X-31.928 I-16.928 J0. F#100
N285 G3 X-32.528 Y-24.4 I-0.6 J0. F#104
N290 G1 X-33.128
N295 G18 G3 X-33.728 Z-1.4 I0. K0.6
N300 G0 Z2.
N305 X3.862
N310 G1 Z-0.5 F#103
N315 Z-1.9 F#108
N320 G3 X3.262 Z-2.5 I-0.6 K0.
N325 G1 X2.662 F#103
N330 G17 G3 X2.062 Y-25. I0. J-0.6
N335 G2 X-32.062 I-17.062 J0. F#100
N340 G3 X-32.662 Y-24.4 I-0.6 J0. F#104
N345 G1 X-33.262
N350 G18 G3 X-33.862 Z-1.9 I0. K0.6
N355 G0 Z2.
N360 X3.996
N365 G1 Z-1. F#103
N370 Z-2.4 F#108
N375 G3 X3.396 Z-3. I-0.6 K0.
N380 G1 X2.796 F#103
N385 G17 G3 X2.196 Y-25. I0. J-0.6
N390 G2 X-32.196 I-17.196 J0. F#100
N395 G3 X-32.796 Y-24.4 I-0.6 J0. F#104
N400 G1 X-33.396
N405 G18 G3 X-33.996 Z-2.4 I0. K0.6
N410 G0 Z2.
N415 X4.13
N420 G1 Z-1.5 F#103
N425 Z-2.9 F#108
N430 G3 X3.53 Z-3.5 I-0.6 K0.
N435 G1 X2.93 F#103
N440 G17 G3 X2.33 Y-25. I0. J-0.6
N445 G2 X-32.33 I-17.33 J0. F#100
N450 G3 X-32.93 Y-24.4 I-0.6 J0. F#104
N455 G1 X-33.53
N460 G18 G3 X-34.13 Z-2.9 I0. K0.6
N465 G0 Z2.
N470 X4.264
N475 G1 Z-2. F#103
N480 Z-3.4 F#108
N485 G3 X3.664 Z-4. I-0.6 K0.
N490 G1 X3.064 F#103
N495 G17 G3 X2.464 Y-25. I0. J-0.6
N500 G2 X-32.464 I-17.464 J0. F#100
N505 G3 X-33.064 Y-24.4 I-0.6 J0. F#104
N510 G1 X-33.664
N515 G18 G3 X-34.264 Z-3.4 I0. K0.6
N520 G0 Z2.
N525 X4.398
N530 G1 Z-2.5 F#103
N535 Z-3.9 F#108
N540 G3 X3.798 Z-4.5 I-0.6 K0.
N545 G1 X3.198 F#103
N550 G17 G3 X2.598 Y-25. I0. J-0.6
N555 G2 X-32.598 I-17.598 J0. F#100
N560 G3 X-33.198 Y-24.4 I-0.6 J0. F#104
N565 G1 X-33.798
N570 G18 G3 X-34.398 Z-3.9 I0. K0.6
N575 G0 Z2.
N580 X4.532
N585 G1 Z-3. F#103
N590 Z-4.4 F#108
N595 G3 X3.932 Z-5. I-0.6 K0.
N600 G1 X3.332 F#103
N605 G17 G3 X2.732 Y-25. I0. J-0.6
N610 G2 X-32.732 I-17.732 J0. F#100
N615 G3 X-33.332 Y-24.4 I-0.6 J0. F#104
N620 G1 X-33.932
N625 G18 G3 X-34.532 Z-4.4 I0. K0.6
N630 G0 Z2.
N635 X4.666
N640 G1 Z-3.5 F#103
N645 Z-4.9 F#108
N650 G3 X4.066 Z-5.5 I-0.6 K0.
N655 G1 X3.466 F#103
N660 G17 G3 X2.866 Y-25. I0. J-0.6
N665 G2 X-32.866 I-17.866 J0. F#100
N670 G3 X-33.466 Y-24.4 I-0.6 J0. F#104
N675 G1 X-34.066
N680 G18 G3 X-34.666 Z-4.9 I0. K0.6
N685 G0 Z2.
N690 X4.8
N695 G1 Z-4. F#103
N700 Z-5.4 F#108
N705 G3 X4.2 Z-6. I-0.6 K0.
N710 G1 X3.6 F#103
N715 G17 G3 X3. Y-25. I0. J-0.6
N720 G2 X-33. I-18. J0. F#100
N725 G3 X-33.6 Y-24.4 I-0.6 J0. F#104
N730 G1 X-34.2
N735 G18 G3 X-34.8 Z-5.4 I0. K0.6
N740 G0 Z4.
N745 G17
N750 M9
N755 G53 G0 Z0.
N760 M30
%
