%
(1001)
(T2  D=4. CR=0. - ZMIN=-10.2 - FLAT END MILL)
N10 G90 G94 G17 G91.1
N15 G21
N20 G53 G0 Z0.
(2D CONTOUR1)
N25 M9
N30 T2 M6
N35 S3300 M3
N40 G54
N45 M9
N55 G0 X-26.9 Y-47.03
N60 G43 Z4. H2
N65 #100=220. (CUTTING)
N70 #106=55. (REDUCED)
N75 #107=200. (RAMPING)
N80 #108=120. (PLUNGE)
N85 G0 Z-1.
N90 G1 Z-5. F#108
N95 S3100
N100 Y-39.05 Z-5.418 F#107
N105 G3 X-27. Z-5.426 I-0.05 J0.
N110 G1 Y-55.95 Z-6.312
N115 G3 X-26.9 Z-6.32 I0.05 J0.
N120 G1 Y-39.05 Z-7.206
N125 G3 X-27. Z-7.214 I-0.05 J0.
N130 G1 Y-55.95 Z-8.1
N135 S3300
N140 G3 X-26.9 I0.05 J0. F#106
N145 G1 Y-39.85 F#100
N150 Y-39.05 F#106
N155 G3 X-27. I-0.05 J0.
N160 G1 Y-55.95 F#100
N165 S3100
N170 G3 X-26.9 Z-8.108 I0.05 J0. F#107
N175 G1 Y-39.05 Z-8.994
N180 G3 X-27. Z-9.002 I-0.05 J0.
N185 G1 Y-55.95 Z-9.888
N190 G3 X-26.9 Z-9.896 I0.05 J0.
N195 G1 Y-50.151 Z-10.2
N200 S3300
N205 Y-39.85 F#100
N210 Y-39.05 F#106
N215 G3 X-27. I-0.05 J0.
N220 G1 Y-55.15 F#100
N225 Y-55.95 F#106
N230 G3 X-26.9 I0.05 J0.
N235 G1 Y-50.151 F#100
N240 G0 Z2.
N245 X-3. Y-46.873
N250 Z-1.
N255 G1 Z-5. F#108
N260 S3100
N265 Y-39.05 Z-5.41 F#107
N270 G3 X-3.1 Z-5.418 I-0.05 J0.
N275 G1 Y-55.95 Z-6.304
N280 G3 X-3. Z-6.312 I0.05 J0.
N285 G1 Y-39.05 Z-7.198
N290 G3 X-3.1 Z-7.206 I-0.05 J0.
N295 G1 Y-55.95 Z-8.092
N300 G3 X-3. Z-8.1 I0.05 J0.
N305 S3300
N310 G1 Y-39.85 F#100
N315 Y-39.05 F#106
N320 G3 X-3.1 I-0.05 J0.
N325 G1 Y-55.15 F#100
N330 Y-55.95 F#106
N335 G3 X-3. I0.05 J0.
N340 S3100
N345 G1 Y-39.05 Z-8.986 F#107
N350 G3 X-3.1 Z-8.994 I-0.05 J0.
N355 G1 Y-55.95 Z-9.88
N360 G3 X-3. Z-9.888 I0.05 J0.
N365 G1 Y-49.994 Z-10.2
N370 S3300
N375 Y-39.85 F#100
N380 Y-39.05 F#106
N385 G3 X-3.1 I-0.05 J0.
N390 G1 Y-55.15 F#100
N395 Y-55.95 F#106
N400 G3 X-3. I0.05 J0.
N405 G1 Y-49.994 F#100
N410 G0 Z4.
N420 M9
N425 G53 Z0.
N430 M30
%
