%
(1001)
(T1  D=6. CR=0. - ZMIN=-10.2 - FLAT END MILL)
(T2  D=4. CR=0. - ZMIN=-10.2 - FLAT END MILL)
N10 G90 G94 G17 G91.1
N15 G21
N20 G53 G0 Z0.
(2D ADAPTIVE3)
N25 M9
N30 T1 M6
N35 T2
N40 S3200 M3
N45 G54
N50 M8
N60 G0 X-34.444 Y-3.435
N65 G43 Z4. H1
N70 #100=330. (CUTTING)
N75 #103=200. (ENTRY)
N80 #104=200. (EXIT)
N85 #105=3000. (DIRECT)
N90 G0 Z-8.7
N95 G1 Z-9.4 F#103
N100 X-34.439 Y-3.429 Z-9.5
N105 X-34.425 Y-3.414 Z-9.597
N110 X-34.402 Y-3.387 Z-9.691
N115 X-34.37 Y-3.352 Z-9.778
N120 X-34.331 Y-3.307 Z-9.858
N125 X-34.284 Y-3.254 Z-9.929
N130 X-34.231 Y-3.194 Z-9.989
N135 X-34.172 Y-3.129 Z-10.037
N140 X-34.11 Y-3.059 Z-10.072
N145 X-34.045 Y-2.986 Z-10.093
N150 X-33.979 Y-2.911 Z-10.1
N155 G3 X-32.973 Y-0.956 I-3.314 J2.942
N160 G2 X-29.964 Y2.687 I4.931 J-1.008 F#100
N165 G1 X-29.874 Y2.741 Z-10.09 F#104
N170 X-29.793 Y2.807 Z-10.081
N175 X-29.724 Y2.884 Z-10.071
N180 X-29.666 Y2.972 Z-10.062
N185 X-29.622 Y3.066 Z-10.052
N190 X-29.592 Y3.167 Z-10.043
N195 X-29.578 Y3.27 Z-10.033
N200 G2 X-29.464 Y3.614 Z-10. I0.699 J-0.041
N205 X-29.078 Y3.9 I0.585 J-0.384
N210 G1 X-28.573 Y4.05
N215 X-28.535 Y4.06
N220 X-28.497 Y4.068
N225 G2 X-27.926 Y3.916 I0.123 J-0.689 F#105
N230 G1 X-27.904 Y3.899
N235 G3 X-26.982 Y3.313 I2.817 J3.42 F#103
N240 X-25.94 Y2.971 Z-10.1 I1.895 J4.006
N245 X-21.247 Y2.508 I3.78 J14.318 F#100
N250 X-15.501 Y2.47 I3.96 J163.552
N255 G1 X-6.018
N260 G3 X-4.909 Y2.711 I-0.003 J2.686
N265 G1 X-4.822 Y2.759 Z-10.091 F#104
N270 X-4.743 Y2.819 Z-10.082
N275 X-4.672 Y2.89 Z-10.073
N280 X-4.613 Y2.97 Z-10.064
N285 X-4.566 Y3.058 Z-10.055
N290 X-4.531 Y3.152 Z-10.045
N295 X-4.511 Y3.25 Z-10.036
N300 X-4.504 Y3.349 Z-10.027
N305 X-4.512 Y3.449 Z-10.018
N310 X-4.533 Y3.546 Z-10.009
N315 X-4.569 Y3.639 Z-10.
N320 G3 X-5.14 Y4.042 I-0.635 J-0.294
N325 G1 X-5.497 Y4.11
N330 X-23.99 Y7.606 F#105
N335 G3 X-26.838 Y4.433 I-0.452 J-2.459
N340 X-26.309 Y3.484 I2.396 J0.714 F#103
N345 X-25.423 Y2.848 Z-10.1 I1.866 J1.663
N350 X-21.19 Y2.054 I3.639 J7.719 F#100
N355 X-13.529 Y1.97 I5.422 J146.07
N360 G1 X-7.145
N365 G3 X-4.993 Y2.697 I-0.136 J3.953
N370 G1 X-4.902 Y2.744 Z-10.09 F#104
N375 X-4.819 Y2.804 Z-10.081
N380 X-4.745 Y2.876 Z-10.071
N385 X-4.683 Y2.959 Z-10.062
N390 X-4.634 Y3.051 Z-10.052
N395 X-4.598 Y3.15 Z-10.043
N400 X-4.578 Y3.253 Z-10.033
N405 G3 X-4.64 Y3.609 Z-10. I-0.697 J0.062
N410 X-5.236 Y4.014 I-0.635 J-0.294
N415 G1 X-5.575 Y4.033
N420 X-25.803 Y5.176 F#105
N425 G3 X-26.435 Y4.104 I-0.039 J-0.699
N430 G1 X-26.42 Y4.08
N435 G3 X-25.722 Y3.24 I3.732 J2.389 F#103
N440 X-24.836 Y2.594 Z-10.1 I3.034 J3.23
N445 X-21.021 Y1.606 I3.544 J5.828 F#100
N450 X-7.15 Y1.513 I8.273 J199.391
N455 X-5.616 Y2.367 I-2.395 J6.103
N460 G1 X-5.537 Y2.426 Z-10.091 F#104
N465 X-5.467 Y2.496 Z-10.082
N470 X-5.407 Y2.575 Z-10.073
N475 X-5.36 Y2.662 Z-10.064
N480 X-5.325 Y2.754 Z-10.055
N485 X-5.304 Y2.851 Z-10.045
N490 X-5.297 Y2.95 Z-10.036
N495 X-5.304 Y3.049 Z-10.027
N500 X-5.325 Y3.147 Z-10.018
N505 X-5.359 Y3.24 Z-10.009
N510 X-5.407 Y3.328 Z-10.
N515 G3 X-5.997 Y3.645 I-0.586 J-0.383
N520 G1 X-6.394 Y3.643
N525 X-23.443 Y3.549 F#105
N530 X-23.848 Y3.547 F#103
N535 G3 X-24.43 Y3.229 I0.004 J-0.7
N540 X-24.228 Y2.261 Z-10.1 I0.586 J-0.383
N545 X-20.948 Y1.189 I3.199 J4.233 F#100
N550 X-13.326 Y1. I5.322 J61.033
N555 X-7.541 Y1.068 I2.408 J41.688
N560 X-6.094 Y2.063 I-1.512 J3.748
N565 G1 X-6.023 Y2.131 Z-10.091 F#104
N570 X-5.962 Y2.209 Z-10.082
N575 X-5.912 Y2.294 Z-10.073
N580 X-5.876 Y2.386 Z-10.064
N585 X-5.853 Y2.483 Z-10.055
N590 X-5.844 Y2.582 Z-10.045
N595 X-5.849 Y2.681 Z-10.036
N600 X-5.868 Y2.779 Z-10.027
N605 X-5.901 Y2.873 Z-10.018
N610 X-5.947 Y2.961 Z-10.009
N615 X-6.005 Y3.042 Z-10.
N620 G3 X-6.543 Y3.29 I-0.535 J-0.452
N625 G1 X-7.027 Y3.288
N630 X-22.823 Y3.203 F#105
N635 X-23.355 Y3.2 F#103
N640 G3 X-23.858 Y2.982 I0.004 J-0.7
N645 X-23.834 Y1.993 Z-10.1 I0.507 J-0.483
N650 X-20.881 Y0.794 I2.948 J3.023 F#100
N655 X-15.415 Y0.505 I4.222 J28.026
N660 X-8.297 Y0.543 I3.061 J92.085
N665 X-6.446 Y1.749 I-0.787 J3.23
N670 G1 X-6.381 Y1.823 Z-10.091 F#104
N675 X-6.328 Y1.905 Z-10.082
N680 X-6.286 Y1.995 Z-10.073
N685 X-6.258 Y2.089 Z-10.064
N690 X-6.243 Y2.187 Z-10.055
N695 Y2.286 Z-10.045
N700 X-6.256 Y2.384 Z-10.036
N705 X-6.284 Y2.479 Z-10.027
N710 X-6.325 Y2.57 Z-10.018
N715 X-6.378 Y2.654 Z-10.009
N720 X-6.444 Y2.73 Z-10.
N725 G3 X-6.936 Y2.931 I-0.491 J-0.499
N730 G1 X-7.486 Y2.93
N735 X-22.463 Y2.892 F#105
N740 X-23.027 Y2.891 F#103
N745 G3 X-23.508 Y2.697 I0.002 J-0.7
N750 X-23.532 Y1.708 Z-10.1 I0.483 J-0.506
N755 X-20.696 Y0.374 I3.014 J2.725 F#100
N760 X-13.599 Y0.013 I5.266 J33.657
N765 X-8.758 Y0.069 I2.004 J36.536
N770 X-7.065 Y1.073 I-0.571 J2.891
N775 G1 X-7.01 Y1.157 Z-10.091 F#104
N780 X-6.969 Y1.248 Z-10.082
N785 X-6.941 Y1.344 Z-10.073
N790 X-6.927 Y1.443 Z-10.064
N795 Y1.544 Z-10.055
N800 X-6.941 Y1.642 Z-10.045
N805 X-6.969 Y1.738 Z-10.036
N810 X-7.01 Y1.829 Z-10.027
N815 X-7.064 Y1.913 Z-10.018
N820 X-7.13 Y1.989 Z-10.009
N825 X-7.205 Y2.054 Z-10.
N830 G3 X-7.611 Y2.195 I-0.421 J-0.559
N835 G1 X-8.27 Y2.208
N840 X-22.067 Y2.498 F#105
N845 X-22.635 Y2.51 F#103
N850 G3 X-23.118 Y2.33 I-0.015 J-0.7
N855 X-23.17 Y1.342 Z-10.1 I0.468 J-0.52
N860 X-20.394 Y-0.058 I2.959 J2.414 F#100
N865 X-14.672 Y-0.479 I4.555 J22.817
N870 X-8.783 Y-0.346 I2.196 J33.151
N875 X-7.199 Y0.862 I-0.955 J2.893
N880 G1 X-7.156 Y0.953 Z-10.091 F#104
N885 X-7.127 Y1.049 Z-10.082
N890 X-7.111 Y1.148 Z-10.073
N895 X-7.109 Y1.249 Z-10.064
N900 X-7.122 Y1.348 Z-10.055
N905 X-7.149 Y1.445 Z-10.045
N910 X-7.189 Y1.536 Z-10.036
N915 X-7.242 Y1.621 Z-10.027
N920 X-7.306 Y1.698 Z-10.018
N925 X-7.381 Y1.764 Z-10.009
N930 X-7.464 Y1.82 Z-10.
N935 G3 X-7.801 Y1.912 I-0.347 J-0.608
N940 G1 X-8.543 Y1.923
N945 X-21.624 Y2.12 F#105
N950 X-22.32 Y2.13 F#103
N955 G3 X-22.7 Y2.025 I-0.011 J-0.7
N960 X-22.925 Y1.061 Z-10.1 I0.37 J-0.594
N965 X-20.648 Y-0.369 I2.638 J1.673 F#100
N970 X-14.485 Y-0.961 I4.938 J19.045
N975 X-9.053 Y-0.8 I2.016 J23.791
N980 X-7.215 Y0.87 I-0.98 J2.926
N985 G1 X-7.171 Y0.958 Z-10.091 F#104
N990 X-7.14 Y1.052 Z-10.082
N995 X-7.123 Y1.149 Z-10.073
N1000 X-7.12 Y1.247 Z-10.064
N1005 X-7.131 Y1.346 Z-10.055
N1010 X-7.156 Y1.442 Z-10.045
N1015 X-7.194 Y1.533 Z-10.036
N1020 X-7.246 Y1.618 Z-10.027
N1025 X-7.308 Y1.696 Z-10.018
N1030 X-7.382 Y1.763 Z-10.009
N1035 X-7.464 Y1.82 Z-10.
N1040 G3 X-7.815 Y1.912 I-0.347 J-0.608
N1045 G1 X-8.543 Y1.908
N1050 X-21.414 Y1.847 F#105
N1055 X-22.15 Y1.844 F#103
N1060 G3 X-22.494 Y1.751 I0.003 J-0.7
N1065 X-22.754 Y0.797 Z-10.1 I0.347 J-0.608
N1070 X-20.589 Y-0.743 I2.646 J1.429 F#100
N1075 X-14.26 Y-1.447 I5.132 J17.333
N1080 X-9.124 Y-1.201 I1.775 J16.658
N1085 X-7.428 Y0.496 I-1.108 J2.803
N1090 G1 X-7.393 Y0.588 Z-10.091 F#104
N1095 X-7.37 Y0.685 Z-10.082
N1100 X-7.362 Y0.784 Z-10.073
N1105 X-7.368 Y0.884 Z-10.064
N1110 X-7.388 Y0.981 Z-10.055
N1115 X-7.422 Y1.075 Z-10.045
N1120 X-7.469 Y1.163 Z-10.036
N1125 X-7.527 Y1.243 Z-10.027
N1130 X-7.597 Y1.315 Z-10.018
N1135 X-7.676 Y1.376 Z-10.009
N1140 X-7.763 Y1.424 Z-10.
N1145 G3 X-8.061 Y1.49 I-0.296 J-0.634
N1150 G1 X-8.849 Y1.489
N1155 X-21.14 Y1.471 F#105
N1160 X-21.931 Y1.47 F#103
N1165 G3 X-22.226 Y1.404 I0.001 J-0.7
N1170 X-22.564 Y0.474 Z-10.1 I0.296 J-0.634
N1175 X-20.319 Y-1.184 I2.714 J1.326 F#100
N1180 X-15.266 Y-1.917 I4.522 J13.374
N1185 X-9.25 Y-1.638 I2.133 J18.996
N1190 X-7.608 Y0.146 I-1.25 J2.799
N1195 G1 X-7.572 Y0.238 Z-10.091 F#104
N1200 X-7.55 Y0.335 Z-10.082
N1205 X-7.541 Y0.434 Z-10.073
N1210 X-7.547 Y0.533 Z-10.064
N1215 X-7.567 Y0.631 Z-10.055
N1220 X-7.601 Y0.725 Z-10.045
N1225 X-7.647 Y0.813 Z-10.036
N1230 X-7.706 Y0.893 Z-10.027
N1235 X-7.776 Y0.965 Z-10.018
N1240 X-7.855 Y1.025 Z-10.009
N1245 X-7.942 Y1.074 Z-10.
N1250 G3 X-8.239 Y1.14 I-0.296 J-0.634
N1255 G1 X-9.028 Y1.139
N1260 X-20.953 Y1.127 F#105
N1265 X-21.756 Y1.126 F#103
N1270 G3 X-22.041 Y1.066 I0.001 J-0.7
N1275 X-22.395 Y0.142 Z-10.1 I0.285 J-0.639
N1280 X-20.363 Y-1.531 I2.629 J1.124 F#100
N1285 X-14.606 Y-2.41 I5.027 J13.632
N1290 X-9.361 Y-2.05 I1.685 J13.845
N1295 X-7.745 Y-0.149 I-1.217 J2.672
N1300 G1 X-7.715 Y-0.055 Z-10.091 F#104
N1305 X-7.698 Y0.042 Z-10.082
N1310 X-7.696 Y0.141 Z-10.073
N1315 X-7.708 Y0.239 Z-10.064
N1320 X-7.733 Y0.335 Z-10.055
N1325 X-7.772 Y0.426 Z-10.045
N1330 X-7.824 Y0.511 Z-10.036
N1335 X-7.887 Y0.588 Z-10.027
N1340 X-7.961 Y0.655 Z-10.018
N1345 X-8.043 Y0.711 Z-10.009
N1350 X-8.133 Y0.755 Z-10.
N1355 G3 X-8.389 Y0.803 I-0.255 J-0.652
N1360 G1 X-9.223 Y0.802
N1365 X-20.772 Y0.791 F#105
N1370 X-21.607 F#103
N1375 G3 X-21.862 Y0.743 I0.001 J-0.7
N1380 X-22.259 Y-0.164 Z-10.1 I0.255 J-0.652
N1385 X-20.294 Y-1.914 I2.623 J0.968 F#100
N1390 X-14.228 Y-2.896 I5.27 J13.317
N1395 X-9.374 Y-2.432 I1.378 J11.199
N1400 X-7.894 Y-0.593 I-1.304 J2.564
N1405 G1 X-7.882 Y-0.493 Z-10.091 F#104
N1410 X-7.884 Y-0.393 Z-10.082
N1415 X-7.9 Y-0.294 Z-10.073
N1420 X-7.931 Y-0.198 Z-10.064
N1425 X-7.974 Y-0.108 Z-10.055
N1430 X-8.03 Y-0.025 Z-10.045
N1435 X-8.097 Y0.05 Z-10.036
N1440 X-8.174 Y0.113 Z-10.027
N1445 X-8.26 Y0.166 Z-10.018
N1450 X-8.351 Y0.205 Z-10.009
N1455 X-8.448 Y0.231 Z-10.
N1460 G3 X-8.574 Y0.245 I-0.137 J-0.686
N1465 G1 X-9.542 Y0.26
N1470 X-20.567 Y0.436 F#105
N1475 X-21.462 Y0.45 F#103
N1480 G3 X-21.66 Y0.424 I-0.011 J-0.7
N1485 X-22.148 Y-0.437 Z-10.1 I0.187 J-0.675
N1490 X-20.441 Y-2.2 I2.424 J0.639 F#100
N1495 X-14.558 Y-3.357 I5.295 J11.384
N1500 X-9.334 Y-2.792 I1.493 J10.618
N1505 X-7.953 Y-0.869 I-1.451 J2.5
N1510 G1 X-7.946 Y-0.769 Z-10.091 F#104
N1515 X-7.954 Y-0.669 Z-10.082
N1520 X-7.976 Y-0.571 Z-10.073
N1525 X-8.011 Y-0.477 Z-10.064
N1530 X-8.06 Y-0.389 Z-10.055
N1535 X-8.12 Y-0.309 Z-10.045
N1540 X-8.191 Y-0.239 Z-10.036
N1545 X-8.272 Y-0.179 Z-10.027
N1550 X-8.36 Y-0.132 Z-10.018
N1555 X-8.454 Y-0.098 Z-10.009
N1560 X-8.551 Y-0.077 Z-10.
N1565 G3 X-8.639 Y-0.07 I-0.099 J-0.693
N1570 G1 X-9.646 Y-0.054
N1575 X-20.42 Y0.118 F#105
N1580 G3 X-21.514 Y0.124 I-0.573 J-5.266 F#103
N1585 G1 X-21.611 Y0.099 Z-10.009
N1590 X-21.704 Y0.061 Z-10.018
N1595 X-21.79 Y0.009 Z-10.027
N1600 X-21.867 Y-0.053 Z-10.036
N1605 X-21.935 Y-0.126 Z-10.045
N1610 X-21.992 Y-0.209 Z-10.055
N1615 X-22.037 Y-0.298 Z-10.064
N1620 X-22.068 Y-0.393 Z-10.073
N1625 X-22.086 Y-0.491 Z-10.082
N1630 X-22.09 Y-0.591 Z-10.091
N1635 X-22.079 Y-0.69 Z-10.1
N1640 G3 X-20.481 Y-2.53 I2.363 J0.439 F#100
N1645 X-15.16 Y-3.795 I5.12 J9.707
N1650 X-9.313 Y-3.172 I1.785 J10.98
N1655 X-7.962 Y-0.868 I-1.634 J2.507
N1660 G1 X-7.954 Y-0.769 Z-10.091 F#104
N1665 X-7.961 Y-0.67 Z-10.082
N1670 X-7.982 Y-0.573 Z-10.073
N1675 X-8.017 Y-0.48 Z-10.064
N1680 X-8.064 Y-0.392 Z-10.055
N1685 X-8.123 Y-0.312 Z-10.045
N1690 X-8.194 Y-0.242 Z-10.036
N1695 X-8.273 Y-0.182 Z-10.027
N1700 X-8.361 Y-0.134 Z-10.018
N1705 X-8.454 Y-0.098 Z-10.009
N1710 X-8.551 Y-0.077 Z-10.
N1715 G3 X-8.657 Y-0.07 I-0.099 J-0.693
N1720 G1 X-9.647 Y-0.08
N1725 X-20.319 Y-0.184 F#105
N1730 X-21.335 Y-0.194 F#103
N1735 X-21.375 Y-0.196
N1740 X-21.415 Y-0.2
N1745 G3 X-22.023 Y-0.98 Z-10.1 I0.086 J-0.695
N1750 X-20.39 Y-2.936 I2.446 J0.382 F#100
N1755 X-15.823 Y-4.203 I4.808 J8.469
N1760 X-9.425 Y-3.631 I2.17 J11.798
N1765 X-8.021 Y-1.237 I-1.602 J2.548
N1770 G1 X-8.016 Y-1.138 Z-10.091 F#104
N1775 X-8.024 Y-1.039 Z-10.082
N1780 X-8.047 Y-0.942 Z-10.073
N1785 X-8.084 Y-0.849 Z-10.064
N1790 X-8.133 Y-0.763 Z-10.055
N1795 X-8.194 Y-0.684 Z-10.045
N1800 X-8.265 Y-0.615 Z-10.036
N1805 X-8.346 Y-0.556 Z-10.027
N1810 X-8.434 Y-0.51 Z-10.018
N1815 X-8.528 Y-0.477 Z-10.009
N1820 X-8.626 Y-0.457 Z-10.
N1825 G3 X-8.715 Y-0.452 I-0.086 J-0.695
N1830 G1 X-9.722 Y-0.455
N1835 X-20.265 Y-0.488 F#105
N1840 X-21.284 Y-0.491 F#103
N1845 X-21.322 Y-0.492
N1850 X-21.361 Y-0.495
N1855 G3 X-21.977 Y-1.269 Z-10.1 I0.079 J-0.696
N1860 X-20.385 Y-3.304 I2.474 J0.296 F#100
N1865 X-15.587 Y-4.68 I5.018 J8.441
N1870 X-9.371 Y-3.99 I1.947 J10.802
N1875 X-8.07 Y-1.574 I-1.522 J2.378
N1880 G1 X-8.067 Y-1.475 Z-10.091 F#104
N1885 X-8.079 Y-1.376 Z-10.082
N1890 X-8.104 Y-1.281 Z-10.073
N1895 X-8.143 Y-1.189 Z-10.064
N1900 X-8.195 Y-1.104 Z-10.055
N1905 X-8.258 Y-1.027 Z-10.045
N1910 X-8.331 Y-0.96 Z-10.036
N1915 X-8.414 Y-0.904 Z-10.027
N1920 X-8.503 Y-0.86 Z-10.018
N1925 X-8.598 Y-0.83 Z-10.009
N1930 X-8.696 Y-0.813 Z-10.
N1935 G3 X-8.762 Y-0.81 I-0.064 J-0.697
N1940 G1 X-9.792 Y-0.812
N1945 X-20.205 Y-0.831 F#105
N1950 X-21.238 Y-0.833 F#103
N1955 X-21.269 Y-0.834
N1960 X-21.301 Y-0.836
N1965 G3 X-21.933 Y-1.597 Z-10.1 I0.064 J-0.697
N1970 X-20.537 Y-3.582 I2.38 J0.191 F#100
N1975 X-14.871 Y-5.185 I5.519 J8.694
N1980 X-9.335 Y-4.35 I1.414 J9.402
N1985 X-8.095 Y-1.826 I-1.602 J2.352
N1990 G1 X-8.105 Y-1.728 Z-10.091 F#104
N1995 X-8.127 Y-1.632 Z-10.082
N2000 X-8.163 Y-1.541 Z-10.073
N2005 X-8.212 Y-1.455 Z-10.064
N2010 X-8.272 Y-1.377 Z-10.055
N2015 X-8.342 Y-1.308 Z-10.046
N2020 X-8.422 Y-1.25 Z-10.037
N2025 X-8.508 Y-1.203 Z-10.028
N2030 X-8.601 Y-1.17 Z-10.019
N2035 X-8.697 Y-1.149 Z-10.01
N2040 X-8.796 Y-1.142 Z-10.001
N2045 X-8.81 Z-10.
N2050 X-9.905 Y-1.144
N2055 X-20.094 Y-1.164 F#105
N2060 X-21.19 Y-1.166 F#103
N2065 X-21.207 Z-10.002
N2070 G3 X-21.905 Y-1.85 Z-10.1 I0.001 J-0.7
N2075 X-20.608 Y-3.899 I2.29 J0.015 F#100
N2080 X-15.45 Y-5.586 I5.351 J7.634
N2085 X-9.214 Y-4.685 I1.79 J9.651
N2090 X-8.103 Y-2.097 I-1.852 J2.327
N2095 G1 X-8.111 Y-1.999 Z-10.091 F#104
N2100 X-8.134 Y-1.904 Z-10.082
N2105 X-8.169 Y-1.813 Z-10.073
N2110 X-8.217 Y-1.727 Z-10.064
N2115 X-8.277 Y-1.649 Z-10.055
N2120 X-8.347 Y-1.58 Z-10.046
N2125 X-8.426 Y-1.521 Z-10.037
N2130 X-8.513 Y-1.475 Z-10.028
N2135 X-8.605 Y-1.441 Z-10.019
N2140 X-8.702 Y-1.42 Z-10.01
N2145 X-8.8 Y-1.413 Z-10.001
N2150 X-8.813 Z-10.
N2155 X-9.909 Y-1.417
N2160 X-20.091 Y-1.452 F#105
N2165 X-21.186 Y-1.456 F#103
N2170 X-21.204 Z-10.002
N2175 G3 X-21.902 Y-2.14 Z-10.1 I0.002 J-0.7
N2180 X-20.636 Y-4.259 I2.342 J-0.038 F#100
N2185 X-15.279 Y-6.045 I5.495 J7.553
N2190 X-9.132 Y-5.028 I1.639 J9.178
N2195 X-8.102 Y-2.462 I-1.968 J2.28
N2200 G1 X-8.112 Y-2.365 Z-10.091 F#104
N2205 X-8.135 Y-2.271 Z-10.082
N2210 X-8.172 Y-2.18 Z-10.073
N2215 X-8.22 Y-2.096 Z-10.064
N2220 X-8.28 Y-2.019 Z-10.056
N2225 X-8.35 Y-1.951 Z-10.047
N2230 X-8.429 Y-1.893 Z-10.038
N2235 X-8.515 Y-1.847 Z-10.029
N2240 X-8.607 Y-1.814 Z-10.02
N2245 X-8.702 Y-1.793 Z-10.011
N2250 X-8.8 Y-1.787 Z-10.002
N2255 X-8.823 Z-10.
N2260 X-9.919
N2265 X-20.081 Y-1.791 F#105
N2270 X-21.177 F#103
N2275 X-21.201 Z-10.002
N2280 G3 X-21.9 Y-2.467 Z-10.1 I0. J-0.7
N2285 X-20.644 Y-4.638 I2.396 J-0.063 F#100
N2290 X-15.046 Y-6.507 I5.631 J7.552
N2295 X-9.103 Y-5.41 I1.441 J8.845
N2300 X-8.103 Y-2.867 I-1.982 J2.248
N2305 G1 X-8.113 Y-2.77 Z-10.091 F#104
N2310 X-8.136 Y-2.676 Z-10.082
N2315 X-8.172 Y-2.586 Z-10.073
N2320 X-8.22 Y-2.501 Z-10.065
N2325 X-8.28 Y-2.425 Z-10.056
N2330 X-8.349 Y-2.357 Z-10.047
N2335 X-8.427 Y-2.299 Z-10.038
N2340 X-8.513 Y-2.253 Z-10.029
N2345 X-8.604 Y-2.219 Z-10.02
N2350 X-8.699 Y-2.198 Z-10.011
N2355 X-8.797 Y-2.191 Z-10.002
N2360 X-8.823 Z-10.
N2365 X-9.919 Y-2.186
N2370 X-20.081 Y-2.141 F#105
N2375 X-21.177 Y-2.136 F#103
N2380 X-21.197 Z-10.002
N2385 G3 X-21.9 Y-2.812 Z-10.1 I-0.003 J-0.7
N2390 X-20.64 Y-5.033 I2.457 J-0.074 F#100
N2395 X-15.171 Y-6.937 I5.615 J7.321
N2400 X-9.123 Y-5.839 I1.493 J8.976
N2405 X-8.103 Y-3.276 I-1.958 J2.265
N2410 G1 X-8.113 Y-3.18 Z-10.091 F#104
N2415 X-8.136 Y-3.086 Z-10.082
N2420 X-8.172 Y-2.996 Z-10.073
N2425 X-8.22 Y-2.912 Z-10.065
N2430 X-8.279 Y-2.835 Z-10.056
N2435 X-8.348 Y-2.767 Z-10.047
N2440 X-8.426 Y-2.709 Z-10.038
N2445 X-8.511 Y-2.663 Z-10.029
N2450 X-8.602 Y-2.629 Z-10.02
N2455 X-8.697 Y-2.608 Z-10.012
N2460 X-8.794 Y-2.6 Z-10.003
N2465 X-8.823 Z-10.
N2470 X-9.919 Y-2.591
N2475 X-20.081 Y-2.509 F#105
N2480 X-21.177 Y-2.5 F#103
N2485 X-21.195 Z-10.002
N2490 G3 X-21.9 Y-3.175 Z-10.1 I-0.006 J-0.7
N2495 X-20.523 Y-5.516 I2.582 J-0.057 F#100
N2500 X-15.332 Y-7.362 I5.483 J7.197
N2505 X-9.086 Y-6.228 I1.582 J9.05
N2510 X-8.102 Y-3.688 I-2.024 J2.244
N2515 G1 X-8.112 Y-3.592 Z-10.091 F#104
N2520 X-8.135 Y-3.498 Z-10.082
N2525 X-8.171 Y-3.408 Z-10.074
N2530 X-8.219 Y-3.324 Z-10.065
N2535 X-8.278 Y-3.248 Z-10.056
N2540 X-8.347 Y-3.18 Z-10.047
N2545 X-8.424 Y-3.122 Z-10.038
N2550 X-8.509 Y-3.076 Z-10.029
N2555 X-8.6 Y-3.042 Z-10.021
N2560 X-8.695 Y-3.021 Z-10.012
N2565 X-8.791 Y-3.012 Z-10.003
N2570 X-8.823 Z-10.
N2575 X-9.919 Y-2.999
N2580 X-20.081 Y-2.875 F#105
N2585 X-21.177 Y-2.862 F#103
N2590 X-21.192 Z-10.001
N2595 G3 X-21.9 Y-3.537 Z-10.1 I-0.009 J-0.7
N2600 X-20.551 Y-5.899 I2.61 J-0.076 F#100
N2605 X-15.113 Y-7.816 I5.604 J7.226
N2610 X-9.051 Y-6.621 I1.397 J8.89
N2615 X-8.102 Y-4.104 I-2.092 J2.227
N2620 G1 X-8.112 Y-4.008 Z-10.091 F#104
N2625 X-8.135 Y-3.914 Z-10.082
N2630 X-8.17 Y-3.824 Z-10.074
N2635 X-8.218 Y-3.741 Z-10.065
N2640 X-8.277 Y-3.664 Z-10.056
N2645 X-8.345 Y-3.596 Z-10.047
N2650 X-8.423 Y-3.539 Z-10.038
N2655 X-8.507 Y-3.492 Z-10.03
N2660 X-8.598 Y-3.458 Z-10.021
N2665 X-8.692 Y-3.436 Z-10.012
N2670 X-8.788 Y-3.428 Z-10.003
N2675 X-8.823 Y-3.427 Z-10.
N2680 X-9.919 Y-3.409
N2685 X-20.081 Y-3.243 F#105
N2690 X-21.177 Y-3.225 F#103
N2695 X-21.189 Z-10.001
N2700 G3 X-21.9 Y-3.9 Z-10.1 I-0.011 J-0.7
N2705 X-20.544 Y-6.312 I2.653 J-0.095 F#100
N2710 X-14.794 Y-8.271 I5.71 J7.341
N2715 X-9.066 Y-7.038 I1.149 J8.583
N2720 X-8.104 Y-4.522 I-1.997 J2.206
N2725 G1 X-8.114 Y-4.426 Z-10.091 F#104
N2730 X-8.136 Y-4.333 Z-10.082
N2735 X-8.171 Y-4.244 Z-10.074
N2740 X-8.219 Y-4.16 Z-10.065
N2745 X-8.277 Y-4.084 Z-10.056
N2750 X-8.345 Y-4.016 Z-10.047
N2755 X-8.422 Y-3.958 Z-10.038
N2760 X-8.507 Y-3.911 Z-10.03
N2765 X-8.597 Y-3.877 Z-10.021
N2770 X-8.691 Y-3.855 Z-10.012
N2775 X-8.787 Y-3.846 Z-10.003
N2780 X-8.823 Y-3.845 Z-10.
N2785 X-9.919 Y-3.825
N2790 X-20.081 Y-3.637 F#105
N2795 X-21.177 Y-3.616 F#103
N2800 X-21.187 Z-10.001
N2805 G3 X-21.9 Y-4.292 Z-10.1 I-0.013 J-0.7
N2810 X-20.518 Y-6.741 I2.698 J-0.092 F#100
N2815 X-15.173 Y-8.677 I5.577 J7.052
N2820 X-9.063 Y-7.462 I1.408 J8.884
N2825 X-8.103 Y-4.941 I-2.032 J2.217
N2830 G1 X-8.113 Y-4.845 Z-10.091 F#104
N2835 X-8.135 Y-4.752 Z-10.082
N2840 X-8.171 Y-4.663 Z-10.074
N2845 X-8.218 Y-4.579 Z-10.065
N2850 X-8.276 Y-4.502 Z-10.056
N2855 X-8.345 Y-4.435 Z-10.047
N2860 X-8.422 Y-4.377 Z-10.039
N2865 X-8.506 Y-4.33 Z-10.03
N2870 X-8.596 Y-4.296 Z-10.021
N2875 X-8.69 Y-4.274 Z-10.012
N2880 X-8.786 Y-4.265 Z-10.003
N2885 X-8.823 Y-4.264 Z-10.
N2890 X-9.919 Y-4.243
N2895 X-20.081 Y-4.044 F#105
N2900 X-21.177 Y-4.022 F#103
N2905 X-21.187 Z-10.001
N2910 G3 X-21.9 Y-4.697 Z-10.1 I-0.014 J-0.7
N2915 X-20.518 Y-7.155 I2.725 J-0.085 F#100
N2920 X-14.848 Y-9.132 I5.685 J7.186
N2925 X-9.074 Y-7.885 I1.152 J8.658
N2930 X-8.104 Y-5.361 I-1.989 J2.213
N2935 G1 X-8.114 Y-5.266 Z-10.091 F#104
N2940 X-8.136 Y-5.173 Z-10.082
N2945 X-8.171 Y-5.083 Z-10.074
N2950 X-8.218 Y-5. Z-10.065
N2955 X-8.276 Y-4.923 Z-10.056
N2960 X-8.345 Y-4.856 Z-10.047
N2965 X-8.421 Y-4.798 Z-10.039
N2970 X-8.505 Y-4.751 Z-10.03
N2975 X-8.595 Y-4.716 Z-10.021
N2980 X-8.689 Y-4.694 Z-10.012
N2985 X-8.785 Y-4.685 Z-10.004
N2990 X-8.823 Y-4.684 Z-10.
N2995 X-9.919 Y-4.661
N3000 X-20.081 Y-4.445 F#105
N3005 X-21.177 Y-4.421 F#103
N3010 X-21.186 Z-10.001
N3015 G3 X-21.9 Y-5.097 Z-10.1 I-0.015 J-0.7
N3020 X-20.525 Y-7.565 I2.743 J-0.089 F#100
N3025 X-14.916 Y-9.557 I5.675 J7.087
N3030 X-9.084 Y-8.315 I1.189 J8.73
N3035 X-8.104 Y-5.782 I-1.979 J2.222
N3040 G1 X-8.113 Y-5.687 Z-10.091 F#104
N3045 X-8.136 Y-5.594 Z-10.082
N3050 X-8.171 Y-5.504 Z-10.074
N3055 X-8.218 Y-5.421 Z-10.065
N3060 X-8.276 Y-5.345 Z-10.056
N3065 X-8.344 Y-5.277 Z-10.047
N3070 X-8.421 Y-5.219 Z-10.039
N3075 X-8.505 Y-5.172 Z-10.03
N3080 X-8.594 Y-5.137 Z-10.021
N3085 X-8.688 Y-5.115 Z-10.012
N3090 X-8.783 Y-5.106 Z-10.004
N3095 X-8.823 Y-5.105 Z-10.
N3100 X-9.919 Y-5.08
N3105 X-20.081 Y-4.846 F#105
N3110 X-21.177 Y-4.821 F#103
N3115 X-21.184 Y-4.82 Z-10.001
N3120 G3 X-21.9 Y-5.496 Z-10.1 I-0.016 J-0.7
N3125 X-20.545 Y-7.967 I2.752 J-0.098 F#100
N3130 X-14.644 Y-10.001 I5.773 J7.174
N3135 X-9.101 Y-8.746 I0.98 J8.543
N3140 X-8.105 Y-6.204 I-1.933 J2.224
N3145 G1 X-8.116 Y-6.099 Z-10.09 F#104
N3150 X-8.142 Y-5.998 Z-10.081
N3155 X-8.184 Y-5.901 Z-10.071
N3160 X-8.24 Y-5.812 Z-10.062
N3165 X-8.308 Y-5.732 Z-10.052
N3170 X-8.388 Y-5.663 Z-10.042
N3175 X-8.478 Y-5.607 Z-10.033
N3180 X-8.575 Y-5.566 Z-10.023
N3185 X-8.677 Y-5.539 Z-10.013
N3190 X-8.782 Y-5.528 Z-10.004
N3195 X-8.823 Y-5.527 Z-10.
N3200 X-9.919 Y-5.499
N3205 X-20.081 Y-5.24 F#105
N3210 X-21.177 Y-5.212 F#103
N3215 X-21.183 Z-10.001
N3220 G3 X-21.9 Y-5.887 Z-10.1 I-0.018 J-0.7
N3225 X-20.545 Y-8.386 I2.771 J-0.115 F#100
N3230 X-14.679 Y-10.428 I5.767 J7.119
N3235 X-9.042 Y-9.131 I0.999 J8.558
N3240 X-8.103 Y-6.625 I-2.053 J2.197
N3245 G1 X-8.115 Y-6.521 Z-10.09 F#104
N3250 X-8.141 Y-6.419 Z-10.081
N3255 X-8.183 Y-6.323 Z-10.071
N3260 X-8.239 Y-6.234 Z-10.062
N3265 X-8.308 Y-6.154 Z-10.052
N3270 X-8.388 Y-6.085 Z-10.042
N3275 X-8.477 Y-6.029 Z-10.033
N3280 X-8.574 Y-5.988 Z-10.023
N3285 X-8.676 Y-5.961 Z-10.013
N3290 X-8.781 Y-5.95 Z-10.004
N3295 X-8.823 Y-5.949 Z-10.
N3300 X-9.919 Y-5.919
N3305 X-20.081 Y-5.647 F#105
N3310 X-21.177 Y-5.618 F#103
N3315 X-21.182 Y-5.617
N3320 G3 X-21.9 Y-6.293 Z-10.1 I-0.019 J-0.7
N3325 X-20.516 Y-8.828 I2.799 J-0.118 F#100
N3330 X-14.631 Y-10.859 I5.756 J7.136
N3335 X-9.034 Y-9.548 I0.955 J8.525
N3340 X-8.104 Y-7.05 I-2.058 J2.189
N3345 G1 X-8.115 Y-6.945 Z-10.09 F#104
N3350 X-8.142 Y-6.843 Z-10.081
N3355 X-8.183 Y-6.747 Z-10.071
N3360 X-8.239 Y-6.658 Z-10.062
N3365 X-8.308 Y-6.578 Z-10.052
N3370 X-8.388 Y-6.509 Z-10.042
N3375 X-8.477 Y-6.453 Z-10.033
N3380 X-8.574 Y-6.412 Z-10.023
N3385 X-8.676 Y-6.385 Z-10.013
N3390 X-8.781 Y-6.374 Z-10.004
N3395 X-8.823 Y-6.373 Z-10.
N3400 X-9.919 Y-6.344
N3405 X-20.081 Y-6.081 F#105
N3410 X-21.177 Y-6.053 F#103
N3415 X-21.182 Y-6.052 Z-10.001
N3420 G3 X-21.9 Y-6.728 Z-10.1 I-0.018 J-0.7
N3425 X-20.543 Y-9.229 I2.794 J-0.103 F#100
N3430 X-14.367 Y-11.294 I5.848 J7.221
N3435 X-9.053 Y-9.976 I0.767 J8.277
N3440 X-8.105 Y-7.474 I-1.976 J2.179
N3445 G1 X-8.116 Y-7.37 Z-10.09 F#104
N3450 X-8.143 Y-7.268 Z-10.081
N3455 X-8.184 Y-7.172 Z-10.071
N3460 X-8.24 Y-7.083 Z-10.062
N3465 X-8.308 Y-7.003 Z-10.052
N3470 X-8.388 Y-6.935 Z-10.042
N3475 X-8.477 Y-6.879 Z-10.033
N3480 X-8.573 Y-6.837 Z-10.023
N3485 X-8.675 Y-6.81 Z-10.014
N3490 X-8.78 Y-6.798 Z-10.004
N3495 X-8.823 Y-6.797 Z-10.
N3500 X-9.919 Y-6.766
N3505 X-20.081 Y-6.482 F#105
N3510 X-21.177 Y-6.452 F#103
N3515 X-21.181
N3520 G3 X-21.9 Y-7.127 Z-10.1 I-0.02 J-0.7
N3525 X-20.512 Y-9.675 I2.82 J-0.116 F#100
N3530 X-14.666 Y-11.713 I5.745 J7.075
N3535 X-9.041 Y-10.396 I0.974 J8.506
N3540 X-8.105 Y-7.898 I-2.016 J2.181
N3545 G1 X-8.116 Y-7.794 Z-10.09 F#104
N3550 X-8.142 Y-7.692 Z-10.081
N3555 X-8.184 Y-7.596 Z-10.071
N3560 X-8.24 Y-7.506 Z-10.062
N3565 X-8.308 Y-7.427 Z-10.052
N3570 X-8.388 Y-7.358 Z-10.042
N3575 X-8.477 Y-7.302 Z-10.033
N3580 X-8.574 Y-7.26 Z-10.023
N3585 X-8.676 Y-7.233 Z-10.014
N3590 X-8.781 Y-7.222 Z-10.004
N3595 X-8.823 Y-7.221 Z-10.
N3600 X-9.919 Y-7.191
N3605 X-20.081 Y-6.917 F#105
N3610 X-21.177 Y-6.887 F#103
N3615 X-21.182
N3620 G3 X-21.9 Y-7.562 Z-10.1 I-0.019 J-0.7
N3625 X-20.542 Y-10.075 I2.811 J-0.104 F#100
N3630 X-14.399 Y-12.148 I5.839 J7.167
N3635 X-9.057 Y-10.829 I0.779 J8.321
N3640 X-8.105 Y-8.323 I-1.973 J2.184
N3645 G1 X-8.116 Y-8.219 Z-10.09 F#104
N3650 X-8.143 Y-8.117 Z-10.081
N3655 X-8.184 Y-8.021 Z-10.071
N3660 X-8.239 Y-7.932 Z-10.062
N3665 X-8.308 Y-7.852 Z-10.052
N3670 X-8.387 Y-7.783 Z-10.042
N3675 X-8.476 Y-7.727 Z-10.033
N3680 X-8.573 Y-7.685 Z-10.023
N3685 X-8.674 Y-7.658 Z-10.014
N3690 X-8.779 Y-7.647 Z-10.004
N3695 X-8.823 Y-7.646 Z-10.
N3700 X-9.919 Y-7.614
N3705 X-20.081 Y-7.318 F#105
N3710 X-21.177 Y-7.286 F#103
N3715 X-21.18
N3720 G3 X-21.9 Y-7.961 Z-10.1 I-0.02 J-0.7
N3725 X-20.523 Y-10.513 I2.828 J-0.121 F#100
N3730 X-14.719 Y-12.564 I5.741 J7.01
N3735 X-9.049 Y-11.252 I1.005 J8.564
N3740 X-8.104 Y-8.747 I-2.008 J2.188
N3745 G1 X-8.115 Y-8.643 Z-10.09 F#104
N3750 X-8.142 Y-8.541 Z-10.081
N3755 X-8.184 Y-8.445 Z-10.071
N3760 X-8.239 Y-8.356 Z-10.062
N3765 X-8.308 Y-8.276 Z-10.052
N3770 X-8.387 Y-8.207 Z-10.042
N3775 X-8.477 Y-8.151 Z-10.033
N3780 X-8.573 Y-8.109 Z-10.023
N3785 X-8.675 Y-8.082 Z-10.014
N3790 X-8.78 Y-8.071 Z-10.004
N3795 X-8.823 Y-8.07 Z-10.
N3800 X-9.919 Y-8.039
N3805 X-20.081 Y-7.752 F#105
N3810 X-21.177 Y-7.721 F#103
N3815 X-21.181
N3820 G3 X-21.9 Y-8.396 Z-10.1 I-0.02 J-0.7
N3825 X-20.536 Y-10.927 I2.825 J-0.11 F#100
N3830 X-14.407 Y-13.002 I5.833 J7.141
N3835 X-9.058 Y-11.679 I0.777 J8.337
N3840 X-8.105 Y-9.172 I-1.973 J2.185
N3845 G1 X-8.116 Y-9.068 Z-10.09 F#104
N3850 X-8.143 Y-8.966 Z-10.081
N3855 X-8.184 Y-8.87 Z-10.071
N3860 X-8.239 Y-8.781 Z-10.062
N3865 X-8.308 Y-8.701 Z-10.052
N3870 X-8.387 Y-8.632 Z-10.042
N3875 X-8.476 Y-8.576 Z-10.033
N3880 X-8.573 Y-8.534 Z-10.023
N3885 X-8.675 Y-8.507 Z-10.014
N3890 X-8.779 Y-8.496 Z-10.004
N3895 X-8.823 Y-8.495 Z-10.
N3900 X-9.919 Y-8.463
N3905 X-20.081 Y-8.168 F#105
N3910 X-21.177 Y-8.137 F#103
N3915 X-21.18 Y-8.136
N3920 G3 X-21.9 Y-8.812 Z-10.1 I-0.02 J-0.7
N3925 X-20.542 Y-11.346 I2.828 J-0.116 F#100
N3930 X-14.432 Y-13.428 I5.834 J7.117
N3935 X-9.062 Y-12.107 I0.791 J8.362
N3940 X-8.105 Y-9.596 I-1.969 J2.188
N3945 G1 X-8.116 Y-9.492 Z-10.09 F#104
N3950 X-8.143 Y-9.391 Z-10.081
N3955 X-8.184 Y-9.295 Z-10.071
N3960 X-8.239 Y-9.206 Z-10.062
N3965 X-8.307 Y-9.126 Z-10.052
N3970 X-8.387 Y-9.057 Z-10.042
N3975 X-8.476 Y-9.001 Z-10.033
N3980 X-8.572 Y-8.959 Z-10.023
N3985 X-8.674 Y-8.932 Z-10.014
N3990 X-8.779 Y-8.921 Z-10.004
N3995 X-8.823 Y-8.919 Z-10.
N4000 X-9.919 Y-8.886
N4005 X-20.081 Y-8.58 F#105
N4010 X-21.177 Y-8.548 F#103
N4015 X-21.179 Y-8.547
N4020 G3 X-21.9 Y-9.223 Z-10.1 I-0.021 J-0.7
N4025 X-20.533 Y-11.778 I2.836 J-0.126 F#100
N4030 X-14.415 Y-13.855 I5.83 J7.125
N4035 X-9.059 Y-12.53 I0.777 J8.35
N4040 X-8.105 Y-10.021 I-1.972 J2.186
N4045 G1 X-8.116 Y-9.917 Z-10.09 F#104
N4050 X-8.143 Y-9.816 Z-10.081
N4055 X-8.184 Y-9.72 Z-10.071
N4060 X-8.239 Y-9.631 Z-10.062
N4065 X-8.308 Y-9.551 Z-10.052
N4070 X-8.387 Y-9.482 Z-10.042
N4075 X-8.476 Y-9.426 Z-10.033
N4080 X-8.573 Y-9.384 Z-10.023
N4085 X-8.674 Y-9.357 Z-10.014
N4090 X-8.779 Y-9.345 Z-10.004
N4095 X-8.823 Y-9.344 Z-10.
N4100 X-9.919 Y-9.312
N4105 X-20.081 Y-9.015 F#105
N4110 X-21.177 Y-8.983 F#103
N4115 X-21.18
N4120 G3 X-21.9 Y-9.658 Z-10.1 I-0.02 J-0.7
N4125 X-20.509 Y-12.222 I2.85 J-0.113 F#100
N4130 X-14.714 Y-14.271 I5.732 J6.991
N4135 X-9.048 Y-12.951 I0.991 J8.567
N4140 X-8.104 Y-10.446 I-2.01 J2.187
N4145 G1 X-8.116 Y-10.342 Z-10.09 F#104
N4150 X-8.142 Y-10.241 Z-10.081
N4155 X-8.184 Y-10.144 Z-10.071
N4160 X-8.239 Y-10.055 Z-10.062
N4165 X-8.308 Y-9.975 Z-10.052
N4170 X-8.387 Y-9.907 Z-10.042
N4175 X-8.476 Y-9.851 Z-10.033
N4180 X-8.573 Y-9.809 Z-10.023
N4185 X-8.675 Y-9.782 Z-10.014
N4190 X-8.78 Y-9.771 Z-10.004
N4195 X-8.823 Y-9.769 Z-10.
N4200 X-9.919 Y-9.738
N4205 X-20.081 Y-9.449 F#105
N4210 X-21.177 Y-9.418 F#103
N4215 X-21.181
N4220 G3 X-21.9 Y-10.093 Z-10.1 I-0.02 J-0.7
N4225 X-20.54 Y-12.623 I2.835 J-0.107 F#100
N4230 X-14.447 Y-14.706 I5.826 J7.088
N4235 X-9.063 Y-13.384 I0.797 J8.382
N4240 X-8.105 Y-10.872 I-1.968 J2.19
N4245 G1 X-8.116 Y-10.768 Z-10.09 F#104
N4250 X-8.143 Y-10.667 Z-10.081
N4255 X-8.184 Y-10.57 Z-10.071
N4260 X-8.239 Y-10.481 Z-10.062
N4265 X-8.307 Y-10.402 Z-10.052
N4270 X-8.387 Y-10.333 Z-10.042
N4275 X-8.476 Y-10.277 Z-10.033
N4280 X-8.572 Y-10.235 Z-10.023
N4285 X-8.674 Y-10.208 Z-10.014
N4290 X-8.779 Y-10.196 Z-10.004
N4295 X-8.823 Y-10.195 Z-10.
N4300 X-9.919 Y-10.162
N4305 X-20.081 Y-9.856 F#105
N4310 X-21.177 Y-9.823 F#103
N4315 X-21.179
N4320 G3 X-21.9 Y-10.499 Z-10.1 I-0.021 J-0.7
N4325 X-20.524 Y-13.06 I2.846 J-0.122 F#100
N4330 X-14.41 Y-15.133 I5.82 J7.114
N4335 X-9.057 Y-13.804 I0.769 J8.345
N4340 X-8.105 Y-11.297 I-1.974 J2.184
N4345 G1 X-8.116 Y-11.193 Z-10.09 F#104
N4350 X-8.143 Y-11.092 Z-10.081
N4355 X-8.184 Y-10.995 Z-10.071
N4360 X-8.239 Y-10.906 Z-10.062
N4365 X-8.308 Y-10.827 Z-10.052
N4370 X-8.387 Y-10.758 Z-10.042
N4375 X-8.476 Y-10.702 Z-10.033
N4380 X-8.573 Y-10.66 Z-10.023
N4385 X-8.674 Y-10.633 Z-10.014
N4390 X-8.779 Y-10.621 Z-10.004
N4395 X-8.823 Y-10.62 Z-10.
N4400 X-9.919 Y-10.588
N4405 X-20.081 Y-10.291 F#105
N4410 X-21.177 Y-10.259 F#103
N4415 X-21.18 Y-10.258
N4420 G3 X-21.9 Y-10.934 Z-10.1 I-0.02 J-0.7
N4425 X-20.537 Y-13.476 I2.84 J-0.114 F#100
N4430 X-14.444 Y-15.559 I5.824 J7.085
N4435 X-9.063 Y-14.235 I0.791 J8.38
N4440 X-8.105 Y-11.722 I-1.969 J2.189
N4445 G1 X-8.116 Y-11.618 Z-10.09 F#104
N4450 X-8.143 Y-11.517 Z-10.081
N4455 X-8.184 Y-11.421 Z-10.071
N4460 X-8.239 Y-11.332 Z-10.062
N4465 X-8.308 Y-11.252 Z-10.052
N4470 X-8.387 Y-11.183 Z-10.042
N4475 X-8.476 Y-11.127 Z-10.033
N4480 X-8.572 Y-11.085 Z-10.023
N4485 X-8.674 Y-11.058 Z-10.014
N4490 X-8.779 Y-11.047 Z-10.004
N4495 X-8.823 Y-11.045 Z-10.
N4500 X-9.919 Y-11.013
N4505 X-20.081 Y-10.71 F#105
N4510 X-21.177 Y-10.677 F#103
N4515 X-21.18
N4520 G3 X-21.9 Y-11.353 Z-10.1 I-0.021 J-0.7
N4525 X-20.542 Y-13.898 I2.841 J-0.119 F#100
N4530 X-14.458 Y-15.984 I5.826 J7.074
N4535 X-9.065 Y-14.662 I0.8 J8.395
N4540 X-8.105 Y-12.148 I-1.966 J2.192
N4545 G1 X-8.116 Y-12.044 Z-10.09 F#104
N4550 X-8.143 Y-11.943 Z-10.081
N4555 X-8.184 Y-11.846 Z-10.071
N4560 X-8.239 Y-11.757 Z-10.062
N4565 X-8.307 Y-11.678 Z-10.052
N4570 X-8.387 Y-11.609 Z-10.042
N4575 X-8.476 Y-11.553 Z-10.033
N4580 X-8.572 Y-11.511 Z-10.023
N4585 X-8.674 Y-11.484 Z-10.014
N4590 X-8.778 Y-11.472 Z-10.004
N4595 X-8.823 Y-11.471 Z-10.
N4600 X-9.918 Y-11.437
N4605 X-20.081 Y-11.126 F#105
N4610 X-21.177 Y-11.093 F#103
N4615 X-21.179
N4620 G3 X-21.9 Y-11.768 Z-10.1 I-0.021 J-0.7
N4625 X-20.535 Y-14.328 I2.845 J-0.127 F#100
N4630 X-14.445 Y-16.411 I5.824 J7.084
N4635 X-9.063 Y-15.086 I0.789 J8.383
N4640 X-8.105 Y-12.573 I-1.969 J2.189
N4645 G1 X-8.116 Y-12.469 Z-10.09 F#104
N4650 X-8.143 Y-12.368 Z-10.081
N4655 X-8.184 Y-12.272 Z-10.071
N4660 X-8.239 Y-12.183 Z-10.062
N4665 X-8.308 Y-12.103 Z-10.052
N4670 X-8.387 Y-12.034 Z-10.042
N4675 X-8.476 Y-11.978 Z-10.033
N4680 X-8.572 Y-11.936 Z-10.023
N4685 X-8.674 Y-11.909 Z-10.014
N4690 X-8.779 Y-11.897 Z-10.004
N4695 X-8.823 Y-11.896 Z-10.
N4700 X-9.919 Y-11.863
N4705 X-20.081 Y-11.561 F#105
N4710 X-21.177 Y-11.528 F#103
N4715 X-21.18
N4720 G3 X-21.9 Y-12.203 Z-10.1 I-0.021 J-0.7
N4725 X-20.515 Y-14.77 I2.856 J-0.116 F#100
N4730 X-14.397 Y-16.838 I5.815 J7.119
N4735 X-9.055 Y-15.504 I0.755 J8.338
N4740 X-8.105 Y-12.999 I-1.977 J2.182
N4745 G1 X-8.116 Y-12.895 Z-10.09 F#104
N4750 X-8.143 Y-12.793 Z-10.081
N4755 X-8.184 Y-12.697 Z-10.071
N4760 X-8.24 Y-12.608 Z-10.062
N4765 X-8.308 Y-12.528 Z-10.052
N4770 X-8.387 Y-12.459 Z-10.042
N4775 X-8.476 Y-12.403 Z-10.033
N4780 X-8.573 Y-12.361 Z-10.023
N4785 X-8.675 Y-12.334 Z-10.014
N4790 X-8.779 Y-12.323 Z-10.004
N4795 X-8.823 Y-12.322 Z-10.
N4800 X-9.919 Y-12.29
N4805 X-20.081 Y-11.995 F#105
N4810 X-21.177 Y-11.963 F#103
N4815 X-21.18
N4820 G3 X-21.9 Y-12.638 Z-10.1 I-0.02 J-0.7
N4825 X-20.507 Y-15.202 I2.86 J-0.107 F#100
N4830 X-14.378 Y-17.265 I5.813 J7.134
N4835 X-9.051 Y-15.927 I0.741 J8.321
N4840 X-8.105 Y-13.425 I-1.98 J2.179
N4845 G1 X-8.116 Y-13.32 Z-10.09 F#104
N4850 X-8.143 Y-13.219 Z-10.081
N4855 X-8.184 Y-13.123 Z-10.071
N4860 X-8.24 Y-13.034 Z-10.062
N4865 X-8.308 Y-12.954 Z-10.052
N4870 X-8.387 Y-12.885 Z-10.042
N4875 X-8.476 Y-12.829 Z-10.033
N4880 X-8.573 Y-12.787 Z-10.023
N4885 X-8.675 Y-12.76 Z-10.014
N4890 X-8.779 Y-12.749 Z-10.004
N4895 X-8.823 Y-12.747 Z-10.
N4900 X-9.919 Y-12.716
N4905 X-20.081 Y-12.424 F#105
N4910 X-21.177 Y-12.393 F#103
N4915 X-21.18
N4920 G3 X-21.9 Y-13.068 Z-10.1 I-0.02 J-0.7
N4925 X-20.539 Y-15.603 I2.842 J-0.107 F#100
N4930 X-14.462 Y-17.688 I5.821 J7.064
N4935 X-9.065 Y-16.365 I0.8 J8.402
N4940 X-8.105 Y-13.85 I-1.967 J2.191
N4945 G1 X-8.116 Y-13.746 Z-10.09 F#104
N4950 X-8.143 Y-13.645 Z-10.081
N4955 X-8.184 Y-13.549 Z-10.071
N4960 X-8.239 Y-13.46 Z-10.062
N4965 X-8.307 Y-13.38 Z-10.052
N4970 X-8.387 Y-13.311 Z-10.042
N4975 X-8.476 Y-13.255 Z-10.033
N4980 X-8.572 Y-13.213 Z-10.023
N4985 X-8.674 Y-13.186 Z-10.014
N4990 X-8.778 Y-13.175 Z-10.004
N4995 X-8.823 Y-13.173 Z-10.
N5000 X-9.919 Y-13.14
N5005 X-20.081 Y-12.831 F#105
N5010 X-21.177 Y-12.797 F#103
N5015 X-21.179
N5020 G3 X-21.9 Y-13.472 Z-10.1 I-0.021 J-0.7
N5025 X-20.53 Y-16.035 I2.849 J-0.125 F#100
N5030 X-14.438 Y-18.115 I5.818 J7.082
N5035 X-9.062 Y-16.787 I0.783 J8.379
N5040 X-8.105 Y-14.276 I-1.97 J2.188
N5045 G1 X-8.116 Y-14.172 Z-10.09 F#104
N5050 X-8.143 Y-14.07 Z-10.081
N5055 X-8.184 Y-13.974 Z-10.071
N5060 X-8.239 Y-13.885 Z-10.062
N5065 X-8.308 Y-13.805 Z-10.052
N5070 X-8.387 Y-13.737 Z-10.042
N5075 X-8.476 Y-13.681 Z-10.033
N5080 X-8.572 Y-13.639 Z-10.023
N5085 X-8.674 Y-13.612 Z-10.014
N5090 X-8.779 Y-13.6 Z-10.004
N5095 X-8.823 Y-13.599 Z-10.
N5100 X-9.919 Y-13.566
N5105 X-20.081 Y-13.265 F#105
N5110 X-21.177 Y-13.232 F#103
N5115 X-21.18
N5120 G3 X-21.9 Y-13.908 Z-10.1 I-0.021 J-0.7
N5125 X-20.511 Y-16.476 I2.859 J-0.114 F#100
N5130 X-14.391 Y-18.542 I5.811 J7.118
N5135 X-9.053 Y-17.206 I0.75 J8.334
N5140 X-8.105 Y-14.701 I-1.978 J2.181
N5145 G1 X-8.116 Y-14.597 Z-10.09 F#104
N5150 X-8.143 Y-14.496 Z-10.081
N5155 X-8.184 Y-14.4 Z-10.071
N5160 X-8.24 Y-14.311 Z-10.062
N5165 X-8.308 Y-14.231 Z-10.052
N5170 X-8.387 Y-14.162 Z-10.042
N5175 X-8.476 Y-14.106 Z-10.033
N5180 X-8.573 Y-14.064 Z-10.023
N5185 X-8.675 Y-14.037 Z-10.014
N5190 X-8.779 Y-14.026 Z-10.004
N5195 X-8.823 Y-14.024 Z-10.
N5200 X-9.919 Y-13.993
N5205 X-20.081 Y-13.699 F#105
N5210 X-21.177 Y-13.668 F#103
N5215 X-21.18 Y-13.667
N5220 G3 X-21.9 Y-14.343 Z-10.1 I-0.02 J-0.7
N5225 X-20.533 Y-16.885 I2.846 J-0.108 F#100
N5230 X-14.448 Y-18.966 I5.817 J7.071
N5235 X-9.063 Y-17.639 I0.79 J8.388
N5240 X-8.105 Y-15.127 I-1.969 J2.189
N5245 G1 X-8.116 Y-15.023 Z-10.09 F#104
N5250 X-8.143 Y-14.922 Z-10.081
N5255 X-8.184 Y-14.826 Z-10.071
N5260 X-8.239 Y-14.737 Z-10.062
N5265 X-8.308 Y-14.657 Z-10.052
N5270 X-8.387 Y-14.588 Z-10.042
N5275 X-8.476 Y-14.532 Z-10.033
N5280 X-8.572 Y-14.49 Z-10.023
N5285 X-8.674 Y-14.463 Z-10.014
N5290 X-8.779 Y-14.452 Z-10.004
N5295 X-8.823 Y-14.45 Z-10.
N5300 X-9.919 Y-14.418
N5305 X-20.081 Y-14.115 F#105
N5310 X-21.177 Y-14.083 F#103
N5315 X-21.18
N5320 G3 X-21.9 Y-14.758 Z-10.1 I-0.021 J-0.7
N5325 X-20.541 Y-17.305 I2.845 J-0.118 F#100
N5330 X-14.117 Y-19.396 I5.901 J7.217
N5335 X-9.068 Y-18.065 I0.558 J8.121
N5340 X-8.106 Y-15.553 I-1.938 J2.183
N5345 G1 X-8.117 Y-15.449 Z-10.09 F#104
N5350 X-8.143 Y-15.348 Z-10.081
N5355 X-8.184 Y-15.252 Z-10.071
N5360 X-8.239 Y-15.163 Z-10.062
N5365 X-8.308 Y-15.083 Z-10.052
N5370 X-8.387 Y-15.014 Z-10.042
N5375 X-8.476 Y-14.958 Z-10.033
N5380 X-8.572 Y-14.916 Z-10.023
N5385 X-8.673 Y-14.889 Z-10.014
N5390 X-8.778 Y-14.877 Z-10.004
N5395 X-8.823 Y-14.876 Z-10.
N5400 X-9.918 Y-14.842
N5405 X-20.082 Y-14.528 F#105
N5410 X-21.177 Y-14.494 F#103
N5415 X-21.179
N5420 G3 X-21.9 Y-15.169 Z-10.1 I-0.022 J-0.7
N5425 X-20.543 Y-17.729 I2.844 J-0.132 F#100
N5430 X-14.123 Y-19.822 I5.903 J7.213
N5435 X-9.069 Y-18.491 I0.561 J8.129
N5440 X-8.106 Y-15.979 I-1.938 J2.184
N5445 G1 X-8.117 Y-15.875 Z-10.09 F#104
N5450 X-8.143 Y-15.773 Z-10.081
N5455 X-8.184 Y-15.677 Z-10.071
N5460 X-8.24 Y-15.588 Z-10.062
N5465 X-8.308 Y-15.508 Z-10.052
N5470 X-8.387 Y-15.44 Z-10.042
N5475 X-8.476 Y-15.384 Z-10.033
N5480 X-8.572 Y-15.342 Z-10.023
N5485 X-8.674 Y-15.314 Z-10.014
N5490 X-8.778 Y-15.303 Z-10.004
N5495 X-8.823 Y-15.301 Z-10.
N5500 X-9.919 Y-15.268
N5505 X-20.081 Y-14.962 F#105
N5510 X-21.177 Y-14.929 F#103
N5515 X-21.179
N5520 G3 X-21.9 Y-15.604 Z-10.1 I-0.021 J-0.7
N5525 X-20.524 Y-18.17 I2.853 J-0.122 F#100
N5530 X-14.428 Y-20.245 I5.815 J7.089
N5535 X-9.059 Y-18.914 I0.774 J8.37
N5540 X-8.105 Y-16.404 I-1.973 J2.186
N5545 G1 X-8.116 Y-16.3 Z-10.09 F#104
N5550 X-8.143 Y-16.199 Z-10.081
N5555 X-8.184 Y-16.102 Z-10.071
N5560 X-8.239 Y-16.013 Z-10.062
N5565 X-8.308 Y-15.934 Z-10.052
N5570 X-8.387 Y-15.865 Z-10.042
N5575 X-8.476 Y-15.809 Z-10.033
N5580 X-8.573 Y-15.767 Z-10.023
N5585 X-8.674 Y-15.74 Z-10.014
N5590 X-8.779 Y-15.728 Z-10.004
N5595 X-8.823 Y-15.727 Z-10.
N5600 X-9.919 Y-15.695
N5605 X-20.081 Y-15.396 F#105
N5610 X-21.177 Y-15.364 F#103
N5615 X-21.18
N5620 G3 X-21.9 Y-16.039 Z-10.1 I-0.021 J-0.7
N5625 X-20.506 Y-18.61 I2.863 J-0.111 F#100
N5630 X-14.382 Y-20.672 I5.808 J7.125
N5635 X-9.051 Y-19.333 I0.742 J8.326
N5640 X-8.105 Y-16.83 I-1.98 J2.179
N5645 G1 X-8.116 Y-16.726 Z-10.09 F#104
N5650 X-8.143 Y-16.624 Z-10.081
N5655 X-8.184 Y-16.528 Z-10.071
N5660 X-8.24 Y-16.439 Z-10.062
N5665 X-8.308 Y-16.359 Z-10.052
N5670 X-8.387 Y-16.291 Z-10.042
N5675 X-8.476 Y-16.235 Z-10.033
N5680 X-8.573 Y-16.193 Z-10.023
N5685 X-8.675 Y-16.166 Z-10.014
N5690 X-8.78 Y-16.154 Z-10.004
N5695 X-8.823 Y-16.153 Z-10.
N5700 X-9.919 Y-16.122
N5705 X-20.081 Y-15.83 F#105
N5710 X-21.177 Y-15.799 F#103
N5715 X-21.18
N5720 G3 X-21.9 Y-16.474 Z-10.1 I-0.02 J-0.7
N5725 X-20.539 Y-19.01 I2.844 J-0.107 F#100
N5730 X-14.468 Y-21.095 I5.817 J7.054
N5735 X-9.066 Y-19.771 I0.802 J8.408
N5740 X-8.105 Y-17.256 I-1.967 J2.192
N5745 G1 X-8.116 Y-17.152 Z-10.09 F#104
N5750 X-8.143 Y-17.051 Z-10.081
N5755 X-8.184 Y-16.954 Z-10.071
N5760 X-8.239 Y-16.865 Z-10.062
N5765 X-8.307 Y-16.786 Z-10.052
N5770 X-8.387 Y-16.717 Z-10.042
N5775 X-8.476 Y-16.661 Z-10.033
N5780 X-8.572 Y-16.619 Z-10.023
N5785 X-8.674 Y-16.592 Z-10.014
N5790 X-8.778 Y-16.58 Z-10.004
N5795 X-8.823 Y-16.579 Z-10.
N5800 X-9.919 Y-16.546
N5805 X-20.081 Y-16.238 F#105
N5810 X-21.177 Y-16.205 F#103
N5815 X-21.179
N5820 G3 X-21.9 Y-16.88 Z-10.1 I-0.021 J-0.7
N5825 X-20.529 Y-19.444 I2.851 J-0.124 F#100
N5830 X-14.439 Y-21.522 I5.814 J7.077
N5835 X-9.061 Y-20.193 I0.782 J8.38
N5840 X-8.105 Y-17.682 I-1.971 J2.188
N5845 G1 X-8.116 Y-17.578 Z-10.09 F#104
N5850 X-8.143 Y-17.476 Z-10.081
N5855 X-8.184 Y-17.38 Z-10.071
N5860 X-8.239 Y-17.291 Z-10.062
N5865 X-8.308 Y-17.211 Z-10.052
N5870 X-8.387 Y-17.142 Z-10.042
N5875 X-8.476 Y-17.086 Z-10.033
N5880 X-8.572 Y-17.044 Z-10.023
N5885 X-8.674 Y-17.017 Z-10.014
N5890 X-8.779 Y-17.006 Z-10.004
N5895 X-8.823 Y-17.004 Z-10.
N5900 X-9.919 Y-16.972
N5905 X-20.081 Y-16.672 F#105
N5910 X-21.177 Y-16.64 F#103
N5915 X-21.18
N5920 G3 X-21.9 Y-17.315 Z-10.1 I-0.021 J-0.7
N5925 X-20.51 Y-19.885 I2.861 J-0.113 F#100
N5930 X-14.392 Y-21.949 I5.808 J7.115
N5935 X-9.053 Y-20.612 I0.749 J8.336
N5940 X-8.105 Y-18.107 I-1.979 J2.181
N5945 G1 X-8.116 Y-18.003 Z-10.09 F#104
N5950 X-8.143 Y-17.902 Z-10.081
N5955 X-8.184 Y-17.806 Z-10.071
N5960 X-8.24 Y-17.716 Z-10.062
N5965 X-8.308 Y-17.637 Z-10.052
N5970 X-8.387 Y-17.568 Z-10.042
N5975 X-8.476 Y-17.512 Z-10.033
N5980 X-8.573 Y-17.47 Z-10.023
N5985 X-8.675 Y-17.443 Z-10.014
N5990 X-8.779 Y-17.431 Z-10.004
N5995 X-8.823 Y-17.43 Z-10.
N6000 X-9.919 Y-17.399
N6005 X-20.081 Y-17.107 F#105
N6010 X-21.177 Y-17.075 F#103
N6015 X-21.18
N6020 G3 X-21.9 Y-17.75 Z-10.1 I-0.02 J-0.7
N6025 X-20.526 Y-20.298 I2.851 J-0.107 F#100
N6030 X-14.432 Y-22.374 I5.813 J7.083
N6035 X-9.06 Y-21.043 I0.777 J8.374
N6040 X-8.105 Y-18.533 I-1.972 J2.186
N6045 G1 X-8.116 Y-18.429 Z-10.09 F#104
N6050 X-8.143 Y-18.328 Z-10.081
N6055 X-8.184 Y-18.232 Z-10.071
N6060 X-8.239 Y-18.143 Z-10.062
N6065 X-8.308 Y-18.063 Z-10.052
N6070 X-8.387 Y-17.994 Z-10.042
N6075 X-8.476 Y-17.938 Z-10.033
N6080 X-8.573 Y-17.896 Z-10.023
N6085 X-8.674 Y-17.869 Z-10.014
N6090 X-8.779 Y-17.857 Z-10.004
N6095 X-8.823 Y-17.856 Z-10.
N6100 X-9.919 Y-17.824
N6105 X-20.081 Y-17.526 F#105
N6110 X-21.177 Y-17.494 F#103
N6115 X-21.18
N6120 G3 X-21.9 Y-18.169 Z-10.1 I-0.021 J-0.7
N6125 X-20.542 Y-20.712 I2.843 J-0.115 F#100
N6130 X-14.472 Y-22.799 I5.818 J7.051
N6135 X-9.066 Y-21.475 I0.805 J8.412
N6140 X-8.105 Y-18.959 I-1.966 J2.193
N6145 G1 X-8.116 Y-18.855 Z-10.09 F#104
N6150 X-8.143 Y-18.754 Z-10.081
N6155 X-8.184 Y-18.658 Z-10.071
N6160 X-8.239 Y-18.568 Z-10.062
N6165 X-8.307 Y-18.489 Z-10.052
N6170 X-8.387 Y-18.42 Z-10.042
N6175 X-8.476 Y-18.364 Z-10.033
N6180 X-8.572 Y-18.322 Z-10.023
N6185 X-8.674 Y-18.295 Z-10.014
N6190 X-8.778 Y-18.283 Z-10.004
N6195 X-8.823 Y-18.282 Z-10.
N6200 X-9.919 Y-18.249
N6205 X-20.081 Y-17.942 F#105
N6210 X-21.177 Y-17.909 F#103
N6215 X-21.179
N6220 G3 X-21.9 Y-18.584 Z-10.1 I-0.021 J-0.7
N6225 X-20.527 Y-21.149 I2.852 J-0.123 F#100
N6230 X-14.435 Y-23.226 I5.814 J7.081
N6235 X-9.186 Y-21.989 I0.757 J8.544
N6240 X-8.106 Y-19.385 I-1.794 J2.27
N6245 G1 X-8.117 Y-19.281 Z-10.09 F#104
N6250 X-8.143 Y-19.18 Z-10.081
N6255 X-8.185 Y-19.083 Z-10.071
N6260 X-8.24 Y-18.994 Z-10.062
N6265 X-8.308 Y-18.915 Z-10.052
N6270 X-8.387 Y-18.846 Z-10.042
N6275 X-8.476 Y-18.79 Z-10.033
N6280 X-8.573 Y-18.748 Z-10.023
N6285 X-8.674 Y-18.721 Z-10.014
N6290 X-8.779 Y-18.709 Z-10.004
N6295 X-8.823 Y-18.708 Z-10.
N6300 X-9.919 Y-18.675
N6305 X-20.081 Y-18.377 F#105
N6310 X-21.177 Y-18.344 F#103
N6315 X-21.18
N6320 G3 X-21.9 Y-19.02 Z-10.1 I-0.021 J-0.7
N6325 X-20.508 Y-21.59 I2.861 J-0.112 F#100
N6330 X-14.389 Y-23.653 I5.807 J7.118
N6335 X-9.05 Y-22.318 I0.738 J8.392
N6340 X-8.104 Y-19.812 I-2.007 J2.189
N6345 G1 X-8.116 Y-19.707 Z-10.09 F#104
N6350 X-8.142 Y-19.606 Z-10.081
N6355 X-8.184 Y-19.51 Z-10.071
N6360 X-8.239 Y-19.42 Z-10.062
N6365 X-8.308 Y-19.341 Z-10.052
N6370 X-8.387 Y-19.272 Z-10.042
N6375 X-8.476 Y-19.216 Z-10.033
N6380 X-8.573 Y-19.174 Z-10.023
N6385 X-8.675 Y-19.147 Z-10.014
N6390 X-8.779 Y-19.136 Z-10.004
N6395 X-8.823 Y-19.134 Z-10.
N6400 X-9.919 Y-19.103
N6405 X-20.081 Y-18.811 F#105
N6410 X-21.177 Y-18.78 F#103
N6415 X-21.18 Y-18.779
N6420 G3 X-21.9 Y-19.455 Z-10.1 I-0.02 J-0.7
N6425 X-20.539 Y-21.992 I2.846 J-0.107 F#100
N6430 X-14.118 Y-24.08 I5.896 J7.214
N6435 X-9.068 Y-22.748 I0.558 J8.124
N6440 X-8.106 Y-20.237 I-1.938 J2.182
N6445 G1 X-8.117 Y-20.133 Z-10.09 F#104
N6450 X-8.143 Y-20.032 Z-10.081
N6455 X-8.184 Y-19.936 Z-10.071
N6460 X-8.24 Y-19.847 Z-10.062
N6465 X-8.308 Y-19.767 Z-10.052
N6470 X-8.387 Y-19.698 Z-10.042
N6475 X-8.476 Y-19.642 Z-10.033
N6480 X-8.572 Y-19.6 Z-10.023
N6485 X-8.673 Y-19.573 Z-10.014
N6490 X-8.778 Y-19.561 Z-10.004
N6495 X-8.823 Y-19.56 Z-10.
N6500 X-9.918 Y-19.526
N6505 X-20.082 Y-19.212 F#105
N6510 X-21.177 Y-19.179 F#103
N6515 X-21.179
N6520 G3 X-21.9 Y-19.854 Z-10.1 I-0.022 J-0.7
N6525 X-20.543 Y-22.415 I2.845 J-0.132 F#100
N6530 X-14.124 Y-24.506 I5.898 J7.207
N6535 X-9.069 Y-23.175 I0.561 J8.13
N6540 X-8.106 Y-20.662 I-1.937 J2.183
N6545 G1 X-8.117 Y-20.558 Z-10.09 F#104
N6550 X-8.143 Y-20.457 Z-10.081
N6555 X-8.184 Y-20.361 Z-10.071
N6560 X-8.24 Y-20.272 Z-10.062
N6565 X-8.308 Y-20.192 Z-10.052
N6570 X-8.387 Y-20.124 Z-10.042
N6575 X-8.476 Y-20.067 Z-10.033
N6580 X-8.572 Y-20.025 Z-10.023
N6585 X-8.674 Y-19.998 Z-10.014
N6590 X-8.779 Y-19.986 Z-10.004
N6595 X-8.823 Y-19.985 Z-10.
N6600 X-9.919 Y-19.952
N6605 X-20.081 Y-19.647 F#105
N6610 X-21.177 Y-19.614 F#103
N6615 X-21.179
N6620 G3 X-21.9 Y-20.289 Z-10.1 I-0.021 J-0.7
N6625 X-20.525 Y-22.854 I2.853 J-0.122 F#100
N6630 X-14.432 Y-24.929 I5.812 J7.084
N6635 X-9.06 Y-23.598 I0.775 J8.375
N6640 X-8.105 Y-21.088 I-1.972 J2.187
N6645 G1 X-8.116 Y-20.984 Z-10.09 F#104
N6650 X-8.143 Y-20.882 Z-10.081
N6655 X-8.184 Y-20.786 Z-10.071
N6660 X-8.239 Y-20.697 Z-10.062
N6665 X-8.308 Y-20.617 Z-10.052
N6670 X-8.387 Y-20.549 Z-10.042
N6675 X-8.476 Y-20.493 Z-10.033
N6680 X-8.573 Y-20.451 Z-10.023
N6685 X-8.674 Y-20.423 Z-10.014
N6690 X-8.779 Y-20.412 Z-10.004
N6695 X-8.823 Y-20.411 Z-10.
N6700 X-9.919 Y-20.379
N6705 X-20.081 Y-20.081 F#105
N6710 X-21.177 Y-20.049 F#103
N6715 X-21.18
N6720 G3 X-21.9 Y-20.724 Z-10.1 I-0.02 J-0.7
N6725 X-20.506 Y-23.295 I2.862 J-0.111 F#100
N6730 X-14.386 Y-25.356 I5.806 J7.12
N6735 X-9.052 Y-24.017 I0.743 J8.331
N6740 X-8.105 Y-21.514 I-1.98 J2.179
N6745 G1 X-8.116 Y-21.41 Z-10.09 F#104
N6750 X-8.143 Y-21.308 Z-10.081
N6755 X-8.184 Y-21.212 Z-10.071
N6760 X-8.24 Y-21.123 Z-10.062
N6765 X-8.308 Y-21.043 Z-10.052
N6770 X-8.387 Y-20.974 Z-10.042
N6775 X-8.476 Y-20.918 Z-10.033
N6780 X-8.573 Y-20.876 Z-10.023
N6785 X-8.675 Y-20.849 Z-10.014
N6790 X-8.78 Y-20.838 Z-10.004
N6795 X-8.823 Y-20.837 Z-10.
N6800 X-9.919 Y-20.805
N6805 X-20.081 Y-20.515 F#105
N6810 X-21.177 Y-20.484 F#103
N6815 X-21.18
N6820 G3 X-21.9 Y-21.159 Z-10.1 I-0.02 J-0.7
N6825 X-20.529 Y-23.703 I2.848 J-0.106 F#100
N6830 X-14.443 Y-25.78 I5.812 J7.073
N6835 X-9.061 Y-24.451 I0.784 J8.386
N6840 X-8.105 Y-21.94 I-1.971 J2.188
N6845 G1 X-8.116 Y-21.836 Z-10.09 F#104
N6850 X-8.143 Y-21.734 Z-10.081
N6855 X-8.184 Y-21.638 Z-10.071
N6860 X-8.239 Y-21.549 Z-10.062
N6865 X-8.308 Y-21.469 Z-10.052
N6870 X-8.387 Y-21.401 Z-10.042
N6875 X-8.476 Y-21.345 Z-10.033
N6880 X-8.573 Y-21.303 Z-10.023
N6885 X-8.674 Y-21.275 Z-10.014
N6890 X-8.779 Y-21.264 Z-10.004
N6895 X-8.823 Y-21.263 Z-10.
N6900 X-9.919 Y-21.23
N6905 X-20.081 Y-20.932 F#105
N6910 X-21.177 Y-20.899 F#103
N6915 X-21.18
N6920 G3 X-21.9 Y-21.575 Z-10.1 I-0.021 J-0.7
N6925 X-20.541 Y-24.119 I2.845 J-0.116 F#100
N6930 X-14.12 Y-26.21 I5.898 J7.212
N6935 X-9.068 Y-24.877 I0.559 J8.126
N6940 X-8.106 Y-22.366 I-1.938 J2.183
N6945 G1 X-8.117 Y-22.262 Z-10.09 F#104
N6950 X-8.143 Y-22.16 Z-10.081
N6955 X-8.184 Y-22.064 Z-10.071
N6960 X-8.24 Y-21.975 Z-10.062
N6965 X-8.308 Y-21.896 Z-10.052
N6970 X-8.387 Y-21.827 Z-10.042
N6975 X-8.476 Y-21.771 Z-10.033
N6980 X-8.572 Y-21.729 Z-10.023
N6985 X-8.674 Y-21.701 Z-10.014
N6990 X-8.778 Y-21.69 Z-10.004
N6995 X-8.823 Y-21.688 Z-10.
N7000 X-9.918 Y-21.655
N7005 X-20.081 Y-21.344 F#105
N7010 X-21.177 Y-21.31 F#103
N7015 X-21.179
N7020 G3 X-21.9 Y-21.985 Z-10.1 I-0.021 J-0.7
N7025 X-20.541 Y-24.546 I2.845 J-0.13 F#100
N7030 X-14.469 Y-26.632 I5.818 J7.056
N7035 X-9.066 Y-25.306 I0.801 J8.411
N7040 X-8.105 Y-22.791 I-1.966 J2.192
N7045 G1 X-8.116 Y-22.687 Z-10.09 F#104
N7050 X-8.143 Y-22.586 Z-10.081
N7055 X-8.184 Y-22.489 Z-10.071
N7060 X-8.239 Y-22.4 Z-10.062
N7065 X-8.308 Y-22.321 Z-10.052
N7070 X-8.387 Y-22.252 Z-10.042
N7075 X-8.476 Y-22.196 Z-10.033
N7080 X-8.572 Y-22.154 Z-10.023
N7085 X-8.674 Y-22.127 Z-10.014
N7090 X-8.779 Y-22.115 Z-10.004
N7095 X-8.823 Y-22.114 Z-10.
N7100 X-9.919 Y-22.081
N7105 X-20.081 Y-21.778 F#105
N7110 X-21.177 Y-21.745 F#103
N7115 X-21.18
N7120 G3 X-21.9 Y-22.421 Z-10.1 I-0.021 J-0.7
N7125 X-20.521 Y-24.987 I2.855 J-0.12 F#100
N7130 X-14.422 Y-27.059 I5.811 J7.092
N7135 X-9.058 Y-25.725 I0.768 J8.366
N7140 X-8.105 Y-23.217 I-1.974 J2.185
N7145 G1 X-8.116 Y-23.113 Z-10.09 F#104
N7150 X-8.143 Y-23.011 Z-10.081
N7155 X-8.184 Y-22.915 Z-10.071
N7160 X-8.239 Y-22.826 Z-10.062
N7165 X-8.308 Y-22.746 Z-10.052
N7170 X-8.387 Y-22.678 Z-10.042
N7175 X-8.476 Y-22.622 Z-10.033
N7180 X-8.573 Y-22.58 Z-10.023
N7185 X-8.674 Y-22.552 Z-10.014
N7190 X-8.779 Y-22.541 Z-10.004
N7195 X-8.823 Y-22.54 Z-10.
N7200 X-9.919 Y-22.508
N7205 X-20.081 Y-22.212 F#105
N7210 X-21.177 Y-22.18 F#103
N7215 X-21.18
N7220 G3 X-21.9 Y-22.856 Z-10.1 I-0.02 J-0.7
N7225 X-20.541 Y-25.398 I2.845 J-0.113 F#100
N7230 X-14.122 Y-27.487 I5.898 J7.212
N7235 X-9.068 Y-26.155 I0.559 J8.129
N7240 X-8.106 Y-23.643 I-1.939 J2.183
N7245 G1 X-8.117 Y-23.539 Z-10.09 F#104
N7250 X-8.143 Y-23.438 Z-10.081
N7255 X-8.184 Y-23.342 Z-10.071
N7260 X-8.24 Y-23.253 Z-10.062
N7265 X-8.308 Y-23.173 Z-10.052
N7270 X-8.387 Y-23.104 Z-10.042
N7275 X-8.476 Y-23.048 Z-10.033
N7280 X-8.572 Y-23.006 Z-10.023
N7285 X-8.673 Y-22.979 Z-10.014
N7290 X-8.778 Y-22.967 Z-10.004
N7295 X-8.823 Y-22.966 Z-10.
N7300 X-9.918 Y-22.932
N7305 X-20.081 Y-22.62 F#105
N7310 X-21.177 Y-22.586 F#103
N7315 X-21.179
N7320 G3 X-21.9 Y-23.261 Z-10.1 I-0.021 J-0.7
N7325 X-20.543 Y-25.822 I2.844 J-0.132 F#100
N7330 X-14.125 Y-27.913 I5.899 J7.208
N7335 X-9.069 Y-26.582 I0.561 J8.133
N7340 X-8.109 Y-24.069 I-1.932 J2.178
N7345 G1 X-8.12 Y-23.966 Z-10.09 F#104
N7350 X-8.146 Y-23.865 Z-10.081
N7355 X-8.186 Y-23.769 Z-10.071
N7360 X-8.241 Y-23.68 Z-10.062
N7365 X-8.309 Y-23.6 Z-10.052
N7370 X-8.388 Y-23.531 Z-10.042
N7375 X-8.476 Y-23.475 Z-10.033
N7380 X-8.572 Y-23.432 Z-10.023
N7385 X-8.674 Y-23.405 Z-10.014
N7390 X-8.779 Y-23.393 Z-10.004
N7395 X-8.823 Y-23.391 Z-10.
N7400 X-9.919 Y-23.359
N7405 X-20.081 Y-23.054 F#105
N7410 X-21.177 Y-23.021 F#103
N7415 X-21.179
N7420 G3 X-21.9 Y-23.696 Z-10.1 I-0.021 J-0.7
N7425 X-20.525 Y-26.262 I2.853 J-0.122 F#100
N7430 X-14.431 Y-28.336 I5.812 J7.085
N7435 X-9.068 Y-27.01 I0.773 J8.378
N7440 X-8.101 Y-24.516 I-2.158 J2.273
N7445 X-8.779 Y-23.835 Z-10.004 I-0.7 J-0.019 F#104
N7450 G1 X-8.818 Y-23.833 Z-10.
N7455 X-9.914 Y-23.8
N7460 X-20.081 Y-23.49 F#105
N7465 X-21.177 Y-23.456 F#103
N7470 X-21.179
N7475 G3 X-21.9 Y-24.132 Z-10.1 I-0.021 J-0.7
N7480 X-20.509 Y-26.7 I2.865 J-0.109 F#100
N7485 X-14.392 Y-28.763 I5.807 J7.119
N7490 X-9.157 Y-27.499 I0.734 J8.435
N7495 X-8.125 Y-25.109 I-1.91 J2.242
N7500 G1 X-8.128 Y-25.011 Z-10.091 F#104
N7505 X-8.144 Y-24.914 Z-10.082
N7510 X-8.174 Y-24.821 Z-10.073
N7515 X-8.218 Y-24.732 Z-10.064
N7520 X-8.273 Y-24.65 Z-10.055
N7525 X-8.339 Y-24.577 Z-10.046
N7530 X-8.416 Y-24.514 Z-10.037
N7535 X-8.5 Y-24.463 Z-10.028
N7540 X-8.591 Y-24.424 Z-10.019
N7545 X-8.687 Y-24.398 Z-10.009
N7550 X-8.786 Y-24.386 Z-10.
N7555 X-8.79
N7560 X-9.885 Y-24.341
N7565 X-20.086 Y-23.93 F#105
N7570 X-21.171 Y-23.886 F#103
N7575 X-21.181
N7580 G3 X-21.899 Y-24.567 Z-10.1 I-0.018 J-0.7
N7585 X-20.501 Y-27.136 I2.917 J-0.078 F#100
N7590 X-13.685 Y-29.184 I5.963 J7.482
N7595 X-8.974 Y-27.78 I0.275 J7.683
N7600 X-8.149 Y-25.587 I-2.816 J2.312
N7605 X-8.816 Y-24.857 Z-10. I-0.699 J0.031 F#104
N7610 G1 X-9.911 Y-24.811
N7615 X-20.088 Y-24.385 F#105
N7620 X-21.161 Y-24.34 F#103
N7625 X-21.183 Y-24.339
N7630 G3 X-21.891 Y-25.031 Z-10.1 I-0.008 J-0.7
N7635 X-20.277 Y-27.735 I3.123 J0.031 F#100
N7640 X-13.869 Y-29.62 I5.736 J7.665
N7645 X-9.217 Y-28.379 I0.35 J8.03
N7650 X-8.265 Y-26.39 I-2.869 J2.596
N7655 X-8.836 Y-25.581 Z-10. I-0.69 J0.119 F#104
N7660 X-8.912 Y-25.573 I-0.119 J-0.69
N7665 G1 X-9.929 Y-25.509
N7670 X-20.093 Y-24.879 F#105
N7675 X-21.112 Y-24.816 F#103
N7680 X-21.149 Y-24.815
N7685 X-21.187 Y-24.816
N7690 G3 X-21.855 Y-25.546 Z-10.1 I0.032 J-0.699
N7695 X-20.121 Y-28.274 I3.257 J0.156 F#100
N7700 X-12.906 Y-29.989 I5.77 J8.235
N7705 X-9.337 Y-28.81 I-0.131 J6.386
N7710 X-8.502 Y-27.243 I-3.691 J2.974
N7715 G1 X-8.478 Y-27.146 Z-10.091 F#104
N7720 X-8.469 Y-27.047 Z-10.082
N7725 X-8.474 Y-26.948 Z-10.073
N7730 X-8.492 Y-26.85 Z-10.064
N7735 X-8.525 Y-26.756 Z-10.055
N7740 X-8.571 Y-26.667 Z-10.045
N7745 X-8.629 Y-26.586 Z-10.036
N7750 X-8.697 Y-26.514 Z-10.027
N7755 X-8.776 Y-26.452 Z-10.018
N7760 X-8.862 Y-26.402 Z-10.009
N7765 X-8.955 Y-26.365 Z-10.
N7770 G3 X-9.113 Y-26.335 I-0.212 J-0.667
N7775 G1 X-10.044 Y-26.263
N7780 X-20.104 Y-25.49 F#105
N7785 X-21.023 Y-25.419 F#103
N7790 G3 X-21.196 Y-25.427 I-0.054 J-0.698
N7795 X-21.767 Y-26.235 Z-10.1 I0.119 J-0.69
N7800 X-19.748 Y-28.946 I3.539 J0.529 F#100
N7805 X-10.246 Y-29.789 I5.593 J9.067
N7810 X-8.872 Y-28.108 I-2.303 J3.284
N7815 G1 X-8.835 Y-28.016 Z-10.091 F#104
N7820 X-8.812 Y-27.919 Z-10.082
N7825 X-8.803 Y-27.821 Z-10.073
N7830 X-8.808 Y-27.721 Z-10.064
N7835 X-8.827 Y-27.624 Z-10.055
N7840 X-8.86 Y-27.53 Z-10.045
N7845 X-8.906 Y-27.442 Z-10.036
N7850 X-8.964 Y-27.361 Z-10.027
N7855 X-9.033 Y-27.289 Z-10.018
N7860 X-9.112 Y-27.227 Z-10.009
N7865 X-9.198 Y-27.178 Z-10.
N7870 G3 X-9.43 Y-27.113 I-0.301 J-0.632
N7875 G1 X-10.28 Y-27.03
N7880 X-19.994 Y-26.074 F#105
N7885 X-20.884 Y-25.987 F#103
N7890 G3 X-21.085 Y-25.996 I-0.069 J-0.697
N7895 X-21.639 Y-26.815 Z-10.1 I0.133 J-0.687
N7900 X-18.872 Y-29.844 I4.155 J1.018 F#100
N7905 X-10.968 Y-30.471 I4.738 J9.584
N7910 X-9.432 Y-29.032 I-2.298 J3.992
N7915 X-9.612 Y-28.059 Z-10. I-0.577 J0.397 F#104
N7920 X-9.937 Y-27.939 I-0.397 J-0.576
N7925 G1 X-10.678 Y-27.863
N7930 X-19.797 Y-26.919 F#105
N7935 X-20.56 Y-26.84 F#103
N7940 G3 X-20.883 Y-26.883 I-0.072 J-0.696
N7945 X-21.285 Y-27.787 Z-10.1 I0.251 J-0.653
N7950 X-17.852 Y-30.679 I4.555 J1.923 F#100
N7955 X-11.726 Y-31.073 I3.683 J9.445
N7960 X-10.13 Y-29.866 I-4.4 J7.476
N7965 G1 X-10.069 Y-29.786 Z-10.091 F#104
N7970 X-10.02 Y-29.698 Z-10.082
N7975 X-9.984 Y-29.605 Z-10.073
N7980 X-9.962 Y-29.507 Z-10.064
N7985 X-9.954 Y-29.407 Z-10.055
N7990 X-9.96 Y-29.307 Z-10.045
N7995 X-9.98 Y-29.209 Z-10.036
N8000 X-10.014 Y-29.115 Z-10.027
N8005 X-10.061 Y-29.027 Z-10.018
N8010 X-10.12 Y-28.946 Z-10.009
N8015 X-10.19 Y-28.875 Z-10.
N8020 G3 X-10.585 Y-28.701 I-0.466 J-0.523
N8025 G1 X-11.239 Y-28.635
N8030 X-19.416 Y-27.808 F#105
N8035 X-20.057 Y-27.744 F#103
N8040 G3 X-20.49 Y-27.841 I-0.07 J-0.696
N8045 X-20.727 Y-28.802 Z-10.1 I0.362 J-0.599
N8050 X-16.224 Y-31.532 I5.077 J3.295 F#100
N8055 X-13.518 Y-31.725 I1.83 J6.597
N8060 G1 X-13.422 Y-31.691 Z-10.091 F#104
N8065 X-13.332 Y-31.644 Z-10.082
N8070 X-13.25 Y-31.585 Z-10.073
N8075 X-13.177 Y-31.515 Z-10.064
N8080 X-13.116 Y-31.435 Z-10.055
N8085 X-13.066 Y-31.348 Z-10.045
N8090 X-13.029 Y-31.254 Z-10.036
N8095 X-13.006 Y-31.157 Z-10.027
N8100 X-12.997 Y-31.057 Z-10.018
N8105 X-13.002 Y-30.957 Z-10.009
N8110 X-13.022 Y-30.859 Z-10.
N8115 G3 X-13.51 Y-30.364 I-0.677 J-0.179
N8120 G1 X-13.864 Y-30.265
N8125 X-18.693 Y-28.915 F#105
N8130 X-19.074 Y-28.809 F#103
N8135 G3 X-19.728 Y-28.961 I-0.188 J-0.674
N8140 X-19.785 Y-29.948 Z-10.1 I0.466 J-0.523
N8145 X-11.434 Y-30.888 I4.786 J4.959 F#100
N8150 G1 X-11.351 Y-30.824 F#104
N8155 X-11.279 Y-30.748
N8160 X-11.219 Y-30.663
N8165 X-11.172 Y-30.569
N8170 X-11.139 Y-30.47
N8175 X-11.121 Y-30.367
N8180 X-11.119 Y-30.263
N8185 X-11.132 Y-30.159
N8190 X-11.16 Y-30.059
N8195 X-11.202 Y-29.964
N8200 X-11.259 Y-29.876
N8205 X-11.327 Y-29.798
N8210 X-11.407 Y-29.73
N8215 X-11.495 Y-29.676
N8220 X-11.591 Y-29.634
N8225 X-11.691 Y-29.608
N8230 X-11.794 Y-29.596
N8235 X-11.898 Y-29.6
N8240 X-12. Y-29.62
N8245 X-12.098 Y-29.654
N8250 X-12.19 Y-29.702
N8255 X-12.206 Y-29.712
N8260 X-12.29 Y-29.767 Z-10.093
N8265 X-12.371 Y-29.82 Z-10.072
N8270 X-12.449 Y-29.872 Z-10.037
N8275 X-12.523 Y-29.92 Z-9.989
N8280 X-12.589 Y-29.964 Z-9.929
N8285 X-12.648 Y-30.003 Z-9.858
N8290 X-12.698 Y-30.035 Z-9.778
N8295 X-12.738 Y-30.062 Z-9.691
N8300 X-12.768 Y-30.081 Z-9.597
N8305 X-12.785 Y-30.092 Z-9.5
N8310 X-12.791 Y-30.096 Z-9.4
N8315 G0 Z2.125
N8320 X-3.467 Y4.373
N8325 Z-8.7
N8330 G1 Z-9.4 F#103
N8335 X-3.461 Y4.369 Z-9.5
N8340 X-3.445 Y4.355 Z-9.597
N8345 X-3.418 Y4.333 Z-9.691
N8350 X-3.382 Y4.302 Z-9.778
N8355 X-3.336 Y4.263 Z-9.858
N8360 X-3.282 Y4.218 Z-9.929
N8365 X-3.22 Y4.166 Z-9.989
N8370 X-3.153 Y4.11 Z-10.037
N8375 X-3.082 Y4.05 Z-10.072
N8380 X-3.007 Y3.987 Z-10.093
N8385 X-2.931 Y3.923 Z-10.1
N8390 G3 X-0.949 Y2.97 I2.85 J3.393
N8395 G2 X2.705 Y-0.087 I-0.997 J-4.904 F#100
N8400 G1 X2.757 Y-0.177 F#104
N8405 X2.821 Y-0.259
N8410 X2.897 Y-0.331
N8415 X2.982 Y-0.39
N8420 X3.075 Y-0.436
N8425 X3.174 Y-0.468
N8430 X3.277 Y-0.485
N8435 X3.381 Y-0.487
N8440 X3.484 Y-0.473
N8445 X3.583 Y-0.444
N8450 X3.678 Y-0.401
N8455 X3.765 Y-0.344
N8460 X3.843 Y-0.275
N8465 X3.909 Y-0.196
N8470 X3.963 Y-0.107
N8475 X4.004 Y-0.011
N8480 X4.03 Y0.089
N8485 X4.04 Y0.192
N8490 X4.036 Y0.296
N8495 X4.016 Y0.398
N8500 X3.981 Y0.496
N8505 X3.973 Y0.513
N8510 X3.931 Y0.603 Z-10.093
N8515 X3.889 Y0.691 Z-10.072
N8520 X3.849 Y0.776 Z-10.037
N8525 X3.811 Y0.855 Z-9.989
N8530 X3.777 Y0.927 Z-9.929
N8535 X3.747 Y0.991 Z-9.858
N8540 X3.721 Y1.045 Z-9.778
N8545 X3.701 Y1.089 Z-9.691
N8550 X3.686 Y1.12 Z-9.597
N8555 X3.677 Y1.139 Z-9.5
N8560 X3.674 Y1.146 Z-9.4
N8565 G0 Z4.
(2D CONTOUR2)
N8575 M8
N8580 G0 X-34.5 Y-2.5
N8585 #100=330. (CUTTING)
N8590 #103=200. (ENTRY)
N8595 #104=200. (EXIT)
N8600 #108=100. (PLUNGE)
N8605 Z4.
N8610 Z2.
N8615 G1 Z1. F#103
N8620 Z-9.7 F#108
N8625 G18 G2 X-34. Z-10.2 I0.5 K0.
N8630 G1 X-33.5 F#103
N8635 G17 G3 X-33. Y-2. I0. J0.5
N8640 G2 X-28. Y3. I5. J0. F#100
N8645 G1 X-27.
N8650 G2 X-22. Y-2. I0. J-5.
N8655 G1 Y-25.
N8660 G3 X-8. I7. J0.
N8665 G1 Y-2.
N8670 G2 X-3. Y3. I5. J0.
N8675 G1 X-2.
N8680 G2 X3. Y-2. I0. J-5.
N8685 G3 X3.5 Y-2.5 I0.5 J0. F#104
N8690 G1 X4.
N8695 G18 G2 X4.5 Z-9.7 I0. K0.5
N8700 G0 Z4.
N8705 G17
(2D ADAPTIVE1)
N8710 M8
N8715 G0 X5.082 Y-58.377
N8720 #100=330. (CUTTING)
N8725 #103=200. (ENTRY)
N8730 #104=200. (EXIT)
N8735 #105=3000. (DIRECT)
N8740 #106=82.5 (REDUCED)
N8745 Z4.
N8750 Z-5.
N8755 G1 Z-5.5 F#103
N8760 X5.075 Y-58.375 Z-5.587
N8765 X5.053 Y-58.37 Z-5.671
N8770 X5.017 Y-58.36 Z-5.75
N8775 X4.969 Y-58.348 Z-5.821
N8780 X4.909 Y-58.333 Z-5.883
N8785 X4.84 Y-58.315 Z-5.933
N8790 X4.764 Y-58.295 Z-5.97
N8795 X4.682 Y-58.275 Z-5.992
N8800 X4.598 Y-58.253 Z-6.
N8805 G3 X3.043 Y-58.029 I-1.809 J-7.063
N8810 G1 X2.96 F#106
N8815 G3 X3.533 Y-59. I0.573 J-0.316 F#100
N8820 X3.509 Y-58. I-0.017 J0.5 F#104
N8825 G1 X3.498 Y-58.001
N8830 X3.411 Y-58.004 Z-5.992
N8835 X3.327 Y-58.007 Z-5.97
N8840 X3.248 Y-58.009 Z-5.933
N8845 X3.177 Y-58.012 Z-5.883
N8850 X3.115 Y-58.014 Z-5.821
N8855 X3.065 Y-58.016 Z-5.75
N8860 X3.029 Y-58.017 Z-5.671
N8865 X3.006 Y-58.018 Z-5.587
N8870 X2.998 Z-5.5
N8875 G0 Z2.
N8880 X4.207 Y-28.274
N8885 Z-5.
N8890 G1 Z-5.5 F#103
N8895 X4.202 Y-28.279 Z-5.587
N8900 X4.185 Y-28.294 Z-5.671
N8905 X4.158 Y-28.319 Z-5.75
N8910 X4.121 Y-28.352 Z-5.821
N8915 X4.075 Y-28.394 Z-5.883
N8920 X4.022 Y-28.442 Z-5.933
N8925 X3.963 Y-28.495 Z-5.97
N8930 X3.901 Y-28.551 Z-5.992
N8935 X3.837 Y-28.609 Z-6.
N8940 G3 X2.971 Y-29.92 I2.125 J-2.346
N8945 X2.514 Y-35.113 I14.222 J-3.868 F#100
N8950 G1 X2.473 Y-36.002
N8955 X2.471 Y-37.774
N8960 X2.47 Y-53.724
N8965 Y-56.383
N8970 G3 X2.734 Y-58.122 I2.401 J-0.525
N8975 X4.327 Y-59. I1.594 J1.008
N8980 X4.303 Y-58. I-0.017 J0.5 F#104
N8985 G1 X4.293 Y-58.001
N8990 X4.206 Y-58.004 Z-5.992
N8995 X4.122 Y-58.007 Z-5.97
N9000 X4.043 Y-58.009 Z-5.933
N9005 X3.971 Y-58.012 Z-5.883
N9010 X3.91 Y-58.014 Z-5.821
N9015 X3.86 Y-58.016 Z-5.75
N9020 X3.823 Y-58.017 Z-5.671
N9025 X3.8 Y-58.018 Z-5.587
N9030 X3.793 Z-5.5
N9035 G0 Z-5.
N9040 X4.07 Y-28.728
N9045 G1 Z-5.5 F#103
N9050 X4.065 Y-28.733 Z-5.587
N9055 X4.048 Y-28.748 Z-5.671
N9060 X4.02 Y-28.772 Z-5.75
N9065 X3.983 Y-28.806 Z-5.821
N9070 X3.938 Y-28.847 Z-5.883
N9075 X3.885 Y-28.895 Z-5.933
N9080 X3.826 Y-28.948 Z-5.97
N9085 X3.764 Y-29.005 Z-5.992
N9090 X3.699 Y-29.063 Z-6.
N9095 G3 X2.832 Y-30.372 I2.122 J-2.348
N9100 X2.028 Y-35.79 I10.802 J-4.37 F#100
N9105 X1.97 Y-41.221 I93.431 J-3.711
N9110 G1 Y-55.399
N9115 G3 X2.843 Y-58.501 I3.665 J-0.642
N9120 X4.379 Y-59. I1.617 J2.362
N9125 X4.354 Y-58. I-0.017 J0.5 F#104
N9130 G1 X4.344 Y-58.001
N9135 X4.257 Y-58.004 Z-5.992
N9140 X4.173 Y-58.007 Z-5.97
N9145 X4.094 Y-58.009 Z-5.933
N9150 X4.022 Y-58.012 Z-5.883
N9155 X3.961 Y-58.014 Z-5.821
N9160 X3.911 Y-58.016 Z-5.75
N9165 X3.874 Y-58.017 Z-5.671
N9170 X3.851 Y-58.018 Z-5.587
N9175 X3.844 Z-5.5
N9180 G0 Z-5.
N9185 X3.795 Y-29.812
N9190 G1 Z-5.5 F#103
N9195 X3.789 Y-29.817 Z-5.587
N9200 X3.772 Y-29.831 Z-5.671
N9205 X3.743 Y-29.854 Z-5.75
N9210 X3.704 Y-29.885 Z-5.821
N9215 X3.655 Y-29.924 Z-5.883
N9220 X3.6 Y-29.968 Z-5.933
N9225 X3.538 Y-30.018 Z-5.97
N9230 X3.472 Y-30.07 Z-5.992
N9235 X3.404 Y-30.124 Z-6.
N9240 G3 X2.458 Y-31.378 I1.975 J-2.474
N9245 X1.531 Y-37.196 I11.036 J-4.742 F#100
N9250 G2 X-0.965 Y-39.658 I-2.921 J0.466
N9255 X-2.155 Y-39.588 I-0.425 J2.928 F#106
N9260 G3 X-2.585 Y-43.44 I9.788 J-3.042 F#100
N9265 X-2.63 Y-48.759 I122.192 J-3.683
N9270 G1 Y-52.629
N9275 Y-53.829 F#106
N9280 G2 X0.405 Y-55.316 I0.291 J-3.245 F#100
N9285 X1.866 Y-57.964 I-21.632 J-13.664
N9290 G3 X3.925 Y-59.003 I2.096 J1.596
N9295 G1 X4.011 Y-58.992 F#104
N9300 X4.094 Y-58.967
N9305 X4.172 Y-58.927
N9310 X4.241 Y-58.875
N9315 X4.301 Y-58.812
N9320 X4.349 Y-58.739
N9325 X4.383 Y-58.659
N9330 X4.403 Y-58.575
N9335 X4.409 Y-58.488
N9340 X4.399 Y-58.402
N9345 X4.374 Y-58.319
N9350 X4.336 Y-58.241
N9355 X4.285 Y-58.171
N9360 X4.222 Y-58.111
N9365 X4.15 Y-58.063
N9370 X4.071 Y-58.028
N9375 X3.987 Y-58.007
N9380 X3.901 Y-58.
N9385 X3.89 Y-58.001
N9390 X3.803 Y-58.004 Z-5.992
N9395 X3.719 Y-58.007 Z-5.97
N9400 X3.64 Y-58.009 Z-5.933
N9405 X3.569 Y-58.012 Z-5.883
N9410 X3.507 Y-58.014 Z-5.821
N9415 X3.457 Y-58.016 Z-5.75
N9420 X3.42 Y-58.017 Z-5.671
N9425 X3.398 Y-58.018 Z-5.587
N9430 X3.39 Z-5.5
N9435 G0 Z-5.
N9440 X3.363 Y-31.041
N9445 G1 Z-5.5 F#103
N9450 X3.357 Y-31.046 Z-5.587
N9455 X3.339 Y-31.06 Z-5.671
N9460 X3.31 Y-31.082 Z-5.75
N9465 X3.27 Y-31.113 Z-5.821
N9470 X3.222 Y-31.151 Z-5.883
N9475 X3.165 Y-31.194 Z-5.933
N9480 X3.103 Y-31.242 Z-5.97
N9485 X3.036 Y-31.294 Z-5.992
N9490 X2.967 Y-31.347 Z-6.
N9495 G3 X2.001 Y-32.585 I1.934 J-2.505
N9500 X1.093 Y-35.961 I6.663 J-3.601 F#100
N9505 G2 X-1.6 Y-38.712 I-4.101 J1.32
N9510 G3 X-2.771 Y-40.666 I1.43 J-2.185
N9515 X-3.088 Y-48.851 I41.578 J-5.71
N9520 X-3.115 Y-53. I47.645 J-2.379
N9525 G2 X-2.998 Y-53.566 I-45.319 J-9.617
N9530 X-2.779 Y-54.746 I-45.435 J-9.051 F#106
N9535 X0.732 Y-57.221 I-1.034 J-5.197 F#100
N9540 G3 X2.201 Y-58.717 I3.284 J1.754
N9545 G1 X2.583 Y-58.873
N9550 X2.985 Y-58.968
N9555 X3.397 Y-59.
N9560 G3 X3.879 Y-58.483 Z-5.9 I-0.017 J0.5 F#104
N9565 G1 Y-58.476
N9570 X3.841 Y-57.705
N9575 X2.651 Y-33.729 F#105
N9580 X2.637 Y-33.437 F#103
N9585 G3 X2.397 Y-33.035 I-0.499 J-0.025
N9590 X1.71 Y-33.202 Z-6. I-0.26 J-0.427
N9595 X0.774 Y-35.255 I6.589 J-4.244 F#100
N9600 G2 X-1.997 Y-38.355 I-6.88 J3.36
N9605 G3 X-3.438 Y-42.821 I5.691 J-4.303
N9610 X-3.611 Y-49.766 I58.136 J-4.918
N9615 X-3.368 Y-53.952 I14.841 J-1.238
N9620 X-3.248 Y-54.492 I14.598 J2.948 F#106
N9625 X-2.906 Y-55.041 I4.63 J2.499
N9630 G2 X0.793 Y-58.166 I-4.515 J-9.099 F#100
N9635 G3 X2.765 Y-59. I1.994 J1.967
N9640 X3.248 Y-58.483 Z-5.9 I-0.017 J0.5 F#104
N9645 G1 X3.213 Y-57.705
N9650 X2.196 Y-34.537 F#105
N9655 X2.183 Y-34.248 F#103
N9660 G3 X1.943 Y-33.843 I-0.5 J-0.022
N9665 X1.256 Y-34.01 Z-6. I-0.26 J-0.427
N9670 G2 X-2.768 Y-39.026 I-15.594 J8.388 F#100
N9675 G3 X-3.975 Y-43.83 I8.201 J-4.616
N9680 X-3.943 Y-53.515 I60.648 J-4.638
N9685 X-2.39 Y-55.776 I3.528 J0.759
N9690 G2 X0.225 Y-58.237 I-18.312 J-22.076
N9695 G3 X2.126 Y-59. I1.94 J2.082
N9700 X2.608 Y-58.483 Z-5.9 I-0.017 J0.5 F#104
N9705 X2.597 Y-58.394 I-0.5 J-0.017
N9710 G1 X2.451 Y-57.72
N9715 X-1.52 Y-39.495 F#105
N9720 X-1.631 Y-38.981 F#103
N9725 G3 X-1.745 Y-38.757 I-0.489 J-0.106
N9730 X-2.45 Y-38.712 Z-6. I-0.375 J-0.331
N9735 X-4.177 Y-42.057 I3.004 J-3.669 F#100
N9740 X-4.587 Y-49.515 I32.153 J-5.506
N9745 X-3.92 Y-54.667 I10.931 J-1.204
N9750 X0.197 Y-58.739 I23.387 J19.526
N9755 G1 X0.62 Y-58.865
N9760 X1.033 Y-58.966
N9765 X1.456 Y-59.
N9770 G3 X1.938 Y-58.483 Z-5.9 I-0.017 J0.5 F#104
N9775 X1.927 Y-58.394 I-0.5 J-0.017
N9780 G1 X1.781 Y-57.72
N9785 X-2.066 Y-40.01 F#105
N9790 X-2.178 Y-39.492 F#103
N9795 G3 X-2.289 Y-39.271 I-0.489 J-0.106
N9800 X-2.994 Y-39.22 Z-6. I-0.378 J-0.327
N9805 X-4.597 Y-42.189 I2.618 J-3.331 F#100
N9810 X-5.081 Y-49.193 I26.39 J-5.339
N9815 X-4.316 Y-54.65 I11.213 J-1.211
N9820 X-0.75 Y-58.536 I16.412 J11.483
N9825 X0.779 Y-59. I1.556 J2.375
N9830 X1.262 Y-58.483 Z-5.9 I-0.017 J0.5 F#104
N9835 X1.252 Y-58.399 I-0.5 J-0.017
N9840 G1 X1.111 Y-57.719
N9845 X-2.472 Y-40.428 F#105
N9850 X-2.591 Y-39.855 F#103
N9855 G3 X-2.666 Y-39.677 I-0.49 J-0.101
N9860 X-3.359 Y-39.541 Z-6. I-0.415 J-0.279
N9865 X-5.019 Y-42.365 I2.122 J-3.147 F#100
N9870 X-5.574 Y-48.165 I19.333 J-4.776
N9875 X-4.826 Y-54.479 I14.183 J-1.521
N9880 X-1.134 Y-58.742 I12.923 J7.461
N9885 G1 X-0.713 Y-58.866
N9890 X-0.301 Y-58.966
N9895 X0.121 Y-59.
N9900 G3 X0.603 Y-58.483 Z-5.9 I-0.017 J0.5 F#104
N9905 X0.594 Y-58.404 I-0.5 J-0.017
N9910 G1 X0.459 Y-57.718
N9915 X-2.879 Y-40.722 F#105
N9920 X-2.993 Y-40.144 F#103
N9925 G3 X-3.063 Y-39.969 I-0.491 J-0.096
N9930 X-3.754 Y-39.82 Z-6. I-0.42 J-0.271
N9935 X-5.477 Y-42.654 I2.074 J-3.201 F#100
N9940 X-6.075 Y-48.279 I19.208 J-4.888
N9945 X-4.998 Y-54.993 I13.182 J-1.329
N9950 X-2.141 Y-58.466 I13.072 J7.844
N9955 X-0.513 Y-59. I1.653 J2.292
N9960 X-0.031 Y-58.483 Z-5.9 I-0.017 J0.5 F#104
N9965 X-0.039 Y-58.408 I-0.5 J-0.017
N9970 G1 X-0.17 Y-57.717
N9975 X-3.318 Y-41.026 F#105
N9980 X-3.427 Y-40.449 F#103
N9985 G3 X-3.498 Y-40.271 I-0.491 J-0.093
N9990 X-4.188 Y-40.12 Z-6. I-0.421 J-0.27
N9995 X-5.946 Y-42.966 I2.087 J-3.255 F#100
N10000 X-6.551 Y-49.428 I19.869 J-5.118
N10005 X-2.765 Y-58.443 I11.243 J-0.581
N10010 X-1.123 Y-59.001 I1.659 J2.191
N10015 G1 X-1.036 Y-58.99 Z-5.989 F#104
N10020 X-0.953 Y-58.964 Z-5.978
N10025 X-0.875 Y-58.925 Z-5.967
N10030 X-0.806 Y-58.872 Z-5.956
N10035 X-0.746 Y-58.808 Z-5.944
N10040 X-0.699 Y-58.735 Z-5.933
N10045 X-0.665 Y-58.655 Z-5.922
N10050 X-0.645 Y-58.57 Z-5.911
N10055 X-0.641 Y-58.483 Z-5.9
N10060 G3 X-0.649 Y-58.41 I-0.5 J-0.017
N10065 G1 X-0.776 Y-57.716
N10070 X-3.775 Y-41.34 F#105
N10075 X-3.88 Y-40.765 F#103
N10080 G3 X-3.951 Y-40.585 I-0.492 J-0.09
N10085 X-4.642 Y-40.434 Z-6. I-0.421 J-0.27
N10090 X-6.42 Y-43.287 I2.107 J-3.295 F#100
N10095 X-6.362 Y-53.954 I19.803 J-5.224
N10100 X-3.158 Y-58.593 I10.56 J3.867
N10105 X-1.707 Y-59. I1.486 J2.509
N10110 X-1.225 Y-58.483 Z-5.9 I-0.017 J0.5 F#104
N10115 X-1.232 Y-58.412 I-0.5 J-0.017
N10120 G1 X-1.357 Y-57.715
N10125 X-4.237 Y-41.658 F#105
N10130 X-4.34 Y-41.085 F#103
N10135 G3 X-4.411 Y-40.903 I-0.492 J-0.088
N10140 X-5.102 Y-40.752 Z-6. I-0.421 J-0.27
N10145 X-6.829 Y-43.354 I1.9 J-3.136 F#100
N10150 X-6.636 Y-54.422 I18.052 J-5.221
N10155 X-4.016 Y-58.381 I11.892 J5.024
N10160 X-2.274 Y-59. I1.763 J2.201
N10165 X-1.792 Y-58.483 Z-5.9 I-0.017 J0.5 F#104
N10170 X-1.799 Y-58.416 I-0.5 J-0.017
N10175 G1 X-1.919 Y-57.714
N10180 X-4.621 Y-41.939 F#105
N10185 X-4.724 Y-41.336 F#103
N10190 G3 X-4.78 Y-41.179 I-0.493 J-0.084
N10195 X-5.459 Y-40.983 Z-6. I-0.438 J-0.242
N10200 X-7.252 Y-43.498 I1.649 J-3.073 F#100
N10205 X-6.526 Y-55.719 I16.463 J-5.154
N10210 X-4.315 Y-58.596 I9.828 J5.265
N10215 X-2.826 Y-59. I1.577 J2.869
N10220 X-2.344 Y-58.483 Z-5.9 I-0.017 J0.5 F#104
N10225 X-2.35 Y-58.419 I-0.5 J-0.017
N10230 G1 X-2.467 Y-57.714
N10235 X-5.03 Y-42.197 F#105
N10240 X-5.133 Y-41.576 F#103
N10245 G3 X-5.179 Y-41.434 I-0.493 J-0.081
N10250 X-5.85 Y-41.211 Z-6. I-0.447 J-0.224
N10255 X-7.651 Y-43.561 I1.412 J-2.947 F#100
N10260 X-8.239 Y-51.571 I15.45 J-5.161
N10265 X-5.147 Y-58.363 I12.402 J1.545
N10270 X-3.366 Y-59. I1.816 J2.272
N10275 X-2.884 Y-58.483 Z-5.9 I-0.017 J0.5 F#104
N10280 X-2.889 Y-58.423 I-0.5 J-0.017
N10285 G1 X-3.001 Y-57.713
N10290 X-5.405 Y-42.407 F#105
N10295 G3 X-5.541 Y-41.64 I-2.86 J-0.114 F#103
N10300 G1 X-5.584 Y-41.564 Z-5.911
N10305 X-5.639 Y-41.496 Z-5.922
N10310 X-5.705 Y-41.439 Z-5.933
N10315 X-5.78 Y-41.394 Z-5.944
N10320 X-5.861 Y-41.363 Z-5.956
N10325 X-5.947 Y-41.347 Z-5.967
N10330 X-6.034 Y-41.346 Z-5.978
N10335 X-6.12 Y-41.359 Z-5.989
N10340 X-6.202 Y-41.388 Z-6.
N10345 G3 X-8.064 Y-43.546 I1.425 J-3.112 F#100
N10350 X-6.534 Y-57.381 I15.4 J-5.299
N10355 X-4.29 Y-59.005 I3.369 J2.295
N10360 G1 X-3.896 Y-59.
N10365 G3 X-3.413 Y-58.483 Z-5.9 I-0.017 J0.5 F#104
N10370 X-3.419 Y-58.424 I-0.5 J-0.017
N10375 G1 X-3.528 Y-57.712
N10380 X-5.852 Y-42.624 F#105
N10385 G3 X-5.986 Y-41.858 I-2.828 J-0.101 F#103
N10390 G1 X-6.029 Y-41.781 Z-5.911
N10395 X-6.084 Y-41.714 Z-5.922
N10400 X-6.15 Y-41.656 Z-5.933
N10405 X-6.225 Y-41.612 Z-5.944
N10410 X-6.306 Y-41.58 Z-5.956
N10415 X-6.392 Y-41.564 Z-5.967
N10420 X-6.479 Y-41.563 Z-5.978
N10425 X-6.565 Y-41.576 Z-5.989
N10430 X-6.648 Y-41.605 Z-6.
N10435 G3 X-8.513 Y-43.745 I1.441 J-3.14 F#100
N10440 X-6.767 Y-57.761 I15.064 J-5.24
N10445 X-4.413 Y-59. I2.681 J2.238
N10450 X-3.931 Y-58.483 Z-5.9 I-0.017 J0.5 F#104
N10455 X-3.936 Y-58.426 I-0.5 J-0.017
N10460 G1 X-4.044 Y-57.712
N10465 X-6.291 Y-42.838 F#105
N10470 X-6.387 Y-42.2 F#103
N10475 G3 X-6.425 Y-42.071 I-0.494 J-0.075
N10480 X-7.085 Y-41.818 Z-6. I-0.457 J-0.204
N10485 X-9.102 Y-44.368 I1.612 J-3.348 F#100
N10490 X-7.205 Y-57.841 I14.973 J-4.763
N10495 X-4.927 Y-59. I2.395 J1.889
N10500 X-4.445 Y-58.483 Z-5.9 I-0.017 J0.5 F#104
N10505 X-4.45 Y-58.427 I-0.5 J-0.017
N10510 G1 X-4.555 Y-57.712
N10515 X-6.718 Y-43.045 F#105
N10520 X-6.812 Y-42.41 F#103
N10525 G3 X-6.85 Y-42.279 I-0.495 J-0.073
N10530 X-7.51 Y-42.026 Z-6. I-0.457 J-0.204
N10535 X-9.527 Y-44.481 I1.496 J-3.284 F#100
N10540 X-7.639 Y-57.928 I14.747 J-4.786
N10545 X-5.434 Y-59. I2.323 J1.975
N10550 X-4.952 Y-58.483 Z-5.9 I-0.017 J0.5 F#104
N10555 X-4.957 Y-58.429 I-0.5 J-0.017
N10560 G1 X-5.06 Y-57.711
N10565 X-7.143 Y-43.267 F#105
N10570 G3 X-7.265 Y-42.498 I-3.364 J-0.142 F#103
N10575 G1 X-7.304 Y-42.42 Z-5.911
N10580 X-7.356 Y-42.35 Z-5.922
N10585 X-7.419 Y-42.289 Z-5.933
N10590 X-7.491 Y-42.241 Z-5.944
N10595 X-7.571 Y-42.205 Z-5.956
N10600 X-7.655 Y-42.184 Z-5.967
N10605 X-7.742 Y-42.179 Z-5.978
N10610 X-7.829 Y-42.188 Z-5.989
N10615 X-7.913 Y-42.212 Z-6.
N10620 G3 X-9.83 Y-44.35 I1.065 J-2.884 F#100
N10625 X-10.47 Y-51.776 I12.036 J-4.779
N10630 X-7.833 Y-58.256 I12.48 J1.303
N10635 X-5.936 Y-59. I1.93 J2.128
N10640 X-5.453 Y-58.483 Z-5.9 I-0.017 J0.5 F#104
N10645 X-5.458 Y-58.432 I-0.5 J-0.017
N10650 G1 X-5.558 Y-57.711
N10655 X-7.538 Y-43.437 F#105
N10660 G3 X-7.656 Y-42.667 I-3.054 J-0.072 F#103
N10665 G1 X-7.692 Y-42.588 Z-5.911
N10670 X-7.741 Y-42.517 Z-5.922
N10675 X-7.802 Y-42.455 Z-5.933
N10680 X-7.873 Y-42.404 Z-5.944
N10685 X-7.952 Y-42.367 Z-5.956
N10690 X-8.036 Y-42.343 Z-5.967
N10695 X-8.123 Y-42.335 Z-5.978
N10700 X-8.209 Y-42.342 Z-5.989
N10705 X-8.294 Y-42.364 Z-6.
N10710 G3 X-10.243 Y-44.401 I1.008 J-2.915 F#100
N10715 X-10.572 Y-53.483 I12.865 J-5.013
N10720 X-8.294 Y-58.279 I10.345 J1.975
N10725 X-6.434 Y-59. I1.883 J2.098
N10730 X-5.952 Y-58.483 Z-5.9 I-0.017 J0.5 F#104
N10735 X-5.956 Y-58.434 I-0.5 J-0.017
N10740 G1 X-6.053 Y-57.71
N10745 X-7.939 Y-43.613 F#105
N10750 X-8.033 Y-42.908 F#103
N10755 X-8.039 Y-42.874
N10760 X-8.047 Y-42.841
N10765 G3 X-8.661 Y-42.492 Z-6. I-0.482 J-0.133
N10770 X-10.597 Y-44.311 I0.9 J-2.897 F#100
N10775 X-10.932 Y-53.866 I12.786 J-5.232
N10780 X-8.808 Y-58.248 I9.609 J1.951
N10785 X-6.929 Y-59. I1.894 J2.01
N10790 X-6.447 Y-58.483 Z-5.9 I-0.017 J0.5 F#104
N10795 X-6.451 Y-58.436 I-0.5 J-0.017
N10800 G1 X-6.544 Y-57.71
N10805 X-8.345 Y-43.739 F#105
N10810 X-8.435 Y-43.036 F#103
N10815 X-8.441 Y-43.001
N10820 X-8.449 Y-42.967
N10825 G3 X-9.064 Y-42.617 Z-6. I-0.482 J-0.133
N10830 X-10.999 Y-44.385 I0.866 J-2.892 F#100
N10835 X-11.662 Y-52.755 I11.878 J-5.152
N10840 X-9.34 Y-58.222 I11.163 J1.516
N10845 X-7.419 Y-59. I1.944 J2.04
N10850 X-6.937 Y-58.483 Z-5.9 I-0.017 J0.5 F#104
N10855 X-6.941 Y-58.439 I-0.5 J-0.017
N10860 G1 X-7.03 Y-57.709
N10865 X-8.729 Y-43.858 F#105
N10870 X-8.815 Y-43.157 F#103
N10875 X-8.821 Y-43.121
N10880 X-8.83 Y-43.086
N10885 G3 X-9.444 Y-42.736 Z-6. I-0.482 J-0.133
N10890 X-11.435 Y-44.52 I0.836 J-2.935 F#100
N10895 X-12.11 Y-52.811 I11.715 J-5.128
N10900 X-9.827 Y-58.223 I10.991 J1.451
N10905 X-7.907 Y-59. I1.944 J2.042
N10910 X-7.425 Y-58.483 Z-5.9 I-0.017 J0.5 F#104
N10915 G1 X-7.428 Y-58.441
N10920 X-7.516 Y-57.709
N10925 X-9.163 Y-43.994 F#105
N10930 X-9.248 Y-43.294 F#103
N10935 X-9.253 Y-43.257
N10940 X-9.262 Y-43.221
N10945 G3 X-9.876 Y-42.871 Z-6. I-0.482 J-0.133
N10950 X-12.025 Y-44.972 I0.991 J-3.164 F#100
N10955 X-11.711 Y-55.769 I13.431 J-5.012
N10960 X-9.654 Y-58.727 I5.452 J1.598
N10965 G1 X-9.236 Y-58.863
N10970 X-8.82 Y-58.966
N10975 X-8.393 Y-59.
N10980 G3 X-7.91 Y-58.483 Z-5.9 I-0.017 J0.5 F#104
N10985 G1 X-7.913 Y-58.443
N10990 X-7.998 Y-57.709
N10995 X-9.569 Y-44.12 F#105
N11000 X-9.65 Y-43.421 F#103
N11005 X-9.656 Y-43.384
N11010 X-9.665 Y-43.346
N11015 G3 X-10.279 Y-42.997 Z-6. I-0.482 J-0.133
N11020 X-12.365 Y-45.005 I0.707 J-2.823 F#100
N11025 X-13.214 Y-51.553 I10.072 J-4.634
N11030 X-10.798 Y-58.241 I12.191 J0.624
N11035 X-8.877 Y-59. I1.959 J2.145
N11040 X-8.395 Y-58.483 Z-5.9 I-0.017 J0.5 F#104
N11045 G1 X-8.397 Y-58.446
N11050 X-8.478 Y-57.708
N11055 X-9.953 Y-44.255 F#105
N11060 X-10.032 Y-43.529 F#103
N11065 X-10.036 Y-43.505
N11070 X-10.04 Y-43.481
N11075 G3 X-10.632 Y-43.094 Z-6. I-0.489 J-0.103
N11080 X-12.72 Y-44.868 I0.636 J-2.864 F#100
N11085 X-13.468 Y-52.893 I11.234 J-5.095
N11090 X-11.303 Y-58.196 I10.668 J1.263
N11095 X-9.358 Y-59. I1.968 J2.004
N11100 X-8.876 Y-58.483 Z-5.9 I-0.017 J0.5 F#104
N11105 G1 X-8.878 Y-58.448
N11110 X-8.956 Y-57.708
N11115 X-10.352 Y-44.373 F#105
N11120 X-10.43 Y-43.626 F#103
N11125 X-10.434 Y-43.598
N11130 G3 X-11.007 Y-43.184 Z-6. I-0.494 J-0.08
N11135 X-13.085 Y-44.858 I0.509 J-2.759 F#100
N11140 X-13.968 Y-52.628 I10.747 J-5.156
N11145 X-11.759 Y-58.225 I10.823 J1.037
N11150 X-9.838 Y-59. I1.948 J2.06
N11155 X-9.356 Y-58.483 Z-5.9 I-0.017 J0.5 F#104
N11160 G1 X-9.358 Y-58.452
N11165 X-9.429 Y-57.707
N11170 X-10.706 Y-44.456 F#105
N11175 X-10.78 Y-43.691 F#103
N11180 X-10.781 Y-43.68
N11185 G3 X-11.335 Y-43.242 Z-6. I-0.497 J-0.058
N11190 X-13.388 Y-44.743 I0.395 J-2.694 F#100
N11195 X-14.502 Y-52.044 I9.896 J-5.245
N11200 X-12.272 Y-58.195 I11.433 J0.665
N11205 X-10.315 Y-59. I1.988 J2.05
N11210 X-9.833 Y-58.483 Z-5.9 I-0.017 J0.5 F#104
N11215 G1 X-9.835 Y-58.455
N11220 X-9.902 Y-57.707
N11225 X-11.091 Y-44.514 F#105
N11230 X-11.16 Y-43.752 F#103
N11235 X-11.161 Y-43.738
N11240 G3 X-11.716 Y-43.3 Z-6. I-0.497 J-0.058
N11245 X-13.78 Y-44.777 I0.38 J-2.711 F#100
N11250 X-14.961 Y-51.95 I9.667 J-5.277
N11255 X-12.713 Y-58.245 I11.445 J0.539
N11260 X-10.792 Y-59. I1.962 J2.171
N11265 X-10.31 Y-58.483 Z-5.9 I-0.017 J0.5 F#104
N11270 G1 X-10.311 Y-58.459
N11275 X-10.374 Y-57.706
N11280 X-11.471 Y-44.572 F#105
N11285 X-11.535 Y-43.812 F#103
N11290 X-11.536 Y-43.795
N11295 G3 X-12.091 Y-43.357 Z-6. I-0.497 J-0.058
N11300 X-14.19 Y-44.837 I0.363 J-2.744 F#100
N11305 X-15.408 Y-51.966 I9.584 J-5.306
N11310 X-13.192 Y-58.24 I11.355 J0.482
N11315 X-11.267 Y-59. I1.965 J2.16
N11320 X-10.785 Y-58.483 Z-5.9 I-0.017 J0.5 F#104
N11325 G1 X-10.786 Y-58.461
N11330 X-10.846 Y-57.706
N11335 X-11.877 Y-44.634 F#105
N11340 X-11.937 Y-43.876 F#103
N11345 X-11.939 Y-43.857
N11350 G3 X-12.493 Y-43.419 Z-6. I-0.497 J-0.058
N11355 X-14.599 Y-44.891 I0.364 J-2.762 F#100
N11360 X-15.855 Y-51.976 I9.497 J-5.337
N11365 X-13.675 Y-58.229 I11.281 J0.425
N11370 X-11.74 Y-59. I1.974 J2.141
N11375 X-11.258 Y-58.483 Z-5.9 I-0.017 J0.5 F#104
N11380 G1 X-11.259 Y-58.463
N11385 X-11.315 Y-57.706
N11390 X-12.283 Y-44.695 F#105
N11395 X-12.339 Y-43.939 F#103
N11400 X-12.342 Y-43.918
N11405 G3 X-12.896 Y-43.48 Z-6. I-0.497 J-0.058
N11410 X-15.135 Y-45.237 I0.311 J-2.701 F#100
N11415 X-16.364 Y-50.979 I8.405 J-4.801
N11420 X-14.174 Y-58.203 I12.023 J-0.301
N11425 X-12.21 Y-59. I2.006 J2.125
N11430 X-11.728 Y-58.483 Z-5.9 I-0.017 J0.5 F#104
N11435 G1 X-11.729 Y-58.466
N11440 X-11.782 Y-57.706
N11445 X-12.677 Y-44.762 F#105
N11450 X-12.73 Y-43.995 F#103
N11455 X-12.731 Y-43.985
N11460 G3 X-13.273 Y-43.531 Z-6. I-0.498 J-0.044
N11465 X-15.461 Y-45.054 I0.295 J-2.757 F#100
N11470 X-16.669 Y-52.65 I9.822 J-5.456
N11475 X-14.603 Y-58.232 I10.337 J0.653
N11480 X-12.681 Y-59. I1.955 J2.101
N11485 X-12.199 Y-58.483 Z-5.9 I-0.017 J0.5 F#104
N11490 G1 Y-58.469
N11495 X-12.247 Y-57.705
N11500 X-13.061 Y-44.835 F#105
N11505 X-13.11 Y-44.057 F#103
N11510 X-13.111 Y-44.041 Z-5.902
N11515 G3 X-13.624 Y-43.572 Z-6. I-0.499 J-0.032
N11520 X-15.627 Y-44.747 I0.075 J-2.423 F#100
N11525 X-17.215 Y-51.515 I8.419 J-5.546
N11530 X-15.12 Y-58.185 I11.342 J-0.101
N11535 X-13.148 Y-59. I2.007 J2.064
N11540 X-12.665 Y-58.483 Z-5.9 I-0.017 J0.5 F#104
N11545 G1 X-12.666 Y-58.473
N11550 X-12.709 Y-57.705
N11555 X-13.422 Y-44.876 F#105
N11560 X-13.466 Y-44.098 F#103
N11565 X-13.468 Y-44.056 Z-5.905
N11570 G3 X-13.953 Y-43.584 Z-6. I-0.499 J-0.028
N11575 X-15.897 Y-44.607 I-0.006 J-2.347 F#100
N11580 X-17.673 Y-50.913 I7.675 J-5.564
N11585 X-15.662 Y-58.11 I11.923 J-0.549
N11590 X-13.615 Y-59. I2.121 J2.079
N11595 X-13.132 Y-58.483 Z-5.9 I-0.017 J0.5 F#104
N11600 G1 X-13.133 Y-58.477
N11605 X-13.169 Y-57.705
N11610 X-13.776 Y-44.879 F#105
N11615 X-13.812 Y-44.1 F#103
N11620 X-13.814 Y-44.062 Z-5.905
N11625 G3 X-14.298 Y-43.586 Z-6. I-0.499 J-0.024
N11630 X-16.444 Y-44.808 I0.042 J-2.57 F#100
N11635 X-18.093 Y-51.613 I8.435 J-5.646
N11640 X-16.055 Y-58.18 I11.107 J-0.155
N11645 X-14.079 Y-59. I2.011 J2.055
N11650 X-13.597 Y-58.483 Z-5.9 I-0.017 J0.5 F#104
N11655 G1 X-13.626 Y-57.704
N11660 X-14.117 Y-44.882 F#105
N11665 X-14.147 Y-44.103 F#103
N11670 X-14.149 Y-44.066 Z-5.905
N11675 G3 X-14.631 Y-43.586 Z-6. I-0.5 J-0.019
N11680 X-16.826 Y-44.795 I0. J-2.598 F#100
N11685 X-18.536 Y-51.542 I8.321 J-5.7
N11690 X-16.54 Y-58.157 I11.129 J-0.251
N11695 X-14.541 Y-59. I2.033 J2.029
N11700 X-14.059 Y-58.484 Z-5.9 I-0.017 J0.5 F#104
N11705 G1 Y-58.483
N11710 X-14.083 Y-57.704
N11715 X-14.492 Y-44.882 F#105
N11720 X-14.517 Y-44.103 F#103
N11725 X-14.518 Y-44.07 Z-5.904
N11730 G3 X-15. Y-43.586 Z-6. I-0.5 J-0.016
N11735 X-17.201 Y-44.771 I-0.014 J-2.61 F#100
N11740 X-18.979 Y-51.444 I8.181 J-5.753
N11745 X-16.963 Y-58.203 I11.034 J-0.39
N11750 X-15.004 Y-59. I1.998 J2.104
N11755 X-14.521 Y-58.488 Z-5.901 I-0.017 J0.5 F#104
N11760 G1 Y-58.483 Z-5.9
N11765 X-14.541 Y-57.704
N11770 X-14.859 Y-44.882 F#105
N11775 X-14.879 Y-44.103 F#103
N11780 Y-44.073 Z-5.904
N11785 G3 X-15.362 Y-43.586 Z-6. I-0.5 J-0.012
N11790 X-17.607 Y-44.781 I-0.031 J-2.649 F#100
N11795 X-19.417 Y-51.475 I8.195 J-5.806
N11800 X-17.432 Y-58.206 I11.048 J-0.4
N11805 X-15.465 Y-59. I2.011 J2.147
N11810 X-14.983 Y-58.49 Z-5.901 I-0.017 J0.5 F#104
N11815 G1 Y-58.483 Z-5.9
N11820 X-14.999 Y-57.704
N11825 X-15.267 Y-44.883 F#105
N11830 X-15.283 Y-44.104 F#103
N11835 X-15.284 Y-44.074 Z-5.904
N11840 G3 X-15.765 Y-43.585 Z-6. I-0.5 J-0.01
N11845 X-17.974 Y-44.74 I-0.03 J-2.634 F#100
N11850 X-19.858 Y-51.336 I8.022 J-5.857
N11855 X-17.917 Y-58.167 I11.053 J-0.551
N11860 X-15.924 Y-59. I2.03 J2.056
N11865 X-15.442 Y-58.494 Z-5.901 I-0.017 J0.5 F#104
N11870 G1 Y-58.483 Z-5.9
N11875 X-15.452 Y-57.704
N11880 X-15.627 Y-44.882 F#105
N11885 X-15.637 Y-44.103 F#103
N11890 X-15.638 Y-44.076 Z-5.903
N11895 G3 X-16.117 Y-43.583 Z-6. I-0.5 J-0.007
N11900 X-18.288 Y-44.691 I-0.195 J-2.298 F#100
N11905 X-20.259 Y-50.296 I6.745 J-5.521
N11910 X-18.552 Y-57.958 I11.923 J-1.365
N11915 X-16.383 Y-59. I2.226 J1.856
N11920 X-15.901 Y-58.496 Z-5.902 I-0.017 J0.5 F#104
N11925 G1 Y-58.483 Z-5.9
N11930 X-15.907 Y-57.704
N11935 X-16.014 Y-44.918 F#105
N11940 X-16.021 Y-44.138 F#103
N11945 Y-44.056 Z-5.911
N11950 G3 X-16.443 Y-43.566 Z-6. I-0.5 J-0.004
N11955 X-18.439 Y-44.359 I-0.267 J-2.236 F#100
N11960 X-20.7 Y-50.43 I6.726 J-5.962
N11965 X-18.872 Y-58.133 I11.512 J-1.336
N11970 X-16.839 Y-59. I2.076 J2.051
N11975 X-16.357 Y-58.502 Z-5.902 I-0.017 J0.5 F#104
N11980 G1 Y-58.483 Z-5.9
N11985 X-16.354 Y-57.704
N11990 X-16.319 Y-44.881 F#105
N11995 X-16.316 Y-44.102 F#103
N12000 Y-44.025 Z-5.91
N12005 G3 X-16.738 Y-43.53 Z-6. I-0.5 J0.001
N12010 X-18.947 Y-44.507 I-0.344 J-2.208 F#100
N12015 X-21.08 Y-49.805 I6.211 J-5.578
N12020 X-19.506 Y-57.909 I12.07 J-1.861
N12025 X-17.296 Y-59.013 I2.384 J2.009
N12030 G1 X-17.21 Y-59.001 Z-5.989 F#104
N12035 X-17.127 Y-58.976 Z-5.978
N12040 X-17.05 Y-58.936 Z-5.968
N12045 X-16.982 Y-58.885 Z-5.957
N12050 X-16.923 Y-58.822 Z-5.946
N12055 X-16.875 Y-58.751 Z-5.935
N12060 X-16.84 Y-58.673 Z-5.925
N12065 X-16.819 Y-58.591 Z-5.914
N12070 X-16.813 Y-58.506 Z-5.903
N12075 X-16.812 Y-58.483 Z-5.9
N12080 X-16.803 Y-57.704
N12085 X-16.65 Y-44.852 F#105
N12090 X-16.64 Y-44.073 F#103
N12095 X-16.639 Y-43.986 Z-5.911
N12100 G3 X-17.047 Y-43.489 Z-6. I-0.5 J0.006
N12105 X-19.325 Y-44.405 I-0.344 J-2.434 F#100
N12110 X-21.592 Y-50.845 I7.23 J-6.164
N12115 X-19.828 Y-58.079 I11.3 J-1.076
N12120 X-17.752 Y-59. I2.15 J2.047
N12125 X-17.269 Y-58.511 Z-5.903 I-0.017 J0.5 F#104
N12130 G1 Y-58.483 Z-5.9
N12135 X-17.253 Y-57.704
N12140 X-16.986 Y-44.802 F#105
N12145 X-16.97 Y-44.023 F#103
N12150 X-16.968 Y-43.94 Z-5.91
N12155 G3 X-17.375 Y-43.439 Z-6. I-0.5 J0.01
N12160 X-19.688 Y-44.339 I-0.372 J-2.465 F#100
N12165 X-22.015 Y-50.607 I7.078 J-6.194
N12170 X-20.228 Y-58.144 I11.238 J-1.316
N12175 X-18.205 Y-59. I2.066 J2.064
N12180 X-17.723 Y-58.514 Z-5.904 I-0.017 J0.5 F#104
N12185 G1 X-17.722 Y-58.483 Z-5.9
N12190 X-17.7 Y-57.704
N12195 X-17.344 Y-44.748 F#105
N12200 X-17.323 Y-43.969 F#103
N12205 X-17.321 Y-43.89 Z-5.91
N12210 G3 X-17.728 Y-43.385 Z-6. I-0.5 J0.014
N12215 X-20.052 Y-44.271 I-0.382 J-2.49 F#100
N12220 X-22.019 Y-47.879 I5.776 J-5.489
N12225 G1 X-22.034 Y-47.964 Z-5.989 F#104
N12230 X-22.033 Y-48.049 Z-5.978
N12235 X-22.017 Y-48.134 Z-5.967
N12240 X-21.987 Y-48.214 Z-5.956
N12245 X-21.943 Y-48.288 Z-5.944
N12250 X-21.887 Y-48.354 Z-5.933
N12255 X-21.82 Y-48.409 Z-5.922
N12260 X-21.745 Y-48.452 Z-5.911
N12265 X-21.663 Y-48.481 Z-5.9
N12270 G3 X-21.155 Y-48.309 I0.119 J0.486
N12275 G1 X-21.021 Y-48.143
N12280 X-18.122 Y-44.55 F#105
N12285 X-17.787 Y-44.136 F#103
N12290 G3 X-17.685 Y-43.914 I-0.389 J0.314
N12295 X-18.084 Y-43.331 Z-6. I-0.491 J0.092
N12300 X-20.43 Y-44.211 I-0.392 J-2.52 F#100
N12305 X-22.232 Y-47.014 I6.685 J-6.28
N12310 G2 X-24.978 Y-47.889 I-2.084 J1.793
N12315 X-26.044 Y-47.36 I0.661 J2.669 F#106
N12320 G3 X-26.538 Y-50.562 I10.532 J-3.263 F#100
N12325 X-26.479 Y-51.76 I11.026 J-0.06 F#106
N12330 G2 X-22.906 Y-53.866 I0.165 J-3.804 F#100
N12335 G3 X-21.186 Y-57.442 I68.117 J30.571
N12340 X-18.678 Y-59.02 I2.719 J1.538
N12345 G1 X-18.591 Y-59.008 Z-5.989 F#104
N12350 X-18.508 Y-58.981 Z-5.978
N12355 X-18.43 Y-58.94 Z-5.968
N12360 X-18.361 Y-58.888 Z-5.957
N12365 X-18.302 Y-58.824 Z-5.946
N12370 X-18.255 Y-58.752 Z-5.935
N12375 X-18.221 Y-58.673 Z-5.924
N12380 X-18.2 Y-58.59 Z-5.914
N12385 X-18.194 Y-58.505 Z-5.903
N12390 Y-58.483 Z-5.9
N12395 X-18.186 Y-57.704
N12400 X-18.057 Y-44.637 F#105
N12405 X-18.05 Y-43.858 F#103
N12410 X-18.049 Y-43.77 Z-5.911
N12415 G3 X-18.456 Y-43.274 Z-6. I-0.5 J0.005
N12420 X-20.69 Y-44.039 I-0.406 J-2.46 F#100
N12425 X-21.925 Y-45.506 I5.629 J-5.989
N12430 G2 X-25.136 Y-45.912 I-1.888 J2.026
N12435 X-26.035 Y-45.132 I1.324 J2.432 F#106
N12440 G3 X-26.943 Y-51.329 I16.475 J-5.579 F#100
N12445 G2 X-26.659 Y-52.801 I-9.525 J-2.602
N12450 X-26.594 Y-53.998 I-9.809 J-1.131 F#106
N12455 X-22.826 Y-55.933 I0.174 J-4.298 F#100
N12460 G3 X-20.712 Y-58.583 I10.834 J6.476
N12465 X-19.211 Y-59. I1.578 J2.769
N12470 X-18.728 Y-58.51 Z-5.903 I-0.017 J0.5 F#104
N12475 G1 Y-58.483 Z-5.9
N12480 X-18.712 Y-57.704
N12485 X-18.457 Y-44.598 F#105
N12490 X-18.441 Y-43.819 F#103
N12495 X-18.439 Y-43.714 Z-5.913
N12500 G3 X-18.825 Y-43.218 Z-6. I-0.5 J0.01
N12505 X-20.882 Y-43.815 I-0.475 J-2.203 F#100
N12510 G1 X-21.046 Y-43.982
N12515 X-21.221 Y-44.137
N12520 X-21.406 Y-44.281
N12525 X-21.601 Y-44.412
N12530 X-21.804 Y-44.529
N12535 X-22.014 Y-44.632
N12540 X-22.231 Y-44.721
N12545 X-22.453 Y-44.795
N12550 X-22.68 Y-44.854
N12555 X-22.91 Y-44.897
N12560 X-23.143 Y-44.925
N12565 X-23.377 Y-44.937
N12570 X-23.611 Y-44.934
N12575 X-23.845 Y-44.914
N12580 X-24.076 Y-44.879
N12585 X-24.305 Y-44.828
N12590 X-24.53 Y-44.762
N12595 X-24.75 Y-44.681
N12600 X-24.964 Y-44.586
N12605 X-25.17 Y-44.476
N12610 G2 X-25.695 Y-44.106 I1.731 J3.011 F#106
N12615 G1 X-25.973 Y-43.757
N12620 X-26.036 Y-43.665
N12625 G3 X-27.05 Y-53.553 I15.737 J-6.61 F#100
N12630 X-26.778 Y-54.722 I16.751 J3.278 F#106
N12635 G2 X-22.996 Y-56.819 I-0.578 J-5.503 F#100
N12640 G3 X-20.56 Y-58.935 I5.225 J3.553
N12645 G1 X-20.181 Y-58.974
N12650 X-19.813 Y-59.
N12655 G3 X-19.331 Y-58.52 I-0.017 J0.5 F#104
N12660 G1 X-19.319 Y-58.204
N12665 X-19.315 Y-58.117 Z-5.992
N12670 X-19.312 Y-58.033 Z-5.97
N12675 X-19.309 Y-57.954 Z-5.933
N12680 X-19.306 Y-57.883 Z-5.883
N12685 X-19.304 Y-57.821 Z-5.821
N12690 X-19.302 Y-57.771 Z-5.75
N12695 X-19.3 Y-57.735 Z-5.671
N12700 X-19.299 Y-57.712 Z-5.587
N12705 Y-57.704 Z-5.5
N12710 G0 Z2.
N12715 X-34.946 Y-58.302
N12720 Z-5.
N12725 G1 Z-5.5 F#103
N12730 X-34.939 Y-58.306 Z-5.587
N12735 X-34.92 Y-58.317 Z-5.671
N12740 X-34.888 Y-58.336 Z-5.75
N12745 X-34.845 Y-58.362 Z-5.821
N12750 X-34.792 Y-58.393 Z-5.883
N12755 X-34.731 Y-58.43 Z-5.933
N12760 X-34.663 Y-58.47 Z-5.97
N12765 X-34.591 Y-58.513 Z-5.992
N12770 X-34.516 Y-58.557 Z-6.
N12775 G3 X-33.009 Y-59. I1.618 J2.721
N12780 X-32.747 Y-58.429 I-0.374 J0.516 F#100
N12785 X-32.514 Y-55.862 I-13.89 J2.555
N12790 G2 X-28.107 Y-54.111 I2.692 J-0.355
N12795 G3 X-27.996 Y-54.219 I17.896 J18.229
N12800 X-27.115 Y-55.034 I17.785 J18.337 F#106
N12805 G2 X-22.613 Y-58.075 I-2.518 J-8.583 F#100
N12810 G1 X-22.433 Y-58.229
N12815 X-22.244 Y-58.372
N12820 X-22.046 Y-58.502
N12825 X-21.84 Y-58.618
N12830 X-21.626 Y-58.721
N12835 X-21.406 Y-58.81
N12840 X-21.182 Y-58.885
N12845 X-20.952 Y-58.944
N12850 X-20.719 Y-58.989
N12855 X-20.484 Y-59.018
N12860 X-20.126 Y-58.832 Z-5.95 F#104
N12865 X-20.014 Y-58.458 Z-5.9
N12870 X-20.005 Y-58.43
N12875 X-20.232 Y-57.715
N12880 X-21.04 Y-55.176 F#105
N12885 X-21.644 Y-54.369
N12890 X-23.053 Y-53.272
N12895 X-24.06 Y-52.745
N12900 X-29.294 Y-51.79
N12905 X-32.113 Y-51.69
N12910 G3 X-34.686 Y-53.601 I-0.143 J-2.496
N12915 G1 X-35.275 Y-55.814
N12920 G3 X-34.406 Y-58.475 I2.404 J-0.687
N12925 X-33.726 Y-58.851 I1.534 J1.974 F#103
N12930 X-32.959 Y-59. Z-6. I0.855 J2.349
N12935 X-32.541 Y-58.475 I-0.175 J0.568 F#100
N12940 G2 X-30.87 Y-55.946 I3.604 J-0.565
N12945 X-24.298 Y-57.31 I2.221 J-5.81
N12950 G3 X-21.99 Y-58.909 I6.021 J6.226
N12955 G1 X-21.603 Y-58.972
N12960 X-21.218 Y-59.
N12965 X-20.839 Y-58.804 Z-5.946 F#104
N12970 X-20.748 Y-58.458 Z-5.9
N12975 X-20.741 Y-58.43
N12980 X-21.009 Y-57.729
N12985 X-21.896 Y-55.412 F#105
N12990 G3 X-22.65 Y-54.367 I-2.335 J-0.892
N12995 X-28.324 Y-52.222 I-6.487 J-8.582
N13000 G1 X-29.496 Y-52.238
N13005 X-31.106 Y-52.521
N13010 X-32.516 Y-53.12
N13015 X-33.119 Y-53.526
N13020 G3 X-34.126 Y-56.449 I1.354 J-2.101
N13025 G1 X-33.632 Y-57.739
N13030 X-33.353 Y-58.467 F#103
N13035 X-33.213 Y-58.832 Z-5.95
N13040 X-32.857 Y-59. Z-6.
N13045 X-32.717 F#106
N13050 X-32.689 Y-58.999
N13055 X-32.585 Y-58.891 F#100
N13060 G2 X-26.377 Y-56.829 I4.151 J-2.123
N13065 G1 X-25.982 Y-57.019
N13070 X-25.593 Y-57.221
N13075 X-25.209 Y-57.433
N13080 X-24.833 Y-57.657
N13085 X-24.462 Y-57.892
N13090 X-24.099 Y-58.137
N13095 X-23.744 Y-58.393
N13100 X-23.396 Y-58.66
N13105 G3 X-22.05 Y-59. I1.39 J2.663
N13110 G1 X-21.694 Y-58.832 Z-5.95 F#104
N13115 X-21.581 Y-58.458 Z-5.9
N13120 X-21.573 Y-58.43
N13125 X-21.872 Y-57.742
N13130 X-22.799 Y-55.613 F#105
N13135 G3 X-23.858 Y-54.455 I-2.18 J-0.931
N13140 G1 X-25.268 Y-53.762
N13145 X-26.677 Y-53.349
N13150 X-28.489 Y-53.136
N13155 X-30.502 Y-53.387
N13160 X-31.509 Y-53.73
N13165 G3 X-33.146 Y-56.015 I0.733 J-2.254
N13170 G1 X-33.169 Y-57.688
N13175 X-33.18 Y-58.467 F#103
N13180 X-33.182 Y-58.631 Z-5.921
N13185 X-32.918 Y-58.95 Z-5.974
N13190 X-32.717 Y-59. Z-6.
N13195 X-32.516 F#106
N13200 G2 X-30.288 Y-57.504 I7.867 J-9.305 F#100
N13205 X-25.208 Y-58.187 I1.865 J-5.356
N13210 G3 X-23.448 Y-58.968 I2.96 J4.303
N13215 G1 X-23.035 Y-59.
N13220 X-22.65 Y-58.798 Z-5.945 F#104
N13225 X-22.565 Y-58.458 Z-5.9
N13230 X-22.557 Y-58.43
N13235 X-22.953 Y-57.792
N13240 X-24.432 Y-55.412 F#105
N13245 G3 X-25.57 Y-54.607 I-1.717 J-1.221
N13250 G1 X-27.482 Y-54.115
N13255 X-28.086 Y-54.116
N13260 X-32.717 Y-54.806
N13265 G3 X-33.92 Y-58.396 I0.275 J-2.089
N13270 X-33.277 Y-58.829 I1.478 J1.501 F#103
N13275 X-32.516 Y-59. Z-6. I0.835 J1.934
N13280 G1 X-32.154 F#106
N13285 G2 X-29.62 Y-57.994 I5.883 J-11.122 F#100
N13290 X-24.979 Y-58.927 I0.876 J-7.655
N13295 G1 X-24.619 Y-58.976
N13300 X-24.265 Y-59.
N13305 G3 X-23.704 Y-58.533 Z-5.9 I-0.021 J0.595 F#104
N13310 X-24.011 Y-57.877 I-0.581 J0.128
N13315 X-24.286 Y-57.81 I-0.274 J-0.528 F#105
N13320 G1 X-32.133
N13325 G3 X-32.407 Y-57.877 I0. J-0.595
N13330 X-32.714 Y-58.533 I0.274 J-0.528 F#103
N13335 X-32.154 Y-59. Z-6. I0.581 J0.128
N13340 G1 X-31.55 F#100
N13345 G2 X-26.268 Y-59.017 I2.615 J-7.899
N13350 G1 X-26.008 Y-59.
N13355 G3 X-25.526 Y-58.483 Z-5.9 I-0.017 J0.5 F#104
N13360 X-26.026 Y-58. I-0.5 J-0.017
N13365 G1 X-26.037
N13370 X-31.521 F#105
N13375 X-31.532 F#103
N13380 G3 X-32.032 Y-58.483 I0. J-0.5
N13385 X-31.55 Y-59. Z-6. I0.5 J-0.017
N13390 G1 X-27.019 F#100
N13395 X-27.016 F#104
N13400 X-26.941 Y-58.986 Z-5.99
N13405 X-26.865 Y-58.975 Z-5.98
N13410 X-26.789 Y-58.966 Z-5.97
N13415 G3 X-26.25 Y-58.848 Z-5.9 I-0.261 J2.486
N13420 X-25.562 Y-58.488 I-0.801 J2.368
N13425 X-24.736 Y-57.424 I-1.488 J2.009 F#105
N13430 G1 X-19.115 Y-44.49
N13435 X-18.804 Y-43.775 F#103
N13440 X-18.745 Y-43.639 Z-5.919
N13445 X-18.844 Y-43.34 Z-5.959
N13450 X-19.109 Y-43.158 Z-6.
N13455 G3 X-20.583 Y-43.303 I-0.579 J-1.674 F#100
N13460 G2 X-25.108 Y-43.368 I-2.313 J3.467
N13465 X-26.02 Y-42.595 I2.212 J3.532 F#106
N13470 G1 X-26.032 Y-42.532
N13475 G3 X-27.148 Y-45.561 I13.848 J-6.822 F#100
N13480 G1 X-27.074 Y-45.955 Z-5.949 F#104
N13485 X-26.779 Y-46.156 Z-5.903
N13490 X-26.754 Y-46.158 Z-5.9
N13495 X-25.977 Y-46.21
N13500 X-20.033 Y-46.603 F#105
N13505 G3 X-18.3 Y-44.09 I0.077 J1.801
N13510 X-18.751 Y-43.462 I-1.656 J-0.712 F#103
N13515 X-19.264 Y-43.138 Z-5.978 I-1.205 J-1.341
N13520 G1 X-19.429 Y-43.079 Z-6.
N13525 G3 X-20.285 Y-42.986 I-0.575 J-1.314 F#100
N13530 G2 X-23.773 Y-43.045 I-1.835 J5.347
N13535 G1 X-24.585 Y-42.69
N13540 X-25.09 Y-42.42
N13545 X-25.367 Y-42.272 F#106
N13550 X-26.014 Y-41.667
N13555 X-26.045 Y-41.622
N13560 G3 X-27.333 Y-44.318 I38.625 J-20.105 F#100
N13565 G2 X-32.196 Y-43.235 I-2.2 J1.583
N13570 X-32.445 Y-36.162 I42.288 J5.028
N13575 G1 X-32.47 Y-31.833
N13580 X-32.489 Y-31.514
N13585 X-32.547 Y-31.198
N13590 X-32.642 Y-30.892
N13595 G3 X-33.514 Y-30.801 I-0.461 J-0.193 F#104
N13600 G1 X-33.541 Y-30.863 Z-5.995
N13605 X-33.567 Y-30.924 Z-5.981
N13610 X-33.592 Y-30.983 Z-5.959
N13615 X-33.598 Y-31.036 Z-5.932
N13620 X-33.603 Y-31.085 Z-5.898
N13625 X-33.591 Y-31.149 Z-5.838
N13630 X-33.581 Y-31.202 Z-5.767
N13635 X-33.573 Y-31.242 Z-5.688
N13640 X-33.568 Y-31.268 Z-5.603
N13645 X-33.565 Y-31.275 Z-5.552
N13650 X-33.564 Y-31.278 Z-5.5
N13655 G0 Z2.
N13660 X-19.397 Y-44.425
N13665 Z-5.4
N13670 G1 Z-5.9 F#103
N13675 X-19.364 Y-43.646
N13680 X-19.357 Y-43.499 Z-5.919
N13685 G3 X-19.691 Y-43.006 Z-6. I-0.5 J0.021
N13690 X-21.617 Y-42.8 I-1.433 J-4.29 F#100
N13695 G2 X-25.125 Y-41.566 I0.521 J7.085
N13700 X-26.052 Y-40.805 I4.029 J5.851 F#106
N13705 X-27.898 Y-42.53 I-2.792 J1.138 F#100
N13710 X-31.201 Y-40.954 I-0.746 J2.686
N13715 X-31.921 Y-36.621 I9.306 J3.774
N13720 G3 X-32.018 Y-32.526 I-133.071 J-1.079
N13725 G1 X-32.14 Y-32.222
N13730 X-32.301 Y-31.795
N13735 X-32.516 Y-31.553 Z-5.959 F#104
N13740 X-32.918 Y-31.513 Z-5.907
N13745 X-32.965 Y-31.545 Z-5.9
N13750 X-33.148 Y-31.67
N13755 X-33.454 Y-32.137
N13760 X-34.859 Y-34.286 F#105
N13765 G3 X-35.263 Y-35.694 I2.096 J-1.363
N13770 G1 X-35.215 Y-37.907
N13775 X-34.929 Y-39.919
N13780 X-34.529 Y-40.94
N13785 X-34.054 Y-41.761
N13790 X-33.044 Y-42.937
N13795 X-31.456 Y-43.957
N13800 X-30.301 Y-44.369
N13805 X-24.261 Y-45.671
N13810 G3 X-22.366 Y-45.352 I0.565 J2.435
N13815 G1 X-20.308 Y-44.045
N13820 X-19.831 Y-43.742 F#103
N13825 X-19.754 Y-43.542
N13830 X-19.676 Y-43.34 Z-5.928
N13835 X-19.832 Y-43.014 Z-5.974
N13840 X-20.009 Y-42.907 Z-6.
N13845 G2 X-23.568 Y-41.775 I9.267 J35.297 F#100
N13850 G1 X-23.955 Y-41.575
N13855 X-24.337 Y-41.366
N13860 X-24.714 Y-41.147
N13865 X-25.086 Y-40.92
N13870 X-25.452 Y-40.684
N13875 X-25.783 Y-40.46 F#106
N13880 X-26.11 Y-40.228
N13885 X-26.431 Y-39.989
N13890 G2 X-30.054 Y-39.086 I-1.214 J2.846 F#100
N13895 X-31.366 Y-34.939 I5.362 J3.978
N13900 G3 X-31.755 Y-33.123 I-3.603 J0.179
N13905 G1 X-32.113 Y-32.887 Z-5.945 F#104
N13910 X-32.454 Y-32.991 Z-5.9
N13915 X-32.516 Y-33.01
N13920 X-32.9 Y-33.613
N13925 X-34.1 Y-35.493 F#105
N13930 G3 X-34.377 Y-37.505 I2.124 J-1.318
N13935 G1 X-33.853 Y-39.114
N13940 X-32.972 Y-40.688
N13945 X-32.113 Y-41.67
N13950 X-31.308 Y-42.335
N13955 X-29.898 Y-43.079
N13960 X-25.469 Y-44.465
N13965 G3 X-24.06 Y-44.447 I0.674 J2.407
N13970 G1 X-21.378 Y-43.632
N13975 X-21.04 Y-43.529 F#103
N13980 X-20.793 Y-43.34
N13985 X-20.772 Y-43.227
N13990 X-20.72 Y-42.937 Z-5.937
N13995 X-20.839 Y-42.717 Z-5.969
N14000 X-21.04 Y-42.585 Z-6.
N14005 G2 X-25.202 Y-40.571 I5.452 J16.573 F#100
N14010 X-26.18 Y-39.876 I9.614 J14.559 F#106
N14015 X-30.347 Y-36.66 I0.091 J4.426 F#100
N14020 G3 X-30.988 Y-34.456 I-15.454 J-3.3
N14025 G1 X-31.042 Y-34.385 Z-5.989 F#104
N14030 X-31.108 Y-34.324 Z-5.978
N14035 X-31.183 Y-34.275 Z-5.967
N14040 X-31.265 Y-34.241 Z-5.956
N14045 X-31.352 Y-34.221 Z-5.944
N14050 X-31.44 Y-34.217 Z-5.933
N14055 X-31.527 Y-34.228 Z-5.922
N14060 X-31.611 Y-34.254 Z-5.911
N14065 X-31.689 Y-34.295 Z-5.9
N14070 G3 X-31.928 Y-34.688 I0.26 J-0.427
N14075 G1 Y-34.989
N14080 X-31.925 Y-38.712 F#105
N14085 G3 X-31.308 Y-39.991 I1.674 J0.02
N14090 G1 X-27.915 Y-42.736
N14095 G3 X-25.258 Y-41.386 I0.983 J1.356
N14100 X-25.434 Y-40.634 I-1.675 J0.006 F#103
N14105 X-25.933 Y-40.037 Z-6. I-1.499 J-0.746
N14110 G2 X-28.558 Y-38.26 I7.236 J13.52 F#100
N14115 X-29.908 Y-36.107 I25.368 J17.407
N14120 G3 X-30.612 Y-36.045 Z-5.9 I-0.383 J-0.321 F#104
N14125 X-30.678 Y-36.745 I0.321 J-0.383
N14130 X-30.647 Y-36.78 I0.387 J0.316 F#105
N14135 G1 X-26.895 Y-40.576
N14140 X-26.865 Y-40.604
N14145 X-26.833 Y-40.629
N14150 G3 X-26.138 Y-40.524 I0.294 J0.404 F#103
N14155 X-26.24 Y-39.824 Z-6. I-0.401 J0.299
N14160 G2 X-29.292 Y-36.905 I9.61 J13.105 F#100
N14165 X-29.898 Y-36.12 I1.831 J2.039 F#103
N14170 G1 X-30.231 Y-35.694 F#100
N14175 X-30.301 Y-35.595
N14180 X-30.322 Y-35.564
N14185 G2 X-30.988 Y-34.487 I2.13 J2.063 F#103
N14190 G1 X-31.308 Y-33.919 F#100
N14195 G3 X-31.994 Y-33.752 Z-5.9 I-0.427 J-0.26 F#104
N14200 X-32.223 Y-34.286 I0.26 J-0.427
N14205 G1 X-32.195 Y-34.443
N14210 X-28.181 Y-57.021 F#105
N14215 G3 X-27.414 Y-58.365 I2.448 J0.506
N14220 X-26.766 Y-58.792 I1.682 J1.85 F#103
N14225 X-26.015 Y-59. Z-6. I1.034 J2.276
N14230 G1 X-26.012
N14235 X-25.234 F#100
N14240 G2 X-24.302 I0.466 J-2.553 F#103
N14245 G1 X-23.956 F#100
N14250 G3 X-23.98 Y-58. I-0.017 J0.5 F#104
N14255 G1 X-23.991 Y-58.001
N14260 X-24.078 Y-58.004 Z-5.992
N14265 X-24.162 Y-58.007 Z-5.97
N14270 X-24.241 Y-58.009 Z-5.933
N14275 X-24.312 Y-58.012 Z-5.883
N14280 X-24.374 Y-58.014 Z-5.821
N14285 X-24.424 Y-58.016 Z-5.75
N14290 X-24.461 Y-58.017 Z-5.671
N14295 X-24.483 Y-58.018 Z-5.587
N14300 X-24.491 Z-5.5
N14305 G0 Z4.
(2D CONTOUR3)
N14315 M8
N14320 G0 X3.326 Y-24.4
N14325 #100=330. (CUTTING)
N14330 #103=200. (ENTRY)
N14335 #104=200. (EXIT)
N14340 #108=100. (PLUNGE)
N14345 Z4.
N14350 Z2.
N14355 G1 Z1.5 F#103
N14360 Z0.1 F#108
N14365 G18 G3 X2.726 Z-0.5 I-0.6 K0.
N14370 G1 X2.126 F#103
N14375 G17 G3 X1.526 Y-25. I0. J-0.6
N14380 G2 X-31.526 I-16.526 J0. F#100
N14385 G3 X-32.126 Y-24.4 I-0.6 J0. F#104
N14390 G1 X-32.726
N14395 G18 G3 X-33.326 Z0.1 I0. K0.6
N14400 G0 Z2.
N14405 X3.46
N14410 G1 Z1. F#103
N14415 Z-0.4 F#108
N14420 G3 X2.86 Z-1. I-0.6 K0.
N14425 G1 X2.26 F#103
N14430 G17 G3 X1.66 Y-25. I0. J-0.6
N14435 G2 X-31.66 I-16.66 J0. F#100
N14440 G3 X-32.26 Y-24.4 I-0.6 J0. F#104
N14445 G1 X-32.86
N14450 G18 G3 X-33.46 Z-0.4 I0. K0.6
N14455 G0 Z2.
N14460 X3.594
N14465 G1 Z0.5 F#103
N14470 Z-0.9 F#108
N14475 G3 X2.994 Z-1.5 I-0.6 K0.
N14480 G1 X2.394 F#103
N14485 G17 G3 X1.794 Y-25. I0. J-0.6
N14490 G2 X-31.794 I-16.794 J0. F#100
N14495 G3 X-32.394 Y-24.4 I-0.6 J0. F#104
N14500 G1 X-32.994
N14505 G18 G3 X-33.594 Z-0.9 I0. K0.6
N14510 G0 Z2.
N14515 X3.728
N14520 G1 Z0. F#103
N14525 Z-1.4 F#108
N14530 G3 X3.128 Z-2. I-0.6 K0.
N14535 G1 X2.528 F#103
N14540 G17 G3 X1.928 Y-25. I0. J-0.6
N14545 G2 X-31.928 I-16.928 J0. F#100
N14550 G3 X-32.528 Y-24.4 I-0.6 J0. F#104
N14555 G1 X-33.128
N14560 G18 G3 X-33.728 Z-1.4 I0. K0.6
N14565 G0 Z2.
N14570 X3.862
N14575 G1 Z-0.5 F#103
N14580 Z-1.9 F#108
N14585 G3 X3.262 Z-2.5 I-0.6 K0.
N14590 G1 X2.662 F#103
N14595 G17 G3 X2.062 Y-25. I0. J-0.6
N14600 G2 X-32.062 I-17.062 J0. F#100
N14605 G3 X-32.662 Y-24.4 I-0.6 J0. F#104
N14610 G1 X-33.262
N14615 G18 G3 X-33.862 Z-1.9 I0. K0.6
N14620 G0 Z2.
N14625 X3.996
N14630 G1 Z-1. F#103
N14635 Z-2.4 F#108
N14640 G3 X3.396 Z-3. I-0.6 K0.
N14645 G1 X2.796 F#103
N14650 G17 G3 X2.196 Y-25. I0. J-0.6
N14655 G2 X-32.196 I-17.196 J0. F#100
N14660 G3 X-32.796 Y-24.4 I-0.6 J0. F#104
N14665 G1 X-33.396
N14670 G18 G3 X-33.996 Z-2.4 I0. K0.6
N14675 G0 Z2.
N14680 X4.13
N14685 G1 Z-1.5 F#103
N14690 Z-2.9 F#108
N14695 G3 X3.53 Z-3.5 I-0.6 K0.
N14700 G1 X2.93 F#103
N14705 G17 G3 X2.33 Y-25. I0. J-0.6
N14710 G2 X-32.33 I-17.33 J0. F#100
N14715 G3 X-32.93 Y-24.4 I-0.6 J0. F#104
N14720 G1 X-33.53
N14725 G18 G3 X-34.13 Z-2.9 I0. K0.6
N14730 G0 Z2.
N14735 X4.264
N14740 G1 Z-2. F#103
N14745 Z-3.4 F#108
N14750 G3 X3.664 Z-4. I-0.6 K0.
N14755 G1 X3.064 F#103
N14760 G17 G3 X2.464 Y-25. I0. J-0.6
N14765 G2 X-32.464 I-17.464 J0. F#100
N14770 G3 X-33.064 Y-24.4 I-0.6 J0. F#104
N14775 G1 X-33.664
N14780 G18 G3 X-34.264 Z-3.4 I0. K0.6
N14785 G0 Z2.
N14790 X4.398
N14795 G1 Z-2.5 F#103
N14800 Z-3.9 F#108
N14805 G3 X3.798 Z-4.5 I-0.6 K0.
N14810 G1 X3.198 F#103
N14815 G17 G3 X2.598 Y-25. I0. J-0.6
N14820 G2 X-32.598 I-17.598 J0. F#100
N14825 G3 X-33.198 Y-24.4 I-0.6 J0. F#104
N14830 G1 X-33.798
N14835 G18 G3 X-34.398 Z-3.9 I0. K0.6
N14840 G0 Z2.
N14845 X4.532
N14850 G1 Z-3. F#103
N14855 Z-4.4 F#108
N14860 G3 X3.932 Z-5. I-0.6 K0.
N14865 G1 X3.332 F#103
N14870 G17 G3 X2.732 Y-25. I0. J-0.6
N14875 G2 X-32.732 I-17.732 J0. F#100
N14880 G3 X-33.332 Y-24.4 I-0.6 J0. F#104
N14885 G1 X-33.932
N14890 G18 G3 X-34.532 Z-4.4 I0. K0.6
N14895 G0 Z2.
N14900 X4.666
N14905 G1 Z-3.5 F#103
N14910 Z-4.9 F#108
N14915 G3 X4.066 Z-5.5 I-0.6 K0.
N14920 G1 X3.466 F#103
N14925 G17 G3 X2.866 Y-25. I0. J-0.6
N14930 G2 X-32.866 I-17.866 J0. F#100
N14935 G3 X-33.466 Y-24.4 I-0.6 J0. F#104
N14940 G1 X-34.066
N14945 G18 G3 X-34.666 Z-4.9 I0. K0.6
N14950 G0 Z2.
N14955 X4.8
N14960 G1 Z-4. F#103
N14965 Z-5.4 F#108
N14970 G3 X4.2 Z-6. I-0.6 K0.
N14975 G1 X3.6 F#103
N14980 G17 G3 X3. Y-25. I0. J-0.6
N14985 G2 X-33. I-18. J0. F#100
N14990 G3 X-33.6 Y-24.4 I-0.6 J0. F#104
N14995 G1 X-34.2
N15000 G18 G3 X-34.8 Z-5.4 I0. K0.6
N15005 G0 Z4.
N15010 G17
N15015 M5
N15020 G53 G0 Z0.
(2D CONTOUR1)
N15025 M9
N15030 M1
N15035 T2 M6
N15040 T1
N15045 S3300 M3
N15050 M9
N15060 G0 X-26.9 Y-47.03
N15065 G43 Z4. H2
N15070 #100=220. (CUTTING)
N15075 #106=55. (REDUCED)
N15080 #107=200. (RAMPING)
N15085 #108=120. (PLUNGE)
N15090 G0 Z-1.
N15095 G1 Z-5. F#108
N15100 S3100
N15105 Y-39.05 Z-5.418 F#107
N15110 G3 X-27. Z-5.426 I-0.05 J0.
N15115 G1 Y-55.95 Z-6.312
N15120 G3 X-26.9 Z-6.32 I0.05 J0.
N15125 G1 Y-39.05 Z-7.206
N15130 G3 X-27. Z-7.214 I-0.05 J0.
N15135 G1 Y-55.95 Z-8.1
N15140 S3300
N15145 G3 X-26.9 I0.05 J0. F#106
N15150 G1 Y-39.85 F#100
N15155 Y-39.05 F#106
N15160 G3 X-27. I-0.05 J0.
N15165 G1 Y-55.95 F#100
N15170 S3100
N15175 G3 X-26.9 Z-8.108 I0.05 J0. F#107
N15180 G1 Y-39.05 Z-8.994
N15185 G3 X-27. Z-9.002 I-0.05 J0.
N15190 G1 Y-55.95 Z-9.888
N15195 G3 X-26.9 Z-9.896 I0.05 J0.
N15200 G1 Y-50.151 Z-10.2
N15205 S3300
N15210 Y-39.85 F#100
N15215 Y-39.05 F#106
N15220 G3 X-27. I-0.05 J0.
N15225 G1 Y-55.15 F#100
N15230 Y-55.95 F#106
N15235 G3 X-26.9 I0.05 J0.
N15240 G1 Y-50.151 F#100
N15245 G0 Z2.
N15250 X-3. Y-46.873
N15255 Z-1.
N15260 G1 Z-5. F#108
N15265 S3100
N15270 Y-39.05 Z-5.41 F#107
N15275 G3 X-3.1 Z-5.418 I-0.05 J0.
N15280 G1 Y-55.95 Z-6.304
N15285 G3 X-3. Z-6.312 I0.05 J0.
N15290 G1 Y-39.05 Z-7.198
N15295 G3 X-3.1 Z-7.206 I-0.05 J0.
N15300 G1 Y-55.95 Z-8.092
N15305 G3 X-3. Z-8.1 I0.05 J0.
N15310 S3300
N15315 G1 Y-39.85 F#100
N15320 Y-39.05 F#106
N15325 G3 X-3.1 I-0.05 J0.
N15330 G1 Y-55.15 F#100
N15335 Y-55.95 F#106
N15340 G3 X-3. I0.05 J0.
N15345 S3100
N15350 G1 Y-39.05 Z-8.986 F#107
N15355 G3 X-3.1 Z-8.994 I-0.05 J0.
N15360 G1 Y-55.95 Z-9.88
N15365 G3 X-3. Z-9.888 I0.05 J0.
N15370 G1 Y-49.994 Z-10.2
N15375 S3300
N15380 Y-39.85 F#100
N15385 Y-39.05 F#106
N15390 G3 X-3.1 I-0.05 J0.
N15395 G1 Y-55.15 F#100
N15400 Y-55.95 F#106
N15405 G3 X-3. I0.05 J0.
N15410 G1 Y-49.994 F#100
N15415 G0 Z4.
N15425 M9
N15430 G53 Z0.
N15435 M30
%
