%
(1001)
(T125  D=2.5 CR=0. TAPER=118DEG - ZMIN=-5. - DRILL)
N10 G90 G94 G17 G91.1
N15 G21
N20 G53 G0 Z0.
(DRILL1)
N25 M9
N30 T125 M6
N35 S3200 M3
N40 G54
N45 M9
N55 G0 X-21.6 Y-4.
N60 G43 Z15. H0
N70 G0 Z5.
N75 G98 G83 X-21.6 Y-4. Z-5. R5. Q1. F50.
N80 X-29.6
N85 X-34. Y-20.
N90 Y-38.5
N95 Y-57.
N100 X-16. Y-64.
N105 X-4.
N110 G80
N115 G0 Z15.
N125 M9
N130 G53 Z0.
N135 M30
%
