%
(1001)
(T1  D=6. CR=0. - ZMIN=-5. - FLAT END MILL)
N10 G90 G94 G17 G91.1
N15 G21
N20 G53 G0 Z0.
(2D CONTOUR1)
N25 M9
N30 T1 M6
N35 S3200 M3
N40 G54
N45 M8
N55 G0 X-17.799 Y-25.899
N60 G43 Z4. H1
N65 #100=330. (CUTTING)
N70 #103=200. (ENTRY)
N75 #106=82.5 (REDUCED)
N80 #107=270. (RAMPING)
N85 #108=100. (PLUNGE)
N90 G0 Z3.1
N95 G1 X-17.792 Y-25.898 Z3.006 F#108
N100 X-17.77 Y-25.893 Z2.915
N105 X-17.735 Y-25.886 Z2.828
N110 X-17.687 Y-25.876 Z2.747
N115 X-17.627 Y-25.863 Z2.676
N120 X-17.557 Y-25.849 Z2.615
N125 X-17.478 Y-25.832 Z2.565
N130 X-17.393 Y-25.815 Z2.529
N135 X-17.304 Y-25.796 Z2.507
N140 X-17.212 Y-25.777 Z2.5
N145 X-16.624 Y-25.654 F#103
N150 G3 X-16.159 Y-24.945 I-0.122 J0.587
N155 S3000
N160 G1 X-18.423 Y-14.08 Z2.397 F#107
N165 G3 X-18.521 Y-14. Z2.396 I-0.098 J-0.02
N170 G1 X-25.835 Z2.328
N175 G3 X-25.935 Y-14.102 Z2.326 I0. J-0.1
N180 G1 X-25.064 Y-55.902 Z1.938
N185 G3 X-24.964 Y-56. Z1.936 I0.1 J0.002
N190 G1 X-9.812 Z1.795
N195 G3 X-9.714 Y-55.88 Z1.794 I0. J0.1
N200 G1 X-18.423 Y-14.08 Z1.397
N205 G3 X-18.521 Y-14. Z1.396 I-0.098 J-0.02
N210 G1 X-25.835 Z1.328
N215 G3 X-25.935 Y-14.102 Z1.326 I0. J-0.1
N220 G1 X-25.064 Y-55.902 Z0.938
N225 G3 X-24.964 Y-56. Z0.936 I0.1 J0.002
N230 G1 X-9.812 Z0.795
N235 G3 X-9.714 Y-55.88 Z0.794 I0. J0.1
N240 G1 X-18.423 Y-14.08 Z0.397
N245 G3 X-18.521 Y-14. Z0.396 I-0.098 J-0.02
N250 G1 X-25.835 Z0.328
N255 G3 X-25.935 Y-14.102 Z0.326 I0. J-0.1
N260 G1 X-25.064 Y-55.902 Z-0.062
N265 G3 X-24.964 Y-56. Z-0.064 I0.1 J0.002
N270 G1 X-9.812 Z-0.205
N275 G3 X-9.714 Y-55.88 Z-0.206 I0. J0.1
N280 G1 X-18.423 Y-14.08 Z-0.603
N285 G3 X-18.521 Y-14. Z-0.604 I-0.098 J-0.02
N290 G1 X-25.835 Z-0.672
N295 G3 X-25.935 Y-14.102 Z-0.674 I0. J-0.1
N300 G1 X-25.064 Y-55.902 Z-1.062
N305 G3 X-24.964 Y-56. Z-1.064 I0.1 J0.002
N310 G1 X-9.812 Z-1.205
N315 G3 X-9.714 Y-55.88 Z-1.206 I0. J0.1
N320 G1 X-18.423 Y-14.08 Z-1.603
N325 G3 X-18.521 Y-14. Z-1.604 I-0.098 J-0.02
N330 G1 X-25.835 Z-1.672
N335 G3 X-25.935 Y-14.102 Z-1.674 I0. J-0.1
N340 G1 X-25.064 Y-55.902 Z-2.062
N345 G3 X-24.964 Y-56. Z-2.064 I0.1 J0.002
N350 G1 X-9.812 Z-2.205
N355 G3 X-9.714 Y-55.88 Z-2.206 I0. J0.1
N360 G1 X-18.423 Y-14.08 Z-2.603
N365 G3 X-18.521 Y-14. Z-2.604 I-0.098 J-0.02
N370 G1 X-25.835 Z-2.672
N375 G3 X-25.935 Y-14.102 Z-2.674 I0. J-0.1
N380 G1 X-25.064 Y-55.902 Z-3.062
N385 G3 X-24.964 Y-56. Z-3.064 I0.1 J0.002
N390 G1 X-9.812 Z-3.205
N395 G3 X-9.714 Y-55.88 Z-3.206 I0. J0.1
N400 G1 X-18.423 Y-14.08 Z-3.603
N405 G3 X-18.521 Y-14. Z-3.604 I-0.098 J-0.02
N410 G1 X-25.835 Z-3.672
N415 G3 X-25.935 Y-14.102 Z-3.674 I0. J-0.1
N420 G1 X-25.064 Y-55.902 Z-4.062
N425 G3 X-24.964 Y-56. Z-4.064 I0.1 J0.002
N430 G1 X-9.812 Z-4.205
N435 G3 X-9.714 Y-55.88 Z-4.206 I0. J0.1
N440 G1 X-18.423 Y-14.08 Z-4.603
N445 G3 X-18.521 Y-14. Z-4.604 I-0.098 J-0.02
N450 G1 X-25.835 Z-4.672
N455 G3 X-25.935 Y-14.102 Z-4.674 I0. J-0.1
N460 G1 X-25.204 Y-49.187 Z-5.
N465 S3200
N470 X-25.089 Y-54.702 F#100
N475 X-25.064 Y-55.902 F#106
N480 G3 X-24.964 Y-56. I0.1 J0.002
N485 G1 X-11.012 F#100
N490 X-9.812 F#106
N495 G3 X-9.714 Y-55.88 I0. J0.1
N500 G1 X-18.178 Y-15.254 F#100
N505 X-18.423 Y-14.08 F#106
N510 G3 X-18.521 Y-14. I-0.098 J-0.02
N515 G1 X-24.635 F#100
N520 X-25.835 F#106
N525 G3 X-25.935 Y-14.102 I0. J-0.1
N530 G1 X-25.204 Y-49.187 F#100
N535 G0 Z4.
N545 M9
N550 G53 Z0.
N555 M30
%
