%
(C-HEAD-BASE-RIG2-SIDE)
(6MM TWO FLUTE)
(T1  D=6. CR=0. - ZMIN=-4. - FLAT END MILL)
N10 G90 G94 G17 G91.1
N15 G21
N20 G53 G0 Z0.
(FACE1)
N25 M9
N30 T1 M6
N35 S3200 M3
N40 G54
N45 M8
N55 G0 X-0.46 Y58.3
N60 G43 Z7. H1
N65 #100=330. (CUTTING)
N70 #102=330. (FINISH)
N75 #103=200. (ENTRY)
N80 #104=200. (EXIT)
N85 G0 Z5.
N90 G1 Z1. F#103
N95 G19 G2 Y56.3 Z-1. J-2. K0.
N100 G1 Y53. F#100
N105 Y-1. F#102
N110 G17 G2 X-4.87 I-2.205 J0. F#100
N115 G1 Y53. F#102
N120 G3 X-9.28 I-2.205 J0. F#100
N125 G1 Y-1. F#102
N130 G2 X-13.69 I-2.205 J0. F#100
N135 G1 Y53. F#102
N140 G3 X-18.1 I-2.205 J0. F#100
N145 G1 Y-1. F#102
N150 G19 G2 Y-3. Z1. J0. K2. F#104
N155 G0 Z7.
N160 G17
(2D ADAPTIVE1)
N165 M8
N170 G0 X-20.318 Y-5.056
N175 #100=330. (CUTTING)
N180 #103=200. (ENTRY)
N185 #104=200. (EXIT)
N190 #106=82.5 (REDUCED)
N195 Z4.
N200 Z-3.
N205 G1 Z-3.5 F#103
N210 X-20.316 Y-5.049 Z-3.587
N215 X-20.31 Y-5.027 Z-3.671
N220 X-20.301 Y-4.991 Z-3.75
N225 X-20.289 Y-4.943 Z-3.821
N230 X-20.273 Y-4.883 Z-3.883
N235 X-20.256 Y-4.814 Z-3.933
N240 X-20.236 Y-4.738 Z-3.97
N245 X-20.215 Y-4.656 Z-3.992
N250 X-20.194 Y-4.572 Z-4.
N255 G3 X-19.97 Y-3.017 I-7.063 J1.809
N260 G2 X-20.899 Y4.049 I20.987 J6.353 F#100
N265 X-20.969 Y12.91 I290.306 J6.721
N270 G1 X-20.97 Y21.771
N275 Y49.241
N280 G2 X-19.072 Y51.771 I2.997 J-0.27
N285 X-13.274 Y52.85 I5.437 J-13.105
N290 G3 X-12. Y54.513 I-0.483 J1.69
N295 X-13. Y54.489 I-0.5 J-0.017 F#104
N300 G1 X-12.999 Y54.478
N305 X-12.996 Y54.391 Z-3.992
N310 X-12.993 Y54.307 Z-3.97
N315 X-12.991 Y54.228 Z-3.933
N320 X-12.988 Y54.157 Z-3.883
N325 X-12.986 Y54.095 Z-3.821
N330 X-12.984 Y54.045 Z-3.75
N335 X-12.983 Y54.009 Z-3.671
N340 X-12.982 Y53.986 Z-3.587
N345 Y53.979 Z-3.5
N350 G0 Z2.05
N355 X-12.698 Y-4.935
N360 Z-3.
N365 G1 Z-3.5 F#103
N370 X-12.694 Y-4.928 Z-3.587
N375 X-12.683 Y-4.909 Z-3.671
N380 X-12.664 Y-4.877 Z-3.75
N385 X-12.638 Y-4.834 Z-3.821
N390 X-12.607 Y-4.781 Z-3.883
N395 X-12.57 Y-4.72 Z-3.933
N400 X-12.53 Y-4.652 Z-3.97
N405 X-12.487 Y-4.579 Z-3.992
N410 X-12.443 Y-4.505 Z-4.
N415 G3 X-12. Y-2.998 I-2.721 J1.618
N420 X-12.52 Y-2.304 I-0.756 J-0.026 F#100
N425 X-15.325 Y-1.352 I-3.686 J-6.247
N430 G2 X-17.829 Y0.945 I0.797 J3.382
N435 X-18.838 Y7.023 I14.888 J5.593
N440 X-18.969 Y17.656 I219.741 J8.022
N445 G1 X-18.97 Y25.631
N450 Y46.898
N455 G2 X-16.823 Y49.555 I3.637 J-0.744
N460 X-13.703 Y50.703 I9.939 J-22.187
N465 G3 X-12.123 Y51.891 I-0.667 J2.53
N470 G1 X-12.035 Y52.224
N475 X-12. Y52.563
N480 G3 X-13. Y52.538 I-0.5 J-0.017 F#104
N485 G1 X-12.999 Y52.528
N490 X-12.996 Y52.441 Z-3.992
N495 X-12.993 Y52.357 Z-3.97
N500 X-12.991 Y52.278 Z-3.933
N505 X-12.988 Y52.206 Z-3.883
N510 X-12.986 Y52.145 Z-3.821
N515 X-12.984 Y52.095 Z-3.75
N520 X-12.983 Y52.058 Z-3.671
N525 X-12.982 Y52.036 Z-3.587
N530 Y52.028 Z-3.5
N535 G0 Z2.05
N540 X-12.698 Y-4.733
N545 Z-3.
N550 G1 Z-3.5 F#103
N555 X-12.694 Y-4.727 Z-3.587
N560 X-12.683 Y-4.707 Z-3.671
N565 X-12.664 Y-4.676 Z-3.75
N570 X-12.638 Y-4.633 Z-3.821
N575 X-12.607 Y-4.58 Z-3.883
N580 X-12.57 Y-4.518 Z-3.933
N585 X-12.53 Y-4.45 Z-3.97
N590 X-12.487 Y-4.378 Z-3.992
N595 X-12.443 Y-4.303 Z-4.
N600 G3 X-12. Y-2.796 I-2.721 J1.618
N605 X-12.708 Y-1.107 I-1.721 J0.271 F#100
N610 G2 X-16.43 Y4.999 I4.308 J6.812
N615 X-16.918 Y14.72 I54.027 J7.588
N620 G1 X-16.959 Y15.607
N625 X-16.964 Y17.38
N630 X-16.968 Y20.038
N635 X-16.97 Y25.355
N640 Y43.963
N645 G2 X-15.424 Y47.005 I3.649 J0.059
N650 X-12.688 Y48.885 I24.952 J-33.391
N655 G3 X-12. Y50.237 I-0.991 J1.356
N660 G1 Y52.563
N665 G3 X-13. Y52.538 I-0.5 J-0.017 F#104
N670 G1 X-12.999 Y52.528
N675 X-12.996 Y52.441 Z-3.992
N680 X-12.993 Y52.357 Z-3.97
N685 X-12.991 Y52.278 Z-3.933
N690 X-12.988 Y52.206 Z-3.883
N695 X-12.986 Y52.145 Z-3.821
N700 X-12.984 Y52.095 Z-3.75
N705 X-12.983 Y52.058 Z-3.671
N710 X-12.982 Y52.036 Z-3.587
N715 Y52.028 Z-3.5
N720 G0 Z2.05
N725 X-12.698 Y-4.129
N730 Z-3.
N735 G1 Z-3.5 F#103
N740 X-12.694 Y-4.123 Z-3.587
N745 X-12.683 Y-4.103 Z-3.671
N750 X-12.664 Y-4.071 Z-3.75
N755 X-12.638 Y-4.028 Z-3.821
N760 X-12.607 Y-3.976 Z-3.883
N765 X-12.57 Y-3.914 Z-3.933
N770 X-12.53 Y-3.846 Z-3.97
N775 X-12.487 Y-3.774 Z-3.992
N780 X-12.443 Y-3.699 Z-4.
N785 G3 X-12. Y-2.192 I-2.721 J1.618
N790 X-12.655 Y0.557 I-4.284 J0.431 F#100
N795 G2 X-14.773 Y9.981 I18.848 J9.186
N800 X-14.968 Y22.385 I210.428 J9.509
N805 G1 X-14.97 Y27.702
N810 Y41.88
N815 G2 X-12.97 Y45.696 I5.409 J-0.402
N820 G3 X-12.032 Y47.072 I-1.489 J2.024
N825 G1 X-12. Y47.395
N830 Y50.237
N835 G3 X-13. Y50.212 I-0.5 J-0.017 F#104
N840 G1 X-12.999 Y50.202
N845 X-12.996 Y50.115 Z-3.992
N850 X-12.993 Y50.031 Z-3.97
N855 X-12.991 Y49.952 Z-3.933
N860 X-12.988 Y49.88 Z-3.883
N865 X-12.986 Y49.819 Z-3.821
N870 X-12.984 Y49.769 Z-3.75
N875 X-12.983 Y49.732 Z-3.671
N880 X-12.982 Y49.71 Z-3.587
N885 Y49.702 Z-3.5
N890 G0 Z2.05
N895 X-12.698 Y-3.213
N900 Z-3.
N905 G1 Z-3.5 F#103
N910 X-12.694 Y-3.206 Z-3.587
N915 X-12.683 Y-3.187 Z-3.671
N920 X-12.664 Y-3.155 Z-3.75
N925 X-12.638 Y-3.112 Z-3.821
N930 X-12.607 Y-3.059 Z-3.883
N935 X-12.57 Y-2.998 Z-3.933
N940 X-12.53 Y-2.93 Z-3.97
N945 X-12.487 Y-2.858 Z-3.992
N950 X-12.443 Y-2.783 Z-4.
N955 G3 X-12. Y-1.276 I-2.721 J1.618
N960 X-12.62 Y7.803 I-59.423 J0.504 F#100
N965 G2 X-12.968 Y24.633 I230.325 J13.183
N970 G1 X-12.97 Y30.836
N975 Y39.697
N980 G2 X-12.495 Y42.036 I7.375 J-0.28
N985 X-11.979 Y43.119 I6.9 J-2.62 F#106
N990 G1 X-12. Y43.413 F#100
N995 Y47.395
N1000 G3 X-13. Y47.371 I-0.5 J-0.017 F#104
N1005 G1 X-12.999 Y47.36
N1010 X-12.996 Y47.273 Z-3.992
N1015 X-12.993 Y47.189 Z-3.97
N1020 X-12.991 Y47.11 Z-3.933
N1025 X-12.988 Y47.039 Z-3.883
N1030 X-12.986 Y46.977 Z-3.821
N1035 X-12.984 Y46.927 Z-3.75
N1040 X-12.983 Y46.89 Z-3.671
N1045 X-12.982 Y46.868 Z-3.587
N1050 Y46.86 Z-3.5
N1055 G0 Z2.05
N1060 X-12.698 Y-0.303
N1065 Z-3.
N1070 G1 Z-3.5 F#103
N1075 X-12.694 Y-0.296 Z-3.587
N1080 X-12.683 Y-0.277 Z-3.671
N1085 X-12.664 Y-0.245 Z-3.75
N1090 X-12.638 Y-0.202 Z-3.821
N1095 X-12.607 Y-0.149 Z-3.883
N1100 X-12.57 Y-0.088 Z-3.933
N1105 X-12.53 Y-0.02 Z-3.97
N1110 X-12.487 Y0.052 Z-3.992
N1115 X-12.443 Y0.127 Z-4.
N1120 G3 X-12. Y1.634 I-2.721 J1.618
N1125 G1 Y43.413 F#100
N1130 G3 X-13. Y43.389 I-0.5 J-0.017 F#104
N1135 G1 X-12.999 Y43.378
N1140 X-12.996 Y43.291 Z-3.992
N1145 X-12.993 Y43.207 Z-3.97
N1150 X-12.991 Y43.128 Z-3.933
N1155 X-12.988 Y43.057 Z-3.883
N1160 X-12.986 Y42.995 Z-3.821
N1165 X-12.984 Y42.945 Z-3.75
N1170 X-12.983 Y42.908 Z-3.671
N1175 X-12.982 Y42.886 Z-3.587
N1180 Y42.878 Z-3.5
N1185 G0 Z4.
N1195 M9
N1200 G53 Z0.
N1205 M30
%
