%
(C-HEAD-BASE-RIG2-SIDE)
(6MM TWO FLUTE)
(T3  D=3. CR=0. TAPER=118DEG - ZMIN=-9. - DRILL)
N10 G90 G94 G17 G91.1
N15 G21
N20 G53 G0 Z0.
(DRILL1)
N25 M9
N30 T3 M6
N35 S2500 M3
N40 G54
N45 M9
N55 G0 X-4. Y23.5
N60 G43 Z15. H3
N70 G0 Z5.
N75 G98 G81 X-4. Y23.5 Z-9. R4. F125.
N80 Y5.
N85 G80
N90 G0 Z15.
(DRILL2)
N100 M9
N105 G0 X-12.456 Y34.
N110 Z15.
N120 Z5.
N125 G81 X-12.456 Y34. Z-4.5 R1. F125.
N130 Y48.
N135 G80
N140 G0 Z15.
N150 M9
N155 G53 Z0.
N160 M30
%
