%
(C-HEAD-BASE-RIG2-SIDE)
(6MM TWO FLUTE)
(T1  D=6. CR=0. - ZMIN=-9. - FLAT END MILL)
N10 G90 G94 G17 G91.1
N15 G21
N20 G53 G0 Z0.
(2D CONTOUR1)
N25 M9
N30 T1 M6
N35 S3200 M3
N40 G54
N45 M8
N55 G0 X-21.382 Y36.575
N60 G43 Z4. H1
N65 #100=330. (CUTTING)
N70 #106=82.5 (REDUCED)
N75 #107=270. (RAMPING)
N80 G0 Z2.5
N85 S3000
N90 G2 X-15.9 Y40. Z2.459 I5.482 J-2.675 F#107
N95 G1 X-10.1 Z2.424
N100 G3 X-10. Y40.1 Z2.423 I0. J0.1
N105 G1 Y41.9 Z2.412
N110 G3 X-10.1 Y42. Z2.411 I-0.1 J0.
N115 G1 X-15.906 Z2.376
N120 G2 X-21.994 Y47.706 Z2.32 I0. J6.1
N125 X-22. Y47.9 Z2.319 I2.994 J0.194
N130 X-15.9 Y54. Z2.261 I6.1 J0.
N135 G1 X-4.1 Z2.19
N140 G2 X2. Y47.9 Z2.132 I0. J-6.1
N145 G1 Y4.1 Z1.868
N150 G2 X-4.1 Y-2. Z1.81 I-6.1 J0.
N155 G1 X-5.9 Z1.799
N160 G2 X-12. Y4.1 Z1.741 I0. J6.1
N165 G1 Y27.9 Z1.597
N170 G3 X-12.1 Y28. Z1.596 I-0.1 J0.
N175 G1 X-15.906 Z1.573
N180 G2 X-21.994 Y33.706 Z1.518 I0. J6.1
N185 X-22. Y33.9 Z1.517 I2.994 J0.194
N190 X-15.9 Y40. Z1.459 I6.1 J0.
N195 G1 X-10.1 Z1.424
N200 G3 X-10. Y40.1 Z1.423 I0. J0.1
N205 G1 Y41.9 Z1.412
N210 G3 X-10.1 Y42. Z1.411 I-0.1 J0.
N215 G1 X-15.906 Z1.376
N220 G2 X-21.994 Y47.706 Z1.32 I0. J6.1
N225 X-22. Y47.9 Z1.319 I2.994 J0.194
N230 X-15.9 Y54. Z1.261 I6.1 J0.
N235 G1 X-4.1 Z1.19
N240 G2 X2. Y47.9 Z1.132 I0. J-6.1
N245 G1 Y4.1 Z0.868
N250 G2 X-4.1 Y-2. Z0.81 I-6.1 J0.
N255 G1 X-5.9 Z0.799
N260 G2 X-12. Y4.1 Z0.741 I0. J6.1
N265 G1 Y27.9 Z0.597
N270 G3 X-12.1 Y28. Z0.596 I-0.1 J0.
N275 G1 X-15.906 Z0.573
N280 G2 X-21.994 Y33.706 Z0.518 I0. J6.1
N285 X-22. Y33.9 Z0.517 I2.994 J0.194
N290 X-15.9 Y40. Z0.459 I6.1 J0.
N295 G1 X-10.1 Z0.424
N300 G3 X-10. Y40.1 Z0.423 I0. J0.1
N305 G1 Y41.9 Z0.412
N310 G3 X-10.1 Y42. Z0.411 I-0.1 J0.
N315 G1 X-15.906 Z0.376
N320 G2 X-21.994 Y47.706 Z0.32 I0. J6.1
N325 X-22. Y47.9 Z0.319 I2.994 J0.194
N330 X-15.9 Y54. Z0.261 I6.1 J0.
N335 G1 X-4.1 Z0.19
N340 G2 X2. Y47.9 Z0.132 I0. J-6.1
N345 G1 Y4.1 Z-0.132
N350 G2 X-4.1 Y-2. Z-0.19 I-6.1 J0.
N355 G1 X-5.9 Z-0.201
N360 G2 X-12. Y4.1 Z-0.259 I0. J6.1
N365 G1 Y27.9 Z-0.403
N370 G3 X-12.1 Y28. Z-0.404 I-0.1 J0.
N375 G1 X-15.906 Z-0.427
N380 G2 X-21.994 Y33.706 Z-0.482 I0. J6.1
N385 X-22. Y33.9 Z-0.483 I2.994 J0.194
N390 X-15.9 Y40. Z-0.541 I6.1 J0.
N395 G1 X-10.1 Z-0.576
N400 G3 X-10. Y40.1 Z-0.577 I0. J0.1
N405 G1 Y41.9 Z-0.588
N410 G3 X-10.1 Y42. Z-0.589 I-0.1 J0.
N415 G1 X-15.906 Z-0.624
N420 G2 X-21.994 Y47.706 Z-0.68 I0. J6.1
N425 X-22. Y47.9 Z-0.681 I2.994 J0.194
N430 X-15.9 Y54. Z-0.739 I6.1 J0.
N435 G1 X-4.1 Z-0.81
N440 G2 X2. Y47.9 Z-0.868 I0. J-6.1
N445 G1 Y4.1 Z-1.132
N450 G2 X-4.1 Y-2. Z-1.19 I-6.1 J0.
N455 G1 X-5.9 Z-1.201
N460 G2 X-12. Y4.1 Z-1.259 I0. J6.1
N465 G1 Y27.9 Z-1.403
N470 G3 X-12.1 Y28. Z-1.404 I-0.1 J0.
N475 G1 X-15.906 Z-1.427
N480 G2 X-21.994 Y33.706 Z-1.482 I0. J6.1
N485 X-22. Y33.9 Z-1.483 I2.994 J0.194
N490 X-15.9 Y40. Z-1.541 I6.1 J0.
N495 G1 X-10.1 Z-1.576
N500 G3 X-10. Y40.1 Z-1.577 I0. J0.1
N505 G1 Y41.9 Z-1.588
N510 G3 X-10.1 Y42. Z-1.589 I-0.1 J0.
N515 G1 X-15.906 Z-1.624
N520 G2 X-21.994 Y47.706 Z-1.68 I0. J6.1
N525 X-22. Y47.9 Z-1.681 I2.994 J0.194
N530 X-15.9 Y54. Z-1.739 I6.1 J0.
N535 G1 X-4.1 Z-1.81
N540 G2 X2. Y47.9 Z-1.868 I0. J-6.1
N545 G1 Y4.1 Z-2.132
N550 G2 X-4.1 Y-2. Z-2.19 I-6.1 J0.
N555 G1 X-5.9 Z-2.201
N560 G2 X-12. Y4.1 Z-2.259 I0. J6.1
N565 G1 Y27.9 Z-2.403
N570 G3 X-12.1 Y28. Z-2.404 I-0.1 J0.
N575 G1 X-15.906 Z-2.427
N580 G2 X-21.994 Y33.706 Z-2.482 I0. J6.1
N585 X-22. Y33.9 Z-2.483 I2.994 J0.194
N590 X-15.9 Y40. Z-2.541 I6.1 J0.
N595 G1 X-10.1 Z-2.576
N600 G3 X-10. Y40.1 Z-2.577 I0. J0.1
N605 G1 Y41.9 Z-2.588
N610 G3 X-10.1 Y42. Z-2.589 I-0.1 J0.
N615 G1 X-15.906 Z-2.624
N620 G2 X-21.994 Y47.706 Z-2.68 I0. J6.1
N625 X-22. Y47.9 Z-2.681 I2.994 J0.194
N630 X-15.9 Y54. Z-2.739 I6.1 J0.
N635 G1 X-4.1 Z-2.81
N640 G2 X2. Y47.9 Z-2.868 I0. J-6.1
N645 G1 Y4.1 Z-3.132
N650 G2 X-4.1 Y-2. Z-3.19 I-6.1 J0.
N655 G1 X-5.9 Z-3.201
N660 G2 X-12. Y4.1 Z-3.259 I0. J6.1
N665 G1 Y27.9 Z-3.403
N670 G3 X-12.1 Y28. Z-3.404 I-0.1 J0.
N675 G1 X-15.906 Z-3.427
N680 G2 X-21.994 Y33.706 Z-3.482 I0. J6.1
N685 X-22. Y33.9 Z-3.483 I2.994 J0.194
N690 X-15.9 Y40. Z-3.541 I6.1 J0.
N695 G1 X-10.1 Z-3.576
N700 G3 X-10. Y40.1 Z-3.577 I0. J0.1
N705 G1 Y41.9 Z-3.588
N710 G3 X-10.1 Y42. Z-3.589 I-0.1 J0.
N715 G1 X-15.906 Z-3.624
N720 G2 X-21.994 Y47.706 Z-3.68 I0. J6.1
N725 X-22. Y47.9 Z-3.681 I2.994 J0.194
N730 X-15.9 Y54. Z-3.739 I6.1 J0.
N735 G1 X-4.1 Z-3.81
N740 G2 X2. Y47.9 Z-3.868 I0. J-6.1
N745 G1 Y4.1 Z-4.132
N750 G2 X-4.1 Y-2. Z-4.19 I-6.1 J0.
N755 G1 X-5.9 Z-4.201
N760 G2 X-12. Y4.1 Z-4.259 I0. J6.1
N765 G1 Y27.9 Z-4.403
N770 G3 X-12.1 Y28. Z-4.404 I-0.1 J0.
N775 G1 X-15.906 Z-4.427
N780 G2 X-21.994 Y33.706 Z-4.482 I0. J6.1
N785 X-22. Y33.9 Z-4.483 I2.994 J0.194
N790 X-15.9 Y40. Z-4.541 I6.1 J0.
N795 G1 X-10.1 Z-4.576
N800 G3 X-10. Y40.1 Z-4.577 I0. J0.1
N805 G1 Y41.9 Z-4.588
N810 G3 X-10.1 Y42. Z-4.589 I-0.1 J0.
N815 G1 X-15.906 Z-4.624
N820 G2 X-21.994 Y47.706 Z-4.68 I0. J6.1
N825 X-22. Y47.9 Z-4.681 I2.994 J0.194
N830 X-15.9 Y54. Z-4.739 I6.1 J0.
N835 G1 X-4.1 Z-4.81
N840 G2 X2. Y47.9 Z-4.868 I0. J-6.1
N845 G1 Y4.1 Z-5.132
N850 G2 X-4.1 Y-2. Z-5.19 I-6.1 J0.
N855 G1 X-5.9 Z-5.201
N860 G2 X-12. Y4.1 Z-5.259 I0. J6.1
N865 G1 Y27.9 Z-5.403
N870 G3 X-12.1 Y28. Z-5.404 I-0.1 J0.
N875 G1 X-15.906 Z-5.427
N880 G2 X-21.994 Y33.706 Z-5.482 I0. J6.1
N885 X-22. Y33.9 Z-5.483 I2.994 J0.194
N890 X-15.9 Y40. Z-5.541 I6.1 J0.
N895 G1 X-10.1 Z-5.576
N900 G3 X-10. Y40.1 Z-5.577 I0. J0.1
N905 G1 Y41.9 Z-5.588
N910 G3 X-10.1 Y42. Z-5.589 I-0.1 J0.
N915 G1 X-15.906 Z-5.624
N920 G2 X-21.994 Y47.706 Z-5.68 I0. J6.1
N925 X-22. Y47.9 Z-5.681 I2.994 J0.194
N930 X-15.9 Y54. Z-5.739 I6.1 J0.
N935 G1 X-4.1 Z-5.81
N940 G2 X2. Y47.9 Z-5.868 I0. J-6.1
N945 G1 Y4.1 Z-6.132
N950 G2 X-4.1 Y-2. Z-6.19 I-6.1 J0.
N955 G1 X-5.9 Z-6.201
N960 G2 X-12. Y4.1 Z-6.259 I0. J6.1
N965 G1 Y27.9 Z-6.403
N970 G3 X-12.1 Y28. Z-6.404 I-0.1 J0.
N975 G1 X-15.906 Z-6.427
N980 G2 X-21.994 Y33.706 Z-6.482 I0. J6.1
N985 X-22. Y33.9 Z-6.483 I2.994 J0.194
N990 X-15.9 Y40. Z-6.541 I6.1 J0.
N995 G1 X-10.1 Z-6.576
N1000 G3 X-10. Y40.1 Z-6.577 I0. J0.1
N1005 G1 Y41.9 Z-6.588
N1010 G3 X-10.1 Y42. Z-6.589 I-0.1 J0.
N1015 G1 X-15.906 Z-6.624
N1020 G2 X-21.994 Y47.706 Z-6.68 I0. J6.1
N1025 X-22. Y47.9 Z-6.681 I2.994 J0.194
N1030 X-15.9 Y54. Z-6.739 I6.1 J0.
N1035 G1 X-4.1 Z-6.81
N1040 G2 X2. Y47.9 Z-6.868 I0. J-6.1
N1045 G1 Y4.1 Z-7.132
N1050 G2 X-4.1 Y-2. Z-7.19 I-6.1 J0.
N1055 G1 X-5.9 Z-7.201
N1060 G2 X-12. Y4.1 Z-7.259 I0. J6.1
N1065 G1 Y27.9 Z-7.403
N1070 G3 X-12.1 Y28. Z-7.404 I-0.1 J0.
N1075 G1 X-15.906 Z-7.427
N1080 G2 X-21.994 Y33.706 Z-7.482 I0. J6.1
N1085 X-22. Y33.9 Z-7.483 I2.994 J0.194
N1090 X-15.9 Y40. Z-7.541 I6.1 J0.
N1095 G1 X-10.1 Z-7.576
N1100 G3 X-10. Y40.1 Z-7.577 I0. J0.1
N1105 G1 Y41.9 Z-7.588
N1110 G3 X-10.1 Y42. Z-7.589 I-0.1 J0.
N1115 G1 X-15.906 Z-7.624
N1120 G2 X-21.994 Y47.706 Z-7.68 I0. J6.1
N1125 X-22. Y47.9 Z-7.681 I2.994 J0.194
N1130 X-15.9 Y54. Z-7.739 I6.1 J0.
N1135 G1 X-4.1 Z-7.81
N1140 G2 X2. Y47.9 Z-7.868 I0. J-6.1
N1145 G1 Y4.1 Z-8.132
N1150 G2 X-4.1 Y-2. Z-8.19 I-6.1 J0.
N1155 G1 X-5.9 Z-8.201
N1160 G2 X-12. Y4.1 Z-8.259 I0. J6.1
N1165 G1 Y27.9 Z-8.403
N1170 G3 X-12.1 Y28. Z-8.404 I-0.1 J0.
N1175 G1 X-15.906 Z-8.427
N1180 G2 X-21.994 Y33.706 Z-8.482 I0. J6.1
N1185 X-22. Y33.9 Z-8.483 I2.994 J0.194
N1190 X-15.9 Y40. Z-8.541 I6.1 J0.
N1195 G1 X-10.1 Z-8.576
N1200 G3 X-10. Y40.1 Z-8.577 I0. J0.1
N1205 G1 Y41.9 Z-8.588
N1210 G3 X-10.1 Y42. Z-8.589 I-0.1 J0.
N1215 G1 X-15.906 Z-8.624
N1220 G2 X-21.994 Y47.706 Z-8.68 I0. J6.1
N1225 X-22. Y47.9 Z-8.681 I2.994 J0.194
N1230 X-15.9 Y54. Z-8.739 I6.1 J0.
N1235 G1 X-4.1 Z-8.81
N1240 G2 X2. Y47.9 Z-8.868 I0. J-6.1
N1245 G1 Y26. Z-9.
N1250 S3200
N1255 Y4.1 F#100
N1260 G2 X-4.1 Y-2. I-6.1 J0.
N1265 G1 X-5.9
N1270 G2 X-12. Y4.1 I0. J6.1
N1275 G1 Y26.7
N1280 Y27.9 F#106
N1285 G3 X-12.1 Y28. I-0.1 J0.
N1290 G1 X-15.906 F#100
N1295 G2 X-21.994 Y33.706 I0. J6.1
N1300 X-22. Y33.9 I2.994 J0.194
N1305 X-15.9 Y40. I6.1 J0.
N1310 G1 X-11.3
N1315 X-10.1 F#106
N1320 G3 X-10. Y40.1 I0. J0.1
N1325 G1 Y40.7 F#100
N1330 Y41.9 F#106
N1335 G3 X-10.1 Y42. I-0.1 J0.
N1340 G1 X-15.906 F#100
N1345 G2 X-21.994 Y47.706 I0. J6.1
N1350 X-22. Y47.9 I2.994 J0.194
N1355 X-15.9 Y54. I6.1 J0.
N1360 G1 X-4.1
N1365 G2 X2. Y47.9 I0. J-6.1
N1370 G1 Y26.
N1375 G0 Z4.
N1385 M9
N1390 G53 Z0.
N1395 M30
%
