%
(1001)
(T10  D=6. CR=0. - ZMIN=0. - FLAT END MILL)
N10 G90 G94 G17 G91.1
N15 G21
N20 G53 G0 Z0.
(FACE1)
N25 M9
N30 T10 M6
N35 S4000 M3
N40 G54
N45 M9
N55 G0 X6.232 Y14.616
N60 G43 Z4. H10
N65 #100=800. (CUTTING)
N70 #102=800. (FINISH)
N75 #103=600. (ENTRY)
N80 #104=600. (EXIT)
N85 G0 Z2.
N90 G19 G2 Y12.616 Z0. J-2. K0. F#103
N95 G1 Y12.316 F#100
N100 Y-62.316 F#102
N105 Y-63. F#100
N110 G17 G2 X1.514 I-2.359 J0.
N115 G1 Y13. F#102
N120 G3 X-3.204 I-2.359 J0. F#100
N125 G1 Y-63. F#102
N130 G2 X-7.921 I-2.359 J0. F#100
N135 G1 Y13. F#102
N140 G3 X-12.639 I-2.359 J0. F#100
N145 G1 Y-63. F#102
N150 G2 X-17.357 I-2.359 J0. F#100
N155 G1 Y13. F#102
N160 G3 X-22.075 I-2.359 J0. F#100
N165 G1 Y-63. F#102
N170 G2 X-26.793 I-2.359 J0. F#100
N175 G1 Y13. F#102
N180 G3 X-31.511 I-2.359 J0. F#100
N185 G1 Y-63. F#102
N190 G2 X-36.229 I-2.359 J0. F#100
N195 G1 Y13. F#102
N200 G3 X-40.946 I-2.359 J0. F#100
N205 G1 Y-63. F#102
N210 G2 X-45.664 I-2.359 J0. F#100
N215 G1 Y13. F#102
N220 G3 X-50.382 I-2.359 J0. F#100
N225 G1 Y-63. F#102
N230 G2 X-55.1 I-2.359 J0. F#100
N235 G1 Y-62.718
N240 Y12.718 F#102
N245 G19 G3 Y14.718 Z2. J0. K2. F#104
N250 G0 Z4.
N255 G17
N260 M9
N265 G53 G0 Z0.
N270 M30
%
