%
(1001)
(T10  D=6. CR=0. - ZMIN=-11.5 - FLAT END MILL)
N10 G90 G94 G17 G91.1
N15 G21
N20 G53 G0 Z0.
(2D CONTOUR3)
N25 M9
N30 T10 M6
N35 S4000 M3
N40 G54
N45 M9
N55 G0 X-7.12 Y-40.536
N60 G43 Z1. H10
N65 #100=800. (CUTTING)
N70 #103=600. (ENTRY)
N75 #107=600. (RAMPING)
N80 S3800
N85 G3 X-7.88 Y-44.464 Z0.005 I-0.38 J-1.964 F#107
N90 X-7.12 Y-40.536 Z-0.99 I0.38 J1.964
N95 X-7.88 Y-44.464 Z-1.985 I-0.38 J-1.964
N100 X-7.12 Y-40.536 Z-2.981 I0.38 J1.964
N105 X-7.88 Y-44.464 Z-3.976 I-0.38 J-1.964
N110 X-7.12 Y-40.536 Z-4.971 I0.38 J1.964
N115 X-7.88 Y-44.464 Z-5.966 I-0.38 J-1.964
N120 X-7.12 Y-40.536 Z-6.961 I0.38 J1.964
N125 X-7.88 Y-44.464 Z-7.956 I-0.38 J-1.964
N130 X-7.12 Y-40.536 Z-8.952 I0.38 J1.964
N135 X-7.88 Y-44.464 Z-9.947 I-0.38 J-1.964
N140 X-7.12 Y-40.536 Z-10.942 I0.38 J1.964
N145 X-9.5 Y-42.5 Z-11.5 I-0.38 J-1.964
N150 S4000
N155 X-5.5 I2. J0. F#100
N160 X-9.5 I-2. J0.
N165 G0 Z1.
N170 X-42.88 Y-44.464
N175 S3800
N180 G3 X-42.12 Y-40.536 Z0.005 I0.38 J1.964 F#107
N185 X-42.88 Y-44.464 Z-0.99 I-0.38 J-1.964
N190 X-42.12 Y-40.536 Z-1.985 I0.38 J1.964
N195 X-42.88 Y-44.464 Z-2.981 I-0.38 J-1.964
N200 X-42.12 Y-40.536 Z-3.976 I0.38 J1.964
N205 X-42.88 Y-44.464 Z-4.971 I-0.38 J-1.964
N210 X-42.12 Y-40.536 Z-5.966 I0.38 J1.964
N215 X-42.88 Y-44.464 Z-6.961 I-0.38 J-1.964
N220 X-42.12 Y-40.536 Z-7.956 I0.38 J1.964
N225 X-42.88 Y-44.464 Z-8.952 I-0.38 J-1.964
N230 X-42.12 Y-40.536 Z-9.947 I0.38 J1.964
N235 X-42.88 Y-44.464 Z-10.942 I-0.38 J-1.964
N240 X-40.5 Y-42.5 Z-11.5 I0.38 J1.964
N245 S4000
N250 X-44.5 I-2. J0. F#100
N255 X-40.5 I2. J0.
N260 G0 Z1.
N265 X-40.536 Y-7.88
N270 S3800
N275 G3 X-44.464 Y-7.12 Z0.005 I-1.964 J0.38 F#107
N280 X-40.536 Y-7.88 Z-0.99 I1.964 J-0.38
N285 X-44.464 Y-7.12 Z-1.985 I-1.964 J0.38
N290 X-40.536 Y-7.88 Z-2.981 I1.964 J-0.38
N295 X-44.464 Y-7.12 Z-3.976 I-1.964 J0.38
N300 X-40.536 Y-7.88 Z-4.971 I1.964 J-0.38
N305 X-44.464 Y-7.12 Z-5.966 I-1.964 J0.38
N310 X-40.536 Y-7.88 Z-6.961 I1.964 J-0.38
N315 X-44.464 Y-7.12 Z-7.956 I-1.964 J0.38
N320 X-40.536 Y-7.88 Z-8.952 I1.964 J-0.38
N325 X-44.464 Y-7.12 Z-9.947 I-1.964 J0.38
N330 X-40.536 Y-7.88 Z-10.942 I1.964 J-0.38
N335 X-42.5 Y-5.5 Z-11.5 I-1.964 J0.38
N340 S4000
N345 Y-9.5 I0. J-2. F#100
N350 Y-5.5 I0. J2.
N355 G0 Z1.
N360 X-5.536 Y-7.88
N365 S3800
N370 G3 X-9.464 Y-7.12 Z0.005 I-1.964 J0.38 F#107
N375 X-5.536 Y-7.88 Z-0.99 I1.964 J-0.38
N380 X-9.464 Y-7.12 Z-1.985 I-1.964 J0.38
N385 X-5.536 Y-7.88 Z-2.981 I1.964 J-0.38
N390 X-9.464 Y-7.12 Z-3.976 I-1.964 J0.38
N395 X-5.536 Y-7.88 Z-4.971 I1.964 J-0.38
N400 X-9.464 Y-7.12 Z-5.966 I-1.964 J0.38
N405 X-5.536 Y-7.88 Z-6.961 I1.964 J-0.38
N410 X-9.464 Y-7.12 Z-7.956 I-1.964 J0.38
N415 X-5.536 Y-7.88 Z-8.952 I1.964 J-0.38
N420 X-9.464 Y-7.12 Z-9.947 I-1.964 J0.38
N425 X-5.536 Y-7.88 Z-10.942 I1.964 J-0.38
N430 X-7.5 Y-5.5 Z-11.5 I-1.964 J0.38
N435 S4000
N440 Y-9.5 I0. J-2. F#100
N445 Y-5.5 I0. J2.
N450 G0 Z1.
N460 M9
N465 G53 Z0.
N470 M30
%
