%
(1001)
(T10  D=6. CR=0. - ZMIN=-20. - FLAT END MILL)
N10 G90 G94 G17 G91.1
N15 G21
N20 G53 G0 Z0.
(2D ADAPTIVE5)
N25 M9
N30 T10 M6
N35 S4000 M3
N40 G54
N45 M9
N55 G0 X-28.707 Y-21.635
N60 G43 Z4. H10
N65 #100=800. (CUTTING)
N70 #103=600. (ENTRY)
N75 #104=600. (EXIT)
N80 #105=3000. (DIRECT)
N85 #106=400. (REDUCED)
N90 #107=600. (RAMPING)
N95 G0 Z1.5
N100 G1 Z1. F#103
N105 S3800
N110 G3 X-30.964 Y-26.764 Z0.657 I0.689 J-3.365 F#107
N115 X-25.426 Y-27.193 Z0.313 I2.921 J1.749
N120 X-26.841 Y-21.872 Z-0.03 I-2.594 J2.159
N125 X-31.354 Y-24.941 Z-0.374 I-1.168 J-3.134
N130 X-27.004 Y-28.155 Z-0.717 I3.314 J-0.065
N135 X-25.425 Y-23.033 Z-1.061 I-1.026 J3.12
N140 X-30.732 Y-23.237 Z-1.404 I-2.581 J-1.983
N145 X-28.802 Y-28.132 Z-1.747 I2.701 J-1.763
N150 X-24.858 Y-24.722 Z-2.091 I0.763 J3.103
N155 X-29.338 Y-22.153 Z-2.434 I-3.151 J-0.304
N160 X-30.271 Y-27.183 Z-2.778 I1.317 J-2.845
N165 X-25.264 Y-26.406 Z-3.121 I2.228 J2.164
N170 X-27.631 Y-21.981 Z-3.465 I-2.752 J1.373
N175 X-30.99 Y-25.644 Z-3.808 I-0.381 J-3.022
N180 X-26.467 Y-27.582 Z-4.152 I2.948 J0.634
N185 X-26.138 Y-22.721 Z-4.495 I-1.559 J2.547
N190 X-30.787 Y-24.006 Z-4.838 I-1.869 J-2.29
N195 X-28.064 Y-27.928 Z-5.182 I2.752 J-0.995
N200 X-25.293 Y-24.1 Z-5.525 I0.028 J2.896
N205 X-29.776 Y-22.766 Z-5.869 I-2.714 J-0.922
N210 X-29.553 Y-27.389 Z-6.212 I1.75 J-2.232
N215 X-25.31 Y-25.667 Z-6.556 I1.511 J2.365
N220 X-28.306 Y-22.269 Z-6.899 I-2.703 J0.637
N225 X-30.497 Y-26.179 Z-7.242 I0.29 J-2.731
N230 X-26.131 Y-26.944 Z-7.586 I2.454 J1.165
N235 X-26.846 Y-22.619 Z-7.929 I-1.891 J1.909
N240 X-30.648 Y-24.701 Z-8.273 I-1.163 J-2.389
N245 X-27.461 Y-27.568 Z-8.616 I2.61 J-0.303
N250 X-25.83 Y-23.656 Z-8.96 I-0.571 J2.534
N255 X-30.012 Y-23.414 Z-9.303 I-2.177 J-1.361
N260 X-28.87 Y-27.394 Z-9.647 I1.982 J-1.585
N265 X-25.532 Y-25.027 Z-9.99 I0.83 J2.366
N270 X-30.547 I-2.508 J0.
N275 X-25.532 I2.508 J0.
N280 S4000
N285 X-25.609 Y-23.152 I-4.435 J0.758 F#100
N290 X-31.129 Y-23.724 I-2.624 J-1.598
N295 X-29.264 Y-28.218 I3.087 J-1.353
N300 X-24.853 Y-26.167 I1.222 J3.141
N305 X-29.821 Y-21.107 I-3.292 J1.736
N310 X-31.827 Y-27.315 I1.734 J-3.988
N315 X-25.416 Y-28.526 I3.739 J2.22
N320 X-24.381 Y-21.544 I-2.829 J3.987
N325 X-31.4 Y-20.804 I-3.865 J-2.995
N330 X-32.208 Y-28.632 I3.325 J-4.299
N335 X-24.35 Y-29.059 I4.133 J3.529
N340 X-31.031 Y-19.241 I-3.864 J4.553
N345 X-25.363 Y-31.073 I2.921 J-5.874
N350 X-21.721 Y-21.514 I-2.854 J6.561
N355 X-31.358 Y-18.083 I-6.496 J-2.998
N360 X-29.006 Y-32.786 I3.196 J-7.028
N365 X-21.382 Y-19.723 I0.916 J8.222
N370 X-36.412 Y-21.685 I-6.99 J-5.007
N375 X-22.537 Y-32.268 I8.361 J-3.425
N380 X-30.779 Y-15.228 I-5.659 J7.776
N385 X-29.364 Y-35.277 I2.595 J-9.891
N390 X-18.106 Y-20.445 I1.334 J10.676
N395 X-33.859 Y-15.076 I-10.182 J-4.081
N400 G2 X-36.186 Y-17.036 I-4.882 J3.436
N405 G3 X-37.274 Y-32.142 I7.623 J-8.142
N410 X-36.476 Y-33.037 I8.712 J6.965 F#106
N415 G2 X-33.729 Y-34.904 I-1.522 J-5.194 F#100
N420 G3 X-21.04 Y-34.394 I5.99 J9.061
N425 X-16.745 Y-28.74 I-6.25 J9.205
N430 G1 X-16.75 Y-28.461
N435 Y-21.982
N440 G3 X-20.913 Y-14.76 I-9.386 J-0.6
N445 X-32.565 Y-13.013 I-7.386 J-9.531
N450 X-33.475 Y-14.23 I1.142 J-1.802
N455 X-33.206 Y-14.794 I0.487 J-0.114 F#104
N460 G1 X-32.4 Y-15.185
N465 X-17.987 Y-22.164 F#105
N470 X-17.468 Y-22.415 F#103
N475 G3 X-16.75 Y-21.983 I0.218 J0.45
N480 G1 Y-19.166 F#100
N485 G3 X-19.317 Y-14.432 I-6.932 J-0.696
N490 X-32.041 Y-11.466 I-8.906 J-9.429
N495 X-33.283 Y-13.533 I0.916 J-1.956
N500 G1 X-33.449 Y-14.137
N505 X-33.475 Y-14.23
N510 G3 X-33.134 Y-14.823 I0.487 J-0.114 F#104
N515 G1 X-32.351 Y-15.061
N520 X-18.022 Y-19.436 F#105
N525 X-17.396 Y-19.627 F#103
N530 G3 X-16.75 Y-19.166 I0.146 J0.478
N535 X-16.809 Y-16.534 I-12.624 J1.035 F#100
N540 X-20.463 Y-11.915 I-7.458 J-2.145
N545 X-31.691 Y-10.009 I-7.685 J-11.242
N550 X-33.25 Y-12.041 I0.64 J-2.106
N555 G1 Y-12.93
N560 X-33.257 Y-13.131
N565 X-33.26 Y-13.18
N570 G3 X-32.884 Y-13.685 I0.5 J-0.021 F#104
N575 G1 X-32.022 Y-13.904
N580 X-18.03 Y-17.455 F#105
N585 X-17.373 Y-17.622 F#103
N590 G3 X-16.75 Y-17.155 I0.123 J0.485
N595 X-16.842 Y-14.608 I-9.074 J0.947 F#100
N600 X-20.761 Y-10.222 I-7.304 J-2.582
N605 X-23.676 Y-9. I-3.874 J-5.154
N610 G1 X-30.834
N615 G3 X-33.276 Y-11.051 I-0.231 J-2.204
N620 G1 X-33.264 Y-11.14 F#104
N625 X-33.236 Y-11.225
N630 X-33.195 Y-11.304
N635 X-33.142 Y-11.374
N640 X-33.077 Y-11.434
N645 X-33.004 Y-11.482
N650 X-32.923 Y-11.517
N655 X-32.839 Y-11.537
N660 X-32.752 Y-11.543
N665 X-32.666 Y-11.534
N670 X-32.583 Y-11.511
N675 X-32.506 Y-11.474
N680 X-32.436 Y-11.424
N685 X-32.076 Y-11.133
N690 X-30.815 Y-10.113 F#105
N695 X-30.537 Y-9.888 F#103
N700 G3 X-30.834 Y-9. I-0.314 J0.389
N705 G1 X-32.2 F#100
N710 G3 X-33.249 Y-10.064 I0.006 J-1.055
N715 G1 X-33.237 Y-10.184 F#104
N720 X-33.212 Y-10.302
N725 X-33.173 Y-10.416
N730 X-33.12 Y-10.524
N735 X-33.055 Y-10.626
N740 X-32.978 Y-10.719
N745 X-32.891 Y-10.803
N750 X-32.795 Y-10.875
N755 X-32.69 Y-10.936
N760 X-32.579 Y-10.983
N765 X-32.464 Y-11.018
N770 X-32.345 Y-11.038
N775 X-32.224 Y-11.044
N780 G3 X-31.966 Y-11.008 I-0.011 J1.016 F#105
N785 X-31.214 Y-10.022 I-0.271 J0.986
N790 X-32.201 Y-9. I-1.022 J0.001 F#103
N795 X-32.996 Y-9.072 I-0.303 J-1.087 F#100
N800 X-33.251 Y-9.511 I0.27 J-0.45
N805 G1 X-33.25 Y-12.041
N810 X-32.858 Y-13.562 F#104
N815 X-32.814 Y-13.735 F#105
N820 X-32.903 Y-14.137
N825 X-33.496 Y-15.545
N830 X-33.878 Y-15.853
N835 X-33.995 Y-15.948 F#103
N840 X-35.307 Y-16.492
N845 G3 X-37.382 Y-17.219 I21.49 J-64.656 F#100
N850 X-40.751 Y-22.906 I4.765 J-6.665
N855 G1 X-40.75 Y-26.207
N860 G3 X-38.672 Y-32.457 I10.83 J0.131
N865 X-36.469 Y-33.057 I1.966 J2.874
N870 G1 X-35.916 Y-33.254
N875 G3 X-35.388 Y-32.486 I0.114 J0.487 F#104
N880 G1 X-35.597 Y-32.179
N885 X-39.659 Y-26.205 F#105
N890 X-39.837 Y-25.943 F#103
N895 G3 X-40.75 Y-26.207 I-0.413 J-0.281
N900 G1 Y-29.828 F#100
N905 G3 X-39.577 Y-32.722 I3.749 J-0.165
N910 G1 X-39.213 Y-32.861
N915 X-38.853 Y-32.965
N920 X-38.48 Y-33.
N925 G3 X-38.08 Y-32.225 I-0.017 J0.5 F#104
N930 G1 X-38.362 Y-31.798
N935 X-39.663 Y-29.828 F#105
N940 X-39.833 Y-29.57 F#103
N945 G3 X-40.75 Y-29.828 I-0.417 J-0.275
N950 G1 Y-31.749 F#100
N955 G3 X-39.474 Y-32.999 I1.269 J0.019
N960 G1 X-39.391 Y-32.989 F#104
N965 X-39.311 Y-32.966
N970 X-39.237 Y-32.93
N975 X-39.169 Y-32.881
N980 X-39.11 Y-32.822
N985 X-39.062 Y-32.754
N990 X-39.025 Y-32.679
N995 X-39.002 Y-32.599
N1000 X-38.992 Y-32.517
N1005 X-38.996 Y-32.433
N1010 X-39.014 Y-32.352
N1015 X-39.045 Y-32.275
N1020 X-39.089 Y-32.204
N1025 X-39.144 Y-32.141
N1030 X-39.433 Y-31.862
N1035 X-39.602 Y-31.698 F#105
N1040 X-39.903 Y-31.407 F#103
N1045 G3 X-40.75 Y-31.749 I-0.348 J-0.359
N1050 X-40.691 Y-32.719 I1.594 J-0.389 F#100
N1055 X-40.096 Y-32.965 I0.486 J0.334 F#104
N1060 X-39.659 Y-32.299 I-0.102 J0.543
N1065 G1 X-39.664 Y-32.277 F#105
N1070 G3 X-40.75 Y-32.402 I-0.533 J-0.145 F#103
N1075 X-40.088 Y-32.995 I0.545 J-0.058 F#100
N1080 G1 X-37.673 Y-33.
N1085 X-37.281 Y-33.004
N1090 G3 X-36.795 Y-32.531 I-0.013 J0.5 F#104
N1095 G1 X-36.751 Y-31.707
N1100 X-36.667 Y-31.45 F#105
N1105 G2 X-35.194 Y-31.638 I0.711 J-0.299
N1110 G1 X-34.854 Y-32.751
N1115 X-34.395 Y-34.253 F#103
N1120 G2 X-33.276 Y-35.954 I-4.839 J-4.403 F#100
N1125 G1 X-33.012 Y-36.181
N1130 X-32.738 Y-36.396
N1135 X-32.455 Y-36.599
N1140 X-32.163 Y-36.789
N1145 X-31.863 Y-36.966
N1150 X-31.556 Y-37.129
N1155 X-31.241 Y-37.279
N1160 X-30.92 Y-37.414
N1165 X-30.594 Y-37.535
N1170 X-30.262 Y-37.642
N1175 X-29.926 Y-37.733
N1180 X-29.587 Y-37.81
N1185 X-29.244 Y-37.871
N1190 X-28.899 Y-37.917
N1195 X-28.552 Y-37.948
N1200 X-28.204 Y-37.963
N1205 X-27.855 Y-37.962
N1210 X-27.508 Y-37.947
N1215 X-27.161 Y-37.915
N1220 G3 X-17.473 Y-32.821 I-0.465 J12.644
N1225 X-16.804 Y-31.826 I-10.153 J7.55 F#106
N1230 G1 X-16.773 Y-31.51 F#100
N1235 X-16.75 Y-31.21
N1240 Y-28.461
N1245 G3 X-17.442 Y-28.016 I-0.5 J-0.017 F#104
N1250 G1 X-18.001 Y-28.249
N1255 X-32.612 Y-34.335 F#105
N1260 X-33.369 Y-34.65 F#103
N1265 G3 X-33.65 Y-35.272 I0.192 J-0.462
N1270 X-32.821 Y-37.254 I5.423 J1.103 F#100
N1275 X-26.699 Y-39.17 I5.137 J5.676
N1280 X-17.067 Y-34.437 I-0.62 J13.43
N1285 G1 X-16.893 Y-34.098
N1290 X-16.786 Y-33.733
N1295 X-16.75 Y-33.354
N1300 Y-31.21
N1305 G3 X-17.4 Y-30.751 I-0.5 J-0.017 F#104
N1310 G1 X-18.02 Y-30.947
N1315 X-32.216 Y-35.433 F#105
N1320 X-33.011 Y-35.684 F#103
N1325 G3 X-33.349 Y-36.265 I0.151 J-0.477
N1330 X-32.857 Y-38.136 I4.283 J0.126 F#100
N1335 X-27.647 Y-40.431 I5.077 J4.464
N1340 X-17.163 Y-36.466 I0.758 J13.841
N1345 X-16.75 Y-35.244 I-1.625 J1.23
N1350 G1 Y-33.354
N1355 X-16.87 Y-33.046 F#104
N1360 X-17.634 Y-32.069
N1365 X-19.543 Y-29.627 F#105
N1370 G2 X-20.048 Y-28.219 I1.993 J1.509
N1375 G1 Y-20.574
N1380 G2 X-19.543 Y-19.166 I2.498 J-0.101
N1385 G1 X-17.623 Y-16.632
N1390 X-16.8 Y-15.545 F#103
N1395 X-16.75 Y-15.344
N1400 G3 X-16.8 Y-13.157 I-9.373 J0.881 F#100
N1405 X-19.485 Y-9.541 I-6.201 J-1.8
N1410 X-20.547 Y-8.985 I-3.515 J-5.416 F#106
N1415 G1 X-20.868 Y-9. F#100
N1420 G3 X-21.226 Y-9.829 I0.017 J-0.5 F#104
N1425 G1 X-20.934 Y-10.162
N1430 X-17.874 Y-13.653 F#105
N1435 X-17.626 Y-13.936 F#103
N1440 G3 X-16.75 Y-13.624 I0.376 J0.33
N1445 X-16.884 Y-11.252 I-6.805 J0.806 F#100
N1450 X-18.891 Y-8.99 I-3.176 J-0.797
N1455 G1 X-19.266 Y-9.
N1460 G3 X-19.645 Y-9.804 I0.017 J-0.5 F#104
N1465 G1 X-19.356 Y-10.182
N1470 X-17.856 Y-12.139 F#105
N1475 X-17.647 Y-12.412 F#103
N1480 G3 X-16.75 Y-12.126 I0.397 J0.304
N1485 G1 Y-10.516 F#100
N1490 G3 X-18.321 Y-9.001 I-1.563 J-0.048
N1495 G1 X-18.404 Y-9.011 F#104
N1500 X-18.484 Y-9.035
N1505 X-18.559 Y-9.071
N1510 X-18.627 Y-9.12
N1515 X-18.686 Y-9.179
N1520 X-18.734 Y-9.247
N1525 X-18.771 Y-9.323
N1530 X-18.794 Y-9.403
N1535 X-18.803 Y-9.486
N1540 X-18.798 Y-9.57
N1545 X-18.78 Y-9.652
N1550 X-18.748 Y-9.729
N1555 X-18.703 Y-9.8
N1560 X-18.648 Y-9.863
N1565 X-18.36 Y-10.136
N1570 X-17.901 Y-10.57 F#105
N1575 X-17.594 Y-10.862 F#103
N1580 G3 X-16.75 Y-10.516 I0.344 J0.363
N1585 G1 Y-9.752 F#100
N1590 G3 X-17.492 Y-9.001 I-0.733 J0.018
N1595 G1 X-17.583 Y-9.01 F#104
N1600 X-17.672 Y-9.03
N1605 X-17.757 Y-9.06
N1610 X-17.839 Y-9.101
N1615 X-17.914 Y-9.152
N1620 X-17.983 Y-9.211
N1625 G3 X-18.063 Y-10.149 I0.509 J-0.516
N1630 X-17.902 Y-10.312 I0.589 J0.422 F#105
N1635 X-16.75 Y-9.752 I0.428 J0.585 F#103
N1640 X-17.255 Y-9. I-0.544 J0.181 F#100
N1645 G1 X-23.676
N1650 X-23.994 Y-9.129 F#104
N1655 X-24.814 Y-10.042
N1660 X-31.379 Y-17.356 F#105
N1665 G2 X-33.046 Y-18.159 I-1.841 J1.691
N1670 G1 X-33.851 Y-18.084
N1675 X-35.134 Y-17.514
N1680 X-36.489 Y-16.911 F#103
N1685 X-36.577 Y-16.919
N1690 G3 X-38.445 Y-17.185 I0.261 J-8.541 F#100
N1695 X-40.188 Y-18.631 I2.046 J-4.239
N1700 X-40.77 Y-19.677 I3.789 J-2.793 F#106
N1705 G1 X-40.75 Y-20.005 F#100
N1710 G3 X-39.912 Y-20.356 I0.5 J0.017 F#104
N1715 G1 X-39.595 Y-20.064
N1720 X-37.491 Y-18.127 F#105
N1725 X-37.207 Y-17.866 F#103
N1730 G3 X-37.533 Y-16.998 I-0.339 J0.368
N1735 X-39.382 Y-17.088 I-0.644 J-5.871 F#100
N1740 X-40.751 Y-18.987 I0.651 J-1.912
N1745 G1 X-40.742 Y-19.069 F#104
N1750 X-40.718 Y-19.149
N1755 X-40.682 Y-19.224
N1760 X-40.633 Y-19.292
N1765 X-40.574 Y-19.351
N1770 X-40.507 Y-19.399
N1775 X-40.432 Y-19.436
N1780 X-40.352 Y-19.459
N1785 X-40.269 Y-19.469
N1790 X-40.186 Y-19.465
N1795 X-40.105 Y-19.448
N1800 X-40.028 Y-19.417
N1805 X-39.957 Y-19.374
N1810 X-39.894 Y-19.319
N1815 X-39.609 Y-19.03
N1820 X-38.741 Y-18.146 F#105
N1825 X-38.45 Y-17.85 F#103
N1830 G3 X-38.79 Y-17. I-0.357 J0.35
N1835 G1 X-39.746 F#100
N1840 G3 X-40.749 Y-18.004 I-0.005 J-0.998
N1845 G1 X-40.738 Y-18.093 F#104
N1850 X-40.712 Y-18.178
N1855 X-40.671 Y-18.257
N1860 X-40.616 Y-18.327
N1865 X-40.55 Y-18.387
N1870 X-40.474 Y-18.433
N1875 X-40.391 Y-18.466
N1880 X-40.304 Y-18.484
N1885 X-40.215 Y-18.485
N1890 X-40.127 Y-18.471
N1895 X-40.043 Y-18.442
N1900 X-39.965 Y-18.398
N1905 X-39.897 Y-18.34
N1910 X-39.7 Y-18.143
N1915 X-39.41 Y-17.853 F#103
N1920 G3 X-39.746 Y-17. I-0.354 J0.354
N1925 X-40.542 Y-17.107 I-0.289 J-0.873 F#100
N1930 X-40.75 Y-17.557 I0.317 J-0.419
N1935 G1 Y-22.906
N1940 X-40.65 Y-23.19 F#104
N1945 X-39.758 Y-24.094
N1950 X-32.117 Y-31.84 F#105
N1955 G2 X-31.965 Y-35.058 I-1.833 J-1.7
N1960 G1 X-32.4 Y-35.675
N1965 X-33.24 Y-36.869 F#103
N1970 X-33.253 Y-36.979
N1975 G3 X-33.142 Y-38.572 I3.674 J-0.545 F#100
N1980 G1 X-33.036 Y-38.805
N1985 X-32.916 Y-39.031
N1990 X-32.782 Y-39.248
N1995 X-32.635 Y-39.457
N2000 X-32.475 Y-39.657
N2005 X-32.303 Y-39.846
N2010 X-32.12 Y-40.024
N2015 X-31.926 Y-40.191
N2020 X-31.722 Y-40.345
N2025 X-31.509 Y-40.486
N2030 X-31.287 Y-40.614
N2035 X-31.058 Y-40.727
N2040 X-30.823 Y-40.827
N2045 X-30.582 Y-40.911
N2050 X-30.336 Y-40.981
N2055 X-30.086 Y-41.035
N2060 X-29.996 Y-41.023 F#104
N2065 X-29.911 Y-40.996
N2070 X-29.831 Y-40.956
N2075 X-29.76 Y-40.903
N2080 X-29.699 Y-40.839
N2085 X-29.65 Y-40.766
N2090 X-29.614 Y-40.686
N2095 X-29.592 Y-40.602
N2100 X-29.585 Y-40.515
N2105 X-29.592 Y-40.429
N2110 X-29.613 Y-40.346
N2115 X-29.648 Y-40.268
N2120 X-29.696 Y-40.198
N2125 X-29.754 Y-40.136
N2130 X-30.042 Y-39.865
N2135 X-32.098 Y-37.93 F#105
N2140 X-32.408 Y-37.638 F#103
N2145 G3 X-33.25 Y-37.985 I-0.343 J-0.364
N2150 X-33.138 Y-39.694 I3.984 J-0.598 F#100
N2155 X-31.26 Y-41. I1.881 J0.702
N2160 G1 X-31.177 Y-40.99 F#104
N2165 X-31.097 Y-40.967
N2170 X-31.022 Y-40.93
N2175 X-30.954 Y-40.881
N2180 X-30.895 Y-40.822
N2185 X-30.846 Y-40.753
N2190 X-30.81 Y-40.678
N2195 X-30.787 Y-40.597
N2200 X-30.778 Y-40.514
N2205 X-30.783 Y-40.431
N2210 X-30.801 Y-40.349
N2215 X-30.833 Y-40.272
N2220 X-30.878 Y-40.201
N2225 X-30.933 Y-40.138
N2230 X-31.221 Y-39.864
N2235 X-32.1 Y-39.028 F#105
N2240 X-32.406 Y-38.737 F#103
N2245 G3 X-33.25 Y-39.081 I-0.345 J-0.362
N2250 G1 Y-39.997 F#100
N2255 G3 X-32.25 Y-40.999 I0.995 J-0.007
N2260 G1 X-32.161 Y-40.988 F#104
N2265 X-32.077 Y-40.962
N2270 X-31.998 Y-40.921
N2275 X-31.927 Y-40.866
N2280 X-31.868 Y-40.8
N2285 X-31.821 Y-40.725
N2290 X-31.788 Y-40.642
N2295 X-31.77 Y-40.555
N2300 X-31.769 Y-40.466
N2305 X-31.782 Y-40.378
N2310 X-31.812 Y-40.294
N2315 X-31.856 Y-40.216
N2320 X-31.912 Y-40.148
N2325 X-32.108 Y-39.951
N2330 X-32.396 Y-39.662 F#103
N2335 G3 X-33.25 Y-39.997 I-0.355 J-0.352
N2340 X-33.147 Y-40.791 I0.921 J-0.284 F#100
N2345 X-32.745 Y-41. I0.412 J0.301
N2350 G1 X-23.793
N2355 G3 X-17.179 Y-38.231 I-0.652 J10.843
N2360 X-16.75 Y-36.968 I-1.724 J1.289
N2365 G1 Y-35.244
N2370 G3 X-17.563 Y-34.872 I-0.5 J-0.017 F#104
N2375 G1 X-17.925 Y-35.163
N2380 X-23.811 Y-39.888 F#105
N2385 X-24.089 Y-40.11 F#103
N2390 G3 X-23.793 Y-41. I0.313 J-0.39
N2395 G1 X-20.776 F#100
N2400 G3 X-17.168 Y-39.657 I-0.046 J5.641
N2405 X-16.75 Y-38.38 I-1.918 J1.334
N2410 X-17.507 Y-37.968 I-0.5 J-0.017 F#104
N2415 G1 X-17.964 Y-38.242
N2420 X-20.769 Y-39.924 F#105
N2425 X-21.015 Y-40.071 F#103
N2430 G3 X-20.776 Y-41. I0.257 J-0.429
N2435 G1 X-18.452 F#100
N2440 G3 X-16.75 Y-39.293 I-0.004 J1.706
N2445 G1 X-16.761 Y-39.204 F#104
N2450 X-16.788 Y-39.119
N2455 X-16.829 Y-39.04
N2460 X-16.884 Y-38.969
N2465 X-16.95 Y-38.91
N2470 X-17.026 Y-38.863
N2475 X-17.109 Y-38.83
N2480 X-17.197 Y-38.813
N2485 X-17.286 Y-38.811
N2490 X-17.374 Y-38.826
N2495 X-17.458 Y-38.856
N2500 X-17.536 Y-38.9
N2505 X-17.604 Y-38.957
N2510 X-17.893 Y-39.247
N2515 X-18.499 Y-39.856 F#105
N2520 X-18.789 Y-40.148 F#103
N2525 G3 X-18.452 Y-41. I0.354 J-0.353
N2530 G1 X-17.598 F#100
N2535 G3 X-16.751 Y-40.169 I0.021 J0.826
N2540 G1 X-16.761 Y-40.081 F#104
N2545 X-16.787 Y-39.997
N2550 X-16.828 Y-39.919
N2555 X-16.881 Y-39.849
N2560 X-16.946 Y-39.79
N2565 X-17.021 Y-39.742
N2570 X-17.102 Y-39.709
N2575 X-17.188 Y-39.69
N2580 X-17.276 Y-39.687
N2585 X-17.364 Y-39.7
N2590 X-17.447 Y-39.727
N2595 X-17.525 Y-39.769
N2600 X-17.594 Y-39.824
N2605 X-17.637 Y-39.864
N2610 X-17.925 Y-40.138 F#103
N2615 G3 X-17.598 Y-41. I0.344 J-0.363
N2620 X-16.75 Y-40.489 I0.238 J0.564 F#100
N2625 G1 Y-36.968
N2630 G3 X-16.876 Y-36.653 I-0.5 J-0.017 F#104
N2635 G1 X-17.358 Y-36.112
N2640 X-17.416 Y-36.047 Z-9.982
N2645 X-17.472 Y-35.984 Z-9.96
N2650 X-17.524 Y-35.925 Z-9.923
N2655 X-17.572 Y-35.872 Z-9.873
N2660 X-17.613 Y-35.826 Z-9.811
N2665 X-17.646 Y-35.788 Z-9.74
N2670 X-17.67 Y-35.761 Z-9.661
N2675 X-17.685 Y-35.744 Z-9.577
N2680 X-17.69 Y-35.738 Z-9.49
N2685 G0 Z-8.49
N2690 X-28.435 Y-21.589
N2695 G1 Z-8.99 F#103
N2700 S3800
N2705 G3 X-31.094 Y-26.531 Z-9.334 I0.418 J-3.411 F#107
N2710 X-25.597 Y-27.383 Z-9.678 I3.05 J1.517
N2715 X-26.617 Y-21.965 Z-10.022 I-2.426 J2.349
N2720 X-31.343 Y-24.707 Z-10.366 I-1.393 J-3.042
N2725 X-27.219 Y-28.217 Z-10.71 I3.303 J-0.297
N2730 X-25.302 Y-23.205 Z-11.054 I-0.814 J3.184
N2735 X-30.618 Y-23.069 Z-11.398 I-2.706 J-1.812
N2740 X-28.989 Y-28.08 Z-11.743 I2.586 J-1.93
N2745 X-24.846 Y-24.904 Z-12.087 I0.948 J3.053
N2750 X-29.18 Y-22.084 Z-12.431 I-3.164 J-0.122
N2755 X-30.384 Y-27.062 Z-12.775 I1.159 J-2.915
N2760 X-25.337 Y-26.542 Z-13.119 I2.339 J2.044
N2765 X-27.489 Y-22.002 Z-13.463 I-2.681 J1.51
N2770 X-31.018 Y-25.509 Z-13.807 I-0.525 J-3.001
N2775 X-26.579 Y-27.646 Z-14.151 I2.975 J0.501
N2780 X-26.049 Y-22.798 Z-14.495 I-1.449 J2.612
N2785 X-30.749 Y-23.902 Z-14.839 I-1.96 J-2.214
N2790 X-28.167 Y-27.925 Z-15.183 I2.713 J-1.098
N2795 X-25.265 Y-24.188 Z-15.527 I0.13 J2.894
N2800 X-29.709 Y-22.713 Z-15.871 I-2.743 J-0.834
N2805 X-29.62 Y-27.345 Z-16.215 I1.682 J-2.285
N2810 X-25.328 Y-25.735 Z-16.559 I1.576 J2.323
N2815 X-28.246 Y-22.263 Z-16.903 I-2.686 J0.704
N2820 X-30.522 Y-26.129 Z-17.247 I0.229 J-2.738
N2825 X-26.166 Y-26.977 Z-17.592 I2.478 J1.116
N2830 X-26.811 Y-22.636 Z-17.936 I-1.857 J1.942
N2835 X-30.646 Y-24.668 Z-18.28 I-1.199 J-2.372
N2840 X-27.488 Y-27.573 Z-18.624 I2.606 J-0.336
N2845 X-25.821 Y-23.672 Z-18.968 I-0.546 J2.54
N2850 X-30.005 Y-23.404 Z-19.312 I-2.187 J-1.345
N2855 X-28.877 Y-27.391 Z-19.656 I1.974 J-1.595
N2860 X-25.533 Y-25.027 Z-20. I0.836 J2.364
N2865 X-30.549 I-2.508 J0.
N2870 X-25.533 I2.508 J0.
N2875 S4000
N2880 X-25.61 Y-23.151 I-4.435 J0.758 F#100
N2885 X-31.13 Y-23.723 I-2.624 J-1.598
N2890 X-29.266 Y-28.217 I3.087 J-1.353
N2895 X-24.854 Y-26.166 I1.223 J3.141
N2900 X-29.823 Y-21.106 I-3.292 J1.737
N2905 X-31.828 Y-27.315 I1.734 J-3.988
N2910 X-25.417 Y-28.526 I3.739 J2.22
N2915 X-24.382 Y-21.544 I-2.829 J3.987
N2920 X-31.401 Y-20.803 I-3.865 J-2.995
N2925 X-32.209 Y-28.631 I3.325 J-4.299
N2930 X-24.351 Y-29.059 I4.133 J3.529
N2935 X-31.032 Y-19.241 I-3.864 J4.553
N2940 X-25.365 Y-31.072 I2.921 J-5.874
N2945 X-21.722 Y-21.513 I-2.853 J6.561
N2950 X-31.36 Y-18.083 I-6.496 J-2.998
N2955 X-29.008 Y-32.786 I3.196 J-7.028
N2960 X-21.383 Y-19.723 I0.916 J8.222
N2965 X-36.414 Y-21.684 I-6.99 J-5.007
N2970 X-22.539 Y-32.267 I8.361 J-3.426
N2975 X-30.78 Y-15.228 I-5.659 J7.776
N2980 X-29.366 Y-35.277 I2.595 J-9.891
N2985 X-18.107 Y-20.445 I1.334 J10.676
N2990 X-33.858 Y-15.074 I-10.182 J-4.081
N2995 G2 X-36.189 Y-17.037 I-4.88 J3.429
N3000 G3 X-37.276 Y-32.142 I7.625 J-8.14
N3005 X-36.477 Y-33.037 I8.711 J6.965 F#106
N3010 G2 X-33.729 Y-34.904 I-1.521 J-5.195 F#100
N3015 G3 X-21.041 Y-34.394 I5.989 J9.06
N3020 X-16.746 Y-28.736 I-6.251 J9.206
N3025 G1 X-16.75 Y-28.457
N3030 Y-21.982
N3035 G3 X-20.914 Y-14.76 I-9.39 J-0.602
N3040 X-32.565 Y-13.012 I-7.386 J-9.531
N3045 X-33.474 Y-14.229 I1.143 J-1.802
N3050 X-33.206 Y-14.793 I0.487 J-0.114 F#104
N3055 G1 X-32.4 Y-15.184
N3060 X-17.987 Y-22.163 F#105
N3065 X-17.468 Y-22.415 F#103
N3070 G3 X-16.75 Y-21.983 I0.218 J0.45
N3075 G1 Y-19.166 F#100
N3080 G3 X-19.318 Y-14.432 I-6.935 J-0.697
N3085 X-32.041 Y-11.465 I-8.906 J-9.429
N3090 X-33.283 Y-13.533 I0.916 J-1.957
N3095 G1 X-33.449 Y-14.137
N3100 X-33.474 Y-14.229
N3105 G3 X-33.134 Y-14.821 I0.487 J-0.114 F#104
N3110 G1 X-32.351 Y-15.06
N3115 X-18.022 Y-19.436 F#105
N3120 X-17.396 Y-19.627 F#103
N3125 G3 X-16.75 Y-19.166 I0.146 J0.478
N3130 X-16.809 Y-16.535 I-12.614 J1.035 F#100
N3135 X-20.464 Y-11.915 I-7.459 J-2.146
N3140 X-31.691 Y-10.008 I-7.685 J-11.242
N3145 X-33.25 Y-12.04 I0.641 J-2.106
N3150 G1 Y-12.93
N3155 X-33.257 Y-13.131
N3160 X-33.26 Y-13.179
N3165 G3 X-32.884 Y-13.684 I0.5 J-0.021 F#104
N3170 G1 X-32.022 Y-13.903
N3175 X-18.03 Y-17.455 F#105
N3180 X-17.373 Y-17.622 F#103
N3185 G3 X-16.75 Y-17.155 I0.123 J0.485
N3190 X-16.842 Y-14.609 I-9.071 J0.947 F#100
N3195 X-20.762 Y-10.221 I-7.305 J-2.582
N3200 X-23.675 Y-9. I-3.871 J-5.149
N3205 G1 X-30.834
N3210 G3 X-33.276 Y-11.051 I-0.231 J-2.204
N3215 G1 X-33.263 Y-11.139 F#104
N3220 X-33.236 Y-11.224
N3225 X-33.195 Y-11.303
N3230 X-33.142 Y-11.374
N3235 X-33.077 Y-11.434
N3240 X-33.004 Y-11.482
N3245 X-32.923 Y-11.517
N3250 X-32.839 Y-11.537
N3255 X-32.752 Y-11.543
N3260 X-32.666 Y-11.534
N3265 X-32.583 Y-11.51
N3270 X-32.506 Y-11.473
N3275 X-32.436 Y-11.424
N3280 X-32.076 Y-11.133
N3285 X-30.815 Y-10.113 F#105
N3290 X-30.537 Y-9.889 F#103
N3295 G3 X-30.834 Y-9. I-0.314 J0.389
N3300 G1 X-32.2 F#100
N3305 G3 X-33.249 Y-10.063 I0.006 J-1.055
N3310 G1 X-33.237 Y-10.184 F#104
N3315 X-33.212 Y-10.301
N3320 X-33.173 Y-10.415
N3325 X-33.12 Y-10.524
N3330 X-33.055 Y-10.626
N3335 X-32.978 Y-10.719
N3340 X-32.891 Y-10.802
N3345 X-32.795 Y-10.875
N3350 X-32.69 Y-10.935
N3355 X-32.579 Y-10.983
N3360 X-32.464 Y-11.017
N3365 X-32.345 Y-11.038
N3370 X-32.224 Y-11.044
N3375 G3 X-31.966 Y-11.007 I-0.011 J1.016 F#105
N3380 X-31.215 Y-10.022 I-0.271 J0.986
N3385 X-32.201 Y-9. I-1.022 J0.001 F#103
N3390 X-32.996 Y-9.072 I-0.303 J-1.087 F#100
N3395 X-33.251 Y-9.511 I0.27 J-0.45
N3400 G1 X-33.25 Y-12.04
N3405 X-32.858 Y-13.561 F#104
N3410 X-32.814 Y-13.735 F#105
N3415 X-32.903 Y-14.137
N3420 X-33.496 Y-15.545
N3425 X-33.878 Y-15.854
N3430 X-33.995 Y-15.948 F#103
N3435 X-35.307 Y-16.492
N3440 G3 X-37.382 Y-17.219 I21.914 J-65.909 F#100
N3445 X-40.751 Y-22.9 I4.755 J-6.66
N3450 G1 X-40.75 Y-26.207
N3455 G3 X-38.673 Y-32.457 I10.823 J0.127
N3460 X-36.469 Y-33.057 I1.966 J2.875
N3465 G1 X-35.917 Y-33.254
N3470 G3 X-35.39 Y-32.486 I0.114 J0.487 F#104
N3475 G1 X-35.598 Y-32.179
N3480 X-39.659 Y-26.205 F#105
N3485 X-39.837 Y-25.943 F#103
N3490 G3 X-40.75 Y-26.207 I-0.414 J-0.281
N3495 G1 Y-29.828 F#100
N3500 G3 X-39.577 Y-32.722 I3.747 J-0.167
N3505 G1 X-39.214 Y-32.861
N3510 X-38.854 Y-32.965
N3515 X-38.48 Y-33.
N3520 G3 X-38.081 Y-32.225 I-0.017 J0.5 F#104
N3525 G1 X-38.362 Y-31.798
N3530 X-39.663 Y-29.828 F#105
N3535 X-39.833 Y-29.57 F#103
N3540 G3 X-40.75 Y-29.828 I-0.417 J-0.275
N3545 G1 Y-31.749 F#100
N3550 G3 X-39.474 Y-32.999 I1.269 J0.018
N3555 G1 X-39.392 Y-32.989 F#104
N3560 X-39.312 Y-32.966
N3565 X-39.237 Y-32.93
N3570 X-39.169 Y-32.881
N3575 X-39.11 Y-32.822
N3580 X-39.062 Y-32.754
N3585 X-39.026 Y-32.68
N3590 X-39.002 Y-32.6
N3595 X-38.993 Y-32.517
N3600 X-38.997 Y-32.434
N3605 X-39.015 Y-32.352
N3610 X-39.046 Y-32.275
N3615 X-39.089 Y-32.204
N3620 X-39.144 Y-32.141
N3625 X-39.433 Y-31.861
N3630 X-39.602 Y-31.698 F#105
N3635 X-39.903 Y-31.407 F#103
N3640 G3 X-40.75 Y-31.749 I-0.348 J-0.359
N3645 X-40.691 Y-32.719 I1.594 J-0.389 F#100
N3650 X-40.096 Y-32.965 I0.486 J0.334 F#104
N3655 X-39.659 Y-32.299 I-0.102 J0.543
N3660 G1 X-39.664 Y-32.277 F#105
N3665 G3 X-40.75 Y-32.402 I-0.533 J-0.145 F#103
N3670 X-40.088 Y-32.995 I0.545 J-0.058 F#100
N3675 G1 X-37.673 Y-33.
N3680 X-37.282 Y-33.004
N3685 G3 X-36.796 Y-32.531 I-0.013 J0.5 F#104
N3690 G1 X-36.752 Y-31.707
N3695 X-36.667 Y-31.448 F#105
N3700 G2 X-35.194 Y-31.638 I0.71 J-0.301
N3705 G1 X-34.854 Y-32.751
N3710 X-34.395 Y-34.253 F#103
N3715 G2 X-33.274 Y-35.953 I-4.956 J-4.487 F#100
N3720 G1 X-33.011 Y-36.181
N3725 X-32.737 Y-36.396
N3730 X-32.454 Y-36.599
N3735 X-32.162 Y-36.789
N3740 X-31.863 Y-36.966
N3745 X-31.555 Y-37.129
N3750 X-31.241 Y-37.279
N3755 X-30.92 Y-37.414
N3760 X-30.594 Y-37.535
N3765 X-30.262 Y-37.642
N3770 X-29.926 Y-37.733
N3775 X-29.586 Y-37.81
N3780 X-29.244 Y-37.871
N3785 X-28.899 Y-37.917
N3790 X-28.552 Y-37.947
N3795 X-28.204 Y-37.962
N3800 X-27.856
N3805 X-27.508 Y-37.946
N3810 X-27.161 Y-37.914
N3815 G3 X-17.473 Y-32.819 I-0.465 J12.641
N3820 X-16.804 Y-31.823 I-10.153 J7.546 F#106
N3825 G1 X-16.773 Y-31.508 F#100
N3830 X-16.75 Y-31.208
N3835 Y-28.457
N3840 G3 X-17.442 Y-28.013 I-0.5 J-0.017 F#104
N3845 G1 X-18.001 Y-28.246
N3850 X-32.612 Y-34.335 F#105
N3855 X-33.369 Y-34.65 F#103
N3860 G3 X-33.65 Y-35.272 I0.192 J-0.462
N3865 X-32.821 Y-37.254 I5.42 J1.102 F#100
N3870 X-26.699 Y-39.17 I5.137 J5.676
N3875 X-17.067 Y-34.435 I-0.622 J13.43
N3880 G1 X-16.893 Y-34.096
N3885 X-16.786 Y-33.731
N3890 X-16.75 Y-33.352
N3895 Y-31.208
N3900 G3 X-17.4 Y-30.749 I-0.5 J-0.017 F#104
N3905 G1 X-18.02 Y-30.944
N3910 X-32.216 Y-35.433 F#105
N3915 X-33.011 Y-35.684 F#103
N3920 G3 X-33.349 Y-36.265 I0.151 J-0.477
N3925 X-32.857 Y-38.136 I4.281 J0.126 F#100
N3930 X-27.646 Y-40.431 I5.076 J4.465
N3935 X-17.163 Y-36.464 I0.756 J13.841
N3940 X-16.75 Y-35.243 I-1.625 J1.23
N3945 G1 Y-33.352
N3950 X-16.868 Y-33.046 F#104
N3955 X-17.634 Y-32.068
N3960 X-19.543 Y-29.627 F#105
N3965 G2 X-20.048 Y-28.219 I1.993 J1.509
N3970 G1 Y-20.574
N3975 G2 X-19.543 Y-19.166 I2.498 J-0.101
N3980 G1 X-17.623 Y-16.632
N3985 X-16.8 Y-15.545 F#103
N3990 X-16.75 Y-15.344
N3995 G3 X-16.8 Y-13.157 I-9.369 J0.881 F#100
N4000 X-19.485 Y-9.541 I-6.201 J-1.8
N4005 X-20.547 Y-8.985 I-3.516 J-5.416 F#106
N4010 G1 X-20.868 Y-9. F#100
N4015 G3 X-21.226 Y-9.829 I0.017 J-0.5 F#104
N4020 G1 X-20.934 Y-10.162
N4025 X-17.874 Y-13.653 F#105
N4030 X-17.626 Y-13.936 F#103
N4035 G3 X-16.75 Y-13.624 I0.376 J0.33
N4040 X-16.884 Y-11.252 I-6.805 J0.806 F#100
N4045 X-18.891 Y-8.99 I-3.176 J-0.797
N4050 G1 X-19.266 Y-9.
N4055 G3 X-19.645 Y-9.804 I0.017 J-0.5 F#104
N4060 G1 X-19.356 Y-10.182
N4065 X-17.856 Y-12.139 F#105
N4070 X-17.647 Y-12.412 F#103
N4075 G3 X-16.75 Y-12.126 I0.397 J0.304
N4080 G1 Y-10.516 F#100
N4085 G3 X-18.321 Y-9.001 I-1.563 J-0.048
N4090 G1 X-18.404 Y-9.011 F#104
N4095 X-18.484 Y-9.035
N4100 X-18.559 Y-9.071
N4105 X-18.627 Y-9.12
N4110 X-18.686 Y-9.179
N4115 X-18.734 Y-9.247
N4120 X-18.771 Y-9.323
N4125 X-18.794 Y-9.403
N4130 X-18.803 Y-9.486
N4135 X-18.798 Y-9.57
N4140 X-18.78 Y-9.652
N4145 X-18.748 Y-9.729
N4150 X-18.703 Y-9.8
N4155 X-18.648 Y-9.863
N4160 X-18.36 Y-10.136
N4165 X-17.901 Y-10.57 F#105
N4170 X-17.594 Y-10.862 F#103
N4175 G3 X-16.75 Y-10.516 I0.344 J0.363
N4180 G1 Y-9.752 F#100
N4185 G3 X-17.492 Y-9.001 I-0.733 J0.018
N4190 G1 X-17.583 Y-9.01 F#104
N4195 X-17.672 Y-9.03
N4200 X-17.757 Y-9.06
N4205 X-17.839 Y-9.101
N4210 X-17.914 Y-9.152
N4215 X-17.983 Y-9.211
N4220 G3 X-18.063 Y-10.149 I0.509 J-0.516
N4225 X-17.902 Y-10.312 I0.589 J0.422 F#105
N4230 X-16.75 Y-9.752 I0.428 J0.585 F#103
N4235 X-17.255 Y-9. I-0.544 J0.181 F#100
N4240 G1 X-23.675
N4245 X-23.994 Y-9.13 F#104
N4250 X-24.813 Y-10.042
N4255 X-31.379 Y-17.356 F#105
N4260 G2 X-33.046 Y-18.159 I-1.841 J1.691
N4265 G1 X-33.851 Y-18.084
N4270 X-35.134 Y-17.514
N4275 X-36.489 Y-16.911 F#103
N4280 X-36.577 Y-16.919
N4285 G3 X-38.445 Y-17.184 I0.264 J-8.581 F#100
N4290 X-40.188 Y-18.629 I2.041 J-4.236
N4295 X-40.77 Y-19.675 I3.784 J-2.792 F#106
N4300 G1 X-40.75 Y-20.004 F#100
N4305 G3 X-39.912 Y-20.354 I0.5 J0.017 F#104
N4310 G1 X-39.595 Y-20.062
N4315 X-37.491 Y-18.127 F#105
N4320 X-37.207 Y-17.866 F#103
N4325 G3 X-37.533 Y-16.998 I-0.339 J0.368
N4330 X-39.382 Y-17.087 I-0.644 J-5.891 F#100
N4335 X-40.751 Y-18.985 I0.649 J-1.911
N4340 G1 X-40.742 Y-19.068 F#104
N4345 X-40.718 Y-19.148
N4350 X-40.682 Y-19.223
N4355 X-40.633 Y-19.291
N4360 X-40.575 Y-19.349
N4365 X-40.507 Y-19.398
N4370 X-40.432 Y-19.434
N4375 X-40.352 Y-19.458
N4380 X-40.269 Y-19.468
N4385 X-40.186 Y-19.464
N4390 X-40.105 Y-19.446
N4395 X-40.028 Y-19.416
N4400 X-39.957 Y-19.372
N4405 X-39.894 Y-19.318
N4410 X-39.609 Y-19.029
N4415 X-38.741 Y-18.146 F#105
N4420 X-38.451 Y-17.85 F#103
N4425 G3 X-38.79 Y-17. I-0.357 J0.351
N4430 G1 X-39.746 F#100
N4435 G3 X-40.749 Y-18.004 I-0.005 J-0.998
N4440 G1 X-40.738 Y-18.092 F#104
N4445 X-40.712 Y-18.177
N4450 X-40.671 Y-18.256
N4455 X-40.616 Y-18.326
N4460 X-40.55 Y-18.386
N4465 X-40.474 Y-18.433
N4470 X-40.391 Y-18.465
N4475 X-40.304 Y-18.483
N4480 X-40.215 Y-18.485
N4485 X-40.127 Y-18.471
N4490 X-40.043 Y-18.441
N4495 X-39.965 Y-18.397
N4500 X-39.897 Y-18.34
N4505 X-39.7 Y-18.143
N4510 X-39.41 Y-17.854 F#103
N4515 G3 X-39.746 Y-17. I-0.353 J0.354
N4520 X-40.542 Y-17.107 I-0.289 J-0.873 F#100
N4525 X-40.75 Y-17.557 I0.317 J-0.419
N4530 G1 Y-22.9
N4535 X-40.645 Y-23.19 F#104
N4540 X-39.758 Y-24.089
N4545 X-32.117 Y-31.84 F#105
N4550 G2 X-31.966 Y-35.058 I-1.834 J-1.699
N4555 G1 X-32.4 Y-35.675
N4560 X-33.24 Y-36.869 F#103
N4565 X-33.253 Y-36.979
N4570 G3 X-33.142 Y-38.572 I3.671 J-0.545 F#100
N4575 G1 X-33.036 Y-38.805
N4580 X-32.916 Y-39.031
N4585 X-32.782 Y-39.248
N4590 X-32.634 Y-39.457
N4595 X-32.474 Y-39.657
N4600 X-32.302 Y-39.846
N4605 X-32.119 Y-40.024
N4610 X-31.925 Y-40.191
N4615 X-31.721 Y-40.345
N4620 X-31.508 Y-40.486
N4625 X-31.287 Y-40.614
N4630 X-31.058 Y-40.727
N4635 X-30.822 Y-40.827
N4640 X-30.581 Y-40.911
N4645 X-30.335 Y-40.981
N4650 X-30.085 Y-41.035
N4655 X-29.996 Y-41.023 F#104
N4660 X-29.91 Y-40.996
N4665 X-29.83 Y-40.956
N4670 X-29.759 Y-40.903
N4675 X-29.698 Y-40.839
N4680 X-29.649 Y-40.766
N4685 X-29.613 Y-40.686
N4690 X-29.591 Y-40.602
N4695 X-29.584 Y-40.515
N4700 X-29.591 Y-40.429
N4705 X-29.612 Y-40.346
N4710 X-29.647 Y-40.268
N4715 X-29.695 Y-40.198
N4720 X-29.753 Y-40.136
N4725 X-30.041 Y-39.866
N4730 X-32.098 Y-37.93 F#105
N4735 X-32.408 Y-37.638 F#103
N4740 G3 X-33.25 Y-37.985 I-0.343 J-0.364
N4745 X-33.138 Y-39.695 I3.979 J-0.598 F#100
N4750 X-31.26 Y-41. I1.881 J0.702
N4755 G1 X-31.177 Y-40.99 F#104
N4760 X-31.097 Y-40.967
N4765 X-31.022 Y-40.93
N4770 X-30.953 Y-40.881
N4775 X-30.894 Y-40.822
N4780 X-30.846 Y-40.753
N4785 X-30.81 Y-40.678
N4790 X-30.787 Y-40.597
N4795 X-30.778 Y-40.514
N4800 X-30.783 Y-40.431
N4805 X-30.801 Y-40.349
N4810 X-30.833 Y-40.272
N4815 X-30.877 Y-40.201
N4820 X-30.933 Y-40.138
N4825 X-31.221 Y-39.864
N4830 X-32.1 Y-39.028 F#105
N4835 X-32.406 Y-38.737 F#103
N4840 G3 X-33.25 Y-39.081 I-0.345 J-0.362
N4845 G1 Y-39.997 F#100
N4850 G3 X-32.25 Y-40.999 I0.995 J-0.007
N4855 G1 X-32.161 Y-40.988 F#104
N4860 X-32.076 Y-40.962
N4865 X-31.998 Y-40.921
N4870 X-31.927 Y-40.866
N4875 X-31.868 Y-40.8
N4880 X-31.821 Y-40.725
N4885 X-31.788 Y-40.642
N4890 X-31.77 Y-40.555
N4895 X-31.768 Y-40.466
N4900 X-31.782 Y-40.378
N4905 X-31.812 Y-40.294
N4910 X-31.856 Y-40.216
N4915 X-31.912 Y-40.148
N4920 X-32.108 Y-39.951
N4925 X-32.396 Y-39.662 F#103
N4930 G3 X-33.25 Y-39.997 I-0.355 J-0.352
N4935 X-33.147 Y-40.791 I0.921 J-0.284 F#100
N4940 X-32.745 Y-41. I0.412 J0.301
N4945 G1 X-23.793
N4950 G3 X-17.179 Y-38.23 I-0.656 J10.848
N4955 X-16.75 Y-36.966 I-1.724 J1.289
N4960 G1 Y-35.243
N4965 G3 X-17.563 Y-34.87 I-0.5 J-0.017 F#104
N4970 G1 X-17.925 Y-35.161
N4975 X-23.811 Y-39.888 F#105
N4980 X-24.089 Y-40.11 F#103
N4985 G3 X-23.793 Y-41. I0.313 J-0.39
N4990 G1 X-20.776 F#100
N4995 G3 X-17.168 Y-39.656 I-0.049 J5.644
N5000 X-16.75 Y-38.379 I-1.917 J1.334
N5005 X-17.507 Y-37.967 I-0.5 J-0.017 F#104
N5010 G1 X-17.964 Y-38.241
N5015 X-20.769 Y-39.924 F#105
N5020 X-21.015 Y-40.072 F#103
N5025 G3 X-20.776 Y-41. I0.257 J-0.429
N5030 G1 X-18.452 F#100
N5035 G3 X-16.75 Y-39.291 I-0.005 J1.707
N5040 G1 X-16.761 Y-39.203 F#104
N5045 X-16.788 Y-39.118
N5050 X-16.829 Y-39.038
N5055 X-16.884 Y-38.968
N5060 X-16.95 Y-38.908
N5065 X-17.026 Y-38.861
N5070 X-17.109 Y-38.829
N5075 X-17.197 Y-38.812
N5080 X-17.286 Y-38.81
N5085 X-17.374 Y-38.824
N5090 X-17.458 Y-38.854
N5095 X-17.536 Y-38.899
N5100 X-17.604 Y-38.956
N5105 X-17.892 Y-39.246
N5110 X-18.499 Y-39.856 F#105
N5115 X-18.789 Y-40.148 F#103
N5120 G3 X-18.452 Y-41. I0.355 J-0.353
N5125 G1 X-17.598 F#100
N5130 G3 X-16.751 Y-40.168 I0.02 J0.826
N5135 G1 X-16.762 Y-40.081 F#104
N5140 X-16.787 Y-39.997
N5145 X-16.828 Y-39.918
N5150 X-16.881 Y-39.848
N5155 X-16.946 Y-39.789
N5160 X-17.021 Y-39.742
N5165 X-17.102 Y-39.708
N5170 X-17.189 Y-39.69
N5175 X-17.277 Y-39.687
N5180 X-17.364 Y-39.699
N5185 X-17.448 Y-39.727
N5190 X-17.525 Y-39.769
N5195 X-17.594 Y-39.824
N5200 X-17.637 Y-39.864
N5205 X-17.925 Y-40.138 F#103
N5210 G3 X-17.598 Y-41. I0.345 J-0.362
N5215 X-16.75 Y-40.489 I0.238 J0.564 F#100
N5220 G1 Y-36.966
N5225 G3 X-16.876 Y-36.652 I-0.5 J-0.017 F#104
N5230 G1 X-17.358 Y-36.11
N5235 X-17.416 Y-36.045 Z-19.992
N5240 X-17.472 Y-35.983 Z-19.97
N5245 X-17.524 Y-35.924 Z-19.933
N5250 X-17.572 Y-35.87 Z-19.883
N5255 X-17.613 Y-35.824 Z-19.821
N5260 X-17.646 Y-35.787 Z-19.75
N5265 X-17.67 Y-35.759 Z-19.671
N5270 X-17.685 Y-35.742 Z-19.587
N5275 X-17.69 Y-35.737 Z-19.5
N5280 G0 Z4.
N5290 M9
N5295 G53 Z0.
N5300 M30
%
